P3
100 100
255
144
139
134
147
143
137
143
138
132
139
133
128
137
131
126
137
130
123
140
129
118
148
129
110
154
126
106
161
130
110
173
142
123
184
157
136
192
169
146
196
174
151
199
176
154
197
175
152
192
172
149
189
168
145
184
163
141
180
159
136
180
158
135
178
155
132
175
152
129
163
143
120
156
137
118
154
142
127
153
146
136
154
148
142
155
150
144
156
151
145
156
152
146
154
149
143
153
148
142
152
147
141
150
145
140
150
145
139
149
144
138
149
144
138
148
143
137
146
141
135
143
138
132
140
135
130
138
134
128
137
132
126
136
131
126
135
130
124
132
127
121
124
119
113
104
99
93
115
111
102
114
110
102
116
112
106
118
113
104
119
115
105
120
116
107
121
115
109
119
114
108
119
114
108
122
117
112
144
139
135
154
150
147
159
154
152
162
158
154
164
159
154
165
160
154
167
162
156
169
165
159
175
168
159
184
174
163
189
179
165
192
178
159
188
171
151
175
154
132
150
129
107
142
117
97
140
115
95
138
113
93
136
111
93
134
110
95
128
107
92
123
101
86
116
94
79
106
84
69
98
80
65
179
172
165
192
192
190
193
193
191
190
190
188
189
189
187
189
189
187
189
189
187
188
188
187
191
190
189
193
191
190
197
192
192
199
194
194
199
194
193
200
195
192
200
196
192
202
197
191
156
151
145
161
156
150
156
149
143
152
143
138
149
140
135
148
140
132
151
138
126
156
137
117
164
132
112
170
138
117
184
152
131
198
169
147
204
183
158
210
188
164
212
190
166
210
188
164
206
184
160
201
179
156
196
174
151
191
169
146
190
167
143
187
163
139
184
160
136
178
155
132
170
148
125
166
151
130
164
154
139
166
157
149
164
159
153
166
161
155
165
160
154
165
160
154
162
157
151
161
156
150
160
155
149
158
153
147
156
151
145
155
150
144
153
148
142
151
146
140
147
142
136
142
137
131
138
133
127
136
131
125
137
132
126
139
134
128
138
133
127
129
124
118
107
102
96
120
115
109
121
116
110
124
119
113
127
122
116
128
123
117
127
122
116
128
119
114
127
120
114
121
116
110
121
116
113
155
150
147
165
160
157
168
163
160
171
166
163
174
169
166
176
171
165
178
173
167
182
177
171
192
183
170
205
190
177
206
190
175
205
187
164
194
174
150
178
156
132
156
132
109
152
127
105
150
125
103
148
123
101
147
123
103
145
122
106
137
118
101
132
111
95
127
104
88
116
93
77
111
93
78
191
183
174
202
202
199
203
203
201
202
202
200
201
201
199
202
202
200
202
202
200
202
202
200
204
202
201
207
201
201
208
202
202
209
203
202
209
204
201
210
205
202
211
206
202
213
208
202
159
155
149
164
159
153
159
153
148
154
147
141
153
144
137
152
143
134
153
141
128
158
140
119
165
133
112
170
138
117
186
154
133
202
173
151
207
183
159
209
186
162
210
188
164
209
187
163
208
186
162
204
184
160
198
179
155
192
173
149
189
167
144
185
162
138
183
159
135
179
155
132
174
151
127
168
151
129
166
153
137
164
156
145
165
158
150
166
160
153
165
160
154
164
159
153
162
157
151
160
155
149
158
153
147
155
150
145
153
148
143
146
141
136
128
123
119
108
103
100
94
89
86
81
77
74
70
67
64
67
64
61
67
64
61
78
75
72
101
98
94
116
113
108
101
96
91
119
114
110
121
116
112
125
120
115
127
122
116
127
122
116
124
119
113
127
118
111
116
109
102
123
118
112
149
144
141
160
155
152
166
161
158
168
163
160
171
166
162
173
168
163
176
171
165
180
175
168
187
180
169
204
192
174
209
194
177
205
188
171
204
183
159
189
166
142
172
148
124
158
132
110
155
129
107
152
127
105
152
127
105
151
127
107
148
125
109
145
123
107
140
118
102
132
109
93
125
102
86
119
101
85
190
182
172
204
200
198
203
201
200
203
203
201
202
202
200
203
202
201
204
201
200
204
201
200
205
201
200
206
200
200
206
201
199
208
202
200
208
203
200
209
204
201
211
206
203
212
207
203
161
157
151
167
162
156
163
158
152
156
150
144
157
148
139
156
147
138
157
145
132
162
143
123
165
133
113
170
138
117
185
153
132
196
167
145
198
173
150
202
178
154
203
180
156
203
181
157
203
181
157
201
181
157
197
179
155
193
175
151
189
169
145
184
162
139
181
157
133
177
153
129
176
152
128
169
151
128
168
150
132
166
154
139
166
157
148
166
159
152
164
159
153
163
158
152
162
157
151
159
154
148
155
150
144
151
146
142
138
133
130
93
88
85
58
52
51
48
42
42
46
40
40
43
40
40
41
41
41
40
40
40
41
41
41
42
42
42
44
44
42
50
47
45
67
63
60
97
92
90
118
113
110
125
120
117
121
116
110
122
117
111
119
114
108
110
101
93
135
129
121
153
148
142
159
154
151
164
159
156
168
163
160
170
165
162
174
169
165
176
171
165
180
175
168
185
178
169
201
188
172
210
195
176
207
191
171
204
186
163
199
176
152
185
161
137
169
145
121
161
135
113
159
133
112
158
133
111
160
135
113
158
134
114
155
132
116
151
128
112
145
122
106
136
113
97
127
104
88
114
96
80
188
181
170
204
198
198
205
202
201
207
207
205
206
206
204
206
204
203
207
201
201
206
200
200
205
199
199
206
200
200
207
201
199
208
203
200
209
204
201
210
205
202
212
207
204
214
209
206
164
160
154
169
164
158
164
159
153
158
153
147
160
151
142
160
151
141
161
151
137
165
146
126
166
134
113
169
137
116
180
148
127
188
160
137
192
166
143
195
169
146
197
172
149
198
174
150
196
174
150
192
175
150
192
174
150
189
171
147
187
167
143
184
162
139
181
155
132
178
153
130
175
149
126
172
147
125
169
148
126
166
151
133
166
155
141
164
158
149
162
157
151
162
157
151
159
154
148
156
151
145
149
144
141
131
125
124
81
75
75
50
44
44
44
38
38
39
33
33
34
33
33
33
33
33
34
34
34
36
36
36
38
38
38
39
39
39
42
42
42
45
45
45
47
47
47
47
47
47
54
54
52
82
82
80
106
101
98
108
102
98
109
99
94
143
134
125
155
148
140
159
154
148
163
158
152
167
162
158
169
164
161
172
167
162
175
170
164
178
173
167
184
177
166
196
184
168
207
190
168
211
189
166
208
185
162
207
183
159
194
170
146
181
156
133
175
149
126
172
146
123
172
146
124
172
147
125
171
146
124
168
143
124
162
139
123
156
133
117
148
125
109
136
113
97
119
96
80
110
93
76
193
185
178
204
198
198
206
200
200
209
204
203
207
201
201
207
201
201
205
199
199
205
199
197
205
200
197
206
201
198
207
202
199
209
204
201
210
205
202
212
207
204
215
210
208
216
210
210
164
159
154
169
164
158
165
160
154
161
155
149
164
155
146
164
154
145
164
153
140
167
148
128
165
134
113
167
135
114
177
145
124
186
156
135
189
161
139
192
166
143
194
168
145
193
169
145
191
168
144
187
168
143
186
168
143
185
166
142
184
163
139
182
159
136
180
154
131
175
149
126
173
147
124
171
146
124
169
147
125
166
149
129
166
153
138
164
155
145
160
155
147
157
152
146
152
147
141
128
123
118
93
88
85
59
54
52
45
39
39
41
35
35
35
29
29
34
28
28
30
30
29
31
31
31
35
35
34
36
36
36
39
39
39
39
39
39
39
39
39
40
40
40
40
40
40
41
41
41
42
42
42
45
45
43
49
46
44
78
73
69
138
129
124
152
145
135
159
153
144
162
157
151
165
160
154
169
164
159
170
165
161
172
167
161
176
171
164
181
175
167
193
181
166
205
189
169
205
186
163
208
186
162
211
187
164
206
182
158
196
172
148
193
169
145
190
164
141
186
161
137
185
160
138
182
158
135
176
152
132
172
148
130
166
143
127
159
136
120
147
124
108
131
108
92
114
91
75
116
99
84
199
191
184
204
198
198
208
202
202
209
203
203
207
201
200
207
201
200
207
201
200
207
201
198
207
202
198
209
204
200
210
205
202
212
207
203
213
208
205
215
209
207
216
211
209
217
211
211
164
160
154
169
164
158
163
158
152
162
157
151
167
158
148
166
158
148
169
157
144
170
151
131
166
134
114
166
134
113
174
142
121
184
152
131
188
156
135
187
161
138
188
162
139
187
162
139
186
162
138
185
161
138
184
161
137
182
159
135
182
159
135
181
157
133
178
152
129
174
148
125
171
145
122
171
145
122
169
145
122
169
148
125
169
153
137
166
155
141
149
143
131
121
116
110
89
84
80
56
51
48
46
40
40
42
36
36
36
30
30
30
24
24
27
21
21
28
23
23
29
29
27
33
33
31
35
35
33
36
36
36
36
36
36
35
35
35
35
35
35
34
34
34
35
35
35
35
35
35
36
36
36
39
39
39
41
41
41
42
41
41
57
55
53
123
119
110
156
151
144
162
157
151
165
160
154
168
163
157
171
166
160
174
169
163
179
173
165
185
177
166
200
187
169
206
187
164
205
183
159
213
189
165
213
189
165
208
184
160
205
181
157
201
177
153
198
174
150
194
170
146
185
162
138
176
154
131
171
148
131
167
144
128
163
140
124
152
129
113
139
115
99
127
101
86
114
90
74
130
113
102
198
190
183
203
197
197
207
201
201
208
202
202
206
201
198
206
201
198
206
201
198
207
202
196
208
203
197
209
204
198
211
206
200
212
207
202
213
208
205
214
208
207
214
208
208
214
208
208
164
159
153
168
163
157
161
156
150
164
159
153
168
162
155
169
161
153
171
162
148
173
152
133
166
134
114
165
133
112
170
138
117
177
145
124
181
149
128
183
153
131
180
153
130
178
152
129
176
151
128
176
150
127
176
150
127
176
152
128
178
153
130
176
152
128
174
148
125
174
145
123
172
142
120
171
141
119
170
144
121
171
148
124
171
151
135
171
154
138
120
111
95
63
58
52
60
54
51
45
40
39
42
36
36
36
30
30
30
24
24
27
21
21
26
20
20
29
23
23
29
29
27
33
33
31
34
34
32
34
34
33
33
33
32
31
31
31
30
30
30
31
32
31
30
31
31
30
32
31
31
32
32
33
33
33
34
34
34
34
34
34
35
35
35
45
40
38
98
94
90
155
150
146
164
159
153
168
163
155
171
167
158
177
170
161
183
175
163
193
184
166
203
187
165
203
184
160
207
185
161
215
191
166
214
190
165
210
186
161
207
183
159
201
177
153
195
172
148
186
163
139
180
157
134
175
153
131
173
150
133
168
144
128
162
137
121
149
125
109
138
112
97
126
100
85
113
92
77
141
126
114
196
190
182
201
195
195
206
201
201
205
203
201
206
201
200
207
202
200
206
201
198
208
203
199
210
205
201
210
205
201
210
204
202
210
204
203
210
204
204
210
204
204
211
206
205
213
208
206
164
160
154
167
162
156
160
155
149
166
161
155
168
163
157
170
163
154
170
162
148
172
150
131
164
132
111
162
130
109
166
134
113
170
138
117
174
142
121
175
143
122
173
141
120
170
139
117
169
138
117
168
140
118
168
142
119
170
146
122
172
148
124
172
148
124
172
146
123
172
142
120
171
139
118
171
139
118
171
143
120
173
149
125
176
153
137
181
161
142
154
140
118
68
63
57
61
56
53
44
38
38
39
33
33
34
28
28
27
21
21
25
19
19
28
22
22
31
25
25
31
31
29
33
33
31
34
34
32
32
32
30
31
31
30
29
29
29
29
29
29
29
30
30
29
31
30
30
32
31
30
31
30
30
30
30
30
30
30
30
30
30
33
33
33
40
34
34
43
37
36
78
74
71
150
145
139
165
160
152
171
166
156
179
171
160
192
181
166
202
189
165
205
187
163
206
186
162
213
191
167
216
192
166
211
187
161
201
177
151
197
173
149
192
169
145
188
167
143
184
162
138
182
160
138
178
156
135
170
147
131
161
137
121
154
128
113
144
118
103
134
108
93
125
99
84
115
95
80
153
139
128
194
189
181
201
195
194
206
202
201
205
205
203
210
205
204
210
205
204
210
205
202
210
205
202
209
204
201
208
203
200
208
202
201
207
201
201
208
202
202
210
204
204
211
205
204
212
207
204
164
159
153
163
158
152
162
157
151
167
162
156
168
163
157
169
162
154
172
159
147
172
149
130
160
130
109
159
127
106
162
130
109
165
133
112
168
136
115
172
135
116
172
135
116
169
132
113
165
133
112
165
133
112
165
133
112
164
140
116
167
141
118
168
142
119
169
143
120
169
140
118
170
138
117
170
138
115
170
141
118
173
147
124
180
156
132
190
166
142
194
170
146
118
102
87
66
62
57
45
40
37
39
33
33
31
25
25
30
24
24
29
23
23
33
27
27
37
31
31
39
33
33
39
33
33
38
32
32
34
29
28
31
28
28
28
28
28
27
27
27
30
30
30
30
30
30
30
30
30
31
31
31
30
30
30
30
30
30
31
31
31
32
32
32
34
34
34
37
34
34
42
36
36
68
60
59
151
142
135
173
164
150
187
176
158
204
186
164
207
185
162
208
186
162
212
190
166
214
192
168
210
186
161
197
173
148
195
171
147
194
172
149
191
171
148
186
168
144
186
165
142
182
160
140
168
145
129
155
130
115
148
122
107
142
116
101
135
109
94
131
105
90
125
99
84
116
96
81
163
152
143
190
189
185
200
195
194
207
201
201
209
203
203
210
204
204
210
204
204
208
202
202
206
200
200
204
200
199
202
202
200
207
202
201
208
202
202
208
202
202
209
203
203
211
205
204
212
207
204
159
154
148
159
154
148
162
157
151
167
162
156
168
163
157
168
161
153
168
154
142
169
146
127
157
129
108
156
125
104
159
129
108
164
132
112
167
134
114
170
135
115
170
135
115
169
134
115
167
135
114
165
133
113
164
132
111
164
134
113
165
136
115
165
137
115
166
138
115
167
137
115
169
137
115
169
137
115
168
140
117
172
146
122
180
156
132
192
167
143
205
181
157
167
147
126
81
71
62
47
40
38
40
33
31
35
28
25
34
27
25
36
30
27
41
36
33
45
41
38
44
38
38
42
37
36
38
32
31
33
27
27
30
26
26
29
27
27
31
29
29
33
31
31
33
31
31
33
31
30
33
31
31
33
31
31
34
31
31
35
33
33
36
34
34
37
35
35
38
34
34
42
36
36
51
43
41
87
77
66
165
154
134
201
182
160
207
185
161
207
184
160
210
188
164
214
191
167
206
184
160
194
170
145
195
171
147
195
172
148
190
168
145
185
164
141
178
158
137
174
151
131
161
137
119
150
126
111
146
120
105
143
117
102
139
113
98
133
107
92
129
103
88
124
98
83
117
97
82
169
160
152
193
191
187
203
198
197
209
203
203
209
203
203
209
203
203
207
201
201
206
200
200
206
200
200
204
200
199
203
201
200
207
202
202
209
203
203
211
205
204
211
206
204
212
207
205
213
208
206
154
150
144
155
150
144
161
156
150
165
160
154
166
161
155
154
149
141
133
122
109
161
138
119
157
130
109
158
131
110
162
136
115
168
140
119
173
144
124
177
148
126
178
150
128
177
148
126
174
145
123
171
141
119
168
136
115
164
132
111
164
132
111
163
131
110
163
131
108
164
132
109
166
134
111
168
136
115
169
140
117
172
146
121
181
155
132
192
168
144
206
182
158
193
168
142
121
104
85
69
57
46
60
48
39
59
47
38
62
50
41
64
55
45
62
55
46
64
60
51
62
57
53
57
52
49
46
41
38
35
29
29
33
28
28
32
26
26
36
30
30
39
33
33
39
34
34
40
34
34
39
33
33
39
33
33
40
34
34
41
35
35
42
36
36
39
33
33
41
35
35
44
38
38
64
54
49
122
105
87
187
166
141
207
183
159
206
182
157
208
184
158
211
187
163
208
184
161
193
169
145
193
169
145
193
169
146
187
165
142
178
156
133
175
153
133
169
146
130
160
134
119
150
125
110
146
120
105
142
116
101
138
112
97
135
109
94
131
105
90
127
101
86
123
97
82
121
100
84
176
169
164
197
192
189
204
198
198
209
203
203
209
203
203
208
202
202
207
201
201
206
200
200
206
200
200
206
200
200
206
200
200
208
202
202
209
204
203
211
206
203
212
207
204
213
207
206
214
208
208
148
143
137
148
143
137
159
154
148
161
156
150
159
154
150
111
106
103
82
75
67
155
133
116
153
126
106
156
129
108
163
136
115
171
144
122
179
152
130
184
158
135
187
161
138
185
160
137
182
158
134
178
152
129
172
144
122
167
135
114
164
132
111
162
130
109
161
129
106
162
130
107
163
131
108
167
135
112
170
141
117
173
147
122
181
155
130
188
162
138
197
172
147
191
165
139
169
147
122
115
95
75
104
84
66
107
85
69
118
95
80
126
105
90
119
102
86
112
98
82
114
103
90
96
86
75
68
60
53
52
44
38
64
55
49
64
55
49
57
51
45
56
51
46
53
45
39
55
47
41
47
40
34
48
42
36
51
43
37
52
43
38
52
43
40
47
39
35
48
39
37
58
46
43
108
91
77
171
148
127
200
175
151
205
180
156
204
178
154
205
180
155
204
180
156
193
169
145
190
166
142
189
165
141
183
159
136
179
155
133
177
153
131
168
143
122
155
130
110
148
122
106
145
119
104
141
115
100
138
112
97
135
110
95
133
107
92
128
104
88
126
101
86
123
97
82
128
111
96
183
178
173
198
193
190
202
197
194
207
202
200
209
203
203
208
202
202
207
203
202
204
203
201
204
203
201
205
203
202
206
205
203
211
206
204
212
207
204
213
208
203
213
208
205
211
206
204
211
205
205
136
131
125
143
138
132
152
147
141
154
149
143
130
125
122
51
47
46
61
54
49
149
128
111
152
125
105
156
129
108
163
136
115
171
145
123
176
150
127
180
154
131
183
158
134
185
161
137
185
161
137
182
157
134
177
151
128
172
140
119
167
135
114
161
129
108
161
129
106
161
129
106
163
131
108
168
136
113
171
142
118
174
148
124
182
156
131
186
160
135
192
166
141
185
159
134
179
153
127
163
137
113
158
132
109
161
135
113
181
156
135
190
169
147
190
170
149
183
165
145
189
173
157
160
145
129
110
96
84
90
76
66
120
105
90
136
120
101
113
95
78
91
76
64
94
79
69
95
81
70
78
65
53
77
65
54
78
64
53
76
62
52
76
62
54
62
51
42
64
53
41
98
81
64
159
137
116
191
165
141
200
174
150
200
174
151
198
172
148
203
177
152
191
167
143
188
164
140
185
161
137
182
157
133
178
153
130
174
148
126
160
135
113
150
125
103
146
121
100
144
118
103
142
116
101
141
115
100
140
114
99
138
112
97
135
109
94
130
107
91
125
101
85
122
96
82
140
125
111
187
183
178
198
193
190
202
197
194
208
203
201
208
202
201
209
203
203
207
204
203
206
205
203
205
205
203
205
205
203
206
206
204
209
205
202
210
205
201
209
204
198
207
202
198
206
200
198
206
200
200
87
77
70
112
105
100
124
117
112
119
112
107
68
61
56
40
35
29
40
36
29
124
104
86
147
119
99
149
122
101
157
130
109
165
138
118
172
145
123
177
151
128
182
156
133
186
160
137
186
160
137
185
159
136
180
154
131
176
144
123
171
139
118
167
135
114
163
131
110
164
132
110
166
134
111
170
138
115
175
146
123
178
152
129
184
158
135
186
160
136
192
166
141
188
162
139
184
155
133
180
148
127
180
148
127
187
159
137
205
185
162
214
195
178
218
201
183
219
204
185
218
203
184
207
191
173
181
162
146
175
152
137
186
163
144
196
174
151
176
152
131
157
133
115
163
140
124
162
140
119
147
125
105
131
108
89
128
105
86
118
95
77
115
92
74
97
74
57
105
80
62
146
120
97
180
154
131
191
165
142
194
168
143
194
168
143
196
170
145
192
166
141
184
158
135
182
155
133
177
151
128
176
145
124
172
139
119
156
123
104
143
118
96
144
118
99
144
118
103
145
119
104
144
119
104
144
118
103
142
116
101
139
114
99
134
111
95
129
105
92
124
100
88
121
97
85
150
137
126
191
184
176
197
192
186
201
196
193
208
203
200
207
202
199
210
204
204
210
204
204
209
203
204
206
205
203
204
204
202
202
202
200
205
200
199
205
199
199
205
199
199
205
199
199
205
199
199
207
201
201
65
50
44
67
53
48
67
54
49
66
53
47
61
50
41
52
44
37
41
34
28
121
100
82
154
126
105
155
128
107
167
138
117
177
148
127
181
151
130
184
156
134
187
160
137
190
164
141
191
165
142
188
163
139
184
158
135
180
150
128
175
144
123
172
140
119
170
138
116
169
137
115
172
140
117
175
143
120
180
151
127
183
157
133
188
162
138
192
166
141
199
173
149
198
175
152
196
168
146
190
160
138
187
157
136
197
171
151
214
193
173
220
201
184
223
206
188
223
208
189
223
208
189
219
201
184
210
189
173
211
188
169
210
189
167
211
191
167
207
185
164
210
189
170
213
192
176
210
191
169
190
169
147
167
142
121
157
131
109
151
123
102
145
116
95
134
105
82
143
115
93
164
138
112
179
153
129
187
161
136
190
164
139
191
165
140
190
164
139
180
154
129
174
148
125
172
146
123
169
143
120
168
137
116
152
120
100
145
114
94
144
119
100
146
121
104
147
122
106
148
123
107
147
123
107
147
123
107
144
121
105
138
116
101
133
112
97
127
106
92
121
100
87
118
97
83
163
151
141
193
186
178
199
194
188
203
198
193
209
204
199
208
203
199
211
206
204
209
204
203
207
201
201
200
200
198
197
197
195
198
198
196
200
197
196
201
197
196
202
196
196
202
196
196
204
198
198
206
200
200
63
49
42
67
52
45
66
51
44
65
50
43
59
49
40
54
45
38
49
40
35
134
112
94
165
137
116
160
133
112
172
140
119
179
147
126
184
152
131
188
156
135
188
160
138
187
161
138
187
163
139
186
161
138
184
158
135
180
154
131
179
149
128
176
144
123
174
142
119
174
142
119
176
144
121
180
148
125
184
156
131
192
166
141
197
171
146
202
176
150
208
187
163
213
193
173
207
181
160
197
171
149
199
174
152
212
190
171
217
195
178
216
198
176
219
202
182
223
208
189
222
207
188
221
202
185
211
188
172
213
191
168
215
195
171
215
197
173
215
196
179
219
200
183
221
202
185
218
202
184
209
191
170
191
169
146
170
145
122
163
134
112
157
125
104
154
122
101
159
130
108
165
139
116
176
150
125
183
157
132
187
161
136
190
164
139
179
153
128
173
147
122
169
143
120
169
143
120
164
138
115
151
120
99
147
117
96
148
121
100
150
124
109
150
125
110
149
126
110
150
127
111
151
128
112
151
128
112
145
126
109
139
120
105
135
116
102
127
108
94
119
100
85
117
98
83
177
166
157
195
189
180
200
195
189
204
199
193
208
203
197
208
203
197
207
202
199
204
199
197
201
195
196
197
196
194
197
197
195
197
197
195
198
198
196
199
198
196
203
197
197
204
198
198
205
199
199
207
201
201
63
48
42
66
51
44
65
50
45
64
49
45
58
47
42
51
41
36
35
30
24
126
111
95
176
150
127
168
140
119
172
140
119
177
145
124
181
150
129
181
154
131
184
157
135
184
158
135
184
159
136
183
157
134
181
155
132
181
155
132
180
153
130
178
151
128
178
151
127
178
151
126
179
152
127
185
158
133
192
166
141
203
178
153
210
185
161
213
191
165
214
199
175
217
201
181
210
187
164
205
179
156
213
191
168
219
198
177
214
192
169
210
186
162
214
192
170
223
202
182
222
204
181
220
201
178
205
183
160
208
185
161
216
194
170
219
198
175
217
199
176
218
200
180
218
199
182
217
199
181
215
196
178
206
186
168
183
159
137
166
140
118
161
133
111
165
133
112
166
137
115
171
145
122
177
151
126
181
155
130
189
163
138
183
157
132
174
148
124
170
144
121
171
145
122
169
141
119
155
124
103
151
123
102
151
124
103
151
126
104
151
127
111
150
128
112
151
131
114
154
131
115
153
132
115
151
131
114
146
127
110
140
121
104
132
113
97
124
105
89
120
100
84
124
111
96
183
177
170
196
191
184
200
195
189
203
198
192
207
202
197
207
202
199
206
201
198
204
198
197
201
195
195
200
195
195
200
196
195
202
197
197
202
197
197
202
197
197
205
199
199
206
200
200
207
201
201
208
202
202
59
46
39
64
49
42
63
48
43
60
45
42
54
43
39
37
29
26
14
12
9
97
83
72
182
157
135
181
153
132
173
141
120
175
143
122
179
147
126
180
153
130
181
155
132
182
156
133
184
158
135
183
157
134
182
155
132
181
155
131
182
155
132
182
155
132
182
156
133
183
157
133
187
161
136
195
169
144
206
180
155
214
187
162
215
192
167
215
194
169
214
198
174
217
200
179
212
189
166
215
189
166
222
201
179
222
201
180
214
191
167
208
181
158
208
183
160
218
196
172
220
196
173
214
190
167
196
168
146
200
175
152
213
190
167
219
197
174
217
198
174
213
194
173
209
190
171
210
190
172
211
191
173
209
190
172
205
181
160
186
162
140
172
146
123
179
148
127
181
152
130
180
154
131
181
155
131
188
162
137
189
163
138
178
152
127
175
149
125
172
146
123
179
153
130
160
132
110
159
128
107
155
128
107
153
127
106
155
130
108
154
131
114
154
133
117
153
134
117
154
131
115
152
131
114
147
128
111
143
123
106
137
117
100
132
113
96
125
105
88
121
99
83
143
132
117
186
181
174
194
189
183
198
193
187
202
197
191
205
200
195
205
200
197
205
200
197
204
198
197
204
198
198
203
197
197
203
197
197
204
198
198
206
200
200
208
202
202
208
202
202
208
202
202
207
202
201
205
200
199
58
47
43
63
49
41
62
47
43
61
46
43
54
41
38
31
24
21
17
12
11
81
69
57
182
158
135
190
164
141
183
151
130
180
148
127
183
151
130
187
155
134
187
159
137
187
161
138
187
161
138
189
159
136
190
158
135
188
156
133
189
157
134
190
158
135
188
162
137
190
164
139
195
169
144
205
179
154
212
187
162
217
191
166
217
193
167
216
193
168
215
192
168
219
194
172
216
189
168
219
197
174
225
206
189
222
202
183
214
189
166
205
173
150
204
175
152
214
188
165
214
188
162
203
174
150
187
155
132
197
171
148
209
184
161
218
194
170
219
195
171
214
189
165
201
176
153
200
175
151
206
183
160
214
192
170
213
194
176
201
181
161
192
167
145
196
170
147
199
173
150
196
170
147
194
168
145
201
175
151
185
159
134
179
153
128
182
156
132
184
160
136
174
150
126
163
138
114
161
135
112
158
133
110
157
132
110
159
134
112
158
134
118
158
135
119
158
135
119
157
134
118
155
132
116
151
128
112
145
122
106
139
118
101
131
112
95
128
106
90
124
102
87
158
150
138
184
180
173
191
186
180
196
191
185
200
195
189
205
200
195
205
200
197
206
201
198
205
200
198
205
199
199
204
198
198
206
200
200
208
202
202
209
203
201
208
203
200
206
201
198
204
199
196
202
197
194
201
196
193
56
45
41
61
48
43
61
48
43
58
44
41
44
33
30
21
14
13
16
10
9
104
89
75
185
160
136
199
173
150
194
165
143
186
155
134
184
152
131
184
152
131
184
154
132
184
155
133
186
157
134
188
157
134
189
157
134
192
160
137
194
162
138
196
165
139
195
169
144
199
173
148
203
178
153
210
185
159
215
190
164
217
192
167
217
192
166
214
188
164
211
185
161
214
188
166
217
192
170
222
204
182
227
209
193
221
202
184
210
185
162
201
173
150
201
174
151
209
183
160
208
179
155
192
161
138
179
148
124
195
169
146
207
182
158
213
189
165
216
192
168
212
187
163
197
169
147
193
162
140
202
175
152
216
195
172
219
200
183
212
192
172
206
183
160
208
183
159
212
187
163
209
184
161
211
187
164
200
175
152
185
161
134
187
162
137
191
166
142
184
160
136
174
150
126
170
146
122
167
141
118
165
140
118
166
141
119
166
142
120
165
142
122
164
141
123
163
140
124
160
137
121
157
134
118
152
129
113
147
124
108
140
118
102
133
112
96
130
109
92
130
112
99
172
165
157
186
181
175
192
187
181
197
192
186
201
196
190
204
199
194
205
200
197
208
203
200
207
202
200
207
201
201
207
201
201
206
200
200
205
199
199
203
198
196
203
198
195
201
196
193
200
195
191
199
194
190
200
195
192
55
45
41
59
48
44
58
47
43
54
43
39
41
30
28
17
10
11
17
10
9
139
121
104
189
164
139
203
179
155
206
180
157
199
170
148
192
160
139
188
156
135
188
156
135
188
156
135
188
156
133
190
158
135
192
160
137
195
163
140
199
167
141
202
171
143
203
177
152
207
181
156
212
186
161
217
193
167
220
196
170
217
193
167
214
188
163
207
181
156
204
178
153
208
182
159
218
196
172
223
208
187
225
209
194
217
198
181
207
182
159
201
175
152
204
178
155
210
184
161
207
176
152
193
160
138
178
148
125
195
169
146
204
179
155
213
189
165
214
190
166
211
188
164
197
169
147
189
157
134
196
168
145
213
194
170
221
202
184
218
198
178
210
188
165
210
186
162
212
189
166
214
194
170
215
193
170
202
180
158
194
174
148
203
180
155
187
163
139
182
158
134
177
153
129
176
151
127
174
148
125
175
149
127
174
151
128
172
150
127
170
148
125
167
145
124
163
140
124
158
135
119
153
130
114
148
125
109
142
119
103
136
113
97
132
109
93
126
107
90
142
128
115
182
173
167
188
182
177
194
189
183
198
193
187
201
196
190
205
200
195
206
201
198
209
204
201
207
202
200
205
199
199
202
196
196
200
194
194
201
195
195
201
196
193
201
196
193
201
196
193
202
197
191
201
196
191
201
196
193
53
42
38
56
45
41
53
43
39
49
40
35
34
28
24
11
10
9
28
21
15
161
137
117
193
168
144
208
182
159
213
187
162
213
186
162
204
177
153
195
163
140
193
161
138
191
159
136
190
158
135
191
159
136
194
162
139
196
164
141
200
169
143
204
173
145
206
180
155
214
189
164
220
196
172
220
201
177
222
203
179
217
194
168
211
180
157
201
170
147
199
168
145
206
179
155
219
199
178
223
208
189
223
207
189
215
194
171
207
183
159
203
179
155
208
183
159
208
184
160
204
177
154
195
168
145
183
157
134
198
172
149
202
177
154
213
189
165
215
190
166
214
191
167
201
176
153
189
157
134
194
166
143
212
192
169
220
201
184
220
199
180
211
189
166
209
184
162
211
189
169
217
198
180
215
199
180
212
195
176
214
195
177
196
174
150
185
159
135
183
157
132
180
155
130
181
155
130
181
155
130
181
158
135
181
159
136
179
157
134
177
154
137
173
151
134
167
147
130
161
141
124
156
135
119
150
127
111
140
114
99
132
108
92
128
105
89
124
105
85
155
145
133
186
180
174
191
186
180
196
191
185
200
195
189
203
198
194
205
200
197
205
200
197
204
199
196
202
197
194
200
194
192
200
194
192
199
194
192
199
194
191
200
195
192
200
195
192
201
196
193
201
196
193
202
197
193
202
197
194
53
43
39
57
46
42
53
44
39
48
39
34
34
29
25
10
9
8
55
46
38
182
157
136
203
178
154
212
186
163
214
187
161
212
185
160
210
183
158
204
174
150
198
167
144
197
165
141
194
162
138
194
163
139
197
165
141
199
169
144
202
172
145
205
175
147
207
181
156
216
191
166
223
200
176
224
206
183
224
206
183
217
195
169
203
172
148
195
163
139
196
164
140
207
180
155
218
199
178
221
205
187
219
203
179
212
190
165
209
185
161
208
184
161
212
189
165
207
183
160
203
177
154
199
174
151
188
163
140
200
173
151
207
183
160
216
194
171
216
195
171
217
197
173
209
186
162
195
165
142
196
168
146
209
189
165
217
198
181
219
199
179
210
188
165
205
180
158
215
193
172
216
198
179
219
204
185
222
206
187
212
194
176
196
176
152
190
164
140
188
162
138
186
160
135
183
157
132
183
157
132
184
162
138
185
163
140
184
162
139
182
159
141
176
155
138
170
151
134
163
143
127
156
135
119
149
126
110
140
114
99
133
108
92
127
104
88
124
104
85
171
162
151
190
185
179
194
189
184
197
192
187
199
194
189
200
195
191
200
195
192
204
199
196
202
197
193
200
195
191
199
194
190
198
193
189
198
193
190
199
194
190
199
194
191
200
195
192
201
196
193
201
196
193
202
197
194
202
197
194
52
44
39
55
46
41
52
43
38
46
37
33
36
30
28
29
28
24
94
79
69
198
174
150
212
187
162
215
188
163
217
186
158
216
184
159
213
181
158
206
180
155
202
172
148
200
168
145
197
166
138
198
167
139
200
169
141
200
175
145
202
177
147
205
180
150
209
183
158
216
191
165
223
199
176
226
207
190
225
207
188
218
198
173
199
170
141
193
161
134
195
164
136
209
182
157
219
196
177
221
199
182
218
195
171
211
186
163
211
185
162
213
190
167
214
193
170
209
184
162
205
180
158
205
182
161
189
164
141
201
178
155
209
190
169
217
198
181
218
200
179
218
200
177
211
192
169
202
178
156
201
176
154
211
187
165
215
195
178
214
196
175
209
187
164
202
178
154
210
189
166
214
196
174
221
208
189
224
211
191
219
207
185
212
197
176
204
183
159
195
171
147
192
166
141
188
163
138
185
161
137
188
164
140
188
164
141
186
164
141
184
162
139
179
158
138
171
152
135
166
143
127
156
132
116
143
117
102
134
108
93
130
104
89
128
102
87
128
107
91
181
174
165
189
184
178
191
186
183
193
188
185
194
189
186
197
192
189
199
194
189
202
197
191
201
196
190
200
195
189
199
194
188
198
193
187
198
193
187
199
194
188
200
195
189
201
196
191
202
197
194
203
197
196
204
198
197
204
199
196
53
44
39
54
45
40
50
41
36
43
34
30
23
18
16
12
10
6
128
111
96
210
186
162
215
191
166
217
190
165
219
188
163
217
185
161
214
183
160
210
184
159
209
182
157
207
179
154
207
180
154
207
180
155
208
181
155
208
185
158
210
187
160
212
189
162
216
192
168
221
198
173
225
202
179
225
207
186
226
207
185
220
198
175
197
169
143
190
158
132
196
165
137
209
183
158
216
190
169
218
192
172
215
185
164
209
181
159
211
186
163
215
195
175
217
197
178
211
190
171
209
189
169
210
189
169
187
163
140
204
187
164
213
198
179
218
202
184
220
202
186
219
201
184
213
194
174
205
184
164
202
179
158
208
183
161
209
188
168
209
190
167
205
181
158
196
168
145
204
179
155
211
191
168
221
207
190
226
215
199
227
218
201
224
213
194
215
197
173
203
179
155
197
172
148
189
164
140
186
161
138
186
161
137
186
161
138
185
161
138
184
161
137
181
159
136
173
152
132
165
141
125
153
127
112
141
115
100
133
107
92
128
102
87
128
102
87
137
119
106
180
173
164
185
180
174
189
184
181
192
187
184
194
189
186
196
191
187
197
192
187
204
199
193
201
196
190
201
196
190
201
196
190
200
195
189
200
195
189
200
195
189
201
196
190
202
197
192
202
197
194
200
194
192
198
192
190
195
190
187
51
43
38
54
45
40
48
39
34
42
33
28
23
17
17
14
11
8
154
136
118
218
194
170
219
195
170
218
190
166
220
188
165
219
187
164
218
186
163
216
190
165
219
193
168
220
194
169
219
195
171
220
196
172
221
197
173
220
198
174
221
199
175
221
199
175
221
199
175
224
202
179
226
204
181
225
207
183
226
206
182
220
198
174
199
172
147
186
154
129
193
162
134
203
177
152
210
184
160
210
184
161
209
177
156
205
175
153
211
187
163
218
199
182
221
202
185
218
199
182
217
198
181
215
195
176
196
171
148
211
199
181
213
203
188
216
205
190
218
203
187
220
202
187
211
192
175
208
189
172
195
174
154
199
174
152
196
174
151
198
177
153
192
167
144
186
154
131
194
165
140
205
183
159
218
204
187
226
216
201
229
220
205
225
215
196
220
202
178
212
188
164
201
177
153
192
167
144
188
162
139
185
159
136
183
157
134
182
156
133
181
157
133
178
155
131
169
147
124
160
135
119
148
122
107
140
114
99
131
105
90
129
103
88
126
100
85
153
137
126
181
174
165
185
180
174
189
184
181
192
187
184
195
190
187
196
191
186
198
193
187
203
198
192
201
196
190
202
197
191
203
198
192
202
197
191
201
196
190
200
195
189
199
194
188
197
192
187
196
191
188
195
190
187
194
189
186
193
188
185
52
44
39
53
44
39
46
37
32
41
32
27
22
17
14
19
16
12
163
144
126
220
197
173
221
198
174
220
196
172
220
195
169
221
196
170
222
197
172
223
199
172
224
201
176
224
202
178
221
203
179
221
203
179
221
202
178
218
200
176
218
199
175
218
199
175
220
198
174
220
197
173
221
196
173
225
201
177
226
204
180
219
197
173
202
175
150
184
153
129
189
157
133
199
168
145
204
173
151
206
175
154
201
169
148
202
172
151
210
187
165
219
203
184
224
208
192
224
207
192
223
207
189
220
203
185
213
194
176
221
211
197
220
215
205
216
205
191
218
204
190
218
204
186
210
196
179
210
199
185
179
155
135
175
150
128
168
143
122
172
150
130
168
145
128
170
138
115
180
150
127
197
172
148
213
198
176
223
213
196
226
217
202
224
213
198
223
206
185
215
190
168
206
181
156
198
172
147
192
166
141
185
159
134
183
157
132
180
154
129
179
155
131
175
151
128
163
139
116
157
131
115
148
122
107
138
112
97
132
106
91
128
103
87
126
103
87
159
146
134
183
175
167
187
182
176
191
186
180
193
188
182
196
191
185
199
194
188
200
195
189
204
199
193
202
197
191
203
198
192
201
196
190
198
193
187
195
190
184
195
190
184
194
189
183
193
188
182
193
188
182
193
188
184
192
187
184
191
186
183
54
45
41
54
45
40
46
37
33
39
30
27
25
20
17
45
39
33
183
160
139
219
196
172
221
198
173
223
199
175
222
201
175
223
203
176
224
204
178
228
205
182
227
205
183
225
204
183
221
202
178
218
199
175
215
196
172
208
188
164
199
176
153
191
165
143
188
162
139
189
161
138
193
165
141
202
176
152
216
192
169
214
191
168
201
175
151
185
154
131
183
151
129
189
159
136
195
164
143
199
168
147
197
166
145
202
174
152
210
189
167
222
207
189
227
212
196
228
213
197
228
212
194
226
209
191
224
205
188
221
211
196
227
223
215
211
204
196
220
207
199
216
205
198
217
209
205
209
199
187
153
129
110
142
118
97
135
110
94
141
117
101
143
119
103
153
121
104
165
135
115
185
160
137
207
190
165
219
207
187
221
211
195
222
209
194
221
203
182
214
189
167
207
181
157
203
177
152
197
171
146
188
162
137
184
158
133
183
157
133
183
159
135
169
144
121
163
138
116
156
131
115
145
119
104
134
108
93
130
105
90
130
105
90
130
107
91
159
146
134
184
177
169
187
182
176
192
187
181
194
189
183
197
192
186
199
194
188
201
196
190
204
199
193
200
195
190
198
193
188
196
191
186
194
189
184
194
189
183
193
188
182
193
188
182
192
187
181
191
186
180
190
185
181
189
184
180
189
183
180
54
46
41
53
44
39
45
35
32
34
24
23
21
16
13
46
38
32
172
148
127
210
184
159
213
188
163
214
191
167
219
197
173
222
203
179
224
206
182
223
205
181
223
205
181
222
204
180
220
198
174
211
188
164
198
175
151
178
153
130
153
124
102
130
98
77
116
89
68
111
84
64
112
85
67
120
93
74
145
120
100
188
163
141
194
168
145
184
155
133
180
148
127
184
157
136
190
163
142
196
169
148
198
172
149
204
180
156
211
191
169
223
207
192
229
215
199
229
216
199
229
213
195
227
210
192
226
207
190
222
208
192
230
225
218
236
236
236
237
237
239
238
237
238
234
235
232
204
196
184
123
99
82
117
94
78
118
95
79
123
99
83
128
102
87
135
107
93
149
122
104
171
144
123
196
173
150
210
192
171
217
200
182
222
203
186
218
197
177
212
188
164
210
184
159
208
182
157
203
177
152
194
168
143
188
162
138
186
160
137
182
158
134
168
144
121
162
137
115
150
124
109
138
112
97
132
106
91
130
107
91
131
108
92
129
106
90
154
141
129
186
179
170
190
185
179
192
187
181
194
189
183
194
189
183
195
190
184
196
191
185
200
195
189
199
194
191
197
192
189
195
190
187
194
189
186
192
187
183
191
186
180
191
186
180
190
185
179
189
184
178
190
185
179
190
185
179
172
167
161
56
46
42
53
42
38
44
34
32
32
22
21
20
15
14
41
34
30
138
117
97
193
167
142
204
179
154
210
185
160
215
194
168
222
200
175
225
204
180
225
205
181
225
205
181
223
203
179
217
195
171
201
173
151
176
146
125
151
119
99
123
93
73
106
77
59
93
68
54
83
60
47
79
57
45
78
56
45
79
57
44
106
84
67
165
140
118
179
149
127
181
149
128
189
162
141
196
170
151
203
178
161
206
184
161
209
185
162
213
193
172
225
210
195
231
217
202
231
218
203
229
214
196
227
210
190
226
207
190
225
209
193
227
220
212
239
241
243
239
239
239
232
231
229
223
219
211
192
177
164
109
85
68
109
86
70
111
88
74
117
93
79
120
95
82
123
97
85
132
106
91
150
124
104
167
144
126
185
164
146
193
171
155
194
173
157
188
166
146
192
167
145
202
173
149
206
178
154
204
178
153
200
175
150
194
169
145
191
166
143
181
156
134
170
145
123
162
137
115
146
120
104
135
109
94
135
109
94
133
110
94
132
110
94
131
110
93
147
134
121
182
175
166
184
179
173
186
181
175
187
182
176
188
183
177
191
186
180
193
188
182
198
193
187
196
191
188
195
190
187
193
188
185
192
187
184
191
186
182
190
185
179
190
185
179
191
186
181
191
186
182
170
163
160
117
111
107
57
52
49
57
46
42
52
41
37
44
33
31
32
22
21
26
20
20
39
33
32
110
91
75
178
152
127
194
168
143
205
179
154
214
189
164
220
195
171
224
200
176
223
201
177
223
201
178
223
201
178
217
195
171
191
162
141
157
125
104
131
98
79
104
77
58
88
65
51
78
56
48
71
50
43
65
45
38
63
43
36
64
46
39
71
54
42
105
83
67
161
131
111
183
151
130
197
170
149
206
183
164
213
193
176
214
194
171
214
190
167
217
197
175
226
213
197
231
218
203
231
217
203
227
212
194
227
210
190
227
208
191
224
208
192
219
213
196
232
233
234
230
229
229
210
198
187
207
189
169
182
163
143
106
81
67
108
85
69
110
87
74
116
92
80
118
95
83
119
95
83
122
97
84
128
102
88
135
111
96
139
116
100
142
119
104
146
123
107
154
130
111
168
143
121
184
153
130
195
165
142
202
176
151
202
178
154
198
174
150
193
169
144
184
159
137
176
151
129
167
142
120
149
123
107
141
115
100
139
113
98
136
113
97
135
114
97
134
115
98
143
131
116
177
170
160
181
176
170
184
179
173
186
181
175
187
182
176
191
186
180
193
188
182
197
192
186
194
189
185
195
190
187
195
190
187
194
189
186
194
189
185
194
189
183
185
180
174
140
136
131
94
90
88
55
46
45
51
42
41
43
37
37
59
45
42
52
41
37
44
34
31
31
21
20
25
20
17
37
32
26
92
79
67
174
148
122
193
165
136
203
172
144
209
178
150
213
185
159
216
190
165
221
195
172
222
197
174
222
199
175
216
193
169
186
157
136
144
112
91
109
82
63
92
69
55
82
64
54
70
54
48
60
45
40
53
39
36
52
37
34
52
39
36
54
43
38
66
52
41
120
95
78
175
147
124
204
185
161
214
199
182
221
207
193
219
204
183
217
195
171
219
199
178
224
215
200
227
218
203
227
218
203
228
209
192
224
205
186
222
203
186
222
206
187
221
210
192
228
222
218
220
216
208
191
171
149
184
158
135
170
147
128
103
82
68
109
85
73
111
90
79
112
92
81
113
93
82
112
92
81
110
90
79
106
86
75
102
83
70
93
75
63
88
71
60
93
76
63
117
97
80
138
115
95
156
129
108
177
149
126
190
164
141
196
172
148
197
173
149
194
170
147
189
167
144
183
161
138
173
151
128
157
131
116
146
122
106
140
117
101
138
115
99
137
116
99
137
118
101
145
130
118
173
169
160
180
175
169
184
179
173
187
182
176
189
184
178
191
186
180
194
189
183
196
192
186
195
190
184
200
195
190
200
195
192
200
195
192
198
193
190
158
154
151
75
71
68
45
39
37
43
37
38
42
36
36
39
33
33
37
31
31
61
46
42
55
43
39
46
34
32
35
25
23
42
33
29
72
58
47
123
102
84
182
156
131
194
165
138
199
168
142
199
170
142
200
173
146
204
179
153
213
189
166
219
196
173
222
200
176
214
194
169
184
156
135
132
103
83
102
79
64
88
70
57
88
78
70
218
215
210
125
121
118
45
36
31
42
32
29
40
30
27
44
34
31
53
43
36
75
60
47
154
128
108
209
194
174
223
212
200
228
218
206
226
211
193
221
201
179
222
204
183
225
215
200
228
219
204
226
217
202
225
208
190
222
203
182
223
203
183
220
203
185
221
208
189
224
215
204
214
203
189
174
151
127
148
121
100
114
91
74
106
84
71
111
88
77
112
92
81
113
93
83
111
92
82
107
88
79
97
78
69
82
64
56
62
48
40
53
40
33
51
39
32
52
40
32
58
43
36
72
53
46
95
73
59
128
103
83
157
130
108
175
150
127
186
162
138
191
167
143
190
168
144
188
165
142
174
152
129
162
138
119
152
127
110
141
118
100
137
113
97
137
115
98
139
120
103
149
135
123
174
170
160
182
177
171
185
180
174
188
183
177
191
186
180
192
187
181
196
191
185
198
193
187
198
193
187
202
197
191
195
190
186
164
159
156
102
97
94
58
52
50
44
38
36
41
36
34
39
33
33
38
32
32
38
32
31
38
32
31
60
46
40
57
42
39
50
38
34
44
33
28
74
59
50
124
102
85
171
143
121
196
170
145
202
176
151
205
180
155
210
187
162
216
194
169
219
199
174
220
204
182
224
208
186
226
210
188
223
208
186
190
167
148
119
96
81
92
74
63
72
58
48
65
59
54
195
192
189
139
134
132
44
35
30
41
31
30
39
30
28
37
29
27
48
37
33
54
43
39
127
105
90
217
203
187
232
224
216
235
227
218
231
217
203
223
205
186
223
208
189
226
217
202
228
219
204
226
217
202
222
207
187
221
201
177
222
200
177
218
200
182
219
206
186
220
208
187
204
184
161
146
122
101
111
86
71
102
78
66
107
85
73
111
91
80
114
94
83
111
93
83
107
90
81
99
82
75
75
61
55
51
39
35
46
37
32
42
33
28
41
32
27
44
35
30
50
38
33
60
45
38
73
53
44
86
66
52
111
85
68
140
114
93
167
141
119
182
158
134
188
164
140
188
165
141
179
157
133
169
147
124
155
132
110
142
117
95
137
112
96
136
113
98
139
120
103
154
141
129
179
172
163
185
180
174
189
184
178
191
186
180
192
187
181
193
188
182
194
189
183
197
192
186
194
189
183
163
159
153
104
100
94
64
59
56
53
48
46
41
35
35
38
32
32
37
31
31
39
33
33
39
33
33
39
33
32
46
41
38
60
46
39
59
44
38
55
41
37
55
41
34
98
78
61
159
132
108
197
166
139
204
178
150
207
183
156
211
188
162
217
195
171
223
205
183
227
211
191
226
216
198
228
217
200
226
216
198
220
205
186
167
148
132
105
89
78
80
67
58
52
42
35
42
34
29
40
32
30
41
32
29
42
33
28
39
32
30
37
30
28
37
29
27
44
33
29
51
40
36
87
71
60
215
199
186
234
229
226
237
232
228
230
222
209
227
210
195
226
212
196
228
218
207
228
218
205
225
216
201
221
206
186
221
201
178
221
199
177
220
199
182
223
204
186
222
204
185
192
169
146
122
99
81
106
83
71
105
81
70
111
89
78
112
92
81
111
93
84
107
91
83
99
84
76
76
63
58
46
35
30
39
31
26
37
30
26
36
29
26
36
29
26
37
31
27
42
35
30
51
39
34
63
48
40
77
57
48
94
71
59
115
89
72
141
116
94
166
142
119
180
155
132
184
159
136
179
156
132
171
148
124
157
133
110
142
117
95
136
110
94
134
111
95
135
116
99
154
141
129
180
173
164
183
178
172
185
180
174
185
180
174
183
178
172
182
177
171
184
179
173
178
173
167
124
120
113
69
64
58
42
37
35
35
29
28
32
26
26
33
27
27
33
28
28
34
28
28
35
29
29
35
29
29
35
30
29
63
58
55
62
47
41
64
49
42
64
49
42
86
71
58
157
133
110
197
167
141
207
177
149
208
183
153
210
186
158
214
190
164
218
196
172
224
206
185
228
214
195
227
218
201
228
219
202
225
215
198
208
192
174
146
128
112
102
88
77
76
64
54
45
36
30
40
31
26
42
32
31
42
33
30
41
32
27
38
32
29
46
39
37
47
39
37
43
32
28
50
39
34
67
52
43
205
190
178
237
233
229
238
233
230
230
223
212
229
212
202
230
216
206
231
220
211
229
220
207
226
217
202
225
210
190
222
201
178
218
196
173
220
197
180
224
203
186
224
204
187
207
185
162
151
129
111
111
87
75
109
86
75
113
91
80
114
94
83
111
94
86
105
89
81
85
70
63
46
34
31
42
32
27
39
30
25
31
26
23
30
25
22
29
24
21
29
24
21
34
28
24
46
36
31
56
44
36
73
53
45
88
65
55
103
78
62
122
98
76
145
120
99
165
139
116
172
147
124
172
148
124
169
145
121
158
134
111
144
119
97
134
109
93
130
107
91
128
109
92
144
131
119
163
156
148
171
165
160
172
167
161
166
161
155
160
155
150
157
152
147
135
131
125
78
73
67
62
57
53
34
29
26
31
25
25
30
24
24
29
24
24
30
24
24
31
25
25
31
25
25
33
27
27
36
30
30
42
37
36
55
50
47
63
49
42
66
49
41
70
55
45
143
117
97
199
173
148
206
180
155
208
182
156
208
183
153
209
184
157
214
188
163
219
197
173
222
206
187
227
214
195
228
219
204
228
219
204
225
216
201
204
189
170
140
122
106
105
91
81
74
65
54
40
34
29
41
36
33
58
54
51
38
33
30
38
33
30
38
28
27
48
39
36
68
59
54
46
35
31
54
40
36
68
54
44
201
189
177
234
230
226
237
232
229
231
221
211
228
216
204
228
218
208
230
220
210
230
220
208
228
219
204
226
213
192
223
202
179
217
192
170
220
198
175
225
203
180
224
202
179
210
188
165
183
160
138
131
105
89
112
93
79
115
97
84
114
98
85
110
93
85
95
79
71
53
42
37
41
32
28
40
30
27
35
25
24
32
26
24
31
26
23
31
26
23
30
24
24
35
27
27
44
34
33
56
46
38
68
55
46
79
62
54
91
72
59
106
84
70
123
97
82
139
112
92
155
126
105
164
132
111
162
135
112
157
132
109
145
120
98
128
105
88
120
98
83
114
96
81
118
107
98
125
118
110
112
103
99
90
82
77
74
65
60
64
55
50
59
50
45
61
53
48
54
49
45
30
25
24
27
21
21
27
21
21
27
21
21
27
21
21
28
22
22
31
25
25
33
27
27
36
30
30
38
32
32
45
39
39
52
46
46
66
52
44
72
55
47
93
75
61
184
158
134
211
185
161
211
186
161
211
186
160
209
184
156
203
176
150
202
174
150
208
185
161
219
202
180
226
213
194
227
219
204
229
221
205
227
218
202
208
193
175
146
129
113
112
97
86
77
67
57
37
31
26
37
32
29
45
40
37
38
33
30
37
32
29
37
29
27
37
30
27
41
34
30
51
39
36
59
47
41
73
59
48
208
195
179
230
223
214
228
222
213
227
216
204
227
216
203
227
218
206
229
219
209
227
218
205
226
215
199
225
209
188
222
199
175
214
189
166
218
195
172
221
198
175
219
197
174
208
186
163
189
166
142
160
135
114
124
104
88
118
100
86
115
97
85
108
91
82
78
63
55
43
33
27
42
32
29
38
28
26
37
27
26
33
28
25
32
27
24
30
25
22
29
23
22
29
23
21
35
27
26
52
43
36
69
56
49
77
61
53
87
69
56
98
77
63
110
85
71
123
96
78
138
109
88
154
122
101
159
130
108
156
129
107
145
120
99
126
103
86
114
93
78
98
81
68
76
65
58
64
57
51
62
55
51
60
52
48
60
53
49
60
53
49
57
49
46
46
39
36
29
24
23
27
21
21
27
21
21
27
21
21
27
21
21
27
21
21
30
24
24
32
26
26
34
28
28
37
31
31
40
34
34
46
40
40
50
44
44
65
52
43
74
57
49
130
113
96
208
185
161
215
191
167
214
190
165
215
191
165
213
187
162
204
175
151
197
165
142
189
164
139
194
173
147
215
201
178
225
218
202
228
221
205
227
220
204
213
200
181
161
145
129
119
103
93
92
79
70
34
27
23
35
30
27
40
35
32
39
34
31
47
42
39
45
40
37
36
31
28
41
36
33
59
48
42
75
61
52
94
77
63
213
195
172
221
207
189
221
208
193
225
212
196
226
215
200
226
217
202
226
216
202
224
213
197
223
207
185
221
199
175
219
193
167
211
185
160
215
191
167
217
194
170
217
195
172
207
185
162
190
166
144
174
147
126
142
120
101
117
98
84
114
94
83
102
85
74
60
47
40
41
32
27
42
32
31
38
28
27
37
28
27
33
28
25
32
27
24
32
27
24
31
26
23
38
34
31
31
26
23
42
33
29
64
52
46
74
59
52
83
67
55
96
77
64
106
82
71
117
90
75
131
102
81
147
115
94
159
127
106
160
131
109
153
128
107
137
113
97
118
99
83
92
77
66
73
62
57
62
56
52
51
46
43
45
40
37
41
36
33
35
30
27
30
24
23
25
19
19
25
19
19
25
19
19
24
19
19
25
19
19
25
19
19
25
19
19
27
21
21
29
23
23
32
26
26
36
30
30
41
35
35
47
41
41
53
47
47
66
52
43
76
60
51
163
144
122
213
191
167
216
193
169
215
192
167
218
195
170
216
196
168
205
179
153
192
164
139
188
159
131
189
162
134
202
179
151
219
208
188
226
219
202
227
220
204
220
208
191
177
162
142
119
103
87
109
96
83
50
39
33
37
29
24
40
32
27
39
31
27
57
49
45
51
43
39
39
32
27
49
39
32
85
73
60
98
82
68
155
133
115
210
185
162
215
192
169
221
202
181
223
208
190
225
212
195
225
213
197
226
211
195
224
207
186
221
198
173
220
190
166
216
186
160
210
180
153
209
179
156
210
183
159
212
188
164
207
183
159
195
170
147
176
149
128
155
130
110
121
101
86
109
90
77
91
74
63
52
39
32
44
33
29
42
31
30
36
28
26
48
38
37
38
30
26
34
28
23
33
28
22
31
26
21
67
62
58
29
24
21
35
27
24
52
42
38
67
55
50
78
63
54
100
80
68
114
90
78
122
95
79
130
102
82
144
114
94
154
125
103
160
133
111
159
134
111
151
126
107
131
111
93
100
82
69
76
63
55
56
49
45
46
41
38
40
35
32
36
31
29
31
25
25
26
20
20
22
16
16
22
16
16
22
16
16
22
16
16
23
17
17
23
17
17
24
18
18
26
20
20
27
21
21
31
26
26
37
31
31
42
36
36
48
42
42
55
49
49
64
51
42
79
63
54
185
165
142
214
192
168
217
195
171
218
198
175
223
205
183
222
204
180
211
186
162
195
168
143
191
160
132
189
160
131
197
170
141
212
195
170
224
214
195
226
219
203
224
217
202
207
195
176
143
129
112
115
102
88
86
74
66
42
32
27
42
33
27
42
33
27
43
34
28
44
35
29
47
37
29
87
72
60
127
110
93
173
154
135
212
189
165
199
172
149
210
185
161
218
198
176
223
207
189
225
211
193
225
211
195
224
209
188
222
203
179
219
193
168
215
183
160
210
179
153
205
174
146
203
171
147
203
174
151
204
180
156
204
180
156
197
172
149
179
152
131
163
137
117
136
115
98
108
89
74
84
67
57
51
39
32
47
36
32
43
32
31
39
30
28
53
43
42
38
29
25
36
29
24
35
29
24
33
27
22
38
33
29
29
24
21
32
24
22
47
37
34
61
50
45
73
60
51
108
87
75
132
108
95
151
125
109
168
142
122
178
153
132
179
155
131
171
147
123
163
139
115
155
130
110
142
121
102
118
98
85
88
74
62
65
57
50
50
45
41
42
37
34
37
31
29
29
23
23
25
19
19
23
17
17
23
17
17
24
18
18
23
17
17
24
18
18
24
18
18
24
18
18
26
20
20
27
21
21
31
25
25
34
29
29
40
34
34
46
40
40
54
48
48
58
44
38
79
63
54
192
170
145
215
193
169
217
195
171
219
201
178
227
212
193
223
210
188
215
195
169
203
175
151
200
169
140
198
167
139
199
168
141
202
172
149
212
192
170
222
210
192
226
217
201
226
217
201
213
204
189
172
159
144
129
116
102
67
55
44
41
31
21
42
30
21
45
33
24
50
38
26
87
74
60
155
140
120
203
183
160
218
193
170
198
172
147
195
164
136
206
178
151
218
197
173
224
205
188
226
208
189
226
207
187
224
203
179
224
194
172
218
186
163
210
178
151
203
172
144
199
168
140
197
166
138
199
170
143
202
176
151
203
177
154
199
173
150
181
155
132
167
140
119
155
129
107
126
101
83
91
72
60
64
50
44
51
40
36
47
38
33
41
32
29
42
32
31
41
31
31
44
34
33
40
30
29
37
27
26
32
24
22
29
24
21
32
24
22
44
35
30
59
49
40
73
59
49
127
107
91
163
140
122
187
164
148
198
175
159
200
177
161
194
170
148
178
153
131
162
138
114
150
126
103
147
122
103
135
112
96
109
92
78
82
70
60
60
51
44
44
38
35
33
27
26
27
21
21
24
18
18
22
16
16
21
15
15
22
16
16
23
17
17
23
17
17
23
17
17
24
18
18
26
20
20
27
21
21
30
24
24
34
28
28
39
33
33
46
40
40
56
50
50
50
39
32
84
68
58
196
172
148
214
191
167
213
191
167
217
199
177
226
211
192
225
212
191
218
198
174
207
180
156
202
174
148
203
174
147
206
177
150
207
179
153
208
180
154
213
186
162
217
197
177
223
210
192
224
216
201
228
217
200
222
211
194
206
196
179
185
175
159
175
165
150
173
163
148
187
174
157
209
194
176
219
203
178
214
191
165
198
171
145
190
161
135
194
163
135
202
173
146
217
194
170
223
204
187
224
205
185
223
203
179
225
197
174
221
189
166
214
181
156
204
171
144
198
166
139
196
164
139
195
164
138
200
170
146
204
175
152
201
175
152
197
171
148
181
155
132
168
141
120
160
133
112
146
120
101
119
94
77
88
69
58
62
49
43
53
43
38
46
36
32
39
30
27
46
37
34
59
50
47
43
34
31
40
30
27
35
27
25
31
26
24
33
26
22
48
38
31
56
46
37
97
83
70
179
162
144
204
184
164
213
192
175
213
192
174
206
184
165
188
163
141
166
141
119
150
125
102
141
116
94
139
115
94
137
114
97
129
110
96
102
87
76
68
57
49
43
38
34
32
26
24
27
21
21
24
18
18
22
17
17
22
16
16
22
16
16
22
16
16
23
17
17
24
18
18
25
19
19
26
20
20
27
21
21
30
24
24
32
26
26
38
32
32
44
39
39
41
35
35
42
33
27
99
83
70
197
172
148
209
185
161
208
186
162
216
198
174
223
208
185
222
207
188
218
199
177
207
182
159
201
175
150
203
177
152
208
182
157
211
186
156
217
188
163
221
190
166
219
193
166
218
196
169
218
201
179
222
210
188
223
212
193
222
213
196
222
213
197
222
213
196
222
213
196
222
209
190
219
204
183
212
191
166
199
172
143
195
166
138
195
164
136
194
163
135
199
170
143
217
192
170
223
204
187
224
205
186
224
201
177
225
193
170
220
186
162
212
176
150
203
167
141
199
165
141
197
165
142
198
166
143
201
169
147
204
172
151
199
173
150
194
168
145
178
152
129
165
138
117
158
131
110
151
124
103
136
109
90
109
84
70
80
62
51
63
49
40
52
40
33
39
30
25
41
33
28
47
38
33
41
32
27
40
31
26
36
29
25
34
29
26
37
30
24
52
42
33
61
52
43
186
175
160
223
210
193
224
210
191
220
202
185
211
190
170
192
168
146
166
140
117
147
120
98
137
110
89
131
106
84
130
106
83
132
109
90
134
115
100
122
104
91
81
68
58
45
39
36
31
25
23
26
20
20
23
17
17
23
17
17
23
17
17
22
16
16
23
17
17
23
17
17
24
18
18
24
18
18
25
19
19
26
20
20
28
22
22
31
25
25
33
27
27
26
21
21
27
22
22
41
33
27
116
99
82
193
169
144
202
178
154
202
178
154
211
191
166
220
202
177
219
201
177
216
195
171
208
184
160
200
175
151
198
173
148
204
180
154
214
189
163
218
193
167
222
196
171
222
198
171
223
198
171
223
197
172
220
200
175
221
203
179
223
206
183
223
212
191
223
212
192
223
212
192
222
208
185
216
200
176
208
179
153
203
172
144
201
170
142
199
168
140
196
165
137
198
170
143
217
195
171
225
203
187
226
204
184
227
200
175
222
193
165
217
182
156
209
172
146
203
166
140
200
164
138
200
165
139
200
168
145
201
169
147
200
168
147
196
169
146
189
163
140
170
144
121
160
129
108
154
123
103
152
120
100
149
117
98
129
99
81
103
77
63
92
72
57
79
60
48
57
43
33
41
29
22
42
31
23
43
32
24
42
31
24
41
30
24
39
30
24
43
32
23
69
58
49
184
171
160
229
216
202
226
213
197
222
207
186
212
190
167
193
167
145
169
138
117
145
118
96
135
108
87
130
103
82
126
99
83
125
99
83
128
102
87
131
112
98
129
111
97
94
79
68
53
42
38
30
23
23
25
19
19
25
20
19
25
21
19
22
18
16
21
15
15
21
15
15
22
17
17
22
16
16
22
16
16
22
16
16
21
15
15
21
15
15
19
13
13
24
18
18
64
58
58
72
66
66
42
34
29
125
109
91
185
161
136
192
168
144
197
172
148
209
186
161
214
190
166
211
187
163
204
180
156
198
174
150
198
173
149
203
178
153
211
187
161
215
191
165
218
194
168
221
197
172
221
197
171
222
197
171
219
193
168
216
192
163
217
193
166
219
197
170
218
202
177
222
205
181
222
206
181
222
204
178
217
198
172
209
180
154
209
178
150
210
179
151
206
175
147
200
169
141
199
170
144
220
197
173
226
203
186
228
204
184
226
199
174
219
189
160
212
176
150
204
166
140
199
160
135
200
162
136
203
166
140
201
168
144
200
167
145
196
164
143
188
162
139
178
151
128
159
132
110
147
115
94
144
112
91
148
115
96
150
117
98
138
107
87
122
94
75
114
88
69
129
104
86
132
113
94
129
112
96
117
102
88
109
96
83
105
91
79
111
98
85
128
116
103
163
151
138
208
194
180
224
210
196
223
209
191
214
199
180
200
180
156
179
150
128
158
129
107
144
113
92
132
105
84
127
100
80
123
96
76
122
94
79
121
94
80
122
96
81
126
106
92
127
108
94
106
90
78
62
51
46
32
25
23
27
22
20
81
77
72
126
120
115
114
109
104
94
88
85
68
62
59
22
17
15
21
15
15
20
14
14
17
11
11
16
10
10
15
9
9
15
9
9
17
11
11
28
23
23
49
43
43
31
23
22
114
98
80
181
156
130
191
165
140
196
170
145
207
183
157
209
185
159
205
179
154
197
171
146
189
163
138
186
160
135
196
170
145
206
180
155
212
188
162
216
193
168
219
197
173
221
197
171
219
195
169
217
193
167
218
194
168
218
195
170
219
197
173
220
202
178
223
205
181
223
205
181
225
201
175
220
195
170
214
188
163
215
189
162
216
188
160
212
181
153
203
172
144
205
176
149
223
198
175
228
203
181
228
203
180
226
196
170
217
179
150
205
161
136
198
152
130
197
149
127
198
153
130
200
157
134
201
161
136
197
159
136
191
155
133
179
148
127
166
134
113
144
112
91
137
105
84
142
109
89
148
115
96
154
121
102
156
123
104
156
123
104
154
122
101
153
124
102
182
156
133
202
184
162
213
196
175
219
204
185
221
206
187
224
209
190
226
211
192
223
209
190
220
206
186
218
202
180
214
192
170
197
174
151
177
150
127
162
131
110
145
115
94
131
104
83
124
97
76
119
92
74
115
89
74
114
88
73
114
88
73
114
88
73
117
97
83
120
101
87
111
93
79
72
58
50
53
45
41
96
91
86
135
130
124
152
147
141
156
151
145
152
144
135
133
125
115
80
73
64
30
24
23
18
12
12
18
12
12
18
12
12
18
12
12
18
12
12
19
13
13
20
14
14
21
15
15
33
27
25
121
105
86
180
154
128
188
162
137
194
168
143
206
182
156
208
183
158
199
174
150
189
164
139
187
161
136
190
164
139
195
169
144
199
174
148
206
182
156
211
187
162
214
190
165
217
192
164
216
191
165
215
191
165
216
195
168
219
201
177
223
207
183
226
209
190
226
209
189
225
206
185
223
200
176
222
198
174
223
199
175
220
198
174
219
193
168
213
185
158
205
174
146
212
182
156
222
195
172
225
198
176
226
197
174
222
187
161
212
167
142
200
150
128
195
142
122
192
142
121
193
145
123
193
146
124
191
144
122
185
141
119
179
137
117
167
130
111
149
114
95
129
97
77
135
103
83
147
115
95
155
122
104
161
129
109
164
131
111
169
136
116
180
148
125
191
162
139
206
181
159
218
199
176
223
207
185
223
209
188
225
208
186
222
203
181
215
196
174
211
189
166
206
182
159
198
172
149
189
160
136
175
147
124
164
135
113
151
119
98
137
107
86
125
98
77
117
90
72
112
85
69
108
82
67
106
81
66
105
81
66
104
79
66
107
87
73
112
93
79
108
91
77
72
60
51
72
66
61
143
138
132
149
144
138
149
143
137
150
142
135
160
152
142
160
152
141
152
144
133
98
90
85
26
18
18
22
17
17
22
16
16
23
17
17
24
18
18
24
18
18
25
19
19
27
21
21
38
32
29
135
120
99
180
154
128
185
159
134
197
171
146
210
186
160
213
189
163
210
186
162
203
177
153
197
171
146
192
166
141
195
169
144
199
173
148
202
178
152
207
182
157
211
185
159
216
191
161
219
194
167
222
198
172
223
207
182
226
213
193
228
215
196
229
213
198
226
209
193
223
204
187
226
204
181
227
205
182
227
205
182
225
203
179
221
197
173
214
187
162
209
178
150
216
184
159
218
185
162
221
179
157
219
176
153
216
167
145
208
155
134
198
144
124
194
139
119
193
141
120
194
143
122
191
143
121
185
137
115
176
130
109
166
121
102
152
113
95
138
102
83
121
88
69
131
98
79
146
113
94
157
124
105
163
131
111
168
136
115
175
143
122
192
160
139
209
180
159
214
189
167
216
198
174
218
200
176
217
200
175
218
194
169
214
188
164
209
182
160
205
177
153
199
169
146
193
161
138
183
151
128
170
138
116
157
125
104
145
113
92
131
101
80
118
91
70
109
81
66
105
78
63
102
76
61
100
76
60
99
76
61
100
76
64
102
82
69
105
87
74
103
88
75
70
59
50
37
31
25
112
107
102
150
145
139
178
172
165
186
177
168
193
185
174
193
185
174
191
183
172
150
142
132
65
57
53
27
21
21
27
21
21
25
19
19
26
20
20
25
19
19
26
20
20
26
20
20
40
35
30
134
117
97
178
151
126
184
158
133
199
173
148
211
187
160
212
190
166
210
188
164
207
183
158
201
177
151
193
167
142
191
165
140
193
167
142
197
171
146
204
175
151
211
180
157
213
187
161
216
192
165
221
202
177
225
210
191
229
215
198
229
216
200
229
215
196
227
212
194
227
211
193
227
211
192
226
210
191
226
210
191
224
205
187
224
202
181
217
193
169
207
178
150
209
174
148
195
153
130
191
138
117
191
136
116
195
138
119
194
137
118
189
132
113
188
132
112
188
133
113
189
134
116
187
132
116
181
126
110
169
117
100
153
108
89
138
100
81
127
91
75
115
81
69
121
87
75
132
98
83
145
112
93
158
125
106
168
135
115
177
145
124
190
158
137
205
176
154
212
186
163
214
190
166
213
189
165
211
187
163
214
183
159
211
179
156
205
173
150
198
166
143
193
162
139
188
156
135
179
147
126
168
136
115
155
123
102
141
108
89
126
93
76
113
80
67
102
75
61
97
72
58
96
72
60
95
75
61
95
76
62
96
77
63
97
80
67
100
84
71
100
84
71
68
57
50
37
30
28
53
49
47
168
164
159
169
165
159
189
184
173
195
187
176
194
186
175
192
184
173
162
154
144
98
90
83
34
31
29
26
21
21
26
20
20
26
20
20
26
20
20
26
20
20
24
18
18
40
35
29
129
111
91
175
148
124
185
159
135
201
175
151
212
188
162
214
192
168
213
190
166
205
182
157
197
173
147
194
168
143
195
169
144
197
171
146
197
169
145
199
169
145
206
175
151
207
181
157
215
192
166
224
205
181
229
213
194
230
215
198
228
214
197
227
214
195
227
212
193
227
211
192
227
211
192
226
211
192
226
211
192
225
207
189
224
203
182
219
196
172
210
182
154
191
156
130
170
127
104
160
107
87
144
91
72
158
101
83
169
112
94
172
115
97
175
119
101
177
122
103
178
122
105
175
119
104
163
107
92
145
93
80
128
82
70
116
78
64
112
77
64
108
75
63
108
76
63
121
89
74
134
103
85
145
113
94
157
126
105
170
139
118
180
148
127
189
159
138
199
171
149
204
178
155
206
178
155
204
175
153
203
172
148
198
165
141
193
160
136
188
155
132
183
150
128
177
145
124
172
139
119
163
131
110
151
119
98
137
106
87
122
90
74
109
77
64
98
72
58
96
72
58
95
72
60
93
73
60
93
74
61
94
76
62
94
78
66
96
80
68
96
80
68
65
54
48
38
32
31
33
27
27
73
73
70
64
64
62
108
107
100
216
210
199
195
187
176
193
185
174
172
164
154
126
117
107
79
71
64
27
21
20
25
19
19
25
19
19
25
19
19
25
19
19
22
16
16
39
34
28
128
110
90
173
147
123
187
161
138
202
176
153
210
186
162
213
189
165
209
185
161
197
172
147
186
160
135
182
156
131
183
157
132
186
159
135
195
163
140
203
171
148
209
177
154
214
189
166
221
202
179
226
208
186
228
209
192
229
210
193
229
210
193
227
212
193
227
210
192
226
207
190
226
207
190
226
209
191
225
210
191
225
210
191
226
207
186
225
203
180
222
197
172
213
181
156
164
124
100
116
74
57
91
49
36
90
46
34
142
87
72
155
99
85
159
103
90
160
104
90
161
105
91
155
99
85
121
77
63
86
49
40
88
53
47
94
62
53
93
64
53
92
64
53
94
68
53
118
92
77
135
109
94
141
115
93
150
124
101
160
134
111
172
140
119
179
147
126
188
156
135
199
167
146
204
172
150
203
171
148
197
166
138
190
157
130
183
147
121
175
139
117
167
133
112
163
131
110
158
125
106
152
119
100
143
110
91
129
101
86
118
91
77
106
80
65
98
73
61
95
72
61
91
71
60
91
71
60
90
72
60
90
74
61
91
75
66
91
75
67
89
75
66
61
53
48
37
33
32
34
28
30
34
33
32
54
54
52
44
44
45
217
214
203
200
194
183
203
195
184
212
204
193
178
168
157
134
120
110
51
43
41
24
18
18
23
17
17
23
17
17
21
15
15
33
27
27
38
33
28
123
106
89
174
147
123
189
163
139
201
176
153
207
183
159
207
183
159
200
176
152
182
157
133
165
139
115
159
132
109
165
137
113
174
146
122
188
160
136
201
174
150
210
183
160
217
195
172
222
204
180
226
208
185
227
207
186
227
206
185
228
206
184
226
207
185
226
208
186
226
208
187
227
208
191
227
210
192
227
212
193
227
210
192
226
207
186
225
203
180
222
198
172
219
192
167
205
175
150
153
118
96
91
54
39
59
29
21
115
69
59
141
88
79
143
88
79
142
89
81
143
87
78
129
79
68
56
31
25
49
26
22
55
33
29
69
42
37
74
47
39
80
53
42
95
71
56
135
111
96
149
124
109
145
119
97
146
120
98
151
125
103
161
129
109
166
135
114
172
140
119
181
149
128
189
157
136
195
163
141
191
160
136
181
149
125
170
136
113
161
127
106
152
119
98
145
113
93
140
107
88
134
103
85
128
98
82
121
94
80
115
89
75
106
81
68
99
75
63
95
73
61
92
72
61
89
69
58
90
70
60
90
71
62
88
71
63
89
73
65
86
72
63
57
50
44
35
32
31
34
28
30
28
27
26
42
42
41
163
161
159
222
216
206
206
199
187
195
187
176
201
193
182
188
178
167
156
143
131
72
65
61
22
16
17
20
14
15
19
13
14
30
24
24
33
27
27
39
35
31
96
79
68
155
129
106
180
154
129
195
171
147
202
178
154
203
179
155
195
171
147
173
148
125
162
136
113
165
141
117
175
150
126
188
163
138
203
177
152
212
190
165
218
198
173
224
202
179
224
204
181
223
205
181
224
199
173
221
197
172
223
199
175
224
202
179
225
205
182
224
206
182
224
205
188
224
207
189
225
210
191
227
208
191
226
205
185
224
202
178
222
198
172
217
192
167
212
186
161
208
175
148
165
128
107
93
58
46
117
73
64
134
82
76
133
78
73
130
79
73
129
78
70
107
67
59
45
24
19
54
31
25
62
36
30
71
44
37
79
52
43
92
65
54
111
88
73
145
122
106
154
131
115
151
126
105
146
120
99
149
122
101
153
121
100
153
121
100
154
122
101
157
125
104
164
132
111
177
145
124
183
151
130
176
144
123
165
133
112
153
121
100
142
110
90
134
101
82
125
92
73
116
85
68
109
81
67
105
79
64
102
77
63
98
74
62
96
72
60
94
71
60
91
71
60
90
70
59
90
70
60
88
68
61
85
68
60
85
69
61
83
69
60
53
46
41
33
29
28
31
25
27
28
27
27
25
25
25
184
180
177
217
210
200
207
199
188
187
179
168
180
172
162
164
155
143
121
113
98
55
49
44
19
13
15
22
16
18
28
22
23
32
26
26
41
36
36
34
28
28
66
54
45
141
116
96
168
143
120
189
165
141
197
173
149
198
174
150
186
162
138
165
141
118
159
134
112
159
134
112
169
144
122
185
160
138
200
175
153
211
191
167
219
200
176
226
204
181
225
202
179
223
199
175
220
196
172
220
196
172
222
198
174
223
201
178
225
203
179
226
205
180
223
205
182
224
206
182
224
207
183
227
205
182
226
203
180
224
200
176
221
197
171
217
191
166
213
187
162
206
179
154
195
161
138
145
106
89
132
85
77
131
83
75
122
74
67
120
75
70
120
75
70
100
60
54
70
42
34
82
55
46
91
63
54
95
67
54
101
74
60
109
83
68
134
108
93
152
128
112
156
133
117
156
131
109
148
122
100
146
119
98
149
117
96
148
116
95
148
116
95
147
114
95
149
116
97
154
121
102
165
132
113
164
134
114
156
128
107
149
116
97
136
105
88
125
97
82
116
87
73
107
80
67
96
72
60
92
68
55
89
66
55
88
68
57
88
68
57
88
68
57
88
68
57
88
68
57
87
67
56
86
66
56
83
66
58
84
67
59
82
66
58
49
41
36
29
25
24
27
21
23
23
22
22
23
23
23
61
61
61
156
153
141
156
150
138
151
143
132
146
138
126
127
120
108
73
69
60
18
12
11
20
14
15
27
21
21
27
21
21
28
22
22
28
22
22
19
15
15
41
34
29
109
88
71
159
133
111
186
162
138
194
170
146
192
168
144
179
155
131
160
136
113
156
131
109
155
130
108
158
133
112
173
148
128
196
171
151
213
192
170
220
201
177
220
198
174
215
191
167
216
191
167
216
192
169
217
195
171
223
200
176
225
203
180
226
205
181
226
206
181
224
205
180
223
204
179
223
204
179
225
201
178
223
199
175
222
197
173
219
194
168
216
190
165
212
184
159
204
175
151
196
163
140
170
131
113
142
96
86
132
87
78
119
73
64
116
72
67
116
72
67
99
59
53
85
53
44
104
74
63
120
92
79
129
103
86
132
106
90
137
111
96
148
122
107
155
130
113
156
132
114
157
132
110
149
123
102
144
117
96
143
112
91
140
109
88
140
107
87
138
105
85
137
104
85
137
104
85
147
115
98
151
122
103
146
119
100
141
111
93
133
104
87
121
94
79
112
84
71
104
78
65
96
72
60
91
69
57
88
67
55
86
66
55
85
65
54
85
65
54
84
64
53
83
63
52
85
65
54
84
64
53
83
66
58
84
67
59
83
66
58
49
41
36
27
23
22
27
20
22
21
21
21
22
22
22
21
21
21
82
80
73
97
92
86
104
96
90
104
96
91
88
81
74
78
73
68
46
40
40
21
15
15
24
18
18
26
20
20
27
21
21
29
23
23
10
9
10
28
23
22
72
62
52
154
129
107
185
161
137
191
167
143
187
163
139
172
148
124
156
132
109
152
127
105
151
126
104
151
125
107
156
130
115
171
148
132
196
173
153
209
188
165
208
186
162
205
179
155
205
179
154
205
181
156
216
198
174
224
207
185
229
207
184
226
205
181
223
202
178
222
198
175
220
195
170
219
193
168
218
192
167
217
191
166
216
190
165
216
190
165
213
184
160
207
175
152
201
169
146
194
161
139
180
145
125
154
111
96
136
92
83
118
74
65
113
72
66
112
72
65
102
63
56
111
78
62
150
120
105
161
133
119
160
134
119
155
129
114
151
125
110
151
125
110
152
127
108
153
128
106
153
128
106
150
124
103
145
118
97
138
111
90
136
107
87
135
103
84
134
101
82
133
100
81
132
99
80
134
106
91
139
112
97
139
113
98
135
109
94
128
102
87
119
93
78
111
84
73
105
79
68
99
75
63
93
73
62
91
71
60
90
70
59
90
70
59
91
71
60
91
71
60
92
72
62
93
73
62
90
70
59
86
69
61
86
69
61
84
67
59
49
41
36
27
24
23
27
21
23
22
21
21
21
21
21
21
21
21
34
34
32
74
72
71
64
58
58
71
65
65
75
69
69
81
75
75
87
81
81
48
43
43
23
17
17
26
20
20
27
21
21
29
23
23
9
9
9
13
11
12
60
52
46
142
121
102
179
157
133
187
164
141
183
160
136
169
144
121
153
129
107
148
124
102
139
119
97
130
109
89
131
109
91
142
123
105
165
146
127
177
159
139
179
156
133
173
150
126
203
183
166
222
211
198
225
215
199
226
212
191
227
205
181
226
198
175
222
192
169
215
186
160
214
184
157
214
184
157
213
187
162
215
189
165
216
191
167
213
187
162
209
180
156
204
172
149
197
165
142
190
157
136
182
149
128
162
127
109
138
99
86
118
77
67
114
74
65
114
74
65
119
86
71
170
142
121
183
156
136
179
153
134
171
145
130
163
137
122
155
129
114
150
124
109
148
122
104
147
122
100
147
122
100
147
121
101
146
119
102
142
115
98
139
112
96
134
105
89
128
98
78
128
96
77
127
94
75
126
97
83
130
103
88
133
107
92
134
108
93
128
102
87
119
93
78
110
83
72
102
78
67
96
75
63
93
73
62
92
72
61
93
73
62
95
75
66
99
80
71
100
82
73
101
85
76
101
84
74
98
80
71
93
76
68
90
73
65
84
69
61
49
42
39
28
27
26
25
23
24
22
21
21
21
21
21
22
22
22
23
23
22
64
61
61
92
86
86
89
83
83
87
81
81
79
73
73
85
79
79
82
76
76
36
31
31
26
20
20
27
21
21
28
22
22
9
9
9
21
21
21
62
56
52
122
102
85
175
153
130
183
161
138
177
155
132
160
136
114
142
120
101
149
130
112
158
144
127
166
151
135
173
159
143
182
170
152
198
184
165
202
187
168
204
183
165
205
192
177
223
217
203
226
218
207
226
218
202
224
210
188
221
198
174
222
193
170
220
189
165
219
188
160
219
188
160
222
192
164
219
193
168
218
193
168
213
188
164
208
182
157
203
174
150
198
166
143
192
160
137
185
153
131
178
147
126
165
135
115
145
108
93
121
81
71
122
81
71
133
97
83
180
153
130
198
176
153
192
168
146
183
158
136
172
146
131
163
137
122
154
128
113
146
120
105
141
116
97
138
113
91
137
112
91
138
112
94
140
114
99
144
118
103
146
120
105
142
116
101
135
110
89
129
101
81
122
90
71
113
85
71
116
89
74
124
98
83
127
102
87
124
99
84
114
88
73
103
77
66
91
68
57
86
66
55
85
65
54
85
65
54
87
67
57
92
72
64
97
78
71
101
84
76
101
87
78
100
85
77
99
83
75
94
78
70
91
75
68
83
68
61
49
42
41
34
34
33
31
31
31
29
29
29
27
27
27
26
26
26
26
26
26
36
33
33
87
81
81
92
86
86
82
76
76
83
77
77
85
79
79
80
74
74
49
43
43
27
21
21
30
24
24
41
35
35
10
11
10
18
18
18
38
32
27
97
83
72
177
154
138
202
181
165
197
178
161
186
167
150
171
153
137
160
142
126
143
131
115
140
126
111
138
122
108
137
119
102
149
130
113
167
149
132
197
184
169
224
216
199
227
218
201
226
218
202
227
215
197
226
211
187
227
204
181
225
203
179
224
202
178
224
202
177
224
200
176
222
198
174
220
194
169
217
188
164
212
180
157
205
173
150
196
164
142
189
157
136
180
148
127
173
140
120
169
136
117
164
131
112
151
116
101
128
91
80
141
101
86
182
152
131
197
175
152
199
174
152
189
163
145
178
152
136
169
143
128
160
134
119
150
124
109
141
115
100
134
108
93
130
104
88
127
101
85
127
101
87
128
102
87
133
107
92
139
113
98
140
114
99
139
116
100
138
115
99
133
110
94
124
98
83
121
95
80
122
96
81
119
100
86
117
97
85
114
94
82
105
85
77
96
76
69
88
68
61
83
63
56
80
61
54
81
64
56
84
67
59
90
73
65
96
79
71
99
84
75
96
82
73
94
80
71
90
76
67
89
74
64
79
66
59
45
39
38
33
33
31
31
31
29
28
28
28
26
26
26
25
25
25
23
23
21
25
23
21
67
61
61
95
90
87
90
85
83
89
83
83
93
87
87
78
72
72
75
69
69
64
58
58
46
40
40
40
34
34
35
35
35
79
76
76
109
103
100
133
121
112
167
149
132
187
167
147
163
143
124
137
115
99
126
106
90
127
108
92
126
108
92
127
108
93
127
107
92
133
115
98
160
143
126
200
184
168
223
214
197
224
215
197
220
208
190
219
206
188
223
209
190
225
210
188
228
209
188
228
209
189
227
208
189
226
207
185
225
205
181
225
201
177
219
193
168
213
185
161
206
176
153
198
166
143
187
155
134
181
149
128
173
140
120
166
134
114
163
130
111
158
125
109
151
117
103
139
104
92
164
130
113
193
164
143
192
169
147
190
165
146
180
154
137
170
144
129
161
135
120
154
128
113
147
121
106
138
112
97
132
106
91
128
102
87
124
99
84
124
99
84
124
99
83
123
99
83
126
101
85
127
101
86
130
106
90
137
113
97
143
120
104
143
121
104
141
118
102
134
109
94
126
104
91
121
100
88
117
97
86
111
92
83
105
87
78
101
82
75
97
78
71
93
75
67
89
74
65
89
73
65
91
75
67
95
79
71
97
82
73
96
82
73
94
80
71
88
74
65
84
69
60
72
60
52
36
31
29
23
23
21
21
21
20
20
20
20
20
20
20
21
21
21
21
21
20
23
22
21
40
36
36
79
74
72
83
78
76
88
82
82
86
80
80
81
75
75
80
74
74
68
62
62
28
22
22
23
17
17
79
79
79
57
52
52
24
17
17
51
43
38
128
114
95
177
158
132
162
140
117
145
119
104
132
110
94
127
108
91
128
109
92
145
126
110
170
152
135
197
183
165
211
198
180
220
207
191
221
208
192
215
201
183
220
205
186
225
210
191
227
212
193
227
211
192
228
209
192
228
209
192
226
207
190
224
206
182
223
203
179
222
197
174
215
189
164
207
181
157
198
171
149
194
162
141
184
152
131
173
141
120
166
133
114
162
129
110
159
126
107
154
120
108
149
115
103
140
106
94
165
133
114
184
155
134
182
158
136
180
154
138
171
145
130
163
137
122
154
128
113
146
120
105
140
114
99
134
108
93
131
105
90
128
102
87
123
100
84
123
100
84
123
100
84
123
100
84
123
99
84
124
98
83
125
99
84
131
107
91
139
116
100
143
120
104
143
120
104
137
114
98
127
103
91
115
93
81
105
85
74
98
81
68
95
78
67
93
76
68
92
75
67
91
75
67
90
76
67
91
77
68
94
80
71
98
84
75
101
87
78
101
87
78
98
84
75
91
77
68
85
71
62
69
58
50
34
29
27
22
22
20
19
19
19
18
18
18
18
18
18
20
20
20
21
21
21
22
22
22
24
24
24
64
59
59
78
72
72
89
83
83
86
80
80
87
81
81
85
79
79
73
67
67
54
48
48
34
28
28
5
5
5
9
7
7
14
12
13
41
35
30
122
107
89
171
151
131
159
139
121
137
114
98
130
109
93
148
129
113
175
156
140
188
171
155
192
175
160
195
183
164
196
183
166
184
170
154
204
188
171
221
206
188
224
209
190
223
208
186
222
208
187
222
207
189
224
205
189
223
204
184
221
202
180
219
198
174
217
195
171
216
192
168
209
183
160
201
176
153
196
171
148
189
163
140
177
150
128
168
140
119
161
132
116
156
125
110
152
118
105
146
112
100
141
109
96
130
100
87
153
124
109
174
146
130
175
149
132
171
145
130
164
138
123
156
130
115
148
122
107
139
113
98
133
107
92
128
105
89
127
104
88
125
102
86
124
101
85
125
102
86
124
101
85
122
102
85
123
101
85
126
102
86
128
104
89
132
109
93
136
113
97
138
115
99
138
115
99
136
113
97
130
106
94
119
97
85
107
87
76
97
80
71
94
77
69
93
76
68
90
75
66
87
72
64
85
71
62
84
70
61
87
73
64
93
79
70
100
86
77
102
88
79
101
87
78
96
81
74
90
76
67
74
63
55
47
41
39
38
35
34
31
31
31
26
26
26
24
24
24
22
22
22
22
22
22
24
24
24
27
27
27
44
43
41
63
60
59
81
75
75
82
76
76
79
75
74
79
77
76
72
70
69
65
62
61
60
54
54
6
6
6
7
7
7
9
9
10
41
35
29
145
129
110
169
150
132
154
135
118
159
137
120
180
159
142
182
163
146
183
164
148
172
155
140
156
140
125
148
132
111
153
135
114
189
171
150
220
205
186
219
204
185
216
200
180
216
198
172
215
197
175
215
196
179
217
198
181
222
204
183
222
204
180
225
203
179
224
201
177
219
195
171
215
189
166
210
185
161
203
179
155
190
166
142
178
152
130
168
141
120
159
131
116
150
120
106
145
111
99
137
104
92
130
99
87
118
91
77
137
110
96
162
135
121
166
140
125
165
139
124
159
133
118
153
127
112
144
118
103
136
110
95
130
104
90
126
103
87
124
101
85
122
99
83
122
99
83
121
98
83
121
98
83
119
99
83
120
99
83
122
99
84
124
101
85
126
103
87
127
104
88
129
106
90
131
108
93
132
109
93
129
105
93
120
98
87
104
85
74
93
76
68
88
72
63
90
73
65
89
75
66
91
77
68
93
79
70
95
81
72
96
82
73
100
86
77
103
89
80
105
91
82
103
89
80
99
84
77
93
79
71
83
72
64
64
58
57
57
53
53
50
50
50
48
48
48
45
45
45
42
42
42
41
41
41
39
39
39
39
39
39
42
41
40
53
50
49
68
62
62
77
71
71
70
66
66
64
63
61
62
62
60
54
52
50
51
45
45
4
4
9
6
6
6
11
10
9
97
83
72
160
141
124
188
169
152
196
177
159
187
165
143
154
132
114
129
106
90
127
104
88
133
110
94
137
114
98
141
118
102
157
135
114
195
173
150
210
192
168
205
188
163
198
181
156
206
187
165
215
198
176
223
208
187
227
212
193
228
211
190
228
209
186
229
207
184
226
203
179
220
196
172
213
188
166
205
180
158
197
172
150
187
162
140
174
148
130
162
136
121
152
124
110
141
113
99
131
103
89
124
96
85
119
92
81
110
83
72
122
94
84
151
125
110
159
133
118
159
133
118
155
129
114
150
124
109
143
117
102
137
110
97
132
105
94
126
102
90
123
99
87
122
98
86
120
96
84
118
94
82
115
91
79
115
91
79
115
91
79
116
92
80
116
93
81
119
96
82
121
98
82
124
101
85
126
105
89
126
107
93
125
106
92
120
102
88
107
91
78
95
78
70
85
69
61
80
66
57
78
64
55
76
62
53
72
59
50
73
57
49
78
62
54
90
76
67
98
84
75
99
85
76
95
81
72
81
71
62
75
65
56
62
54
47
49
43
43
44
40
40
43
43
41
42
42
41
41
41
41
41
41
41
39
39
39
38
38
38
39
39
39
43
38
38
58
52
52
78
72
72
82
76
76
76
70
70
72
66
66
73
67
67
77
71
71
62
56
56
3
4
7
8
7
5
83
70
59
165
141
122
203
184
163
200
180
160
165
144
124
142
118
96
133
110
91
130
105
90
125
102
86
126
103
87
132
109
93
162
139
123
190
168
151
202
181
163
203
186
165
209
194
173
223
210
189
227
217
197
227
216
197
226
215
195
228
212
192
228
209
188
228
208
185
228
206
182
222
199
176
214
190
166
205
180
158
200
175
153
192
168
146
182
157
138
169
143
126
157
131
116
145
118
104
133
106
93
125
98
86
117
90
80
107
80
71
87
64
55
99
73
67
134
107
95
146
119
106
152
125
112
152
126
112
148
122
109
142
116
102
136
110
97
132
105
94
128
104
92
126
102
90
125
101
89
120
98
85
118
96
83
115
93
80
114
90
78
113
89
77
113
89
77
112
88
76
113
90
77
116
92
78
119
95
81
123
100
87
125
104
91
124
105
91
119
101
88
109
94
81
99
83
75
91
77
68
86
72
63
83
69
60
78
64
55
73
59
50
70
53
45
71
55
47
83
69
60
92
78
69
95
81
72
89
75
66
75
63
54
69
57
49
54
46
39
35
30
29
22
18
18
19
19
18
23
23
23
25
25
25
26
26
26
26
26
26
26
26
26
28
28
28
32
29
29
40
36
35
68
65
64
75
71
70
76
72
71
80
74
73
79
73
72
84
79
78
81
76
74
56
55
53
114
103
97
144
125
110
185
160
137
189
165
141
186
162
138
172
148
125
150
125
103
141
116
98
131
105
90
128
105
89
149
127
111
168
146
130
180
157
141
190
169
153
193
174
157
210
195
176
220
206
187
222
209
190
219
206
185
213
199
177
211
196
173
221
200
176
224
202
179
224
202
179
218
196
172
212
189
165
206
182
158
200
175
153
192
167
145
183
158
137
173
147
132
162
136
121
148
122
107
135
109
96
122
96
85
111
84
75
89
66
60
67
46
41
47
33
28
57
40
35
102
78
69
127
100
90
140
113
102
144
117
106
143
116
105
138
111
100
135
108
97
133
106
95
127
103
91
126
102
90
125
101
89
121
101
88
119
100
86
117
98
84
118
94
82
115
91
79
113
89
77
111
87
75
109
85
73
109
85
73
111
87
75
117
93
82
125
101
89
126
107
93
123
106
92
116
102
89
110
96
86
105
91
82
101
87
78
98
84
75
91
77
68
82
68
59
75
58
50
74
58
50
82
68
59
90
76
67
92
78
69
89
75
66
78
64
55
69
56
47
51
43
36
33
27
27
22
19
19
17
17
17
18
18
18
19
19
19
22
22
22
24
24
24
26
26
26
26
26
26
28
28
26
30
30
28
53
53
52
51
51
49
54
53
50
72
67
64
76
71
68
77
72
69
70
66
63
79
74
70
46
40
34
127
109
88
183
156
131
183
158
133
183
158
134
176
152
128
159
134
112
158
133
115
153
128
113
144
119
104
160
135
120
175
150
135
164
139
124
183
160
144
204
186
169
213
195
178
214
196
178
204
187
169
195
175
152
193
173
149
199
178
154
211
187
163
216
192
168
216
192
169
213
188
166
208
184
161
202
177
155
194
169
147
184
159
140
175
149
133
164
138
123
151
125
109
136
109
97
119
93
82
99
75
68
74
55
48
50
36
35
40
26
27
36
24
25
38
26
27
56
40
36
93
72
64
122
97
86
132
106
95
135
108
97
135
108
97
134
107
96
131
105
94
129
103
91
127
102
90
124
100
88
122
99
87
121
100
87
118
99
85
118
98
84
114
94
80
112
92
78
110
90
76
107
87
74
105
85
72
106
82
70
107
83
71
111
87
75
111
92
78
112
94
81
111
96
83
109
95
86
108
94
85
107
93
84
105
91
82
102
88
79
96
82
73
93
76
68
90
74
66
89
75
66
91
77
68
91
77
68
88
74
65
79
65
56
68
55
47
45
36
33
32
26
27
26
22
23
20
20
20
19
19
19
18
18
18
18
18
18
19
19
19
20
20
20
24
24
24
28
28
27
29
29
29
41
41
40
58
54
54
58
54
52
99
94
91
102
97
92
108
103
98
118
113
108
16
13
11
66
55
47
161
139
118
182
154
130
183
157
132
181
156
132
177
154
130
172
147
124
167
142
123
164
138
123
161
136
121
140
115
100
135
109
94
183
158
143
202
178
162
207
188
171
198
179
162
199
180
162
193
173
155
172
149
126
171
148
125
183
160
136
199
175
151
213
189
165
211
187
163
204
179
157
196
171
149
190
165
143
182
157
136
172
147
129
161
134
120
148
122
107
133
106
94
115
88
82
89
67
61
67
47
45
51
38
35
44
32
32
40
27
28
37
25
27
37
25
27
44
32
33
65
48
45
97
72
67
114
88
80
122
95
85
127
100
90
129
102
91
129
102
91
128
101
90
127
101
90
125
101
89
122
98
86
119
97
84
117
98
84
115
96
82
113
94
80
111
92
78
109
90
77
108
88
75
107
88
74
109
86
73
109
86
74
109
86
74
107
88
74
105
88
74
103
87
74
99
85
75
97
83
74
97
83
74
97
83
74
98
84
75
98
84
75
95
79
71
94
78
70
94
80
71
95
81
72
95
81
72
89
75
66
80
66
57
67
54
47
42
33
31
23
17
19
20
16
17
15
15
15
15
15
15
15
15
15
16
16
16
16
17
16
18
18
18
20
20
20
21
22
21
23
23
23
26
26
26
86
82
81
126
121
119
145
140
136
150
145
139
151
146
140
148
143
137
13
12
11
101
86
74
169
140
118
191
160
137
181
155
130
182
157
133
188
163
140
188
162
139
171
145
123
140
115
94
126
103
88
142
119
104
162
140
124
171
148
132
174
151
135
178
155
139
196
173
157
193
171
151
183
161
138
187
162
140
194
169
146
188
164
140
204
180
156
206
182
158
199
175
151
186
161
139
178
153
131
174
149
127
167
139
125
156
128
114
142
114
100
124
96
87
105
77
71
90
62
59
75
54
53
65
46
47
58
42
43
53
37
38
50
36
37
46
34
36
48
36
38
52
38
39
61
44
45
76
55
54
91
66
63
105
77
73
118
90
86
123
96
88
126
99
88
124
101
89
125
101
89
123
99
87
121
97
85
119
97
84
115
96
82
112
93
79
111
92
78
108
89
75
107
87
76
106
87
74
106
87
73
107
88
74
107
88
74
107
88
74
105
89
76
103
87
74
101
85
72
97
83
73
93
79
70
92
78
69
90
76
67
88
74
65
85
71
62
87
71
63
93
76
68
97
80
72
96
82
73
95
81
72
92
78
69
84
70
61
67
55
47
35
31
28
26
21
22
19
15
16
14
14
14
14
14
14
15
15
15
16
18
17
17
18
18
19
19
19
20
21
21
20
22
21
21
22
22
23
23
23
74
73
70
141
136
130
144
139
133
147
142
136
147
142
136
147
142
136
72
66
57
127
110
92
189
162
138
192
163
139
195
166
142
188
159
136
174
144
122
163
137
114
156
132
108
154
130
110
167
144
128
152
130
114
141
118
102
155
132
116
162
139
123
175
152
136
175
152
136
176
153
133
201
178
155
205
182
159
176
152
129
184
160
136
195
171
148
188
163
140
177
153
130
168
142
124
162
136
118
155
129
111
146
118
106
132
102
91
115
83
74
100
68
65
92
63
60
88
61
58
81
58
58
74
55
54
71
54
54
66
51
50
62
48
47
59
46
46
61
47
48
63
49
50
66
51
52
72
51
50
78
54
53
84
57
56
99
72
68
114
86
81
120
92
85
121
97
86
121
97
86
122
98
86
120
98
85
118
98
84
115
96
82
112
93
79
109
90
76
106
87
73
105
85
73
104
85
72
105
85
73
104
86
73
104
87
74
104
86
73
101
84
74
98
81
71
96
79
69
92
77
68
90
74
66
87
72
63
85
71
62
84
70
61
82
68
59
79
64
55
79
63
54
85
68
60
92
76
68
94
79
70
92
78
69
86
72
64
71
57
51
38
31
29
22
16
17
16
12
13
12
12
12
12
12
12
13
13
13
13
14
13
15
15
15
17
17
17
18
18
18
19
19
19
20
21
20
23
23
21
30
29
27
132
127
122
145
140
134
149
144
138
152
147
141
153
148
142
133
125
113
169
153
132
187
164
139
187
160
135
182
150
127
170
138
115
169
137
114
169
143
120
171
148
124
164
142
121
146
123
107
146
123
107
156
133
117
147
124
109
141
119
103
150
127
111
162
139
123
200
177
156
207
184
160
172
150
127
166
143
119
182
158
134
173
148
126
170
145
123
163
138
116
156
130
115
149
122
108
140
112
98
126
98
87
112
81
72
105
70
64
106
71
70
107
75
73
105
74
72
98
69
71
92
67
67
88
68
67
84
66
65
83
65
62
80
62
57
79
60
62
80
62
63
81
62
64
79
58
57
79
56
56
78
52
53
81
53
51
96
68
64
109
81
76
114
90
81
118
94
83
119
95
83
117
98
84
116
97
83
114
95
81
110
91
77
106
87
73
103
84
70
101
82
68
100
81
68
102
83
72
102
86
73
103
87
74
103
87
74
101
84
76
97
80
72
92
75
67
88
71
63
84
67
59
81
64
56
79
65
56
79
65
56
80
66
57
80
66
57
79
64
55
80
63
55
82
65
57
86
70
62
91
77
68
91
77
69
83
69
63
56
47
46
38
33
33
29
26
26
23
23
23
22
22
22
22
22
22
24
24
24
24
24
24
26
26
26
27
27
27
29
29
29
30
30
30
32
32
30
36
36
35
102
98
94
150
145
139
152
147
141
154
149
143
158
153
147
80
68
58
137
114
93
181
155
132
185
159
136
181
153
128
177
145
122
181
149
126
170
139
118
161
133
111
159
134
111
158
133
112
161
136
118
136
110
95
129
106
90
135
112
96
148
125
109
165
142
126
193
168
152
175
149
133
163
140
123
172
148
128
164
139
117
161
135
119
160
134
118
153
127
111
146
120
105
136
109
96
126
98
86
110
81
73
100
70
64
117
83
79
143
104
98
152
115
109
152
116
111
123
94
87
116
87
82
114
86
82
112
85
81
108
83
78
105
82
76
104
77
76
103
76
75
102
75
74
97
70
68
94
66
64
88
58
56
79
51
48
75
48
47
90
64
64
103
78
73
109
86
77
111
91
79
112
93
81
113
94
81
112
93
79
109
90
76
107
86
73
104
81
69
103
80
67
102
79
67
105
82
70
103
86
74
104
88
76
103
86
78
101
84
76
96
79
71
92
75
67
87
70
62
83
66
58
79
62
54
75
61
52
72
58
49
72
58
49
72
58
49
72
58
49
74
59
50
78
62
53
82
66
58
85
71
62
89
74
67
87
73
65
70
62
56
53
48
47
44
40
40
35
35
35
31
31
31
28
29
28
27
28
27
24
26
25
23
24
24
24
24
24
24
24
24
25
25
25
27
27
26
29
29
27
47
44
40
178
173
163
180
175
168
171
166
160
167
162
156
92
78
67
147
123
101
185
158
134
189
161
138
192
163
138
187
155
132
170
138
115
164
132
111
163
134
112
170
144
121
166
141
119
136
110
92
128
103
88
128
105
89
137
114
98
146
123
107
170
148
132
167
144
128
164
140
125
168
146
130
171
148
129
160
135
115
158
132
117
150
125
110
145
119
104
138
111
97
129
102
90
117
89
78
100
71
64
111
79
70
168
129
122
194
149
143
200
157
150
191
150
142
154
118
111
142
109
103
140
110
105
136
107
101
134
104
99
130
100
96
126
97
92
124
95
90
122
92
87
124
92
89
112
81
78
98
68
65
86
57
54
74
48
47
73
49
49
91
67
62
101
79
72
105
85
75
110
90
79
111
91
79
110
91
77
107
87
73
106
84
72
105
81
69
104
80
68
105
81
69
105
82
71
103
86
74
104
87
77
102
85
77
100
83
75
97
80
72
92
75
67
89
72
64
85
68
60
81
64
56
75
61
52
71
57
48
67
53
44
64
50
41
63
50
41
63
49
40
69
53
45
73
58
49
77
63
54
80
65
57
76
63
55
55
46
39
36
30
29
26
22
23
17
17
17
14
14
14
12
12
12
10
11
10
10
11
11
11
12
11
12
12
12
14
14
14
14
14
14
15
15
15
16
16
15
21
20
18
109
108
101
167
162
156
168
162
156
167
162
156
70
55
43
143
117
94
191
161
136
198
166
142
191
160
132
183
151
127
173
141
119
175
143
122
182
154
132
176
150
127
154
129
107
138
114
96
130
107
91
137
114
98
144
121
105
165
142
126
166
147
130
162
143
126
168
149
132
178
159
142
170
148
132
161
138
122
154
128
113
147
121
106
140
113
99
132
105
94
123
96
86
110
83
74
100
72
68
139
100
92
198
153
145
209
162
154
209
163
155
197
153
144
174
133
127
164
126
119
161
127
118
162
128
119
159
125
118
156
121
115
153
118
110
150
115
107
154
120
112
162
128
120
133
99
91
113
80
74
95
64
62
78
54
51
68
47
46
81
61
56
93
73
67
101
81
74
106
86
75
108
88
77
108
89
78
109
85
73
107
83
72
106
82
70
105
81
69
103
81
69
102
82
71
102
85
77
102
85
77
100
83
75
97
80
72
94
77
69
91
74
66
88
71
63
86
69
61
82
65
58
75
61
52
70
56
47
65
50
43
63
49
40
63
49
40
63
49
40
68
52
44
73
57
49
76
62
53
78
64
55
73
60
51
47
39
32
31
25
24
22
18
18
13
13
13
10
10
10
9
9
9
9
9
9
10
10
10
10
10
10
10
10
10
11
11
11
12
12
12
15
15
15
17
17
17
21
21
21
30
30
30
147
140
135
165
157
152
165
160
154
103
86
73
162
136
113
193
163
137
198
167
141
190
161
135
186
158
133
186
157
133
190
158
136
184
154
131
169
140
117
156
130
108
140
116
96
138
115
97
146
123
107
161
138
122
172
149
133
168
149
132
176
157
140
181
163
145
183
166
148
173
154
137
160
139
122
153
129
114
145
120
106
137
110
98
128
101
91
120
93
83
112
85
76
110
81
76
157
110
105
198
146
140
206
157
150
207
158
151
200
153
145
188
145
137
181
140
132
180
143
133
182
146
136
181
144
135
179
143
134
179
143
132
177
141
129
193
158
147
186
148
138
156
116
108
132
92
87
105
72
69
83
57
56
72
51
50
79
58
56
89
68
63
96
76
69
102
82
73
105
85
75
106
86
75
107
85
73
106
84
73
106
85
73
107
85
73
105
85
74
105
87
75
102
85
77
102
85
77
99
82
74
97
80
72
95
78
70
91
74
66
88
71
63
84
67
59
82
65
57
76
61
53
70
56
48
66
52
45
65
51
42
65
51
42
67
53
44
71
56
48
74
59
51
73
61
53
71
59
52
59
48
42
42
35
32
29
23
24
20
16
17
12
12
12
10
10
10
10
10
10
9
9
9
9
9
9
9
9
9
11
11
11
11
11
11
11
11
11
13
13
13
14
14
14
17
17
17
21
21
21
90
85
82
162
155
149
166
158
150
116
98
84
156
130
107
190
161
133
196
165
138
193
167
142
195
169
144
193
166
142
192
160
137
178
146
123
169
137
114
153
127
104
147
124
102
153
131
111
160
137
121
174
151
135
174
151
135
179
160
143
184
165
148
187
169
152
190
175
156
179
162
144
167
148
131
159
136
120
147
122
109
137
110
99
129
102
93
122
95
86
116
90
81
119
89
83
165
115
109
191
136
131
201
145
140
201
148
142
199
149
142
193
149
140
192
150
141
196
156
146
199
161
150
202
164
153
203
165
154
203
165
154
203
169
155
226
194
181
199
157
148
172
126
120
145
100
95
113
79
74
88
62
60
78
57
56
83
62
61
89
68
65
96
76
69
103
83
76
106
86
77
107
87
76
108
88
77
110
90
79
109
89
78
110
91
80
109
90
79
106
90
77
103
86
78
102
85
77
99
82
74
97
80
72
95
78
70
92
75
67
90
73
65
86
69
61
81
64
56
75
60
53
71
56
49
67
52
45
67
52
44
66
52
43
68
54
45
72
57
49
73
60
52
70
60
51
60
51
46
37
29
25
22
16
16
18
12
13
14
10
11
10
10
10
9
9
9
8
8
8
8
8
8
8
8
8
8
8
8
9
9
9
10
10
10
10
10
10
11
11
11
12
12
12
16
16
16
21
21
21
24
25
22
140
135
128
171
162
153
80
65
53
141
118
96
187
161
136
203
177
152
207
181
156
202
176
151
197
171
146
187
156
128
180
149
124
174
143
120
161
137
113
158
134
111
158
133
111
169
144
122
174
149
131
178
157
140
183
164
147
188
169
152
197
178
161
199
180
163
191
172
155
180
161
144
168
145
129
153
128
115
141
114
103
132
105
94
126
99
89
122
95
86
127
95
87
169
115
110
185
128
123
195
137
127
199
142
131
200
144
133
197
147
140
198
150
142
204
162
153
210
172
161
216
180
169
218
184
172
217
183
171
226
196
184
244
217
206
209
167
158
180
132
124
155
105
98
122
83
80
89
65
63
84
63
62
87
66
65
90
71
67
95
78
71
103
86
78
107
90
82
110
93
84
111
97
84
112
98
85
111
96
83
111
96
87
111
95
86
108
91
83
104
87
79
98
81
73
95
78
70
91
74
66
89
72
64
88
72
64
86
69
61
83
66
58
79
62
54
75
61
52
72
58
50
70
55
48
69
55
46
69
55
46
71
57
48
71
57
48
70
56
47
57
47
38
38
32
28
19
18
18
11
10
11
9
8
8
7
7
7
7
7
7
6
6
6
7
7
7
7
7
7
5
5
5
5
5
5
6
6
6
7
7
7
7
7
7
8
8
8
10
10
10
14
14
14
18
18
18
23
23
21
70
68
64
166
161
155
82
67
55
138
115
94
192
166
142
210
184
159
209
183
158
206
180
155
196
169
144
189
159
132
186
156
130
172
142
118
162
137
114
158
133
110
161
136
114
166
141
119
168
143
125
176
155
138
176
157
140
181
161
144
195
175
158
198
179
162
198
179
162
189
170
153
177
155
139
160
136
123
148
121
110
138
111
100
131
104
94
127
100
90
131
99
91
168
114
109
181
123
118
189
131
120
193
136
126
195
138
129
194
141
135
195
145
138
206
163
154
215
177
166
227
192
180
227
194
182
226
192
180
231
200
188
239
210
199
206
157
150
182
130
124
158
107
101
123
84
81
91
68
65
86
65
63
89
68
66
93
74
69
99
83
76
107
90
82
111
94
86
114
98
89
114
100
89
115
101
89
114
100
89
113
99
90
111
96
88
109
92
84
104
87
79
99
82
74
94
77
69
89
72
64
87
70
62
84
67
59
83
66
58
81
64
56
78
62
54
73
59
50
72
58
49
72
57
50
73
59
50
73
58
50
73
59
50
72
58
50
63
51
44
35
29
25
13
11
8
7
8
7
6
6
6
5
5
5
5
5
5
5
5
5
5
5
5
5
5
5
5
5
5
5
5
5
6
6
6
5
5
5
6
6
6
6
6
6
7
7
7
9
9
9
12
12
12
16
16
16
20
20
19
22
22
19
125
121
117
87
72
61
140
116
97
184
158
134
203
177
152
210
184
159
206
180
155
198
172
147
197
171
146
187
161
136
177
151
126
167
141
118
162
137
114
162
136
115
147
120
99
152
128
110
155
132
116
154
132
115
165
142
126
187
164
148
196
177
160
201
182
165
197
178
161
186
167
150
171
149
135
156
132
120
147
120
109
137
109
98
131
104
93
136
102
95
166
114
108
177
119
114
182
124
113
186
127
120
187
128
124
188
130
126
192
140
134
205
158
150
217
177
167
231
199
186
227
193
181
226
188
177
229
191
180
225
183
174
198
144
139
177
121
117
157
105
99
117
82
77
92
69
64
89
68
63
93
72
67
99
80
74
105
88
81
111
94
86
114
98
90
116
102
93
117
103
94
117
103
94
115
101
92
112
98
89
110
94
86
106
89
81
101
84
76
94
77
69
88
71
63
84
67
59
82
65
57
80
63
55
80
63
55
79
63
55
77
64
55
76
62
53
72
58
49
74
60
51
76
62
53
78
63
55
78
63
56
74
59
52
55
43
37
25
21
20
9
9
9
6
6
6
5
5
5
4
4
4
4
4
4
4
4
4
4
4
4
4
4
4
4
4
4
4
4
4
4
4
4
4
4
4
4
4
4
5
5
5
6
6
6
7
7
7
8
8
8
11
11
11
15
17
16
21
23
22
37
37
37
91
77
66
120
98
81
166
140
118
196
170
146
207
181
156
206
181
157
208
183
159
206
181
157
193
168
144
180
155
131
168
142
119
161
136
113
155
128
106
149
118
99
150
123
103
141
116
97
134
107
89
157
131
114
178
154
138
193
171
155
202
182
165
202
183
166
195
176
159
183
161
146
167
144
129
155
129
115
144
116
104
136
106
96
139
104
94
164
112
105
172
115
110
177
119
112
179
120
115
179
120
116
178
120
116
187
134
128
200
151
144
215
172
163
226
187
177
220
179
169
220
176
168
220
172
165
210
156
150
190
132
128
171
116
109
150
101
94
111
79
75
95
69
65
96
72
68
99
78
73
105
86
80
112
95
87
117
100
92
118
102
94
119
105
96
119
105
96
118
104
95
114
100
91
110
96
87
106
91
82
101
84
76
97
80
72
91
74
66
85
68
60
80
63
55
77
60
52
77
60
52
76
61
52
77
63
54
78
64
55
78
64
55
76
62
53
74
60
52
76
62
54
80
65
58
81
66
59
75
61
54
48
38
34
26
21
21
15
14
14
6
6
6
5
5
5
4
4
4
4
4
4
4
4
4
4
4
4
4
4
4
4
4
4
4
4
4
4
4
4
5
5
5
5
5
5
4
4
4
4
4
4
6
6
6
8
9
9
10
11
10
11
13
12
15
17
16
20
21
21
64
50
40
99
78
62
155
130
108
188
162
138
201
175
150
210
185
161
210
186
162
203
179
155
191
167
143
175
151
127
165
139
116
159
134
111
149
121
99
146
113
94
136
104
85
129
98
78
130
103
82
154
128
110
169
143
128
184
162
146
197
176
159
203
184
167
202
183
166
196
174
158
181
158
142
167
141
126
154
126
113
142
112
102
145
109
97
163
113
104
168
113
108
173
114
110
174
115
111
174
115
111
174
115
111
182
124
120
195
140
135
205
156
149
214
168
160
214
167
159
212
163
156
211
156
151
200
140
136
182
123
119
165
110
103
142
95
88
109
78
74
101
75
71
104
79
75
106
85
80
111
92
86
116
99
91
121
104
96
121
106
97
121
107
98
119
105
96
117
103
94
111
97
88
105
91
82
100
85
76
95
78
70
90
73
65
85
68
60
78
61
53
75
58
50
74
57
49
74
57
49
73
59
50
76
62
53
78
64
55
79
65
56
81
67
58
79
65
56
78
63
56
78
63
56
79
64
57
69
56
49
44
36
33
30
25
25
23
23
23
13
13
13
6
6
6
4
4
4
4
4
4
4
4
4
4
4
4
4
4
4
3
3
3
3
3
3
3
3
3
3
3
3
4
4
4
4
4
4
4
4
4
5
5
5
6
7
7
8
10
9
9
12
11
12
14
13
16
18
17
54
43
33
95
77
64
147
123
104
178
152
126
199
173
148
207
183
158
205
181
157
203
179
155
190
166
142
177
153
129
164
140
116
162
138
114
146
118
96
137
105
84
131
102
80
133
107
84
141
114
93
145
118
101
156
128
114
168
142
127
186
161
145
201
181
164
205
186
169
203
184
167
192
173
156
180
159
142
169
144
128
159
129
116
160
120
110
164
117
109
168
112
107
170
112
108
171
113
109
171
112
108
170
112
108
177
119
115
186
128
124
196
138
134
204
148
143
207
152
147
205
148
144
202
141
138
191
126
124
172
112
108
158
101
97
134
91
87
109
80
76
105
81
75
110
85
80
112
92
85
117
98
91
120
103
95
122
105
97
124
108
99
121
107
98
119
105
96
115
101
92
108
94
85
100
86
77
93
78
70
89
72
64
84
67
59
80
61
54
75
55
48
71
54
46
71
54
46
72
55
47
76
59
51
78
61
53
82
65
57
83
69
60
82
68
59
82
68
59
79
65
56
76
62
54
71
56
49
49
42
37
29
27
26
27
26
27
24
24
24
20
20
20
13
13
13
7
8
8
4
6
5
4
6
5
3
5
4
3
4
3
3
3
3
4
4
4
4
4
4
4
4
4
4
4
4
4
4
4
4
4
4
6
6
6
7
7
7
8
8
8
10
12
11
12
14
13
15
17
16
59
49
39
97
80
67
148
122
103
182
154
130
192
166
141
199
174
150
206
182
158
206
182
158
188
164
140
177
153
130
176
152
129
163
138
115
149
122
100
144
114
93
148
120
98
146
120
98
138
111
93
139
112
96
147
119
105
153
127
112
176
151
135
198
176
160
205
186
169
206
187
170
201
182
165
194
174
157
186
163
147
178
150
136
174
136
123
168
123
112
168
114
107
168
111
107
167
109
105
166
108
104
166
108
104
172
114
110
178
120
116
184
126
122
193
133
130
198
137
133
198
135
133
192
128
126
179
114
112
163
104
100
149
97
92
130
91
85
113
86
79
113
88
81
115
91
84
118
98
90
121
102
93
124
107
98
127
110
100
125
110
100
122
109
98
118
104
95
112
98
89
100
86
77
92
77
68
85
69
61
82
65
57
79
61
53
76
57
50
74
54
47
70
52
45
70
53
45
73
56
48
78
61
53
83
66
58
85
68
60
87
71
63
86
71
62
84
69
61
80
65
57
73
59
52
62
48
42
35
28
25
15
13
12
12
12
12
16
16
16
19
19
19
16
16
16
14
15
14
9
10
10
8
9
8
6
7
6
5
5
5
4
4
4
4
4
4
4
4
4
4
4
4
4
4
4
4
4
4
4
4
4
6
6
6
6
6
6
7
7
7
8
10
9
10
12
11
12
14
13
51
41
33
84
67
54
143
114
94
177
145
124
181
155
132
189
164
140
192
168
144
188
164
140
187
163
139
183
159
136
180
155
133
167
142
120
167
142
120
172
145
124
167
140
119
156
129
108
148
120
106
149
122
107
150
124
109
153
127
112
169
145
129
189
166
150
199
180
163
203
184
167
202
183
166
198
179
162
196
176
159
193
166
151
183
153
133
174
133
117
168
119
105
165
110
105
164
107
103
163
105
101
165
107
103
168
110
106
170
112
108
176
117
113
185
123
120
191
126
124
191
127
125
184
119
117
172
107
105
156
98
94
140
93
87
128
91
83
121
94
83
121
96
85
123
99
89
123
103
92
125
107
95
127
111
98
127
111
98
124
109
96
119
105
92
115
101
92
106
92
83
92
78
69
83
66
58
77
60
52
74
57
49
73
54
47
73
53
46
73
53
46
74
54
47
74
55
48
74
57
49
78
61
53
81
64
56
85
68
60
87
70
62
87
71
63
84
69
62
79
64
57
69
54
49
50
39
35
25
19
20
13
9
10
9
9
9
6
6
6
8
8
8
11
11
11
12
12
12
13
13
13
11
11
11
9
9
9
9
9
9
7
7
7
5
5
5
6
6
6
6
6
6
6
6
6
5
5
5
6
6
6
6
6
6
8
8
8
9
9
9
8
10
9
10
12
11
12
14
13
70
57
52
93
73
57
155
126
106
174
142
121
174
144
121
176
146
123
179
150
127
184
159
136
185
159
136
184
159
135
173
149
125
177
153
130
191
168
145
189
165
143
180
156
137
169
145
128
165
141
125
155
129
114
149
123
108
154
128
113
162
138
122
173
150
134
181
162
147
193
174
159
196
177
162
198
179
162
197
176
160
195
171
155
188
162
141
179
143
125
169
124
109
163
112
105
160
106
101
160
104
99
161
103
99
164
106
102
168
109
105
170
111
107
177
115
112
183
118
116
184
119
117
177
112
110
165
103
101
149
97
91
136
94
86
127
96
86
125
100
88
125
102
91
126
105
94
127
107
96
128
110
100
128
111
102
125
110
100
123
108
98
119
102
93
112
98
89
102
88
79
88
74
65
78
62
54
74
57
49
71
54
46
71
51
44
71
51
44
73
53
46
77
57
50
78
59
52
79
62
54
82
65
57
83
66
58
86
69
61
86
69
61
85
69
62
82
67
63
74
61
56
61
49
45
40
30
28
19
16
17
11
9
10
7
7
7
5
6
5
5
5
5
5
5
5
6
6
6
9
9
9
10
10
10
10
10
10
11
11
11
10
10
10
8
8
8
7
7
7
7
7
7
6
6
6
5
5
5
5
5
5
6
6
6
6
7
6
7
8
8
8
10
9
9
11
10
11
13
12
62
48
43
120
98
82
156
126
106
166
134
113
170
138
115
172
140
117
176
145
122
174
148
125
180
154
131
163
137
114
154
125
103
172
148
125
182
160
137
174
152
129
165
143
124
164
141
125
157
134
118
148
124
108
150
124
109
152
126
111
151
127
112
156
133
118
160
141
127
170
151
137
179
160
146
188
169
152
194
172
156
194
171
154
191
165
144
181
149
130
168
129
112
161
112
105
158
105
99
157
102
97
159
101
97
161
103
99
164
105
101
169
110
106
174
112
109
179
114
112
177
113
111
170
107
104
156
101
96
143
97
89
134
99
89
127
102
90
128
104
92
128
106
94
128
108
97
130
110
99
128
110
101
127
110
102
122
108
99
117
102
93
113
96
88
104
90
81
94
80
71
83
69
60
76
59
51
72
55
47
70
53
45
71
51
44
72
52
45
74
54
47
79
59
52
82
63
56
83
66
58
85
68
60
88
71
63
86
69
61
84
67
59
80
64
58
76
61
58
68
56
53
55
44
40
36
26
25
15
13
13
10
10
10
8
8
8
5
7
6
5
6
5
5
5
5
4
4
4
5
5
5
5
5
5
6
6
6
8
8
8
9
9
9
10
10
10
10
10
10
10
10
10
9
9
9
9
9
9
8
8
8
8
8
8
8
8
8
8
10
9
8
10
9
10
12
11
14
16
15
75
65
57
121
99
83
159
127
105
169
137
116
172
140
118
171
139
116
168
136
114
163
131
110
148
116
95
134
102
81
139
107
86
155
127
105
162
137
115
163
138
116
163
138
119
159
133
118
153
127
112
136
112
95
123
101
83
116
98
83
116
97
84
119
100
88
128
107
97
142
122
110
155
136
121
174
155
138
184
163
147
189
165
150
186
163
147
177
148
134
162
128
116
156
114
104
152
104
96
151
101
94
156
98
94
157
99
95
162
103
99
167
108
104
172
110
107
173
108
106
167
108
104
159
103
98
147
99
91
139
98
89
133
101
90
129
103
92
127
107
94
127
107
95
128
108
97
127
109
102
125
109
101
121
107
98
116
102
93
110
95
86
102
85
77
93
76
68
83
67
59
76
62
53
70
56
47
70
54
46
69
52
44
72
52
45
75
55
48
79
59
52
82
62
55
86
67
60
87
70
62
86
70
62
86
70
62
83
69
60
78
64
55
73
59
53
68
53
50
60
49
48
50
40
39
38
29
28
20
14
16
7
7
7
7
7
7
5
5
5
4
4
4
4
4
4
4
4
4
4
4
4
4
4
4
4
4
4
6
6
6
6
6
6
7
7
7
9
9
9
11
11
11
12
12
12
11
11
11
10
10
10
11
11
11
10
11
10
10
12
11
12
14
13
15
17
16
17
19
18
80
71
62
116
97
80
166
137
113
175
145
122
175
143
118
171
139
115
163
132
109
150
118
96
134
102
81
127
95
74
129
99
78
144
117
96
155
130
109
153
128
109
146
120
103
139
113
98
123
97
82
103
79
65
95
72
60
87
71
60
88
72
63
93
76
68
110
91
81
124
106
94
136
118
104
148
129
114
165
145
130
176
154
139
177
154
138
169
142
127
159
126
113
152
111
102
151
104
96
151
102
95
153
99
93
154
98
93
158
101
97
162
104
100
164
104
100
165
103
100
160
101
97
152
99
93
143
99
91
136
102
90
132
104
91
130
105
93
126
107
93
125
106
93
125
105
94
122
105
97
118
102
94
113
98
89
107
92
84
99
83
75
89
72
64
80
63
55
73
58
49
70
56
47
68
54
45
69
54
45
71
54
46
72
54
46
75
57
49
78
60
52
81
63
55
85
67
59
86
69
61
85
68
60
84
67
59
80
64
56
75
60
52
66
52
45
56
43
39
50
40
39
42
33
32
37
28
28
25
19
20
10
8
8
6
6
6
4
4
4
4
4
4
4
4
4
3
3
3
4
4
4
4
4
4
4
4
4
4
4
4
4
4
4
5
5
5
5
5
5
6
6
6
6
6
6
8
8
8
11
11
11
11
12
11
14
15
14
15
17
16
19
21
20
20
22
21
20
22
21
86
77
68
143
124
102
177
149
122
179
152
127
180
149
121
175
144
119
167
135
112
153
121
98
132
100
79
126
95
74
133
106
85
142
116
95
144
119
98
137
111
96
133
107
92
122
97
82
103
77
62
92
67
55
87
63
53
80
63
55
69
53
45
80
63
55
88
71
63
97
80
70
105
88
77
119
99
88
134
115
102
154
134
120
159
136
120
156
130
115
154
121
109
151
111
101
149
104
95
148
101
93
149
99
92
151
98
92
154
99
94
158
100
96
159
101
97
157
99
95
153
98
93
145
99
91
140
101
91
133
103
90
129
104
91
127
103
91
122
103
89
121
101
89
119
99
87
112
95
87
108
91
83
101
84
76
95
78
70
89
72
64
80
63
55
72
56
48
66
50
42
64
50
41
65
51
42
70
54
46
71
54
46
71
54
46
72
55
47
75
58
50
77
61
53
80
63
55
80
64
56
79
62
54
78
61
53
74
57
49
67
52
45
62
49
41
46
35
30
39
29
28
36
28
27
29
23
23
26
20
20
14
10
10
7
7
7
5
5
5
4
4
4
3
3
3
3
3
3
3
3
3
3
3
3
2
2
2
3
3
3
3
3
3
3
3
3
4
4
4
3
3
3
4
4
4
5
5
5
7
7
7
9
11
10
13
15
14
14
16
15
18
20
19
20
22
21
21
23
22
108
94
78
161
137
112
187
157
131
189
158
135
188
156
132
181
149
126
170
138
115
155
123
100
138
106
84
137
105
84
137
110
89
137
111
92
136
110
94
136
110
95
131
105
90
109
83
68
95
71
58
89
67
55
84
63
53
65
48
41
62
45
38
62
46
39
66
50
42
78
61
54
84
67
59
97
77
69
115
96
86
128
108
97
133
110
97
135
111
97
144
114
101
146
111
99
147
105
95
146
101
92
145
98
90
147
97
91
149
97
94
150
98
95
152
99
96
151
98
95
147
99
92
141
101
92
137
105
95
133
107
95
129
106
93
124
104
90
118
98
87
111
92
80
105
88
76
98
81
73
91
74
66
86
69
61
78
64
55
76
61
52
70
56
47
66
51
44
62
47
39
62
47
39
65
51
43
69
54
46
73
56
48
73
56
48
73
56
48
74
57
49
73
58
51
73
58
51
72
57
50
69
53
46
65
50
43
62
47
39
57
45
40
51
39
35
46
34
33
33
26
24
31
25
24
29
23
23
26
20
20
16
12
12
7
7
7
5
5
5
4
4
4
3
3
3
3
3
3
3
3
3
3
3
3
3
3
3
3
3
3
3
3
3
3
3
3
3
3
3
4
4
4
4
4
4
4
4
4
5
5
5
6
6
6
8
8
8
13
13
13
15
17
16
17
19
18
19
21
20
134
118
99
182
156
130
192
161
135
194
162
138
190
159
135
182
150
127
174
142
119
160
129
106
148
116
94
144
113
92
136
109
88
132
106
88
135
109
94
131
105
90
113
88
73
103
77
63
95
71
60
86
64
53
66
46
36
53
36
29
51
34
27
53
36
29
60
43
36
67
50
43
73
56
48
86
66
59
99
79
70
106
86
76
109
85
74
120
96
82
136
108
94
140
111
97
142
106
95
141
103
92
144
98
89
144
95
90
145
95
92
145
95
92
146
95
92
146
95
92
142
100
91
138
104
94
135
108
97
132
108
96
128
106
93
119
100
86
110
91
80
101
83
71
93
77
64
85
68
60
76
59
52
73
56
48
67
53
44
66
52
44
65
51
42
64
49
42
59
44
37
59
44
37
65
50
43
68
53
45
72
55
47
71
54
46
70
54
46
70
53
45
67
52
45
66
51
44
64
49
42
60
45
39
57
43
36
53
39
32
47
36
32
43
32
29
37
26
26
28
22
20
27
21
20
27
21
21
23
17
17
15
11
11
8
7
7
5
5
5
4
4
4
4
4
4
4
4
4
4
4
4
4
4
4
3
3
3
2
2
2
3
3
3
3
3
3
3
3
3
3
3
3
3
3
3
4
4
4
4
4
4
4
4
4
7
7
7
10
10
10
13
15
14
15
17
16
16
18
17
158
134
109
190
159
132
193
162
134
195
164
136
192
161
133
185
153
128
178
146
123
165
139
114
157
131
107
148
122
100
139
112
91
136
109
92
131
105
90
119
93
78
114
88
73
106
80
65
91
67
57
73
51
43
62
42
35
58
41
33
59
42
34
61
44
36
64
44
37
66
46
39
71
51
44
83
63
56
87
67
60
89
69
62
95
75
64
107
85
74
120
97
85
135
107
96
139
108
96
138
103
91
139
100
90
139
97
89
139
94
89
139
94
89
137
93
88
137
94
89
134
97
89
132
102
92
130
106
94
128
104
92
121
100
87
109
90
77
97
81
68
88
72
61
81
64
56
74
57
50
66
50
43
64
47
40
60
45
38
60
45
38
60
45
38
60
45
38
59
44
37
59
44
37
61
46
40
63
48
42
64
50
43
65
48
41
63
47
40
61
47
40
59
44
37
58
43
36
57
42
35
55
40
36
52
39
36
48
37
33
44
35
30
40
31
28
34
24
23
24
17
17
22
16
16
26
20
20
23
17
17
19
13
14
15
9
11
8
7
7
5
5
5
4
4
4
4
4
4
4
4
4
4
4
4
3
3
3
3
3
3
3
3
3
3
3
3
3
3
3
3
3
3
3
3
3
3
3
3
4
4
4
4
4
4
6
6
6
8
8
8
11
13
12
12
14
13
13
15
14
172
143
118
191
160
132
193
162
134
195
164
136
192
161
133
188
157
130
182
151
125
173
147
123
166
141
117
156
130
107
143
117
96
132
106
88
124
98
83
117
91
76
104
79
65
93
69
55
81
59
47
75
54
44
74
54
45
76
57
48
75
56
47
70
52
42
69
49
42
69
49
42
76
56
49
77
57
50
79
59
52
80
61
54
87
67
58
90
69
58
100
78
67
123
97
87
130
100
90
130
98
88
130
98
87
131
95
86
131
91
84
129
91
84
129
92
85
130
94
87
129
99
90
128
102
92
124
102
90
119
97
86
109
89
77
96
78
65
86
69
58
79
63
53
74
58
50
69
53
46
64
48
41
60
44
37
58
43
36
58
43
36
59
44
37
58
43
36
57
42
35
56
41
35
57
42
35
59
44
37
59
44
37
57
41
34
54
38
31
53
38
31
50
35
30
51
36
30
50
35
30
50
36
33
48
36
32
44
33
30
39
30
27
35
26
23
31
21
20
22
16
16
17
11
11
21
15
15
23
17
17
20
14
14
17
11
12
12
9
9
8
7
7
5
5
5
5
5
5
4
4
4
4
4
4
4
4
4
4
4
4
4
4
4
4
4
4
4
4
4
4
4
4
4
4
4
4
4
4
6
6
6
6
6
6
9
9
9
12
12
12
14
16
15
15
17
16
16
18
17
180
150
127
194
163
134
193
162
134
196
165
137
194
163
135
189
158
130
183
153
125
178
152
129
172
147
124
160
136
112
144
119
97
131
105
87
118
92
77
109
83
68
104
79
66
96
72
60
90
71
57
89
70
57
90
70
59
91
71
60
86
66
55
79
59
48
76
57
50
77
57
50
72
52
45
67
48
41
66
48
41
68
51
43
74
54
47
79
59
50
89
69
58
101
77
67
104
80
70
109
84
74
115
87
76
117
88
77
115
85
75
117
87
77
117
87
78
118
90
82
120
93
84
116
93
83
109
89
78
99
80
69
89
71
61
80
63
55
74
57
49
69
53
46
65
50
43
62
47
40
59
44
37
56
41
34
56
41
34
56
41
34
55
40
34
54
39
32
54
39
32
53
38
31
53
38
31
54
39
32
53
38
31
51
36
29
48
33
26
46
31
24
46
31
28
46
31
28
47
32
29
45
34
30
45
34
30
44
33
29
38
28
27
34
24
23
28
18
17
22
15
15
17
11
11
15
9
9
23
17
17
21
15
15
19
13
13
15
9
9
12
8
8
7
8
7
5
5
5
5
5
5
5
5
5
4
4
4
4
4
4
4
4
4
4
4
4
4
4
4
3
3
3
4
4
4
4
4
4
4
4
4
5
5
5
7
7
7
11
11
11
12
13
12
14
16
15
16
18
17
187
157
130
195
164
136
194
163
135
197
166
138
196
165
137
193
162
134
192
161
134
188
157
134
177
149
126
158
132
109
144
119
97
126
100
82
115
89
74
111
85
70
105
80
67
100
76
64
96
73
60
97
76
63
96
77
64
96
73
61
93
70
58
90
67
55
84
64
53
73
53
44
60
40
33
55
38
31
56
39
32
60
43
36
65
48
41
74
55
48
79
59
51
81
61
53
80
60
51
85
65
54
91
70
60
92
68
58
90
64
55
92
65
60
93
69
61
94
73
63
94
73
63
91
72
63
85
67
59
76
59
50
69
52
45
63
48
41
61
45
38
59
44
37
58
43
36
56
42
35
56
41
34
54
39
32
53
38
34
52
37
34
52
37
34
51
36
32
48
34
30
47
32
28
46
31
28
47
32
28
48
33
30
49
34
31
49
34
30
47
32
29
45
30
27
44
30
27
43
31
27
43
32
28
43
32
28
40
29
25
34
24
23
28
20
19
23
16
16
18
12
12
15
9
9
15
9
9
20
15
15
22
16
16
21
15
15
18
12
12
16
10
10
13
7
9
6
5
5
4
4
4
4
4
4
3
3
3
3
3
3
4
4
4
3
3
3
3
3
3
3
3
3
3
3
3
4
4
4
4
4
4
5
5
5
7
7
7
11
11
11
13
14
14
14
16
15
17
19
18
187
157
130
194
163
135
193
162
134
197
166
138
200
169
141
199
168
140
196
165
137
191
159
135
172
142
119
156
128
106
140
115
93
122
96
78
114
88
72
108
82
67
101
76
62
97
73
60
97
73
60
98
76
62
97
76
62
98
73
61
92
67
55
85
61
49
73
52
41
66
45
36
60
39
32
53
35
29
51
33
27
52
35
28
56
39
32
62
43
36
66
47
40
65
46
39
65
45
39
66
46
41
64
48
41
61
43
37
62
41
36
62
42
36
61
42
36
62
45
39
64
45
40
65
47
40
61
45
37
59
42
34
54
38
31
51
36
30
52
37
30
52
37
30
52
37
30
51
36
29
51
36
30
50
35
29
47
32
29
47
32
29
47
32
29
45
31
28
44
30
27
41
26
23
41
26
23
42
28
24
43
29
26
46
31
28
47
32
29
47
33
30
46
31
28
45
31
28
42
31
27
41
30
26
41
30
26
39
28
24
34
24
23
27
19
18
21
15
15
16
10
10
15
9
9
14
8
8
17
11
11
24
18
18
21
15
15
19
13
13
16
10
11
14
8
10
7
6
7
5
5
5
3
3
3
3
3
3
3
3
3
3
3
3
3
3
3
3
3
3
3
3
3
4
4
4
4
4
4
4
4
4
5
5
5
7
7
7
10
10
10
11
13
12
12
14
13
13
15
14
185
155
129
191
160
132
194
163
135
201
170
142
204
173
145
203
172
144
199
168
140
189
158
130
168
137
110
151
120
97
134
108
85
124
97
76
117
90
72
113
88
73
110
84
69
111
85
70
114
88
73
111
87
71
103
80
64
100
74
59
93
67
54
86
59
48
79
55
43
75
51
40
69
45
36
59
38
33
54
35
29
51
34
27
55
34
29
56
35
29
56
37
30
53
36
29
54
37
32
55
37
35
49
34
31
48
33
30
49
34
31
49
34
31
48
33
30
48
33
31
50
35
32
50
36
33
51
36
33
50
35
29
48
34
27
48
33
26
49
34
27
49
34
27
49
35
28
48
33
26
46
31
26
44
29
26
42
27
25
42
27
24
43
28
25
39
28
24
38
27
23
37
26
22
37
27
23
39
28
24
39
28
24
45
30
27
47
32
29
47
32
29
47
32
29
45
31
28
42
31
27
41
30
26
40
29
25
38
27
23
34
24
22
28
20
19
22
16
16
19
13
13
17
11
11
15
9
9
17
11
11
27
21
21
26
20
20
22
16
16
20
14
14
15
9
9
8
7
8
5
5
5
3
3
3
3
3
3
3
3
3
2
2
2
2
2
2
2
2
2
3
3
3
3
3
3
4
4
4
4
4
4
5
5
5
7
7
7
9
9
9
11
13
12
12
14
13
14
16
15
185
156
129
192
161
133
199
168
140
205
174
146
206
175
145
205
173
143
197
164
134
184
151
122
172
140
112
159
128
102
149
120
98
143
115
94
140
114
93
135
109
90
130
104
86
126
101
82
118
91
77
105
79
64
98
74
58
95
69
54
89
63
50
85
58
47
82
58
47
82
58
48
78
54
44
66
45
39
58
39
32
56
37
30
56
35
29
57
37
31
56
36
29
55
36
29
53
34
30
50
32
30
42
26
26
40
25
23
44
29
26
46
31
28
45
30
27
44
29
26
43
28
25
44
29
26
45
30
27
44
29
25
45
30
26
46
31
27
46
31
26
44
30
25
45
30
25
43
28
24
42
27
23
41
27
24
40
27
23
39
27
23
40
27
24
40
29
25
40
29
25
40
29
25
39
28
24
40
29
25
40
29
25
43
28
25
43
29
26
45
30
27
47
32
29
45
32
29
43
32
28
42
31
27
42
31
27
38
27
23
34
24
22
29
19
19
25
16
17
19
13
13
17
11
11
15
9
9
16
10
10
23
17
17
24
18
18
22
16
16
21
15
15
17
11
11
12
8
8
7
5
5
5
5
5
4
4
4
3
3
3
3
3
3
3
3
3
3
3
3
3
3
3
3
3
3
5
5
5
4
4
4
4
4
4
6
6
6
9
9
9
12
14
13
14
16
15
15
17
16
