P3
100 200
255
135
131
126
138
134
128
135
130
125
131
126
121
128
124
118
129
123
117
132
122
112
140
122
104
145
119
100
152
123
104
164
135
116
174
149
129
183
159
139
185
164
142
190
168
147
189
167
146
184
164
142
179
159
138
176
156
135
171
151
130
172
151
130
171
149
127
167
146
124
154
136
114
147
131
114
146
135
122
145
139
132
147
142
137
148
144
138
150
145
140
150
145
140
146
142
136
146
142
136
145
141
135
142
138
133
143
138
133
142
137
132
141
137
131
140
136
130
138
134
128
135
130
125
133
128
123
131
127
121
129
124
119
129
124
119
127
123
118
125
121
115
117
113
107
98
93
88
108
104
95
107
103
95
110
106
100
110
107
97
112
108
98
113
109
99
113
109
103
113
109
103
113
108
103
115
111
105
136
131
127
145
141
138
151
146
144
154
150
146
156
151
146
156
152
146
158
153
148
160
156
150
165
159
150
172
165
154
178
170
156
182
169
152
181
165
146
168
148
127
143
123
102
134
110
91
132
108
89
131
106
87
129
104
88
127
103
90
121
100
86
116
95
80
108
88
73
99
79
64
92
75
60
170
164
157
183
183
181
183
183
181
180
180
178
179
179
177
179
179
177
178
178
176
178
178
176
178
178
176
179
179
177
184
179
179
187
181
181
187
181
181
188
183
181
188
183
180
189
185
179
153
148
142
157
152
146
152
146
140
148
141
135
146
139
134
145
138
130
149
137
125
156
137
117
163
133
112
170
138
117
183
151
130
195
166
144
202
179
155
208
185
160
209
185
161
207
184
160
202
180
156
199
177
154
193
171
148
189
167
143
188
165
142
187
163
139
184
160
136
173
151
127
165
145
124
163
150
133
162
154
142
162
155
148
162
157
151
163
158
152
164
159
153
162
157
151
160
155
149
159
154
148
158
153
147
158
153
147
157
152
146
157
152
146
156
151
145
154
149
143
151
146
140
148
143
137
146
141
135
145
140
134
144
139
133
142
137
131
139
134
128
131
126
120
110
105
99
122
117
109
121
116
109
123
118
112
125
121
112
126
122
113
127
123
115
128
121
116
125
119
114
125
120
114
129
124
119
152
147
143
164
159
156
168
163
160
171
166
163
173
168
164
174
169
163
176
171
165
179
174
168
186
178
168
196
184
173
202
189
174
204
188
167
197
179
156
183
161
137
159
135
113
150
124
103
149
123
101
147
120
99
143
118
98
141
117
101
135
114
98
130
108
92
123
100
84
112
89
73
105
86
71
189
181
174
202
202
200
203
203
201
201
201
199
200
200
198
200
200
198
200
200
198
200
200
198
204
203
201
207
204
203
210
205
205
213
207
206
212
207
205
212
207
204
213
208
204
215
210
204
154
150
144
160
155
149
154
146
141
150
141
136
147
138
133
147
138
130
150
137
125
155
136
116
164
132
111
169
137
116
182
150
129
196
167
145
202
181
157
209
187
163
211
189
165
209
187
163
204
182
158
200
178
155
196
174
151
191
169
146
190
167
143
188
164
140
185
161
137
178
155
132
170
148
125
166
151
130
165
155
141
167
159
151
166
160
155
167
162
156
167
162
156
167
162
156
164
159
153
163
158
152
162
157
151
160
155
149
157
152
146
157
152
146
155
150
144
154
149
143
150
145
139
147
142
136
144
139
133
142
137
131
142
137
131
140
135
129
139
134
128
130
125
119
107
102
96
121
116
110
121
116
110
124
119
113
128
123
116
128
123
117
128
123
117
128
119
114
127
120
115
125
120
114
121
116
112
154
149
146
165
160
157
169
164
161
172
167
164
174
169
166
176
171
165
179
174
168
182
177
171
191
182
171
204
190
177
207
191
176
207
189
166
196
177
153
181
159
135
159
134
112
153
128
106
151
126
104
149
124
102
148
124
104
146
123
107
138
119
102
132
112
95
128
105
89
117
94
78
109
90
76
191
183
174
203
203
200
205
205
203
202
202
200
202
202
200
202
202
200
202
202
200
203
203
201
205
203
202
209
203
203
209
203
203
209
203
202
209
204
201
209
204
201
210
205
201
212
207
201
157
152
147
162
157
151
159
151
146
153
144
139
151
142
137
150
141
133
151
139
126
157
138
118
165
133
113
171
139
118
185
153
132
199
171
149
206
184
160
211
189
165
213
191
167
210
188
164
207
185
161
202
180
156
196
174
151
191
169
146
190
167
143
186
162
138
183
159
135
178
155
132
170
148
125
165
150
129
163
153
138
164
155
147
163
157
152
164
159
153
163
158
152
163
158
152
160
155
149
160
155
149
157
152
146
156
151
145
154
149
143
153
148
142
151
146
140
149
144
138
144
139
133
137
132
126
131
126
120
129
124
118
132
127
121
137
132
126
137
132
126
129
124
118
106
101
95
120
115
109
121
116
110
124
119
113
127
122
116
128
123
117
126
121
115
127
118
113
126
119
114
117
112
106
121
116
113
156
151
148
164
159
156
167
162
159
170
165
162
173
168
165
175
170
165
178
173
167
182
177
171
193
184
169
206
191
177
205
189
174
203
185
162
191
171
147
175
153
129
154
129
107
151
126
104
148
123
101
146
121
99
146
122
103
144
121
105
137
118
101
131
111
94
126
103
87
116
93
77
113
95
80
190
183
173
201
201
198
201
201
199
202
202
200
200
200
198
201
201
199
201
201
199
202
202
200
202
200
199
206
200
200
207
201
201
209
203
202
209
204
201
210
205
202
212
207
203
214
209
203
158
153
148
162
157
151
158
152
146
153
145
140
152
143
137
150
142
133
151
139
126
157
138
118
163
131
111
169
137
116
185
153
132
200
171
149
206
183
159
208
185
161
210
188
164
209
187
163
207
185
161
203
182
158
197
176
153
192
170
147
189
166
142
185
161
137
182
158
134
179
156
132
172
150
127
168
152
130
165
154
139
165
157
148
165
159
152
166
161
154
166
161
155
165
160
154
164
159
153
162
157
151
159
154
148
157
152
146
156
151
146
153
148
142
147
142
136
133
128
123
119
114
109
102
98
93
88
84
79
84
80
75
86
82
76
102
98
93
129
125
119
128
124
119
104
99
93
120
115
110
122
117
112
125
120
114
128
123
117
129
124
118
126
121
115
129
120
114
124
116
110
113
108
102
147
142
139
160
155
152
167
162
159
170
165
162
173
168
165
176
171
167
178
173
167
181
176
169
186
180
173
201
192
175
210
196
180
207
190
175
204
185
162
191
170
146
174
152
128
158
132
110
155
130
108
152
127
105
152
127
105
152
127
108
148
126
110
145
125
108
140
119
102
133
110
94
125
102
86
121
102
87
192
184
175
203
202
199
204
203
201
204
204
202
203
203
201
205
204
202
205
204
202
206
205
203
208
205
204
209
203
203
209
203
203
210
204
203
210
205
202
211
206
203
213
208
204
214
209
204
161
156
150
165
160
154
160
155
149
154
149
142
155
146
137
153
144
135
155
143
130
160
141
121
166
134
114
171
139
118
187
155
134
203
175
153
209
183
160
211
187
163
211
188
164
210
188
164
210
188
164
206
186
162
200
182
158
193
175
151
189
169
145
185
163
140
183
159
135
179
155
131
175
151
127
169
151
128
167
151
134
164
155
142
166
157
148
165
159
151
164
159
153
162
157
151
161
156
150
158
153
147
156
151
145
153
148
143
149
144
141
139
134
129
104
99
96
72
67
66
56
50
50
49
45
45
43
43
43
42
42
42
39
38
39
36
36
36
56
56
54
102
99
96
98
93
88
118
113
110
121
116
113
124
119
116
127
122
116
125
120
114
122
118
111
125
116
107
107
100
92
133
128
122
151
146
143
159
154
151
164
159
156
167
162
159
168
163
159
171
166
160
174
169
163
179
174
166
187
179
166
207
192
173
209
192
174
204
186
168
203
180
156
186
163
139
169
145
121
158
132
110
154
128
106
152
127
105
152
127
105
151
127
107
148
125
109
145
122
106
140
117
101
131
108
92
125
102
86
117
99
83
187
180
169
204
198
197
203
199
198
202
202
200
201
201
199
202
200
199
204
198
198
203
197
197
203
196
196
202
196
196
203
198
195
205
200
197
206
201
198
206
201
198
209
204
201
211
206
203
161
156
150
166
161
155
161
156
150
154
149
143
154
145
136
154
145
136
156
144
131
160
141
121
165
133
113
169
137
116
184
152
131
196
167
145
199
173
150
201
177
153
202
179
155
202
180
156
202
180
156
199
180
156
195
177
153
191
173
149
187
166
143
182
160
137
179
155
131
176
152
128
174
151
127
168
150
127
166
149
132
165
154
139
166
157
148
166
159
152
164
159
153
163
158
152
162
157
151
160
155
149
157
152
146
153
148
144
147
142
139
111
106
102
66
61
59
53
47
47
49
43
43
47
43
44
46
46
46
44
44
44
45
45
45
46
46
46
49
49
48
55
52
49
83
79
75
115
110
107
124
119
116
128
123
120
126
121
115
124
119
113
125
120
114
115
107
98
124
117
110
151
146
140
158
153
150
164
159
156
168
163
160
171
166
163
175
170
166
177
172
166
180
175
169
185
179
171
198
187
172
212
197
178
209
193
173
206
188
166
203
179
155
187
163
139
170
146
122
161
134
113
158
132
111
157
132
110
159
134
112
158
134
114
154
131
115
151
128
112
145
122
106
138
115
99
129
106
91
117
99
83
188
181
170
205
199
199
207
203
202
208
208
206
209
209
207
209
207
205
211
205
205
209
203
203
209
203
203
209
203
203
210
204
202
211
206
203
211
206
203
213
208
205
214
209
206
216
211
208
162
157
152
168
163
157
164
159
153
157
152
146
159
150
141
158
149
140
159
146
134
163
144
124
166
134
114
171
139
118
185
153
132
196
167
145
198
172
149
202
178
154
204
181
157
204
182
158
204
182
158
202
182
158
199
181
157
195
177
153
191
171
147
186
164
141
182
158
134
178
154
130
177
153
129
170
152
129
169
150
132
167
154
138
166
157
148
167
160
152
164
159
153
162
157
151
161
156
150
158
153
147
153
148
143
149
144
140
129
124
121
69
64
63
48
42
41
44
38
38
42
36
36
39
36
36
36
36
36
35
35
35
36
36
36
38
38
38
37
37
35
44
42
40
46
40
39
73
68
66
111
106
103
120
116
112
115
110
104
120
115
109
113
108
102
105
96
87
145
138
131
154
149
143
160
155
152
163
158
155
167
162
159
170
165
162
174
169
164
175
170
164
179
174
167
185
178
168
203
189
172
208
193
174
205
189
168
202
184
160
196
172
148
183
159
135
167
143
119
161
135
113
160
134
112
159
134
112
161
135
114
158
134
114
156
133
117
151
128
112
144
121
105
134
111
95
123
100
84
110
93
76
188
181
170
203
197
197
204
201
200
206
206
204
203
204
202
203
201
199
204
198
198
202
196
196
202
196
196
203
197
197
204
198
196
205
200
197
207
202
199
208
203
200
210
205
202
212
207
204
164
159
153
169
164
158
164
159
153
158
152
146
159
150
141
159
150
140
160
149
136
164
145
125
165
133
113
168
136
115
180
148
127
189
160
138
192
166
143
194
168
145
196
172
148
197
173
149
196
174
150
192
174
150
191
173
149
188
170
146
185
165
142
182
160
137
179
153
130
177
151
128
174
148
125
171
147
125
168
147
125
165
150
132
165
154
139
162
156
147
161
156
150
161
156
150
159
154
148
155
150
144
152
147
143
143
137
135
93
88
87
50
44
44
45
39
39
43
37
37
36
36
36
35
35
35
35
35
35
36
36
36
38
38
38
41
41
41
44
44
44
48
48
48
51
50
50
50
49
49
63
62
61
102
101
99
114
109
106
118
113
108
99
89
85
137
128
119
154
147
139
158
153
147
163
158
152
167
162
158
168
163
160
172
167
162
174
169
164
177
172
166
182
176
166
193
182
166
207
190
168
211
190
168
207
185
162
207
183
159
195
171
147
180
156
132
171
145
122
167
141
118
166
141
118
168
143
121
168
143
121
165
140
121
161
138
122
155
132
116
147
124
108
137
114
98
121
98
82
110
93
76
191
183
176
204
198
198
206
200
200
209
204
204
208
202
202
207
202
201
206
200
200
206
200
198
206
201
198
207
202
200
208
203
200
210
205
202
212
207
204
214
209
206
217
212
210
218
212
212
165
160
154
169
164
158
165
160
154
159
154
147
161
152
143
162
152
143
162
152
138
166
147
127
166
134
114
169
137
116
180
148
127
188
159
137
192
166
143
196
170
147
198
173
149
198
174
150
197
175
151
193
175
150
193
175
151
191
173
149
188
168
145
186
164
141
182
156
133
180
154
131
175
149
127
173
148
126
171
149
128
168
152
134
168
157
142
166
160
151
163
158
152
163
158
152
159
154
148
156
151
145
146
141
138
117
112
110
67
61
61
50
44
44
43
37
37
36
30
30
31
31
31
31
31
31
33
33
33
36
36
36
37
37
37
38
38
38
41
41
41
42
42
42
43
43
43
44
44
44
44
44
43
54
54
52
96
91
88
96
91
87
118
107
103
149
140
131
157
149
142
160
155
149
163
158
152
167
162
158
169
164
161
173
168
162
176
171
165
179
174
168
185
177
165
199
186
169
207
190
167
210
188
165
208
186
162
207
183
159
193
169
145
182
157
134
179
153
130
177
151
128
177
152
129
176
151
129
174
149
127
170
146
126
164
141
125
157
134
118
149
126
110
135
112
96
118
95
79
110
93
77
195
186
180
204
198
198
206
200
200
209
203
203
206
200
200
206
200
200
204
198
198
204
198
196
204
199
196
205
200
197
207
202
199
208
203
200
208
203
200
210
205
202
213
208
206
214
208
208
165
160
154
169
164
158
165
160
154
161
156
150
164
155
146
164
154
144
163
153
140
167
148
128
166
134
114
169
137
116
178
146
125
187
159
137
190
164
141
194
168
145
195
171
147
194
170
146
192
171
146
188
170
145
187
169
145
185
167
143
183
163
140
181
159
136
178
152
129
174
148
125
172
146
123
170
145
123
167
146
124
164
148
130
164
152
138
161
154
146
158
153
147
156
151
145
154
149
143
143
138
132
111
106
103
68
63
61
45
39
39
39
33
33
34
28
28
31
25
25
28
27
28
29
29
29
31
31
31
34
34
34
36
36
36
37
37
37
39
39
39
39
39
39
40
40
40
41
41
41
42
42
41
44
44
42
51
46
43
88
83
78
140
130
125
151
142
133
158
151
143
160
155
149
164
159
153
167
162
157
168
163
160
170
165
160
173
169
162
178
173
167
189
178
164
202
188
170
204
187
164
207
185
162
208
185
162
205
181
157
191
167
143
187
162
138
183
157
134
178
152
129
179
153
131
178
153
131
173
148
126
170
146
126
163
140
124
155
132
116
145
122
106
130
107
91
113
91
75
112
95
79
196
188
181
203
197
197
206
200
200
207
201
201
204
198
198
205
199
199
204
198
198
203
198
196
204
199
196
207
202
199
209
204
201
210
205
202
211
206
203
213
209
205
216
211
209
217
211
211
163
159
153
168
163
157
164
159
153
160
155
148
164
155
146
164
155
145
165
153
140
166
147
127
165
133
113
166
134
113
175
143
122
185
154
133
188
159
137
190
164
141
192
166
143
193
167
144
189
166
142
186
166
142
185
166
141
185
166
141
184
163
139
183
160
136
181
155
132
176
150
127
174
148
125
173
147
125
171
148
125
169
149
128
169
155
139
166
156
145
162
156
147
157
152
146
150
145
140
111
106
102
69
64
62
48
42
42
46
40
40
42
36
36
36
30
30
36
30
30
31
31
30
33
33
32
38
38
36
39
39
39
41
41
41
41
41
41
39
39
39
41
41
41
41
41
41
41
41
41
42
42
42
46
46
45
47
45
45
66
62
59
135
128
123
154
148
138
160
154
146
164
159
153
166
161
155
170
165
160
172
167
162
174
169
163
179
173
165
184
177
167
196
184
167
208
191
169
205
185
162
210
187
163
213
189
165
208
184
160
201
177
153
199
175
151
196
171
147
194
169
145
192
167
144
185
162
140
179
156
137
174
151
133
168
145
129
162
139
123
149
125
110
132
108
92
115
92
76
120
103
90
201
193
186
205
199
199
210
204
204
211
205
205
209
204
202
208
203
201
210
204
202
210
205
200
210
205
200
211
206
201
212
207
202
214
209
204
215
210
207
216
210
208
216
210
209
216
210
210
166
161
155
170
165
159
165
160
154
163
157
151
167
158
149
167
158
149
170
158
145
171
152
132
167
135
115
167
135
114
175
143
122
187
155
134
190
159
138
190
164
141
191
165
142
191
165
142
190
166
142
188
165
141
187
165
141
185
164
140
186
162
138
184
160
136
181
155
132
176
150
127
172
146
123
171
145
122
169
145
122
168
147
124
168
153
137
165
154
140
158
151
140
142
137
131
106
101
96
60
55
52
44
38
38
40
34
34
34
28
28
28
22
22
25
19
19
25
19
19
24
23
21
27
27
25
30
30
28
32
32
32
32
32
32
31
31
31
32
32
32
31
31
31
31
31
31
31
31
31
32
32
32
34
34
34
38
38
38
41
39
38
68
65
62
142
138
128
155
151
143
160
155
149
163
158
152
166
161
155
168
163
157
172
167
161
177
171
163
183
175
164
198
185
166
205
186
163
204
182
158
210
186
162
211
187
163
204
180
156
201
177
153
197
173
149
195
171
147
192
168
144
185
162
138
174
152
129
167
144
128
163
140
124
160
137
121
151
128
112
138
114
98
127
101
86
113
89
74
126
109
97
197
189
182
202
196
196
207
201
201
206
200
200
204
198
196
203
198
195
202
197
194
203
198
193
204
199
193
206
201
195
207
202
196
210
205
200
211
206
203
212
206
205
212
206
206
211
205
205
163
158
152
168
163
157
162
157
151
162
157
150
166
157
148
166
157
148
168
156
143
169
151
131
165
133
113
164
132
111
172
140
119
181
149
128
185
153
132
184
158
135
184
158
135
184
158
135
182
158
134
182
157
134
182
157
134
179
154
131
179
155
131
178
154
130
175
149
126
173
147
124
170
144
121
170
144
121
169
145
122
170
148
126
170
154
138
167
156
142
140
134
122
94
89
83
68
63
58
51
46
44
48
42
42
44
38
38
37
31
31
32
26
26
29
23
23
32
26
26
33
33
31
38
38
36
39
39
37
40
40
40
40
40
40
37
37
37
37
37
37
37
37
37
37
37
37
38
38
38
40
40
40
43
43
43
44
44
44
44
43
43
44
44
43
99
95
88
156
151
145
163
158
152
167
162
156
169
164
158
172
167
161
176
171
165
181
174
166
188
180
169
202
189
171
207
188
165
207
185
161
216
192
168
216
192
168
213
189
165
210
186
162
206
182
158
201
177
153
196
172
148
185
162
139
177
155
132
174
151
134
171
148
132
166
143
127
153
130
114
141
117
101
128
102
87
114
91
75
134
117
106
200
191
184
204
198
198
208
202
202
210
204
204
208
203
201
209
204
201
209
204
201
210
205
199
211
206
200
213
208
202
215
210
204
215
210
205
215
210
207
215
210
209
217
211
211
216
210
210
164
159
154
169
164
158
162
157
151
164
159
153
168
161
153
169
161
151
172
161
148
173
153
133
167
135
115
166
134
113
173
141
120
182
150
129
185
153
132
187
159
137
186
159
137
185
159
136
183
158
135
182
157
133
182
156
133
181
156
133
181
157
133
180
156
132
178
152
129
175
148
125
173
145
123
171
143
121
170
145
122
171
149
126
170
151
135
167
153
139
115
107
94
67
62
56
60
55
51
47
42
40
42
36
36
36
30
30
29
23
23
26
20
20
25
19
19
26
21
20
26
26
24
30
30
28
31
31
29
31
31
30
30
30
30
28
28
28
27
27
27
27
27
27
27
28
28
28
29
28
29
29
29
30
30
30
31
31
31
32
32
32
35
35
35
45
40
37
122
117
113
159
154
149
163
158
152
167
162
155
170
166
158
175
169
161
180
173
163
189
181
167
201
186
166
202
183
160
206
184
160
213
189
165
212
188
164
210
186
161
207
183
159
201
177
153
195
172
148
188
164
140
179
157
133
174
152
129
172
149
132
168
144
129
161
137
122
149
125
109
137
113
97
126
100
85
113
91
75
137
122
110
197
189
182
200
194
194
204
199
199
204
200
200
204
199
198
205
200
198
204
199
196
205
200
196
206
201
196
208
203
197
208
203
199
208
203
199
208
203
201
208
202
202
209
204
203
211
205
204
163
158
152
168
163
157
159
154
148
164
159
153
168
163
157
169
162
153
171
162
148
173
151
132
166
133
113
164
132
111
167
135
114
172
140
119
177
145
124
178
146
125
174
146
124
172
145
122
169
143
120
169
143
120
171
145
122
171
147
123
174
150
126
172
148
124
170
144
121
172
143
121
171
139
118
170
138
117
170
142
120
171
147
123
173
150
134
174
155
138
125
114
96
60
55
49
59
54
51
44
38
38
41
35
35
37
31
31
31
25
25
28
22
22
28
22
22
31
25
25
31
31
29
36
36
34
38
38
36
37
37
35
35
35
34
34
34
34
33
33
33
34
35
35
32
34
33
32
34
33
34
35
34
36
36
36
36
36
36
36
36
36
35
35
36
45
40
40
64
59
57
150
145
142
164
159
153
169
164
156
173
169
158
179
171
160
185
176
163
196
186
166
205
187
163
204
184
160
209
187
163
216
192
167
216
192
166
211
187
161
207
183
159
200
177
153
194
172
148
184
162
138
180
158
135
176
154
133
174
151
134
168
143
128
162
136
121
150
124
109
138
112
97
126
100
85
113
94
79
144
130
118
195
190
182
202
196
196
207
204
203
205
205
203
208
203
202
210
204
203
209
204
201
211
206
203
213
208
205
213
207
205
211
206
205
212
206
206
212
206
206
212
206
206
213
208
207
216
211
208
165
160
154
168
163
157
160
155
149
166
161
155
168
163
157
170
163
154
171
162
148
172
151
132
165
132
112
163
131
110
167
135
114
171
139
118
176
144
123
177
145
124
175
144
123
172
142
121
171
141
120
170
143
121
172
146
123
174
150
126
176
152
128
176
152
128
176
150
127
176
146
124
174
142
121
174
142
121
173
146
123
174
150
126
177
154
138
181
161
142
145
133
112
64
59
53
62
56
53
45
39
39
40
34
34
36
30
30
29
23
23
26
20
20
27
21
21
31
25
25
28
28
26
31
31
29
33
33
31
32
32
30
31
31
30
30
30
30
29
29
29
28
29
28
29
31
30
29
31
30
30
31
30
30
30
30
29
29
29
30
30
30
34
34
34
41
35
35
44
38
37
98
94
91
161
156
150
165
161
153
171
167
156
179
171
160
190
180
166
201
189
166
205
188
163
206
186
162
212
190
166
217
193
167
214
190
164
206
182
156
202
178
154
195
172
148
189
167
143
184
162
138
182
160
137
180
158
137
175
152
135
165
141
125
157
131
116
146
120
105
135
109
94
126
100
85
115
95
80
149
136
124
195
189
182
201
195
195
206
202
201
205
205
203
210
205
205
211
205
204
210
205
202
210
205
202
209
204
201
209
204
201
208
202
202
207
201
201
208
202
202
208
202
202
208
203
202
210
205
202
164
159
154
167
162
156
160
155
149
167
162
156
168
163
157
170
163
154
170
162
148
172
150
131
164
131
111
161
129
108
165
133
112
169
137
116
172
140
119
173
140
119
171
138
118
167
135
114
167
135
114
166
137
115
165
139
116
166
142
118
168
144
120
168
144
120
168
142
119
168
138
116
169
137
116
168
136
115
168
140
118
171
147
123
176
153
136
182
161
141
162
147
124
73
67
61
61
56
53
43
37
36
38
32
32
31
25
25
25
19
19
25
19
19
29
23
23
32
26
26
33
33
31
35
34
32
36
35
33
32
31
30
31
30
29
29
29
29
29
29
29
30
31
31
30
31
30
30
32
31
30
31
30
30
30
30
30
30
30
30
30
30
32
32
32
39
34
33
42
36
35
49
44
42
137
132
126
165
160
152
171
166
155
179
171
160
194
183
167
203
189
164
205
187
162
207
187
163
213
191
167
215
191
166
208
184
158
196
172
146
192
168
144
188
165
141
188
166
142
185
163
139
183
161
139
177
154
134
165
142
126
156
132
117
150
124
109
142
116
101
133
107
92
125
99
84
115
95
80
156
143
131
193
188
181
200
194
194
205
201
201
205
204
202
209
204
204
210
204
203
210
205
202
210
205
202
208
203
201
207
202
200
207
202
201
208
202
202
209
203
203
211
205
205
213
207
206
214
209
206
164
160
154
164
159
153
161
156
150
166
161
155
168
163
157
169
162
153
172
159
147
172
148
130
160
130
109
159
127
106
162
130
109
165
133
112
169
136
115
172
135
116
171
135
116
168
132
113
165
133
112
166
134
113
167
135
114
166
142
119
169
144
121
171
144
122
172
146
123
172
143
121
173
141
120
173
141
118
173
144
121
175
149
126
182
158
134
191
167
143
190
167
143
106
92
78
66
62
58
47
42
39
43
37
37
35
29
29
33
27
27
30
24
24
34
28
28
38
32
32
42
37
36
42
36
36
41
36
35
37
31
31
34
31
31
31
31
31
29
29
29
30
30
30
30
31
31
32
32
32
34
34
34
31
31
31
32
32
32
33
33
33
34
34
34
37
36
37
38
35
36
45
39
39
83
75
74
166
158
151
175
165
153
186
175
159
204
187
165
209
187
164
209
187
163
214
192
168
216
194
170
216
192
167
202
178
152
198
175
150
196
174
151
194
174
150
190
172
148
190
169
145
189
167
147
176
153
136
162
137
121
153
127
112
147
121
106
139
113
98
133
107
92
126
100
85
117
98
83
162
151
142
191
190
186
201
195
195
208
202
202
210
204
204
212
206
206
213
207
207
211
205
205
208
202
202
206
202
201
204
204
202
208
203
202
209
203
203
209
203
203
208
202
202
211
205
204
212
207
204
163
158
152
162
157
151
163
158
152
168
163
157
169
164
158
170
163
154
173
159
147
172
149
130
160
130
109
158
126
105
162
130
109
165
133
112
167
135
114
172
135
116
172
135
116
169
132
113
165
133
112
164
132
111
164
132
111
163
137
114
164
139
116
165
139
116
165
139
116
166
137
115
167
135
114
167
135
112
166
138
115
170
144
121
178
154
130
189
165
141
197
173
149
128
111
95
67
62
57
43
38
35
35
29
29
27
21
21
26
20
20
28
22
22
32
26
26
35
29
29
36
30
30
36
30
30
34
28
28
32
26
26
29
25
25
25
25
25
26
26
26
29
29
29
30
30
30
28
28
28
28
28
28
28
28
28
27
27
27
28
28
28
29
29
29
31
31
31
36
33
33
39
33
33
48
40
39
133
125
117
171
162
147
188
176
157
203
185
162
206
184
161
206
184
160
211
189
165
211
189
165
204
180
154
193
169
144
191
167
143
191
169
146
189
169
145
182
164
140
182
160
137
175
153
133
159
136
120
148
122
107
143
117
102
138
112
97
132
106
91
128
102
87
123
97
82
115
95
80
164
154
145
189
188
184
199
194
194
205
199
199
208
202
202
207
201
201
207
201
201
205
199
199
204
198
198
202
198
197
199
200
198
205
200
200
206
200
200
208
202
202
209
203
203
211
206
205
213
208
205
159
154
149
159
154
148
161
156
150
166
161
155
167
162
156
167
160
152
169
156
143
169
145
127
156
126
105
153
121
100
157
125
104
161
129
108
163
131
110
168
131
112
168
131
112
167
130
111
164
132
111
164
132
111
163
131
110
163
134
112
165
138
115
165
139
116
165
139
116
167
138
116
170
138
116
170
138
115
170
141
118
173
146
124
180
156
132
193
169
145
205
181
157
159
140
121
75
69
62
46
41
38
40
34
34
35
29
29
34
28
28
37
31
31
43
37
37
47
41
41
46
40
40
45
39
39
41
35
35
38
32
32
33
30
30
32
32
32
33
33
33
35
35
35
36
36
36
34
34
34
34
34
34
35
35
35
35
35
35
36
36
36
37
37
37
39
39
40
40
38
38
45
39
39
51
43
42
93
84
75
172
163
145
198
184
163
208
188
164
210
188
165
212
190
166
215
193
169
212
190
166
198
174
148
198
173
148
198
174
150
195
173
150
192
171
148
183
165
141
182
160
137
168
145
125
154
131
115
150
124
109
146
120
105
143
117
102
136
110
95
132
106
91
126
100
85
118
98
83
170
160
150
193
192
188
204
199
198
211
205
205
213
207
207
214
208
208
211
205
205
210
204
204
210
204
204
207
204
203
206
206
204
210
205
205
212
206
206
213
207
207
214
208
208
215
209
208
215
210
207
158
154
148
158
153
147
163
158
152
168
163
157
169
164
158
169
162
154
166
153
140
170
146
128
159
131
110
158
129
108
161
133
112
166
135
115
170
137
118
172
139
118
172
139
118
172
138
118
169
137
116
167
135
114
165
133
112
166
134
113
166
135
114
166
135
114
167
136
113
168
137
114
168
136
114
168
136
114
167
138
115
171
145
120
180
155
132
191
166
142
205
181
157
175
154
131
87
74
62
48
39
38
39
31
26
35
26
21
35
26
21
35
30
23
38
35
29
43
41
36
42
36
36
40
34
33
34
29
26
27
21
21
26
20
20
26
21
21
28
23
23
31
27
27
31
26
26
31
27
26
32
28
28
32
27
27
32
27
27
34
29
29
36
31
31
36
31
31
36
30
30
39
33
33
50
42
40
82
69
55
159
143
122
202
181
157
206
183
158
205
181
156
209
185
161
212
189
165
200
177
153
191
167
142
193
169
145
191
169
146
186
164
141
177
156
135
173
151
133
166
141
124
154
129
113
147
122
107
142
116
101
140
114
99
135
109
94
129
103
88
125
99
84
121
95
80
117
96
80
168
160
154
194
189
186
202
197
196
206
200
200
206
200
200
205
199
199
203
197
197
203
197
197
202
196
196
201
196
196
201
197
196
205
199
199
206
201
200
208
202
200
209
203
201
210
204
203
212
206
205
155
150
144
154
149
143
161
156
150
165
160
154
166
161
155
159
153
145
140
128
115
162
139
120
156
129
108
155
128
107
159
132
111
163
134
114
169
138
118
171
140
119
172
141
120
172
141
120
168
138
117
166
134
113
163
132
111
161
129
108
162
130
109
162
130
109
163
131
108
164
132
109
165
133
111
167
135
114
168
139
116
170
145
120
180
154
131
192
167
144
207
183
159
189
166
141
108
93
76
62
52
45
54
44
36
54
44
36
55
45
37
58
50
42
57
51
43
61
58
50
57
52
49
57
52
49
48
43
40
36
30
31
35
29
29
36
30
30
39
33
33
43
37
37
43
37
37
43
37
37
42
36
36
42
36
36
43
37
37
42
36
36
43
37
37
41
35
35
43
37
37
44
38
38
60
51
48
108
92
75
182
161
138
208
184
160
208
184
159
209
185
159
214
190
166
213
189
165
196
172
148
194
170
146
196
173
149
191
169
146
180
158
135
175
153
133
173
150
134
164
139
123
153
127
112
148
122
107
144
118
103
140
114
99
136
110
95
132
106
91
128
102
87
124
98
83
120
99
83
173
166
161
197
192
189
205
199
199
210
204
204
211
205
205
210
204
204
208
202
202
208
202
202
208
202
202
209
203
203
209
203
203
211
205
205
213
208
207
214
209
206
216
211
208
216
210
208
217
211
211
154
149
144
155
150
144
162
157
151
165
160
154
166
161
155
149
145
136
126
116
102
161
137
119
158
131
110
160
133
112
166
139
118
172
145
124
177
150
129
182
155
133
184
157
135
182
155
132
179
152
130
176
147
125
173
141
120
167
135
114
165
133
112
165
133
112
163
131
108
164
132
109
166
134
111
169
137
116
170
141
118
173
147
122
181
155
132
193
168
144
205
181
157
196
170
143
132
115
93
75
62
48
65
52
43
64
51
41
68
55
45
69
60
49
66
59
49
67
62
52
66
61
57
58
53
49
44
39
36
33
27
27
32
26
26
29
23
23
34
28
28
35
29
29
36
30
30
36
30
30
36
30
30
36
30
30
37
31
31
39
33
33
40
34
34
37
31
31
40
34
34
44
38
38
68
56
50
135
116
97
192
170
145
207
183
159
204
180
155
207
183
157
209
185
161
204
180
156
190
166
142
192
168
144
189
166
142
183
161
138
176
154
131
175
153
132
165
142
126
155
130
115
148
122
107
144
118
103
140
114
99
136
110
95
134
108
93
130
104
89
126
100
85
122
96
81
121
101
85
178
171
166
198
193
190
203
198
197
207
201
201
207
201
201
206
200
200
206
200
200
204
198
198
204
198
198
204
198
198
204
198
198
205
199
199
205
199
199
207
202
199
209
204
201
210
205
203
211
205
205
149
144
138
149
144
138
160
155
149
162
157
151
162
157
153
125
121
116
91
84
73
156
134
116
153
126
105
154
127
106
160
133
112
168
141
120
176
150
128
182
156
133
184
159
136
182
156
133
178
153
129
173
145
123
168
139
117
164
132
111
162
130
109
160
128
107
159
127
104
159
127
104
161
129
106
165
133
111
167
138
115
171
145
120
179
153
129
187
162
138
197
172
148
190
163
136
160
140
116
97
80
60
85
68
52
87
68
54
97
77
64
104
86
72
100
85
71
95
85
71
96
88
78
84
76
68
62
55
50
50
42
39
55
48
44
50
44
41
49
45
42
51
47
44
49
42
38
50
43
39
45
38
35
45
39
35
48
41
37
48
40
38
48
40
39
45
37
35
46
38
37
54
44
43
92
78
65
162
140
119
200
175
150
206
181
157
204
180
155
207
182
156
208
184
160
196
172
148
191
167
143
190
166
142
184
160
137
179
156
133
177
154
131
170
147
126
157
133
115
147
121
106
143
117
102
140
114
99
137
111
96
134
108
93
132
106
91
127
103
87
125
100
85
122
96
81
125
107
92
182
176
171
198
193
190
201
196
194
207
201
200
209
203
203
209
203
203
208
203
203
205
202
201
205
202
201
206
203
202
208
205
204
212
207
206
214
208
206
215
210
206
216
211
208
215
209
208
215
209
209
147
142
136
147
142
136
158
153
147
160
155
149
156
151
148
94
89
88
72
65
60
153
132
115
152
126
106
158
131
110
165
138
117
173
147
125
181
155
132
186
160
137
189
164
140
188
164
140
186
162
138
183
157
134
175
149
126
171
139
118
167
135
114
164
132
111
164
132
109
164
132
109
164
132
109
169
137
114
172
144
119
176
150
125
183
157
132
189
163
138
198
172
147
193
167
141
176
153
127
130
108
86
119
98
76
123
99
80
135
109
93
144
121
104
135
116
99
126
110
92
128
115
101
106
95
82
73
64
56
55
45
38
72
62
54
75
65
57
64
57
49
60
54
48
57
48
40
60
51
43
49
41
33
52
44
36
54
45
38
55
46
39
56
46
41
50
41
36
50
40
36
62
49
43
121
103
86
180
156
134
201
175
152
204
178
155
203
177
153
204
178
153
200
176
152
190
166
142
190
166
142
188
164
140
182
158
135
180
155
133
177
152
130
165
140
118
152
127
105
148
122
107
146
120
105
142
116
101
139
113
98
137
111
96
135
109
94
129
106
90
126
102
86
123
97
82
130
115
101
185
180
176
198
193
190
202
197
194
208
202
201
209
203
203
208
202
202
206
202
201
203
203
201
204
204
202
204
204
202
205
205
203
209
205
202
211
206
202
210
205
199
210
205
201
208
203
201
207
201
201
141
137
131
145
140
134
154
149
143
155
150
144
143
138
135
66
61
60
71
64
59
152
131
114
152
126
106
157
130
109
166
139
118
175
149
126
179
153
130
182
156
133
184
159
136
185
161
137
185
161
137
182
157
133
175
149
126
170
138
117
165
133
112
159
127
106
159
127
104
159
127
104
161
129
106
166
134
111
168
139
115
172
146
121
180
154
129
185
159
134
192
166
141
183
157
132
176
151
125
154
129
105
144
120
97
145
120
99
164
138
118
174
152
131
171
152
131
162
145
125
172
156
141
137
124
108
90
78
68
71
58
49
99
85
72
114
99
83
95
80
65
78
66
56
77
64
55
79
67
58
61
50
40
65
56
46
67
54
45
65
52
44
66
54
47
55
46
38
57
47
37
81
66
52
147
126
107
188
163
140
200
174
151
200
174
151
198
172
148
203
177
152
193
169
145
188
164
141
186
162
138
182
158
134
178
153
130
174
149
127
165
140
118
151
126
104
145
120
98
142
116
100
139
113
98
137
111
96
136
110
95
134
108
93
133
107
92
127
104
88
123
99
84
121
95
80
135
120
106
186
181
177
197
192
189
201
196
193
207
202
200
206
200
200
207
201
201
205
202
201
203
203
201
203
203
201
203
203
201
204
205
203
209
204
202
210
205
201
209
204
198
207
202
199
206
200
198
206
200
200
130
124
118
142
137
131
151
146
140
152
147
142
115
110
107
29
24
23
48
42
37
147
126
109
151
125
104
154
127
106
161
134
113
168
141
119
172
146
124
177
151
128
181
156
133
185
161
137
186
162
138
183
158
134
178
152
129
175
143
122
169
137
116
163
131
110
162
130
108
162
130
107
165
133
110
170
138
115
174
145
121
177
151
126
184
158
133
188
162
137
193
167
142
186
160
136
181
155
128
171
144
120
171
143
120
175
149
126
196
172
149
204
183
161
206
186
164
201
182
162
205
188
171
179
164
147
126
111
98
106
90
78
138
120
104
155
137
115
128
107
88
102
85
71
108
92
80
109
93
81
91
76
63
87
74
61
88
72
60
86
70
59
85
69
60
68
57
46
71
58
45
112
93
73
170
146
125
193
166
143
200
174
150
200
174
150
198
172
148
202
176
151
190
165
141
188
164
140
185
161
137
182
156
133
178
152
129
173
147
125
155
129
108
149
124
103
148
123
102
147
121
105
146
120
105
146
120
105
144
118
103
141
115
100
137
112
96
132
109
94
126
102
87
123
98
83
144
130
116
189
184
178
199
194
190
204
199
196
210
204
202
210
204
203
212
206
205
210
206
205
209
208
206
208
208
206
208
208
206
207
207
205
210
205
203
210
205
201
208
203
198
206
201
198
205
200
198
206
200
200
106
96
88
137
131
125
150
143
137
145
138
132
77
71
66
29
25
19
37
34
27
132
112
94
152
123
104
153
126
105
160
133
112
167
140
119
173
146
124
179
153
130
184
158
135
188
162
139
188
162
139
187
161
138
181
155
132
177
145
124
171
139
118
165
133
112
162
130
109
163
131
109
164
132
109
169
137
114
172
144
120
176
150
127
183
157
134
184
158
134
190
164
139
185
159
136
180
151
129
176
144
123
178
146
125
184
156
134
200
181
157
210
191
174
214
197
179
214
199
180
214
199
180
198
181
163
160
141
125
152
129
113
170
147
128
184
162
139
160
135
116
129
105
88
138
115
100
138
116
96
127
105
86
116
94
77
115
94
76
105
83
66
104
83
65
86
63
49
90
65
49
136
110
88
178
152
129
191
165
141
194
168
144
195
169
144
194
168
143
193
167
142
184
158
134
181
155
132
177
151
128
177
145
124
174
141
121
160
127
108
143
117
95
141
116
96
141
115
100
141
115
100
140
114
99
140
114
99
139
113
98
135
111
95
130
107
91
126
102
89
122
98
86
119
95
83
146
133
121
190
182
174
196
191
185
198
193
190
206
201
197
204
199
196
206
200
200
206
200
200
206
200
200
202
202
200
201
201
199
201
201
199
203
198
197
202
196
196
201
195
195
202
196
196
202
196
196
204
198
198
62
49
42
75
66
61
89
80
75
84
75
70
58
50
43
49
43
36
42
38
31
115
95
77
142
114
94
145
118
97
154
127
106
164
137
116
171
144
123
175
149
126
181
155
132
183
157
134
184
158
135
183
157
134
179
153
130
176
144
123
172
140
119
168
136
115
165
133
112
165
133
111
168
136
113
172
140
117
177
148
125
180
154
131
186
160
137
188
162
138
194
168
143
190
164
141
188
159
137
183
151
130
183
151
130
189
162
140
209
189
166
218
199
182
222
205
187
223
208
189
223
208
189
216
199
181
199
180
163
195
172
156
200
177
158
207
185
162
191
166
144
179
155
137
183
160
144
182
160
137
165
142
120
144
119
100
139
114
95
130
106
86
125
101
82
107
83
64
118
92
72
155
129
104
182
156
133
192
166
142
194
168
143
193
167
142
197
171
146
191
165
140
185
159
136
182
156
133
177
151
128
176
144
123
170
138
117
152
119
100
144
119
97
147
121
102
147
121
106
149
123
108
149
123
108
147
121
106
146
120
105
143
118
103
137
114
98
132
108
95
126
102
90
123
99
87
155
142
130
193
186
177
199
194
188
204
199
195
210
205
202
210
205
202
214
208
208
213
207
207
213
207
207
209
208
206
206
206
204
204
204
202
207
201
201
208
202
202
208
202
202
208
202
202
209
203
203
211
205
205
68
52
46
68
56
52
69
57
53
68
56
52
64
53
44
56
48
40
46
39
33
122
103
84
153
124
105
156
129
108
167
140
119
176
149
128
179
152
131
183
157
134
188
162
139
192
166
143
193
167
144
190
164
141
186
160
137
183
151
130
177
145
124
172
140
119
170
138
117
170
138
115
172
140
117
175
143
120
180
151
128
183
157
134
187
161
138
190
164
140
196
170
146
195
170
147
193
164
142
189
157
136
185
153
132
192
164
143
210
191
167
218
199
182
221
204
186
222
207
188
222
207
188
217
200
182
207
188
171
208
185
169
206
184
164
209
187
164
201
177
153
205
181
161
206
183
167
203
182
157
183
159
136
160
133
112
152
125
104
143
116
96
137
110
89
123
97
73
134
108
85
161
136
108
179
153
130
187
161
137
190
164
139
191
165
140
192
166
141
181
155
130
175
149
126
172
146
123
170
144
121
170
138
117
157
124
104
144
112
93
142
117
95
144
118
99
144
118
103
145
119
104
146
120
105
145
119
104
143
117
102
136
112
96
129
107
91
125
102
89
122
98
86
120
96
84
160
147
135
192
185
177
198
193
187
202
197
194
207
202
199
207
202
199
210
204
203
208
202
202
206
200
200
199
198
196
195
195
193
194
194
192
198
193
192
198
192
192
198
192
192
198
192
192
202
196
196
203
197
197
62
48
41
65
51
44
65
50
44
63
49
42
57
46
37
48
39
32
36
28
23
120
98
80
154
127
106
154
127
106
168
137
116
177
146
125
182
151
130
186
154
133
185
157
135
187
161
138
188
164
140
186
161
137
181
155
132
176
149
127
173
144
122
172
140
119
170
138
115
169
137
114
172
140
117
175
143
120
180
151
127
183
157
133
190
164
139
195
168
142
201
176
153
201
181
157
198
172
150
191
164
141
190
161
141
202
178
159
219
196
179
222
203
185
224
207
189
225
210
191
224
209
190
222
203
185
213
191
175
214
192
170
214
193
170
213
195
171
212
193
174
216
197
179
220
201
184
216
200
180
198
179
158
174
151
129
163
137
114
158
130
108
153
122
101
143
112
91
151
122
100
166
140
116
180
154
129
186
160
136
189
163
138
191
165
140
189
163
138
180
154
129
173
147
124
173
147
124
169
143
120
167
135
114
146
116
95
145
117
96
147
121
104
149
124
108
149
126
110
150
126
111
149
126
110
150
126
110
145
125
109
140
121
105
136
116
102
129
109
96
121
101
87
117
97
83
166
155
146
193
187
179
199
194
188
204
199
193
210
205
199
210
205
199
213
208
204
210
205
203
207
201
201
202
201
199
200
200
198
201
201
199
202
202
200
204
202
201
206
200
200
206
200
200
207
201
201
209
203
203
64
50
43
67
52
45
67
52
45
65
50
43
60
50
41
54
45
38
49
40
35
130
108
90
162
135
113
159
132
111
174
142
121
181
149
128
187
155
134
191
159
138
191
163
141
191
165
142
191
167
143
191
165
142
188
162
139
183
157
134
181
151
130
177
145
124
174
142
119
174
142
119
176
144
121
180
148
125
184
156
132
191
165
140
196
170
145
201
175
149
208
185
161
211
191
169
206
180
159
195
169
146
196
170
148
211
188
169
218
195
179
218
200
180
221
204
185
223
208
189
222
207
188
221
202
184
212
189
172
213
191
168
214
194
171
213
195
171
214
195
178
217
198
181
220
201
184
216
201
182
205
187
166
185
163
140
167
141
118
160
131
109
155
123
102
150
118
97
157
128
106
165
139
116
177
151
126
183
157
132
187
161
136
190
164
139
182
156
131
176
150
125
171
145
122
169
143
120
166
140
117
154
122
101
145
115
94
147
120
99
149
123
108
150
125
110
149
126
110
150
127
111
151
128
112
151
127
112
146
127
110
140
121
105
135
116
102
126
107
93
119
100
86
116
97
82
174
163
154
194
188
180
200
194
189
203
198
192
209
204
198
208
203
197
209
204
200
205
200
198
201
195
195
196
195
193
196
196
194
196
196
194
196
196
194
197
195
194
201
195
195
201
195
195
202
196
196
202
196
196
62
47
41
66
51
44
65
50
43
64
49
42
59
49
40
54
44
38
50
41
35
138
116
98
167
140
119
160
133
112
170
138
117
177
145
124
182
150
129
185
153
132
185
156
134
184
158
135
182
158
135
182
157
133
181
155
132
177
151
128
176
147
125
175
143
122
174
142
119
174
142
119
175
143
120
181
149
126
184
155
131
193
167
142
199
173
148
203
178
151
209
189
165
215
195
177
207
181
162
199
173
150
202
179
157
213
193
173
217
194
178
215
196
173
217
201
180
222
207
188
222
207
188
221
202
185
211
188
172
213
191
168
216
196
172
217
199
175
217
198
181
220
201
184
222
203
186
219
204
185
214
195
175
197
175
152
174
148
125
165
136
114
159
127
106
158
126
105
161
132
110
166
140
117
176
150
125
182
156
131
186
160
135
189
163
138
176
150
125
171
145
120
168
142
119
168
142
119
163
136
114
149
117
96
150
120
99
149
122
101
151
125
109
150
125
110
149
126
110
150
127
111
151
128
112
151
128
112
144
125
108
139
120
104
134
115
101
127
108
94
118
99
84
117
98
83
179
169
159
195
189
181
201
196
190
205
200
194
208
203
197
208
203
197
206
201
197
204
198
196
202
196
196
198
197
195
197
197
195
199
199
197
199
199
197
202
200
198
205
199
199
207
201
201
209
203
203
211
205
205
62
48
41
65
50
43
65
50
44
64
49
45
58
47
41
53
43
38
41
34
28
131
114
97
173
147
124
165
137
116
172
140
119
177
145
124
182
150
129
182
154
132
185
158
136
186
160
137
186
161
137
185
159
136
183
157
134
182
156
133
181
153
131
179
151
128
178
150
127
178
150
126
180
151
127
185
157
133
191
164
139
202
176
151
210
185
161
214
192
166
216
199
175
218
201
182
210
187
165
205
179
156
212
189
166
219
198
177
217
194
173
213
190
166
217
196
175
224
204
185
222
205
184
220
202
180
207
185
163
210
187
164
217
195
172
219
199
175
217
198
177
219
200
181
220
201
184
217
200
182
216
197
179
205
185
166
179
154
131
166
139
117
160
131
109
163
131
110
166
136
115
170
144
121
177
151
126
182
156
131
189
163
138
186
160
135
175
149
125
172
146
122
170
144
121
171
144
121
157
127
106
151
122
101
153
125
104
153
127
105
153
129
113
153
130
114
154
133
116
156
133
117
156
134
118
155
135
118
151
132
115
144
125
108
137
118
102
128
109
93
121
101
86
123
109
93
183
176
168
197
191
184
202
197
191
206
201
195
210
205
200
210
205
201
208
203
200
206
200
199
203
197
197
201
198
197
201
198
197
203
199
198
203
199
199
203
199
198
206
200
200
207
201
201
206
200
200
209
203
203
63
49
42
66
51
44
65
50
46
63
49
46
58
47
43
48
38
34
29
25
20
121
107
92
179
154
131
172
144
123
171
139
118
176
144
123
181
149
128
180
154
131
183
157
134
183
157
134
183
157
134
181
155
132
179
153
130
179
153
130
179
153
130
177
151
128
177
151
128
177
151
126
178
152
127
185
159
134
193
167
142
205
179
154
209
186
162
211
190
165
212
198
174
217
201
180
209
187
163
205
179
156
214
192
169
219
198
176
212
190
166
208
182
159
212
188
166
222
200
179
222
202
178
219
200
175
204
181
157
207
183
159
215
192
169
219
198
175
217
199
175
218
199
179
217
198
181
216
197
180
214
195
178
207
188
171
188
164
142
167
142
120
162
136
113
166
135
114
167
138
116
172
146
123
177
151
126
180
154
129
190
164
139
181
155
130
173
147
122
168
142
119
171
145
122
166
138
116
154
122
101
151
123
102
150
123
102
150
125
103
149
126
109
148
126
110
148
129
112
152
129
113
150
129
112
146
127
110
141
122
105
136
117
100
128
109
92
121
102
85
119
98
82
125
114
99
183
178
171
195
190
184
198
193
187
200
195
189
204
199
194
204
199
196
203
198
195
202
196
195
200
194
194
199
193
193
200
194
194
201
195
195
201
195
195
202
196
196
204
198
198
206
200
200
208
202
202
208
202
202
58
44
37
63
48
41
62
47
43
59
44
41
54
43
39
37
29
26
13
12
8
103
89
77
180
155
133
177
148
128
170
138
117
172
140
119
177
145
124
177
151
128
178
152
129
179
153
130
182
156
133
181
155
132
179
153
130
180
154
131
180
154
131
180
154
131
181
155
132
182
156
132
186
160
135
193
167
142
204
178
153
213
187
162
215
191
167
216
195
170
216
201
177
218
202
182
212
190
166
214
189
165
223
201
178
223
202
180
215
192
168
210
184
161
212
187
164
221
199
176
222
200
177
218
196
173
201
175
152
203
179
155
216
193
170
221
199
176
218
200
176
215
197
176
213
194
177
214
195
178
214
195
178
211
191
174
203
179
157
183
158
136
169
143
120
177
146
124
178
149
127
178
152
129
182
156
131
186
160
135
192
166
141
179
153
128
175
149
125
172
146
123
180
154
131
163
135
113
159
128
107
156
129
108
155
129
108
155
131
108
155
131
115
156
135
118
156
137
120
157
134
118
156
135
118
151
132
115
147
128
111
139
120
103
134
115
98
126
107
90
121
100
83
140
128
114
188
183
176
197
192
186
200
195
189
204
199
193
208
203
198
209
204
201
209
204
201
208
202
200
208
202
202
207
201
201
207
201
201
208
202
202
210
204
204
211
205
205
211
205
205
212
206
206
211
205
205
210
204
204
61
47
41
65
50
43
64
49
45
60
45
42
55
43
40
37
29
27
14
12
11
91
78
67
185
159
138
185
157
135
175
143
122
177
145
124
181
150
129
183
155
132
184
157
134
185
159
136
185
159
136
185
158
135
184
157
134
183
155
132
183
155
132
183
156
133
184
158
134
185
159
134
188
162
137
197
171
146
208
182
157
214
188
163
215
192
167
215
194
168
211
195
171
216
198
177
213
189
166
215
190
167
222
201
179
221
200
179
212
189
165
205
178
155
204
179
155
215
192
167
217
192
169
210
184
161
191
162
140
197
172
148
210
187
163
217
195
172
217
197
173
211
191
169
204
185
165
206
186
167
207
187
168
207
187
169
206
183
162
189
165
144
174
149
126
181
151
129
183
154
132
182
156
133
181
155
131
190
164
140
186
160
135
177
151
126
174
149
124
172
146
123
177
152
129
157
129
107
159
128
107
153
127
106
151
125
103
153
128
106
153
130
113
153
131
115
151
130
114
150
128
112
148
126
110
143
123
106
139
119
102
134
114
97
130
111
94
124
104
87
121
99
83
145
135
120
184
179
172
191
186
180
195
190
184
199
194
188
202
197
192
202
197
194
201
196
193
200
195
193
199
193
193
199
193
193
200
194
194
200
194
194
202
196
196
205
199
198
204
199
198
204
199
198
203
198
197
201
195
194
56
45
41
62
47
40
60
45
41
58
43
40
53
40
36
32
24
22
16
10
10
80
68
56
182
158
135
186
160
137
178
146
125
177
145
124
181
149
128
185
153
132
186
157
135
185
159
136
185
159
136
186
157
134
186
154
131
185
153
130
187
155
132
187
156
133
185
159
134
186
160
135
192
166
141
202
176
151
211
185
160
216
190
165
216
192
166
216
193
168
215
193
169
221
196
174
216
190
169
218
196
173
225
206
189
223
203
184
215
190
167
207
175
152
206
177
154
216
190
167
217
191
166
208
179
155
191
159
136
199
173
150
211
186
163
220
196
172
221
197
173
215
191
167
205
181
157
205
181
157
210
187
164
216
193
171
213
194
177
199
180
160
189
164
142
193
167
144
196
170
147
193
167
144
191
165
142
200
174
150
187
161
136
179
153
128
180
155
130
182
158
134
176
152
128
161
136
112
161
135
112
157
132
110
156
131
109
159
134
112
157
134
118
158
135
119
158
135
119
158
135
119
156
133
117
153
130
114
146
123
107
140
119
102
131
112
95
128
106
90
125
103
88
155
145
133
185
181
174
192
187
181
197
192
186
201
196
190
206
201
196
207
202
199
209
204
201
207
202
200
207
201
201
207
201
201
208
202
202
212
206
206
212
207
204
212
207
204
211
206
203
209
204
201
207
202
199
205
200
197
59
48
44
65
50
43
64
49
44
62
47
44
55
42
39
31
23
21
19
13
13
82
70
59
183
158
135
194
168
145
187
155
134
182
150
129
184
152
131
188
156
135
189
160
138
189
163
140
190
164
141
191
162
139
193
161
138
191
159
136
192
160
137
193
161
138
190
164
139
194
168
143
198
172
147
208
182
157
214
188
163
218
192
167
217
193
167
217
193
168
215
191
167
218
193
171
215
189
168
220
198
175
225
206
189
221
201
182
212
187
164
203
172
149
202
173
150
211
185
162
210
184
159
196
168
144
183
151
128
196
170
147
208
183
159
215
191
167
217
193
169
212
187
164
198
171
148
194
168
145
202
178
155
213
192
169
212
193
176
202
183
162
195
170
148
200
174
151
202
176
153
198
172
149
198
172
149
201
175
152
183
157
132
179
153
128
183
158
134
185
161
137
173
149
125
165
140
116
162
136
113
158
133
111
158
133
111
159
134
112
158
135
118
158
135
119
158
135
119
157
134
118
153
130
114
149
126
111
144
121
105
138
117
100
131
112
95
128
106
89
123
101
87
161
154
143
183
178
172
190
185
179
195
190
184
199
194
188
203
198
193
203
198
195
204
199
196
204
198
196
203
197
197
201
195
195
203
197
197
205
199
199
205
200
197
204
199
196
201
196
193
199
194
191
198
193
190
197
192
189
56
45
41
62
47
40
61
46
42
58
43
40
45
32
29
22
15
12
16
10
10
93
81
69
182
157
134
197
170
147
192
161
140
182
150
129
181
149
128
180
148
127
181
152
130
181
154
132
183
156
133
185
155
133
187
155
132
189
157
134
191
159
135
192
160
137
190
164
139
193
167
142
197
171
146
206
180
155
212
186
161
216
190
165
216
191
166
214
189
165
211
185
162
214
189
167
216
190
168
222
201
178
227
209
192
221
201
183
210
185
162
204
172
149
203
174
151
210
184
161
208
182
157
192
163
139
180
149
126
197
171
148
209
184
160
216
192
168
217
193
169
214
188
165
200
171
149
195
165
144
204
178
156
218
196
173
220
200
183
211
192
172
206
181
159
208
182
159
212
186
163
208
183
160
211
185
162
202
176
152
186
160
135
185
159
134
190
165
140
184
160
136
173
149
125
169
144
120
165
139
116
162
137
115
162
137
115
164
139
117
162
139
122
161
138
122
161
138
122
159
136
120
156
133
117
151
128
112
146
123
107
139
118
101
132
113
96
131
108
92
128
107
94
167
162
153
184
179
173
190
185
179
197
192
186
200
195
189
203
198
194
205
200
197
207
202
199
207
202
200
207
201
201
207
201
201
208
202
202
208
202
202
206
201
199
205
200
197
203
198
195
202
197
194
202
197
194
203
198
195
56
45
41
61
49
45
60
49
45
57
46
42
44
33
31
20
14
14
16
10
9
114
96
80
188
162
138
201
177
153
195
169
146
190
160
139
187
155
134
187
155
134
188
156
135
187
155
134
190
158
135
191
159
136
192
160
137
195
163
140
197
166
140
200
170
142
200
174
149
204
178
153
210
184
159
213
189
163
217
193
167
218
194
168
218
192
167
214
188
163
211
185
160
213
187
164
217
195
171
222
206
186
226
210
195
221
202
185
210
185
162
199
173
150
200
174
151
209
183
160
209
177
154
191
159
136
177
147
123
194
168
145
204
179
156
211
187
163
214
190
166
209
186
162
194
167
145
191
159
136
199
171
149
214
194
171
218
199
182
212
192
172
207
185
162
207
183
159
211
187
163
210
186
163
212
190
167
198
175
152
185
162
133
188
164
140
191
167
143
184
160
136
174
150
126
172
147
124
170
144
121
168
143
121
169
145
122
168
146
123
168
146
123
166
144
124
165
142
126
161
138
122
158
135
119
153
130
114
148
125
109
141
118
102
135
112
96
129
109
92
132
117
103
177
168
162
188
182
177
193
188
182
198
193
187
201
196
190
204
199
194
206
201
198
208
203
200
208
202
200
207
201
201
207
201
201
203
197
197
201
195
195
200
195
193
200
195
192
200
195
192
199
194
188
197
192
187
197
192
189
55
45
41
59
48
44
58
47
43
55
43
40
42
31
29
18
12
12
16
9
8
133
116
99
188
163
139
202
178
154
201
175
152
193
164
142
189
157
136
186
154
133
186
154
133
187
155
134
188
156
133
189
157
134
190
158
135
193
161
138
196
164
138
199
168
141
201
175
150
205
179
154
209
183
158
213
189
163
217
193
167
216
192
166
213
187
162
208
182
157
205
179
154
207
182
159
216
194
170
221
206
185
224
208
193
217
199
181
207
182
158
200
174
152
203
177
154
210
184
161
207
176
152
192
159
136
177
148
124
195
169
146
204
179
156
213
189
165
215
191
167
211
187
163
196
168
146
190
158
135
198
169
147
214
194
171
220
201
184
217
197
177
209
187
164
210
186
162
213
190
166
212
191
168
214
192
169
198
176
153
187
167
140
199
175
151
188
164
140
182
158
134
175
151
127
174
149
125
171
145
122
171
146
124
171
147
125
169
147
124
168
146
123
164
141
121
160
137
121
155
132
116
151
128
112
146
123
107
140
117
101
136
113
97
131
108
92
126
106
89
137
123
110
180
171
164
186
181
175
192
187
181
196
191
185
200
195
189
203
198
193
204
199
196
207
202
199
206
201
199
205
199
199
202
196
196
199
193
193
201
195
195
202
196
194
201
196
193
202
197
194
202
197
192
202
197
192
202
197
194
55
44
40
58
47
43
57
46
42
54
43
39
39
29
27
16
9
10
18
11
10
143
126
109
190
164
140
204
180
156
210
184
161
205
176
154
195
163
142
190
158
137
190
158
137
189
157
136
189
157
134
191
159
136
194
162
139
197
165
142
202
170
144
204
173
146
205
179
154
210
184
159
216
190
165
221
197
171
223
199
173
218
194
168
214
188
163
206
180
155
203
177
152
209
183
160
220
197
174
225
210
189
225
209
194
217
198
181
208
183
160
202
176
153
205
179
156
210
184
161
207
176
152
194
161
139
178
149
125
196
170
147
203
178
155
212
188
164
213
189
165
212
188
164
198
170
148
189
157
134
195
166
144
213
193
169
221
202
185
219
199
179
210
188
165
210
186
162
210
189
165
216
197
173
216
194
171
205
184
162
200
181
156
208
184
160
186
162
138
183
159
135
179
155
131
178
153
129
177
151
127
178
153
131
178
154
132
175
153
130
173
151
128
170
148
128
166
143
127
161
138
122
155
132
116
150
127
111
144
121
105
137
114
98
131
108
92
126
107
90
146
133
120
185
176
169
189
184
178
195
190
184
200
195
189
203
198
192
206
201
196
207
202
199
210
205
202
208
203
201
204
198
198
201
195
195
200
194
194
200
194
194
200
195
192
200
195
192
200
195
192
201
196
190
201
196
190
200
195
192
54
44
40
58
47
43
56
46
41
52
42
37
36
29
25
12
10
9
24
17
12
156
133
113
192
167
143
207
182
159
213
187
162
213
186
162
201
173
150
193
161
138
192
160
137
190
158
135
189
157
134
190
158
135
194
162
139
195
163
140
200
168
142
204
173
145
204
178
153
212
187
162
218
194
169
219
199
175
221
201
176
216
193
167
212
182
158
202
171
148
199
168
145
206
179
155
218
197
176
222
207
188
222
206
190
213
193
172
205
181
157
201
177
153
206
181
157
208
183
159
204
176
153
193
165
142
180
153
130
196
170
147
201
176
152
212
188
164
213
188
165
212
189
165
198
173
150
187
155
132
193
165
143
211
191
168
219
200
183
219
199
179
210
188
165
209
184
162
209
187
166
216
197
178
213
195
176
206
188
169
210
191
172
197
175
151
183
158
134
181
155
130
176
151
126
177
151
127
176
150
126
177
153
131
176
154
131
174
152
129
172
149
131
168
146
129
163
143
126
157
137
120
154
133
116
147
124
108
138
113
97
131
107
91
127
104
88
123
104
85
150
140
128
182
176
170
187
182
176
192
187
181
195
190
184
198
193
189
201
196
192
201
196
193
200
195
192
198
193
190
197
191
189
197
191
189
196
191
189
196
191
188
196
191
188
197
192
189
198
193
190
199
194
190
199
194
191
199
194
191
51
41
37
54
43
39
50
40
36
46
37
32
33
27
23
9
9
8
32
25
18
166
141
120
194
169
145
208
182
159
212
186
161
212
186
161
207
181
156
197
165
142
195
163
140
191
159
136
191
159
136
191
159
136
194
162
139
197
165
142
201
169
143
204
173
146
207
181
156
215
190
166
222
198
174
221
203
179
223
205
181
218
196
169
210
178
155
200
168
145
200
168
145
207
180
155
220
201
180
225
210
191
224
208
189
216
195
171
209
185
161
206
182
158
210
186
162
209
185
161
204
178
155
196
170
147
186
160
137
199
173
150
203
178
155
215
191
167
216
191
168
216
194
170
203
179
156
191
159
136
195
167
144
213
193
169
221
202
185
221
200
180
212
190
167
209
184
162
214
192
172
218
199
182
218
202
183
218
201
183
217
198
181
195
174
150
187
161
137
185
159
134
184
158
133
184
158
133
185
159
134
185
162
139
186
164
141
184
162
139
182
159
143
178
156
140
171
152
135
164
145
128
158
137
121
152
129
113
142
116
101
134
109
93
128
105
89
124
106
86
159
150
138
189
184
178
196
191
185
200
195
189
204
199
193
207
202
199
209
204
201
210
205
202
209
204
201
205
200
197
202
197
194
202
197
194
202
197
194
202
197
194
203
198
195
203
198
195
205
200
197
204
199
196
204
199
196
204
199
196
55
44
40
59
48
44
54
44
40
49
40
35
34
29
25
11
10
10
50
42
36
178
154
132
201
176
153
213
187
164
214
188
163
212
186
161
211
185
160
205
173
150
198
166
143
196
164
141
194
162
138
195
163
140
197
165
142
200
169
145
203
171
146
206
175
147
208
182
157
217
192
167
223
200
176
223
205
181
224
206
182
217
194
168
205
173
150
196
164
141
196
164
141
206
179
154
218
198
178
221
206
187
219
204
181
212
190
166
207
183
159
206
182
158
210
186
162
206
182
158
201
175
152
195
169
146
186
160
137
198
172
149
204
179
155
215
191
167
212
191
166
215
194
170
205
181
157
190
159
136
194
166
143
207
188
164
216
198
180
219
198
178
209
187
164
204
179
157
213
191
172
215
196
179
216
201
182
219
202
184
212
193
176
192
170
146
186
160
136
185
159
134
184
158
133
181
155
130
181
155
130
182
160
137
183
161
138
182
160
137
180
157
141
176
154
138
169
150
133
162
143
126
155
135
118
149
126
110
140
114
99
132
107
92
126
103
87
123
104
85
167
157
145
187
182
176
192
187
181
196
191
185
198
193
188
198
193
190
199
194
191
201
196
193
199
194
190
196
191
188
196
191
188
195
190
187
195
190
187
196
191
188
197
192
189
196
191
188
197
192
189
197
192
189
199
194
191
199
194
191
52
42
38
55
45
41
53
43
39
47
39
34
34
29
25
9
9
6
60
49
41
186
161
139
204
179
155
212
186
162
214
186
160
212
183
158
209
181
156
204
174
150
198
167
144
197
165
142
194
162
137
194
163
138
197
166
141
198
169
143
201
172
145
204
175
147
206
180
155
216
191
166
223
199
176
225
207
186
225
207
185
218
196
171
202
171
145
195
163
138
196
164
139
208
181
156
219
199
179
222
205
187
219
202
178
212
190
165
211
186
162
210
187
163
214
191
167
209
184
161
205
179
157
203
178
156
191
166
143
201
175
153
210
187
165
218
196
175
219
200
175
220
201
176
212
190
167
199
171
148
197
170
148
212
190
167
218
199
181
219
199
179
212
190
167
206
181
159
216
195
173
217
199
180
221
207
188
225
209
190
213
196
176
201
182
158
193
169
144
191
166
141
188
163
137
185
160
135
184
159
135
186
163
140
187
165
141
186
164
141
183
161
141
177
156
138
170
151
134
164
144
127
158
136
119
149
125
110
141
115
100
134
109
93
129
104
89
124
104
86
176
167
157
193
188
182
197
192
187
199
194
189
200
195
190
201
196
193
202
197
193
207
202
198
205
200
195
204
199
194
202
197
192
201
196
191
201
196
192
201
196
192
202
197
192
204
199
195
205
200
197
205
200
198
205
200
198
206
201
198
53
44
40
56
47
42
55
46
41
50
41
36
44
38
35
39
38
33
89
74
63
195
171
148
211
186
162
215
188
163
219
188
159
217
185
160
214
182
159
207
181
156
203
173
149
201
169
146
198
167
139
200
169
141
202
171
143
202
177
147
204
179
149
206
181
151
211
185
160
219
194
168
227
202
179
228
209
192
227
209
190
220
199
174
200
171
143
194
162
135
196
165
137
209
182
157
219
197
178
221
201
184
218
197
172
211
187
164
211
185
162
212
189
166
213
192
169
208
183
161
204
178
157
203
179
158
188
163
140
200
174
153
207
187
167
215
197
179
217
199
175
217
199
175
209
191
167
198
174
151
198
173
151
212
187
165
215
196
179
215
197
176
209
186
163
202
178
154
211
189
167
214
196
174
221
207
188
222
209
188
215
202
179
207
191
169
201
179
154
194
170
146
190
164
139
187
162
138
185
161
137
189
165
141
188
165
142
188
166
143
184
162
139
178
157
137
170
151
134
166
144
127
157
133
117
146
120
105
136
110
95
132
106
91
129
103
88
126
105
89
180
174
164
192
187
181
193
188
185
194
189
186
196
191
188
197
192
189
199
194
190
202
197
191
200
195
189
200
195
189
198
193
187
197
192
186
196
191
185
197
192
186
198
193
187
199
194
189
199
194
191
200
194
193
201
195
194
203
198
195
51
43
38
54
45
40
49
41
36
43
34
29
25
20
17
15
14
9
99
84
74
201
177
153
212
187
162
215
188
163
216
185
157
214
183
158
212
180
157
205
179
154
201
171
148
198
166
143
195
164
136
196
165
137
198
167
139
198
173
143
201
176
146
203
178
149
206
180
155
213
188
161
219
195
172
223
204
187
223
206
186
217
196
171
197
168
140
192
160
133
195
164
136
209
182
157
218
195
176
220
197
181
217
193
170
211
186
162
211
185
162
214
191
169
215
194
171
210
185
163
205
183
160
207
185
163
190
165
142
202
180
157
210
193
172
219
200
183
220
202
182
219
201
179
212
194
170
206
182
160
203
178
156
211
186
164
214
195
178
213
195
175
209
187
164
201
177
153
209
188
165
214
196
174
222
208
189
226
213
194
223
211
191
217
203
183
208
187
164
196
172
148
193
167
142
188
163
138
185
161
137
187
163
139
187
164
140
185
163
140
183
161
138
180
159
139
171
152
135
166
143
127
154
130
115
140
114
99
133
107
92
129
103
88
128
102
87
131
109
94
182
175
165
186
181
175
189
184
181
191
186
183
193
188
185
197
192
189
198
193
189
203
198
192
201
196
190
201
196
190
200
195
189
199
194
188
199
194
188
201
196
190
202
197
191
204
199
194
205
200
197
206
200
199
206
201
200
205
200
197
52
44
39
54
45
40
50
41
36
43
34
29
24
18
16
11
9
4
119
103
92
207
183
159
215
190
166
217
191
166
219
188
160
217
185
160
214
183
160
210
184
159
208
180
156
207
176
153
206
176
149
206
176
149
207
177
150
208
183
154
210
185
156
213
188
160
218
192
167
223
199
173
227
203
180
227
208
189
227
209
189
220
199
175
198
170
142
192
160
133
197
166
138
211
184
160
218
193
174
220
194
178
217
189
167
210
183
161
212
186
163
216
194
172
218
197
175
212
188
167
207
187
164
209
189
167
187
163
140
203
184
160
213
197
176
218
200
182
220
201
184
218
200
180
213
195
172
206
182
161
203
178
157
209
184
162
210
190
172
211
192
171
207
184
161
198
173
149
206
183
160
212
193
171
222
208
190
226
215
197
226
218
199
225
213
194
216
196
173
202
178
154
197
172
147
190
165
141
187
163
139
188
163
139
187
164
140
186
163
141
185
163
140
182
161
140
174
154
136
167
144
128
154
130
114
142
116
101
135
109
94
130
104
89
130
104
89
137
117
102
183
176
167
187
182
176
190
185
182
194
189
186
195
190
187
198
193
190
200
195
190
205
200
194
204
199
193
203
198
192
202
197
191
201
196
190
201
196
190
202
197
191
203
198
192
203
198
193
204
199
196
202
196
195
200
194
193
197
192
189
53
44
39
55
46
41
49
40
35
43
34
30
23
17
17
14
11
8
136
118
101
212
188
164
215
192
167
217
189
165
220
188
165
217
185
162
214
183
160
211
185
160
210
184
159
207
181
156
208
184
160
208
184
160
208
184
160
209
187
163
211
188
164
211
189
165
215
193
169
219
197
174
223
201
178
224
206
182
225
205
182
219
197
174
196
169
144
188
156
131
195
164
136
207
181
156
214
188
164
216
189
166
213
181
160
209
178
157
210
186
162
215
195
178
217
198
181
210
191
174
210
191
174
210
190
171
188
163
140
206
190
168
212
199
182
218
203
186
220
204
189
220
203
187
212
193
176
204
185
168
201
179
160
207
182
160
209
187
164
208
187
163
203
178
155
195
164
140
203
174
149
211
189
165
221
207
190
225
216
201
227
218
203
224
214
194
215
197
174
205
181
157
197
173
149
188
163
140
186
160
137
184
158
135
185
159
136
184
158
135
183
159
135
179
156
132
172
150
127
164
138
122
151
125
110
140
114
99
131
105
90
127
101
86
127
101
86
138
121
110
177
170
162
184
179
173
188
183
180
190
185
182
192
187
184
194
189
183
195
190
184
202
197
191
198
193
187
199
194
188
199
194
188
199
194
188
199
194
188
199
194
188
200
195
189
200
195
190
199
194
191
197
192
189
196
191
188
194
189
186
51
42
37
53
44
39
47
38
33
42
33
29
23
17
17
13
10
7
148
130
113
216
192
168
217
194
168
217
189
165
219
187
164
218
186
163
216
184
161
214
188
163
216
190
165
217
191
166
217
193
169
218
194
170
218
194
170
218
196
172
219
197
173
219
197
173
221
199
175
225
203
179
226
204
181
226
208
184
227
207
183
220
198
175
198
171
146
188
156
131
195
164
136
205
179
155
213
187
163
214
188
165
212
180
159
208
177
156
213
189
165
219
200
183
221
202
185
216
197
180
217
198
181
214
194
176
194
169
146
211
197
178
216
205
189
218
206
190
220
204
189
221
203
187
212
193
176
208
189
172
199
178
158
203
178
156
203
181
158
203
182
158
198
173
150
191
159
136
198
169
145
209
187
163
221
207
190
227
217
203
230
221
206
227
217
197
221
202
179
212
188
164
202
178
154
194
169
145
190
164
141
186
160
137
186
160
137
184
158
135
183
159
135
180
157
133
173
151
128
164
138
122
150
124
109
142
116
101
133
107
92
130
104
89
128
102
87
151
135
124
183
175
167
187
182
176
190
185
182
194
189
186
197
192
189
198
193
188
200
195
189
205
200
194
204
199
193
205
200
194
205
200
194
205
200
194
205
200
194
204
199
193
203
198
192
201
196
191
200
195
192
199
194
191
198
193
190
196
191
188
52
43
39
54
45
40
48
39
34
41
32
28
23
17
17
15
12
9
159
141
123
220
196
172
220
197
171
219
191
167
220
188
165
220
188
165
220
189
166
218
192
167
222
196
171
223
197
172
222
198
174
222
199
175
223
199
175
222
200
176
222
200
176
222
200
176
222
200
176
224
202
178
225
203
180
224
206
182
225
205
181
219
197
174
200
173
148
184
152
127
191
160
132
201
175
150
207
180
157
206
180
157
206
174
153
202
172
151
209
185
161
217
198
181
220
201
185
219
200
183
217
199
182
216
195
177
197
173
150
212
201
184
210
201
187
213
203
189
217
201
186
219
202
186
209
190
173
208
189
172
191
170
150
193
168
146
190
168
145
192
171
147
186
161
138
180
149
126
189
160
135
201
179
155
216
201
184
224
214
200
228
219
204
224
214
194
219
201
177
211
187
163
200
176
152
191
166
143
187
161
138
183
157
134
181
155
132
180
154
131
179
155
131
175
152
129
165
143
120
157
131
115
145
119
104
138
112
97
129
103
88
128
102
87
124
98
83
155
138
128
179
172
164
184
179
173
188
183
180
191
186
183
193
188
185
194
189
183
196
191
185
200
195
189
198
193
187
200
195
189
200
195
189
199
194
188
198
193
187
196
191
185
194
189
183
192
187
182
192
187
184
192
187
184
191
186
183
190
185
182
51
43
38
52
43
38
46
37
32
40
31
26
20
15
13
14
11
8
159
141
123
219
196
172
219
196
172
217
192
168
217
190
165
218
191
166
219
193
168
219
195
167
221
198
172
221
199
174
219
200
176
220
200
176
220
201
177
219
201
177
219
201
177
219
200
176
221
200
175
222
200
177
224
200
178
228
205
180
227
205
181
219
197
174
202
174
150
185
153
129
190
159
135
202
171
148
207
176
154
208
177
156
204
172
151
203
174
153
211
188
165
219
204
185
225
209
192
224
207
192
223
207
189
220
203
185
213
193
175
222
212
198
219
213
202
218
207
192
220
206
190
221
206
187
212
197
177
212
200
186
187
164
144
185
160
138
179
155
133
183
161
141
178
154
137
175
143
119
185
155
131
200
175
152
217
202
181
226
215
199
228
219
204
227
216
200
224
207
187
216
191
169
207
181
157
197
172
147
192
166
141
185
159
134
183
157
133
181
155
130
180
156
132
177
153
130
165
141
119
158
132
116
149
123
108
139
113
98
133
107
92
128
103
88
126
103
87
159
145
133
183
176
168
187
182
176
192
187
181
194
189
183
197
192
186
200
195
189
202
197
191
206
201
195
206
201
195
207
202
196
205
200
194
203
198
192
200
195
189
199
194
188
197
192
186
197
192
186
197
192
186
197
192
188
196
191
188
195
190
187
53
44
40
54
45
40
47
38
33
42
33
28
23
18
15
24
20
16
166
147
128
221
199
175
223
200
176
224
200
176
223
199
173
225
200
175
225
201
175
227
203
178
227
204
180
226
204
181
223
205
181
223
205
181
221
203
179
218
200
176
218
198
174
218
197
174
219
196
172
217
193
170
218
192
169
222
198
174
226
203
179
218
196
173
203
176
151
184
152
129
187
155
132
197
165
142
202
170
148
204
172
151
199
167
146
200
171
150
208
187
164
218
203
184
224
208
191
223
207
192
223
207
189
219
202
184
213
194
177
220
209
196
221
217
207
213
203
189
216
202
189
215
202
186
209
196
181
208
198
185
170
145
126
163
139
117
155
130
110
160
138
119
158
134
119
165
133
110
175
144
122
194
169
145
209
194
171
221
211
193
224
215
200
222
211
197
221
204
184
214
189
167
206
180
155
198
172
147
193
167
142
185
159
134
182
156
131
179
153
128
178
154
130
173
148
125
161
136
114
156
130
114
148
122
107
136
110
95
130
104
89
128
103
87
126
103
87
159
146
134
182
175
166
186
181
175
190
185
179
192
187
181
195
190
184
198
193
187
199
194
188
201
196
190
198
193
187
198
193
187
196
191
185
193
188
182
191
186
180
191
186
180
191
186
180
190
185
179
189
184
178
189
184
180
188
183
180
187
182
179
53
45
40
53
44
39
46
37
32
39
30
25
23
18
15
40
35
29
178
156
135
217
195
171
220
197
173
221
198
173
220
199
172
220
199
172
221
200
174
226
201
179
225
202
180
224
203
181
219
201
177
217
199
175
215
197
173
211
193
169
206
185
162
203
180
157
202
176
153
200
174
149
202
175
150
208
184
160
219
196
173
214
192
169
202
174
150
184
152
129
184
152
129
191
160
137
197
165
143
200
169
148
199
167
146
203
174
153
211
190
167
222
207
188
228
213
196
229
213
198
229
214
195
227
210
192
225
207
190
225
214
201
229
226
217
214
207
195
222
208
198
219
206
196
217
205
199
211
200
188
164
140
120
153
128
106
143
117
101
148
125
108
148
125
109
159
127
108
170
139
119
189
164
141
210
195
169
222
211
192
224
215
200
223
212
197
222
205
185
215
190
169
207
181
156
202
176
151
196
170
145
186
160
135
183
157
132
182
156
131
181
157
133
169
145
122
161
136
114
157
131
115
146
120
105
135
109
94
131
105
90
129
104
89
129
106
90
160
146
134
184
176
168
187
182
176
191
186
180
193
188
182
196
191
185
200
195
189
201
196
190
204
199
193
201
196
190
198
193
187
196
191
185
195
190
184
195
190
184
195
190
184
195
190
184
193
188
182
193
188
182
192
187
184
191
186
183
190
185
182
55
46
41
54
45
40
46
37
33
40
30
28
27
22
19
50
43
37
187
163
142
221
197
172
222
198
174
225
201
177
225
203
178
226
206
181
227
208
183
229
209
185
228
208
186
226
206
184
224
203
179
219
199
175
216
196
172
205
184
160
191
166
144
178
149
128
173
146
123
176
147
125
184
154
131
194
167
144
212
187
164
213
190
167
201
175
151
186
155
133
182
150
128
187
158
136
193
163
142
197
167
146
195
166
144
200
173
151
209
189
167
222
207
190
227
212
196
226
212
197
226
211
192
224
207
189
222
204
186
218
207
191
225
221
212
207
202
196
218
206
200
213
205
200
218
213
211
208
198
186
142
117
100
130
106
87
127
103
87
133
110
94
137
112
97
146
116
99
159
130
111
181
155
133
204
185
161
217
203
182
218
207
189
222
206
190
220
200
180
213
189
166
208
182
157
203
177
152
198
172
147
190
164
139
185
159
134
184
158
134
184
160
136
168
144
121
164
139
117
156
130
115
144
118
103
134
108
93
130
106
90
130
106
91
130
107
91
158
145
133
185
177
169
188
183
177
192
187
181
196
191
185
198
193
187
199
194
188
201
196
190
203
198
192
198
193
189
198
193
188
196
191
186
193
188
184
192
187
182
192
187
181
191
186
180
190
185
179
189
184
178
188
183
178
187
182
177
187
182
177
54
45
41
53
44
39
44
35
32
34
25
24
21
16
13
46
38
33
178
154
133
213
187
162
214
190
165
217
193
169
220
198
174
222
203
179
223
205
181
223
205
181
223
205
181
222
204
180
221
199
175
211
189
165
202
181
156
186
161
138
162
134
112
138
106
85
124
97
75
120
93
72
125
98
78
138
111
89
168
143
121
199
174
152
196
170
147
183
154
132
178
146
125
181
154
133
187
160
139
191
164
143
194
168
145
201
176
152
210
190
168
223
206
191
228
213
198
227
214
198
228
213
194
227
209
191
225
206
189
221
208
191
229
224
217
229
229
227
234
232
233
236
235
235
234
234
232
207
199
186
127
102
86
120
97
81
120
97
81
126
102
86
131
105
90
138
110
96
153
125
108
176
149
128
201
179
156
214
197
176
218
203
184
222
204
186
220
199
179
213
189
165
208
183
158
205
179
154
199
173
148
191
165
140
185
159
135
183
157
134
181
157
133
166
142
119
162
137
115
151
125
109
138
112
97
131
105
90
128
104
88
129
106
90
128
105
89
154
141
129
183
175
167
188
183
177
190
185
179
192
187
181
193
188
182
193
188
182
193
188
182
197
192
186
197
192
188
196
191
188
193
188
185
192
187
184
190
185
181
190
185
179
189
184
178
188
183
177
188
183
177
188
183
177
189
184
178
188
183
177
55
46
41
54
45
40
45
35
33
34
24
23
22
17
14
46
38
32
166
141
121
208
182
157
211
186
162
212
188
164
219
197
173
222
203
179
224
206
182
224
206
182
224
206
182
222
204
180
219
197
173
210
186
163
194
169
146
170
143
121
143
114
92
121
89
68
107
81
60
101
75
56
97
71
54
97
71
55
115
89
70
175
150
128
192
166
143
185
156
134
182
150
129
186
159
138
193
166
145
200
173
152
202
176
153
207
183
159
212
192
170
224
208
193
231
216
201
230
217
201
229
214
195
227
210
192
226
207
190
223
208
192
231
226
220
242
242
244
241
241
246
239
240
241
235
235
232
201
193
181
119
95
79
114
91
75
115
92
76
120
96
80
125
99
84
132
104
90
146
118
101
167
140
119
190
167
145
206
187
166
216
198
180
221
202
185
216
195
175
212
188
164
212
186
161
211
185
160
206
180
155
198
172
147
191
165
140
189
163
140
183
158
135
171
146
123
163
138
116
150
124
108
137
111
96
133
107
92
132
109
93
132
109
93
131
108
92
154
141
129
189
182
173
192
187
181
195
190
184
196
191
185
196
191
185
197
192
186
199
194
188
202
197
191
201
196
193
198
193
190
197
192
189
195
190
187
193
188
184
191
186
180
192
187
181
192
187
181
191
186
180
192
187
181
190
185
179
153
148
143
55
46
41
53
44
39
45
35
33
33
24
23
20
15
13
44
36
31
148
125
105
198
172
147
206
181
157
210
185
161
216
195
170
222
202
177
225
205
181
225
206
182
225
206
182
222
203
179
217
195
171
204
178
155
181
153
131
156
125
105
128
97
76
109
78
58
96
72
55
89
65
49
84
60
46
81
57
45
79
55
40
121
98
78
176
150
127
180
150
128
180
148
127
185
158
137
193
166
146
200
173
154
203
179
156
207
182
159
211
192
170
223
208
193
229
215
200
230
216
201
228
213
194
225
208
190
224
205
188
223
207
191
228
223
217
239
241
243
239
238
238
236
235
234
224
223
219
193
182
169
110
86
69
109
86
70
111
87
72
117
93
78
120
95
81
124
97
83
134
108
91
154
127
106
173
150
129
190
170
150
200
179
162
204
184
167
197
175
156
199
174
151
203
175
151
204
177
152
201
175
150
197
171
147
191
165
141
189
164
140
179
155
131
169
144
121
159
134
112
145
119
103
133
107
92
132
106
91
131
108
92
131
108
92
129
107
91
147
134
122
181
174
165
182
177
171
184
179
173
185
180
174
186
181
175
188
183
177
189
184
178
194
189
183
193
188
184
191
186
183
190
185
182
188
183
180
188
183
179
187
182
176
186
181
175
186
181
176
189
184
179
188
182
177
145
140
135
64
59
54
56
46
42
52
41
37
43
33
30
31
21
20
21
15
15
37
31
28
126
108
88
188
162
137
202
176
151
210
185
160
214
193
166
221
199
173
226
202
178
225
203
179
225
203
180
224
202
179
217
194
170
197
168
146
170
138
117
145
112
93
119
89
69
102
75
59
89
64
53
78
55
44
73
53
43
74
54
45
78
58
48
88
68
54
154
128
109
178
147
125
183
151
130
193
166
145
201
175
157
207
183
167
210
190
166
212
188
164
215
195
173
226
213
197
232
218
204
233
219
205
231
215
197
228
211
191
229
210
193
227
212
195
225
218
207
240
241
243
240
240
240
229
228
225
221
214
203
192
173
158
109
85
67
110
87
71
112
88
76
117
93
81
119
95
83
122
98
86
130
105
90
145
120
101
161
138
122
181
158
142
185
162
146
184
161
145
178
155
136
185
160
138
201
170
147
209
180
156
207
181
156
202
178
154
197
174
150
193
169
145
183
158
136
172
147
125
165
140
118
147
121
105
137
111
96
138
112
97
135
112
96
133
112
96
132
113
96
147
134
120
183
176
166
185
180
174
188
183
177
189
184
178
191
186
180
195
190
184
198
193
187
201
196
190
200
195
191
199
194
191
196
191
188
195
190
187
195
190
186
193
188
182
193
188
182
195
190
185
193
188
185
149
141
140
74
66
65
50
44
44
57
46
43
53
42
38
44
34
31
33
23
22
25
19
19
37
31
30
118
99
81
185
159
134
200
174
149
210
184
159
216
193
167
222
198
174
227
203
179
225
203
179
225
203
180
224
202
179
218
196
172
194
165
143
162
130
109
137
104
85
110
82
63
92
68
53
79
56
47
72
51
43
67
47
39
65
45
38
69
50
42
75
57
44
118
96
78
167
137
116
182
150
129
194
167
146
203
179
160
210
188
171
210
191
167
212
188
164
215
196
174
225
212
196
230
217
202
230
216
203
226
211
192
225
208
188
225
206
189
222
206
190
217
211
196
233
234
235
232
231
230
214
205
197
210
195
177
180
161
143
104
80
64
106
83
67
109
85
73
115
91
79
117
93
81
117
93
81
121
96
82
129
103
87
138
115
99
145
122
106
149
126
110
151
128
112
154
130
112
165
140
118
184
152
130
194
165
141
200
174
149
200
176
152
196
172
148
190
166
142
181
156
134
172
147
125
164
139
117
145
119
103
139
113
98
137
111
96
135
111
96
134
112
96
133
113
97
143
130
116
176
169
160
180
175
169
183
178
172
184
179
173
186
181
175
189
184
178
191
186
180
196
191
185
192
187
183
192
187
184
192
187
184
190
185
182
189
184
180
189
184
178
192
187
181
176
171
166
124
119
116
61
52
51
52
43
42
43
37
37
56
45
42
52
41
37
43
33
31
31
22
21
27
21
21
41
34
34
102
83
68
171
145
120
188
162
137
201
174
149
212
186
161
217
192
168
221
196
173
221
199
175
222
200
176
222
200
177
216
193
169
189
160
138
152
120
99
124
91
72
98
71
53
84
62
50
76
56
48
69
49
43
63
43
37
61
41
35
60
42
36
67
51
40
89
69
53
154
125
105
184
152
131
201
174
153
210
187
168
217
198
181
217
198
174
216
192
169
218
198
177
228
215
199
232
219
204
231
217
204
228
213
195
228
211
191
228
209
192
226
210
194
220
214
196
232
232
233
229
228
227
205
191
177
204
182
159
184
164
143
107
83
69
110
87
71
112
88
76
117
94
82
120
96
84
121
98
86
123
98
86
127
102
88
131
108
92
133
110
94
135
113
97
140
118
102
154
130
111
170
145
123
185
154
131
195
166
142
203
177
152
204
179
155
199
175
151
195
171
147
188
163
141
180
155
133
171
146
124
152
127
111
144
118
103
141
115
100
138
114
98
137
115
99
136
117
100
143
131
116
177
171
161
182
177
171
185
180
174
187
182
176
189
184
178
192
187
181
195
190
184
199
194
188
196
191
187
198
193
190
198
193
190
198
193
190
198
193
189
199
194
188
178
173
167
86
81
77
46
41
38
50
41
40
50
41
40
43
37
37
59
45
42
53
42
38
45
34
32
32
22
21
27
22
20
46
40
33
102
88
75
174
148
123
195
166
138
206
175
147
215
184
156
219
191
165
220
194
169
223
198
175
224
199
176
224
200
176
218
196
171
189
160
138
148
117
96
114
85
65
93
69
55
84
64
55
78
58
52
68
50
46
60
44
41
58
43
40
56
43
39
57
46
41
71
56
44
132
106
88
179
151
126
202
181
157
212
196
178
220
204
189
217
201
181
215
194
170
218
198
176
224
215
200
227
217
202
226
217
201
227
209
192
223
204
185
222
203
186
221
205
187
219
208
190
227
222
219
221
218
211
194
175
153
190
165
141
179
156
137
102
80
66
107
83
71
109
88
77
111
91
80
112
91
80
111
91
80
109
89
78
108
87
76
106
86
72
103
84
71
100
81
69
106
88
74
131
110
92
153
129
106
168
141
119
184
155
131
196
170
147
199
175
151
197
173
149
194
170
146
188
166
143
182
160
137
173
151
128
156
131
115
146
121
105
140
117
101
138
115
99
137
116
99
136
117
100
144
129
117
174
170
160
180
175
169
184
179
173
186
181
175
188
183
177
191
186
180
193
188
182
196
191
185
194
189
184
197
192
187
197
192
189
198
193
190
199
194
191
189
184
181
94
90
87
44
39
36
44
38
38
43
37
37
40
34
34
36
30
30
59
45
42
51
40
36
44
33
31
30
20
19
21
16
13
25
21
16
80
69
58
173
147
122
192
163
134
200
169
141
203
172
144
206
177
151
212
186
161
218
192
169
220
195
172
221
197
173
213
191
167
184
155
133
138
107
86
105
79
61
91
69
56
80
63
54
62
50
44
51
38
33
46
33
30
44
31
27
47
36
32
50
39
35
59
47
37
105
84
67
171
143
121
205
188
164
216
203
186
223
210
196
221
206
185
218
197
172
220
201
179
224
215
200
227
218
203
228
219
204
228
210
193
224
206
187
223
204
187
223
207
188
224
211
193
230
222
217
219
214
206
188
167
144
177
151
128
160
137
118
105
84
70
111
87
75
112
92
81
113
93
82
114
94
83
114
94
83
110
90
79
106
86
75
99
80
68
82
65
54
75
59
50
79
63
51
100
81
67
122
100
84
143
117
97
170
142
119
184
158
136
193
168
144
196
172
148
195
171
147
190
168
144
184
162
139
172
150
127
158
132
116
147
122
107
140
117
101
138
115
99
137
116
99
137
118
101
146
131
119
172
169
159
180
175
169
183
178
172
187
182
176
190
185
179
191
186
180
194
189
183
197
192
186
196
191
185
202
197
192
203
198
195
203
198
195
196
191
188
118
113
110
50
45
42
45
40
38
43
37
37
41
35
35
38
32
32
37
31
31
60
46
43
55
44
40
44
34
32
32
22
21
28
23
21
50
41
33
102
86
70
178
152
127
194
165
137
201
170
142
202
171
143
202
174
148
207
181
156
217
191
168
223
198
174
224
200
176
215
193
169
184
155
133
136
104
84
104
80
65
91
72
58
83
70
59
185
182
176
83
79
74
46
37
32
43
34
29
42
32
28
48
37
33
55
45
37
84
68
53
162
135
115
212
196
175
224
212
198
228
217
206
226
211
190
222
200
176
223
203
181
225
215
200
228
219
204
227
218
202
227
208
191
222
204
184
222
203
186
220
204
185
222
208
189
225
216
208
215
207
196
178
156
132
160
134
111
123
100
81
105
83
69
111
87
75
112
92
81
113
93
82
112
92
81
110
90
79
101
81
70
92
72
61
70
54
45
59
44
35
54
41
32
55
41
31
62
46
37
80
59
51
107
84
67
144
118
96
171
145
122
184
160
136
192
168
144
194
170
146
191
168
145
188
166
143
175
153
130
161
135
119
152
127
112
142
119
103
138
115
99
137
116
99
139
120
103
150
135
124
175
172
162
183
178
172
187
182
176
190
185
179
192
187
181
194
189
183
197
192
186
199
194
188
198
193
187
205
200
195
204
199
196
194
189
186
126
122
119
63
58
55
46
41
38
44
38
36
40
34
34
38
32
32
38
32
32
37
31
31
61
47
41
56
42
39
47
35
32
38
27
24
52
41
36
88
71
58
139
116
96
185
159
134
193
165
140
197
167
142
196
169
141
197
171
144
201
177
150
209
188
164
216
195
171
220
200
176
214
195
170
185
158
136
129
101
83
99
78
64
84
68
56
92
85
79
245
242
238
154
150
147
44
35
31
40
30
28
38
28
26
40
31
28
51
40
35
63
50
41
145
120
101
207
192
173
223
213
201
229
218
207
226
212
196
221
202
182
222
205
186
225
215
200
228
219
204
226
217
202
224
208
189
222
202
180
224
203
181
220
202
184
220
208
189
223
214
199
213
200
181
170
146
122
134
107
88
105
81
67
106
84
72
111
89
78
113
93
82
113
94
83
110
92
83
104
86
78
92
75
68
71
54
49
52
41
35
47
37
31
48
38
32
50
40
34
54
41
35
63
46
39
81
60
49
109
85
68
141
114
93
166
140
118
181
156
133
188
164
140
190
167
143
187
164
140
174
152
129
163
140
119
152
128
108
141
117
97
136
111
95
136
114
98
139
120
103
148
135
122
174
168
159
180
175
169
183
178
172
186
181
175
190
185
179
191
186
180
194
189
183
196
191
185
198
193
187
198
193
188
185
180
175
123
118
115
67
61
59
52
46
45
41
36
35
39
33
33
38
32
32
38
32
32
38
32
31
39
33
31
60
46
40
56
41
38
49
37
33
42
31
27
72
58
50
118
97
81
162
136
114
193
167
142
200
173
149
203
176
152
207
182
156
211
188
161
214
193
166
216
199
176
221
204
181
225
208
185
223
207
183
194
169
148
124
99
83
96
77
64
78
63
52
80
74
70
243
239
236
177
172
169
46
37
32
42
32
31
40
31
30
39
31
29
52
41
37
59
47
42
140
117
101
220
205
188
235
226
217
237
228
217
231
218
203
224
206
188
224
208
190
227
218
203
229
220
205
228
219
204
224
209
189
223
203
179
224
202
179
221
202
185
221
209
189
223
212
192
209
192
169
158
133
111
116
90
74
103
79
67
108
86
74
112
92
81
116
96
85
113
94
85
109
92
84
102
85
79
84
69
63
57
43
40
51
42
37
47
38
34
46
37
32
47
38
33
56
44
39
65
50
43
78
58
50
94
73
59
122
95
77
152
125
104
175
149
127
187
163
139
191
167
143
189
166
142
179
157
133
169
147
124
156
133
110
144
119
97
139
113
97
138
115
99
142
123
106
156
143
130
180
173
165
187
182
176
190
185
179
192
187
181
195
190
184
197
192
186
200
195
189
202
197
191
200
195
189
189
184
178
127
122
116
73
68
65
63
58
56
46
40
40
42
36
36
41
35
35
41
35
35
42
36
36
41
35
34
43
38
35
60
46
40
57
42
39
51
39
35
46
34
30
77
60
50
130
106
89
179
150
127
198
172
147
203
178
153
207
183
158
213
191
168
221
200
176
225
205
181
225
209
189
227
211
191
226
211
191
222
208
188
187
165
147
115
93
79
89
71
62
66
52
43
44
37
32
124
120
118
80
75
72
42
33
28
40
31
29
37
28
27
36
28
26
44
33
29
49
39
35
112
91
77
215
200
186
229
221
215
234
226
218
231
217
203
222
204
185
222
207
189
225
216
201
226
217
202
223
214
199
220
205
184
219
199
175
219
198
175
216
198
180
218
204
184
217
204
182
197
176
152
133
109
90
105
82
68
102
78
66
107
85
73
111
91
80
112
92
81
109
91
81
104
87
79
95
78
71
65
51
45
43
33
29
39
30
25
36
27
22
35
26
21
40
31
26
43
31
25
53
38
31
67
47
39
78
58
44
99
74
58
128
101
80
158
133
111
177
153
129
185
161
137
187
163
139
179
157
133
168
146
123
155
132
109
140
115
93
136
110
94
134
111
95
137
118
101
152
140
127
177
170
162
183
178
172
187
182
176
190
185
179
189
184
178
188
183
177
187
182
176
191
186
180
188
183
177
131
126
120
74
69
63
54
49
46
40
35
33
35
29
29
33
27
27
33
27
27
36
30
30
37
31
31
36
30
29
48
43
40
58
44
38
56
41
37
52
38
35
50
37
32
86
68
53
147
120
98
191
160
134
201
175
148
204
180
154
208
185
159
215
194
170
221
203
180
225
209
187
225
213
195
227
215
197
226
214
196
220
206
187
172
153
136
108
90
78
81
67
59
54
43
35
42
34
29
38
31
29
42
33
30
43
34
29
40
32
30
38
30
28
38
30
28
45
34
30
52
42
37
96
79
68
218
202
189
236
230
225
237
232
226
232
222
209
227
210
193
228
213
196
230
221
208
230
221
207
227
218
203
224
208
188
224
204
180
224
202
179
222
201
184
223
206
187
223
206
186
194
171
148
124
102
84
106
84
71
105
81
70
112
90
78
113
94
82
113
94
84
110
92
84
103
87
80
87
72
66
53
41
36
44
35
30
43
35
31
42
34
30
42
35
31
44
36
32
49
40
34
58
45
39
71
54
45
83
63
52
100
76
63
123
96
77
149
124
102
171
147
124
183
159
135
187
163
139
181
158
134
172
149
125
157
133
111
143
118
96
137
111
95
135
112
97
138
119
102
154
141
129
183
175
167
186
181
175
189
184
178
189
184
178
188
183
177
186
181
175
188
183
177
192
187
181
152
147
140
80
75
69
50
45
41
39
34
32
36
31
30
36
30
30
37
31
31
39
33
33
40
34
34
39
33
33
40
34
33
63
58
55
61
47
40
61
46
39
58
43
39
60
45
36
108
87
67
171
142
116
202
172
144
206
181
151
209
185
157
214
190
164
219
197
173
224
206
185
228
214
195
227
218
201
228
219
202
227
218
201
219
203
185
162
144
128
102
89
78
79
67
58
50
41
35
43
34
29
42
32
31
41
32
29
41
32
27
37
32
29
37
30
27
36
28
26
43
32
28
50
39
34
76
61
51
212
196
183
233
229
226
237
232
229
228
222
210
227
210
197
224
211
196
226
216
206
226
216
204
223
214
198
219
204
184
219
198
175
219
197
174
219
196
179
222
201
185
220
201
184
189
167
145
119
96
78
106
82
71
105
81
71
110
88
78
111
91
80
110
92
84
105
89
81
95
80
73
64
52
49
38
28
23
34
25
20
29
24
21
28
23
20
28
23
20
29
24
21
35
29
25
43
32
28
54
42
34
71
51
43
88
65
55
107
81
65
133
109
87
161
136
114
177
151
129
181
156
132
177
153
129
170
146
122
157
133
109
142
117
95
135
109
93
133
110
94
133
114
97
153
140
128
177
170
162
179
174
168
180
175
169
180
175
169
179
174
168
177
172
166
180
175
169
161
156
150
86
81
74
55
51
45
33
27
27
30
24
24
28
22
22
29
23
23
30
24
24
29
23
23
29
23
23
30
24
24
30
24
23
63
58
55
60
46
39
61
46
39
60
45
39
72
57
45
139
116
94
188
159
132
205
175
147
206
181
151
208
184
157
213
189
163
217
195
171
223
205
184
228
213
194
226
217
200
226
217
200
223
214
197
209
193
174
148
130
114
101
87
76
75
63
53
45
36
30
39
30
25
41
31
30
41
31
28
40
31
26
37
32
29
37
31
28
36
28
26
42
31
27
50
39
34
68
53
43
209
193
180
237
232
229
238
233
230
229
223
212
229
212
201
230
216
205
231
221
211
230
220
208
227
218
203
225
210
190
223
203
179
220
198
175
221
198
182
226
205
189
224
205
188
207
185
162
142
120
102
111
87
75
111
87
77
114
92
82
115
95
84
113
95
87
108
92
84
92
77
70
51
40
36
43
33
29
41
32
27
33
28
25
31
26
23
30
25
22
31
26
23
37
32
27
48
38
34
58
46
38
75
55
47
92
68
58
106
80
64
127
102
81
152
127
105
170
144
122
177
151
128
175
151
127
170
146
122
158
134
111
143
118
97
135
109
93
131
108
92
131
112
94
150
138
125
168
161
152
172
167
161
176
171
165
178
173
167
179
174
168
179
174
168
164
159
153
90
85
79
68
63
58
37
32
29
33
27
27
33
27
27
32
26
26
32
26
26
32
26
26
33
27
27
34
28
28
37
31
31
44
38
37
61
56
53
63
49
42
66
51
44
68
53
45
99
83
68
173
148
124
205
175
148
209
179
152
209
184
154
212
187
160
215
191
166
219
197
173
225
207
186
229
214
196
228
219
203
229
220
203
226
216
200
207
191
173
145
126
110
103
89
78
77
65
55
45
36
30
40
31
27
43
33
32
43
34
31
41
33
29
39
33
30
53
47
44
56
49
46
44
33
29
50
39
34
67
52
42
202
187
175
237
233
230
238
233
231
230
224
212
228
212
202
229
216
207
230
220
210
229
219
207
225
216
201
225
210
190
220
200
176
216
194
171
218
195
178
222
201
184
223
203
185
207
185
162
160
138
119
111
87
74
108
85
74
111
90
79
113
93
82
109
92
84
102
85
78
76
61
55
40
28
24
40
30
26
36
27
22
29
24
21
28
23
20
28
23
20
27
22
19
31
25
21
43
33
29
54
42
35
70
51
43
84
61
52
100
76
60
117
93
72
138
113
92
158
132
110
168
142
119
170
145
121
167
143
119
158
134
111
145
120
98
134
108
92
128
105
89
124
105
89
136
124
112
158
151
142
169
164
158
166
161
155
151
146
140
139
134
128
130
125
119
96
91
85
64
59
53
55
50
47
30
24
23
29
23
23
27
21
21
27
21
21
28
22
22
29
23
23
29
24
24
32
26
26
34
28
28
41
35
34
48
43
41
63
48
41
65
48
40
65
50
41
128
104
84
191
165
140
204
178
153
206
180
155
208
183
153
211
185
158
215
189
164
218
196
172
221
205
185
226
213
195
227
218
203
227
218
203
224
215
199
203
188
169
139
120
105
103
89
78
73
64
54
39
33
28
38
33
30
51
46
43
36
30
27
36
30
27
36
26
25
54
45
42
70
62
57
43
32
28
52
38
34
66
52
42
198
187
174
234
229
226
237
231
230
231
221
211
227
215
204
227
217
207
228
218
208
229
219
207
227
218
203
226
214
192
223
202
179
218
193
171
220
198
175
225
203
181
225
203
180
210
188
165
180
157
136
124
98
84
112
93
79
115
97
83
113
97
84
110
93
85
98
82
74
58
47
41
40
31
27
40
31
28
35
25
24
31
26
23
31
26
23
31
26
23
31
25
25
34
26
26
43
33
32
55
45
36
66
52
44
79
62
54
92
73
59
108
86
71
126
100
85
144
117
96
159
130
109
166
134
113
162
136
113
158
132
109
144
119
97
129
105
89
120
99
84
116
97
82
125
114
105
143
135
127
135
126
121
104
96
91
78
69
64
63
54
49
56
47
42
60
52
47
58
53
48
32
27
26
26
20
20
26
20
20
26
20
20
26
20
20
26
20
20
29
23
23
31
25
25
35
29
29
37
31
31
44
38
38
53
47
47
64
50
43
67
50
42
75
59
49
156
129
108
206
180
155
209
183
158
209
183
158
208
183
153
208
183
156
214
188
163
219
197
174
223
208
188
228
215
196
228
219
204
229
220
205
226
217
202
205
189
171
142
123
107
107
93
83
75
65
55
40
35
30
44
39
36
65
60
57
41
36
33
40
35
32
40
30
29
41
32
29
65
56
52
49
37
33
55
42
38
71
56
46
204
192
179
234
230
226
237
232
229
231
221
211
228
216
205
229
219
209
231
221
211
231
221
209
229
220
204
225
213
192
222
202
178
217
192
170
219
197
174
224
202
179
223
201
178
209
187
164
186
162
140
137
112
94
113
94
80
115
97
84
114
98
85
109
93
84
91
75
67
47
37
31
42
33
28
39
29
26
35
25
24
32
27
24
32
27
24
30
25
22
29
23
23
36
28
28
44
34
33
57
47
39
70
57
48
78
61
53
90
71
58
105
83
68
120
94
79
134
107
87
151
122
101
162
130
109
161
134
111
157
131
109
146
121
99
128
105
88
119
97
82
113
94
80
111
100
90
103
96
88
80
71
66
73
64
59
70
61
56
65
56
51
63
54
49
62
55
50
50
45
42
28
22
22
28
22
22
27
21
21
28
22
22
29
23
23
30
24
24
32
26
26
35
29
29
37
31
31
39
33
33
45
39
39
52
46
46
65
51
44
70
53
45
84
66
55
177
148
125
210
184
159
210
184
159
210
184
159
208
183
153
203
177
150
203
177
152
213
191
167
220
205
185
226
213
194
227
218
203
228
219
204
226
217
201
207
191
173
144
125
110
109
95
84
74
65
54
37
32
26
36
31
28
46
41
38
36
31
28
35
30
27
36
26
25
36
26
23
39
30
25
49
38
34
56
43
38
70
56
46
202
190
177
228
224
218
229
223
218
226
217
206
226
214
203
225
215
205
227
217
207
226
216
204
223
214
199
222
210
188
220
200
177
214
189
167
217
195
172
220
198
175
219
197
174
207
185
162
188
165
141
153
128
108
118
99
85
117
99
86
114
98
85
109
92
84
83
67
59
44
34
28
42
33
28
38
28
25
35
25
24
31
26
23
30
25
22
27
22
19
27
21
21
29
21
21
34
24
24
50
40
32
66
53
44
76
59
51
86
67
54
99
77
62
110
84
69
124
97
77
139
110
89
155
123
102
158
131
108
154
128
106
143
118
96
124
101
84
114
93
77
101
82
68
79
67
58
62
55
47
61
52
47
60
51
46
61
52
47
62
53
48
60
51
46
53
45
41
28
23
22
24
18
18
25
19
19
25
19
19
25
19
19
25
19
19
26
20
20
29
23
23
30
24
24
33
27
27
36
30
30
43
37
37
47
41
41
66
52
44
74
57
49
101
83
67
191
167
143
211
187
163
212
188
163
212
187
162
210
184
159
204
175
151
201
170
147
204
179
154
218
199
175
225
213
193
227
220
204
229
222
206
227
219
203
209
196
176
149
132
116
114
98
88
80
69
59
37
30
26
37
32
29
44
39
36
40
35
32
38
33
30
38
32
30
38
33
30
43
37
34
52
41
39
62
50
43
76
62
50
215
200
181
232
223
209
229
220
207
228
216
201
229
218
203
230
220
206
231
221
211
229
219
206
229
217
199
229
208
187
223
198
174
215
189
165
219
195
171
221
199
175
219
197
174
208
186
163
190
166
143
167
140
119
130
109
91
119
100
87
115
96
85
107
90
79
73
58
51
41
32
27
41
32
30
38
28
27
38
28
27
36
30
27
35
30
27
33
28
25
30
25
22
30
25
22
36
30
28
54
45
40
72
60
54
78
63
56
87
71
58
97
78
65
109
85
72
122
95
78
138
109
88
153
121
100
160
129
108
159
130
109
148
123
101
128
104
88
113
94
78
96
80
68
74
63
57
65
59
54
64
58
54
60
54
51
59
53
50
59
53
50
54
48
46
38
32
31
31
25
25
29
23
23
29
23
23
29
23
23
29
23
23
29
23
23
33
27
27
35
29
29
37
31
31
40
34
34
44
38
38
49
43
43
53
47
47
66
52
44
75
58
50
125
107
90
206
183
159
216
192
168
215
191
165
214
190
164
212
186
161
205
176
152
199
167
144
192
166
141
201
180
155
221
208
186
226
219
203
229
222
206
227
220
204
212
199
180
158
142
125
119
102
92
87
75
66
36
29
24
36
31
28
41
36
33
40
35
32
38
33
30
38
33
30
36
31
28
40
35
32
54
43
39
68
54
46
82
66
53
212
195
174
223
210
193
222
209
194
224
211
195
224
213
198
224
215
200
224
214
202
221
211
196
220
205
185
221
198
176
218
192
167
210
184
159
216
192
168
217
194
171
216
194
171
207
185
162
189
165
143
172
146
125
135
114
94
115
97
83
113
93
82
102
85
74
63
49
43
40
31
25
41
31
30
36
26
25
35
25
24
31
25
22
30
25
22
28
23
20
26
21
18
25
20
17
27
22
19
41
32
28
64
52
46
74
58
52
83
67
54
94
75
62
105
81
69
117
90
74
132
103
82
149
117
96
159
127
106
158
129
108
151
126
104
131
107
91
114
95
79
91
76
64
72
60
56
61
55
50
51
46
43
45
40
37
42
37
34
35
30
27
29
23
22
24
18
18
23
17
17
21
15
15
21
15
15
22
16
16
21
15
15
21
15
15
24
18
18
26
20
20
29
23
23
33
27
27
37
31
31
42
36
36
48
42
42
65
51
43
73
56
48
136
118
101
210
188
163
215
191
167
214
190
165
215
191
165
214
188
163
204
174
151
195
164
141
187
161
136
187
165
138
210
194
171
223
216
200
227
220
204
227
220
204
214
201
182
164
148
131
120
103
93
96
84
74
33
26
21
34
30
26
38
33
30
38
33
30
54
49
46
50
45
43
36
31
29
42
37
34
63
53
45
82
68
57
104
86
71
214
195
170
219
204
186
221
207
191
226
213
197
228
217
201
227
219
203
228
219
202
226
215
197
225
208
186
222
200
174
220
194
167
212
186
161
215
191
167
216
193
169
217
195
172
208
186
163
192
167
145
176
149
128
148
126
107
119
100
86
116
96
85
102
85
74
58
44
38
42
33
28
42
32
31
39
29
28
40
30
29
36
30
27
35
30
27
35
30
27
36
31
28
48
44
41
35
30
27
44
35
30
64
53
47
75
60
53
84
68
56
98
79
66
108
84
72
118
91
75
130
101
80
146
114
93
159
127
106
161
132
111
156
131
109
143
119
103
122
103
87
94
79
67
75
63
59
63
57
53
51
46
43
45
40
37
40
35
32
34
29
27
31
25
24
26
20
20
27
21
21
27
21
21
27
21
21
27
21
21
27
21
21
28
22
22
29
24
24
32
26
26
35
29
29
39
33
33
45
39
39
52
46
46
57
51
51
67
53
44
76
60
51
157
138
118
214
192
167
216
193
169
216
192
167
219
195
169
217
195
167
206
178
153
193
164
140
188
160
133
189
163
135
205
183
157
222
212
194
228
220
204
228
221
204
219
207
188
173
157
138
122
106
91
107
94
82
42
32
26
37
30
26
40
32
28
40
33
29
66
59
55
58
51
47
38
32
28
44
36
31
75
64
54
93
77
65
132
111
95
211
188
164
215
194
172
221
203
183
223
209
191
225
212
196
225
213
198
224
211
195
222
207
187
220
198
173
218
191
166
216
187
160
210
181
154
209
181
157
210
184
161
212
189
165
206
183
159
192
167
145
175
148
127
151
127
108
116
97
82
109
89
77
92
75
64
51
38
31
41
31
27
40
29
28
35
25
24
40
30
29
33
25
22
30
24
20
30
25
21
28
24
19
63
58
54
28
23
20
36
27
24
53
43
39
69
56
50
79
63
53
99
79
67
111
87
75
118
91
75
126
97
76
140
109
89
152
120
99
159
131
109
158
134
111
149
125
106
129
109
91
97
79
67
74
61
55
57
50
46
46
41
38
41
36
33
36
31
29
31
26
25
27
21
21
24
18
18
23
17
17
21
15
15
22
16
16
22
16
16
21
15
15
22
16
16
22
16
16
24
18
18
28
22
22
33
27
27
39
33
33
45
39
39
52
46
46
65
51
43
76
61
51
170
150
127
213
191
167
215
193
169
214
191
167
217
195
171
215
196
168
204
179
153
191
164
139
188
157
129
190
161
132
200
174
145
217
204
182
225
217
200
226
219
203
220
210
193
182
167
146
117
101
83
110
97
83
57
45
38
37
28
23
41
32
27
39
30
25
46
37
32
43
34
29
39
31
26
53
42
33
93
80
66
103
87
72
173
151
132
208
182
159
214
190
166
221
202
180
223
208
189
226
212
194
225
213
196
227
212
195
225
207
185
222
197
172
221
190
167
216
184
159
210
179
151
210
178
154
209
181
158
212
188
164
207
183
159
198
173
150
178
151
130
159
133
113
126
106
90
109
90
77
91
74
63
52
40
33
46
35
31
44
32
32
38
30
28
55
45
44
43
33
29
38
31
25
35
30
24
34
29
23
70
65
61
30
25
22
35
27
25
50
41
38
64
53
49
77
63
54
102
81
69
118
94
82
126
100
84
135
108
87
147
119
98
156
129
107
162
136
113
159
135
111
152
127
107
134
113
94
103
84
71
78
64
56
56
48
44
45
40
37
40
35
32
36
31
29
31
25
25
25
19
19
21
15
15
22
16
16
22
16
16
22
16
16
23
17
17
24
18
18
26
20
20
29
23
23
30
24
24
34
29
29
40
34
34
45
39
39
51
45
45
59
53
53
66
53
44
82
66
57
184
164
141
215
193
169
217
195
171
219
198
175
224
204
181
222
202
178
210
185
161
194
167
142
190
160
131
189
161
132
199
172
144
217
201
177
226
217
199
227
220
204
224
216
201
202
189
169
129
114
96
117
103
90
79
67
60
42
33
28
43
34
29
43
34
29
44
35
30
45
36
31
45
35
29
79
66
55
117
101
85
145
127
109
211
188
165
204
178
155
213
188
164
221
201
179
224
209
190
227
213
195
226
213
197
226
211
191
222
205
181
219
194
169
217
185
162
212
180
155
207
176
148
204
172
149
204
176
152
206
182
158
204
180
156
196
170
148
177
150
129
161
135
115
130
109
93
106
87
73
84
67
56
48
36
29
45
34
30
42
31
30
37
29
27
56
46
45
37
28
24
36
29
23
34
29
23
31
26
20
42
38
33
30
25
22
32
24
22
47
38
35
63
52
48
76
62
53
106
86
74
128
104
92
144
117
101
160
133
112
170
144
122
173
148
124
169
145
121
162
138
114
156
131
110
141
120
101
116
97
84
86
73
62
65
58
51
50
45
42
44
39
36
39
34
32
32
26
26
27
21
21
25
19
19
24
19
19
25
19
19
24
18
18
25
19
19
25
19
19
26
20
20
27
22
22
28
22
22
33
27
27
36
30
30
41
35
35
46
40
40
53
47
47
62
49
41
75
60
50
187
166
143
213
191
167
216
194
170
217
198
176
222
205
185
223
205
181
212
187
163
195
169
143
192
161
132
188
159
131
194
167
138
208
188
163
222
210
191
224
218
202
224
217
204
212
201
183
156
142
125
114
101
86
92
80
72
41
31
25
41
32
25
40
31
24
42
33
26
43
34
28
49
38
30
94
78
64
136
119
100
196
176
156
214
190
166
194
167
143
207
181
157
216
196
173
222
206
187
224
209
192
224
210
193
223
207
185
221
201
176
218
191
166
214
182
158
209
177
151
203
172
144
201
169
145
201
173
149
203
179
154
204
180
156
198
173
150
180
153
132
165
139
118
142
120
103
111
90
75
85
68
57
53
41
35
48
37
33
44
34
32
40
31
29
50
40
39
38
29
26
37
29
25
36
29
25
35
29
24
33
27
23
29
24
21
32
24
22
46
37
33
59
48
43
71
57
49
109
89
77
135
111
98
158
132
116
176
151
131
184
161
140
184
161
138
173
149
126
163
139
115
155
130
109
144
122
103
121
100
87
90
76
63
65
57
49
50
44
40
41
36
33
34
29
27
26
20
20
23
17
17
21
15
15
21
15
15
22
16
16
21
15
15
22
16
16
22
16
16
22
16
16
24
18
18
26
20
20
29
23
23
33
27
27
39
33
33
46
40
40
55
49
49
60
46
40
77
62
53
190
169
144
216
194
170
218
196
172
219
201
178
226
210
192
222
210
187
213
193
168
201
173
149
197
166
138
195
164
136
198
167
140
204
174
150
218
201
179
224
216
201
227
220
204
224
216
201
200
191
176
136
123
108
113
99
87
51
38
28
44
35
25
44
34
25
47
36
27
50
39
28
68
54
41
125
110
91
188
168
145
222
197
173
205
179
154
197
166
138
209
181
154
221
199
175
226
207
190
229
210
192
229
210
192
226
206
183
226
198
176
222
190
167
212
181
154
206
175
147
201
170
142
199
168
140
200
171
144
202
176
151
204
178
155
201
175
152
182
156
133
167
140
119
154
127
106
121
96
79
88
70
59
59
47
40
50
39
35
47
38
33
41
32
29
45
35
34
42
32
31
42
32
31
39
29
28
39
29
28
34
26
24
31
26
23
33
25
23
46
37
31
60
50
41
74
59
51
120
100
86
154
131
114
180
157
141
195
172
156
199
176
160
195
170
149
180
155
132
165
141
117
154
129
107
149
124
105
133
110
94
105
88
74
80
69
59
59
50
44
46
40
37
36
30
29
30
24
24
28
22
22
26
20
20
24
18
18
25
19
19
26
20
20
26
20
20
26
20
20
27
21
21
29
23
23
30
24
24
33
27
27
37
31
31
41
35
35
48
42
42
58
52
52
56
43
36
80
65
56
193
171
146
215
193
169
216
194
170
219
201
178
228
213
194
224
211
189
216
196
170
205
177
153
202
171
142
200
169
141
200
169
141
200
171
147
206
184
159
219
204
183
225
215
198
227
217
202
224
215
200
199
187
171
143
130
116
80
67
56
37
25
18
39
26
18
44
30
20
51
38
25
103
89
74
179
164
142
216
196
173
215
189
166
190
164
139
194
163
135
203
175
148
216
194
170
222
203
186
224
205
186
223
205
183
222
199
176
221
191
169
215
183
159
207
176
148
201
170
142
197
166
138
196
165
137
198
169
143
201
175
150
202
176
153
198
172
149
181
155
132
167
140
119
156
130
109
131
105
88
93
74
61
68
54
47
53
42
38
48
39
34
41
32
29
38
28
27
41
31
30
47
37
36
40
30
29
35
25
24
31
23
21
27
22
19
30
22
20
42
33
28
57
47
38
72
59
47
133
113
96
171
149
129
193
171
154
200
177
161
202
179
163
194
169
147
176
151
129
159
135
111
147
122
100
145
120
101
137
114
98
113
95
81
83
72
62
60
51
45
42
36
33
30
24
22
24
18
18
21
15
15
18
12
12
18
12
12
19
13
13
19
13
13
19
13
13
19
13
13
21
15
15
22
16
16
23
17
17
28
22
22
32
26
26
37
31
31
44
38
38
55
49
49
53
39
33
82
67
57
194
172
147
214
192
168
213
191
167
217
199
176
226
211
192
224
211
189
217
197
172
207
179
154
203
172
144
202
172
144
204
173
146
203
174
150
205
179
151
210
188
162
217
204
186
226
215
199
225
216
201
228
215
199
218
205
189
188
175
160
144
132
116
123
110
97
122
108
97
150
135
121
196
181
164
219
204
179
218
198
174
202
176
153
189
163
137
195
164
136
204
176
149
218
197
173
224
205
188
225
207
186
224
206
182
227
201
179
224
193
172
218
186
163
207
176
148
200
169
141
198
167
139
197
166
138
201
172
146
204
177
152
204
178
155
198
172
149
182
156
133
170
143
122
160
134
112
144
118
101
114
92
77
83
68
59
61
49
45
54
45
40
46
37
34
41
31
30
49
39
38
64
54
53
47
37
36
42
32
30
37
29
28
33
29
26
35
27
25
47
38
33
59
49
39
84
71
57
166
146
127
199
177
154
210
188
171
212
189
173
208
185
169
193
168
146
172
147
125
155
131
107
145
120
97
143
119
99
139
116
100
127
109
95
97
85
75
68
59
52
45
39
36
34
28
26
29
23
23
26
20
20
24
18
18
24
18
18
24
18
18
24
18
18
25
19
19
27
21
21
28
22
22
28
22
22
29
23
23
34
28
28
36
30
30
42
36
36
49
43
43
52
46
46
48
39
32
87
70
58
197
173
149
213
190
166
213
191
167
218
200
179
227
212
192
227
212
192
218
200
177
207
182
158
202
176
150
203
176
151
207
180
155
210
185
155
211
182
156
216
185
162
217
191
168
220
204
184
223
216
201
228
219
200
225
216
199
222
213
196
217
208
190
212
203
186
210
201
184
217
204
185
220
206
187
218
201
177
210
183
155
194
166
138
191
160
133
193
162
134
200
171
144
215
191
168
221
202
185
223
204
185
222
199
176
224
192
169
218
184
160
211
175
149
201
166
139
196
162
137
194
162
139
194
162
139
199
167
145
204
173
152
199
173
150
195
169
146
180
154
131
166
139
118
160
133
112
149
122
102
123
96
77
93
70
57
64
49
41
53
42
36
46
35
30
37
28
24
43
34
30
54
45
41
39
30
25
38
29
24
33
25
22
29
24
21
32
24
19
48
38
29
54
44
35
108
94
81
192
176
159
209
191
173
215
196
179
214
194
175
204
183
160
183
157
134
160
134
112
145
118
97
137
111
90
134
110
88
135
112
94
131
112
98
107
90
77
68
56
46
42
36
32
29
24
22
25
19
19
21
15
15
20
14
14
20
14
14
20
14
14
20
14
14
20
14
14
21
15
15
21
15
15
23
17
17
23
18
18
25
19
19
28
22
22
32
26
26
40
34
34
26
20
20
44
34
28
94
77
65
196
172
148
209
186
162
209
187
163
216
199
176
223
208
187
222
207
188
216
198
176
205
180
157
201
175
150
203
177
152
207
181
155
209
184
154
215
186
160
218
187
164
216
189
164
214
195
170
216
203
184
224
212
192
223
213
194
222
213
196
221
212
195
221
212
195
221
212
195
222
209
190
221
207
186
215
195
171
201
174
145
195
166
138
194
163
135
194
163
135
200
171
144
217
192
169
223
204
187
224
205
186
224
202
178
225
193
170
221
187
163
214
178
152
204
168
142
200
166
141
197
165
142
198
166
143
202
170
148
206
174
153
201
175
152
196
170
147
180
154
131
167
140
119
160
133
112
153
126
105
135
108
89
107
82
68
76
59
49
64
51
43
54
43
36
41
32
27
46
37
32
53
44
39
43
34
29
42
33
28
37
30
26
35
30
27
36
29
23
53
43
34
53
43
34
161
149
135
219
206
189
223
208
190
221
202
185
214
193
174
198
175
152
172
147
124
151
124
102
140
113
92
133
108
86
131
108
85
133
110
91
134
115
100
120
102
88
77
64
54
45
39
35
31
26
24
27
21
21
23
17
17
22
17
17
22
16
16
22
16
16
24
18
18
25
19
19
26
20
20
27
21
21
27
21
21
29
23
23
30
24
24
34
28
28
39
33
33
33
28
28
18
12
12
41
32
25
104
87
75
197
173
149
209
185
161
207
185
161
215
198
173
223
208
183
223
207
188
219
201
178
209
184
160
200
174
149
202
176
151
209
183
158
213
188
158
220
191
165
224
192
169
223
196
168
222
198
169
220
200
174
221
207
185
223
212
192
222
213
196
224
215
198
223
214
197
223
213
196
222
209
190
218
202
181
209
186
160
197
170
141
195
166
137
195
164
136
195
164
136
198
169
142
218
193
170
223
204
186
224
205
186
223
200
176
224
192
169
219
185
161
211
175
149
202
166
140
199
165
140
196
164
141
197
165
142
200
168
146
201
169
148
197
171
148
191
165
142
176
150
127
163
136
115
156
129
108
150
123
102
137
110
91
112
87
72
83
64
52
62
46
37
49
36
29
37
28
23
37
28
23
39
30
25
39
30
25
39
30
25
35
28
23
32
27
24
37
30
24
51
40
31
68
59
51
208
198
182
225
214
197
224
212
192
220
201
184
208
186
167
187
160
139
159
133
111
143
116
94
135
108
87
130
104
82
128
104
82
131
108
89
134
114
100
125
107
94
85
72
62
46
40
36
30
25
23
26
20
20
24
18
18
24
18
18
23
17
17
22
16
16
23
17
17
21
15
15
22
16
16
21
15
15
22
16
16
24
18
18
26
20
20
28
22
22
25
20
20
17
10
10
35
29
29
38
29
23
111
95
78
194
170
145
203
179
155
202
179
155
211
192
166
219
203
177
219
202
179
216
196
172
207
183
159
196
172
147
193
169
144
199
174
148
210
186
159
216
190
164
220
193
168
220
195
168
221
196
169
221
196
170
218
199
175
220
203
180
221
206
185
221
211
192
221
211
192
221
210
191
219
206
184
213
198
174
205
177
151
199
170
141
197
167
139
196
165
137
195
164
136
197
168
141
216
193
170
224
202
186
225
203
183
226
200
176
223
193
166
218
183
157
211
174
148
204
167
141
200
165
139
199
165
140
200
168
145
201
169
147
202
170
149
198
171
148
191
165
142
173
147
124
164
134
113
158
128
107
154
123
103
149
118
99
127
99
81
101
76
63
86
68
54
66
49
38
46
33
25
42
29
23
45
33
26
44
34
26
42
32
24
40
31
23
38
30
23
41
32
24
48
37
27
146
134
124
229
217
204
228
215
200
224
211
191
217
196
174
200
175
154
176
146
125
149
122
100
136
109
88
131
104
83
127
100
83
126
100
83
129
104
87
132
113
98
129
110
97
90
76
65
50
40
37
29
23
22
24
18
18
23
17
17
22
17
16
20
17
16
20
14
14
21
15
15
21
15
15
22
16
16
22
16
16
22
16
16
21
15
15
21
15
15
20
14
14
22
16
16
60
55
55
80
74
74
44
36
30
120
104
86
193
169
144
202
178
154
201
177
153
211
190
165
220
201
176
220
200
175
216
194
170
209
185
161
203
179
155
202
178
152
209
185
159
217
193
167
220
196
170
223
199
173
224
201
174
224
199
174
224
198
173
222
201
174
223
203
177
225
206
181
224
212
190
225
213
192
226
214
192
226
210
186
219
203
177
211
181
155
206
175
147
204
173
145
201
170
142
197
166
138
199
171
144
218
196
172
227
204
188
228
205
185
227
200
175
222
193
164
216
181
155
207
170
144
202
165
139
200
163
137
201
165
139
200
168
145
202
170
148
198
166
145
194
167
145
186
160
137
167
141
118
156
124
103
150
118
98
150
117
98
148
115
96
130
100
80
105
78
63
97
76
60
90
70
56
66
50
39
39
28
22
39
28
20
42
30
21
42
29
24
41
29
25
39
29
24
44
31
22
85
74
64
213
200
187
228
215
201
224
211
195
219
203
182
208
183
160
185
157
135
162
130
109
141
113
92
133
106
85
129
102
81
125
97
83
125
97
83
127
101
86
130
111
97
130
111
97
98
83
71
55
43
40
31
24
23
26
20
20
28
22
20
29
25
22
24
20
17
21
16
15
22
16
16
23
18
18
23
17
17
22
16
16
22
17
17
21
15
15
20
14
14
18
12
12
25
20
20
68
62
62
64
58
58
39
30
24
125
109
91
188
163
138
194
170
146
196
172
148
209
186
162
214
191
167
212
190
166
207
184
160
200
176
152
199
175
151
201
177
151
209
185
159
213
189
163
217
193
167
220
196
170
220
196
170
220
195
170
217
191
166
214
189
161
214
191
164
217
196
169
216
200
176
219
204
180
220
204
180
219
202
176
214
197
171
208
178
151
206
174
147
206
175
147
202
171
143
198
167
139
198
169
142
218
196
172
224
201
185
227
203
184
226
198
173
218
189
161
212
177
150
204
167
141
199
162
136
199
162
136
202
166
140
201
168
145
200
168
146
196
164
143
190
164
141
180
154
131
162
136
113
151
119
98
145
113
93
147
114
95
148
115
96
132
103
82
113
86
67
107
83
65
119
97
80
107
90
72
80
66
54
55
42
31
51
37
26
48
33
26
47
33
26
51
39
31
97
84
75
190
177
165
225
211
198
224
211
194
217
203
185
207
188
165
185
158
135
163
134
112
147
115
94
133
105
84
128
101
80
124
97
75
122
94
79
122
95
81
123
97
82
126
107
93
127
109
95
102
87
76
57
46
42
28
21
20
24
18
18
57
53
49
101
96
92
79
74
70
41
36
35
22
16
16
17
11
11
18
12
12
18
12
12
16
10
10
15
9
9
14
8
8
14
7
7
16
10
10
36
30
30
62
56
56
46
38
34
124
108
90
183
159
134
191
166
142
197
172
148
210
185
161
214
190
165
210
185
161
202
177
153
197
172
148
197
172
148
205
180
155
213
188
163
216
192
166
219
196
170
222
199
173
223
199
173
223
198
173
221
195
170
219
194
166
219
195
168
221
198
172
220
203
179
224
207
183
225
208
183
226
205
179
221
200
174
210
182
156
211
181
153
214
183
155
210
179
151
201
170
142
201
172
145
221
198
174
228
204
186
229
205
184
226
199
174
220
189
160
213
175
149
204
165
139
200
159
134
201
162
136
203
166
140
202
167
143
200
167
144
196
164
142
187
160
137
175
148
125
157
129
107
144
112
91
142
110
90
148
115
96
151
118
99
143
112
91
130
101
81
121
93
73
137
111
91
153
131
110
161
142
123
153
135
118
143
128
113
138
123
107
146
132
116
170
156
139
206
192
177
223
209
194
222
209
193
222
207
188
211
195
174
193
170
147
173
143
121
154
124
103
142
112
91
131
104
83
127
100
80
123
96
77
122
94
79
121
94
80
121
95
80
125
106
91
127
108
94
110
93
81
67
55
50
36
28
26
31
26
23
99
94
88
145
139
133
139
133
127
124
117
113
92
85
81
27
22
19
23
17
17
22
16
16
19
13
13
17
11
11
16
10
10
16
10
10
19
13
13
19
13
13
29
24
24
35
27
26
114
98
80
183
157
132
192
166
141
196
170
145
208
183
158
211
187
161
209
183
158
200
174
149
193
167
142
190
164
139
200
174
149
210
184
159
214
190
164
218
195
170
221
198
174
222
198
172
221
197
171
219
195
169
217
193
167
218
195
170
217
196
172
218
200
176
220
202
178
221
202
178
223
200
174
218
193
168
209
183
158
212
185
157
213
184
156
211
180
152
200
169
141
203
173
147
221
197
173
227
202
180
227
203
180
225
197
170
217
180
151
206
163
137
198
153
130
197
149
127
198
153
130
200
159
135
201
162
136
197
161
137
191
156
134
180
150
128
168
137
116
148
116
95
137
105
84
139
106
86
145
112
93
149
116
97
149
116
97
146
113
94
138
106
87
141
111
90
171
145
122
194
175
153
203
186
166
209
194
175
211
196
177
218
203
184
222
207
188
220
208
189
220
206
187
218
203
183
216
195
174
201
179
156
178
151
129
164
132
111
146
115
94
131
104
83
124
97
77
119
93
74
115
89
74
114
88
73
114
88
73
115
89
74
118
99
84
121
102
88
111
92
78
71
56
48
42
34
29
69
64
58
125
120
115
151
146
140
153
148
142
148
139
131
127
119
109
48
42
34
18
12
11
14
8
8
13
7
7
14
7
7
14
8
8
12
6
6
14
8
8
16
10
10
16
10
10
28
19
18
114
98
80
180
155
129
190
164
139
195
169
144
207
182
157
208
184
158
202
176
151
193
167
142
184
158
133
183
157
132
191
165
140
202
176
151
209
185
159
214
191
166
218
195
171
220
196
170
218
194
168
216
192
166
218
194
168
218
195
170
221
199
175
223
205
181
226
208
184
226
208
184
226
202
176
222
197
172
219
193
168
219
193
168
220
192
165
214
183
156
206
175
147
207
178
151
224
199
176
229
204
182
229
204
181
227
196
170
217
178
150
205
159
134
199
152
129
197
149
127
198
152
129
200
156
132
201
160
135
197
158
135
190
153
132
178
146
125
163
131
110
141
109
88
138
106
85
144
112
92
152
119
100
159
126
107
162
129
110
165
132
113
168
136
113
165
135
113
192
166
143
210
192
170
222
205
184
227
212
193
230
215
196
231
216
197
230
215
196
226
211
191
221
205
184
217
200
178
212
188
165
193
170
147
175
148
126
161
129
108
144
114
93
131
104
83
123
96
75
118
91
73
114
88
73
113
87
72
114
88
73
113
87
72
116
96
82
119
100
86
112
93
79
74
60
52
62
55
50
116
111
106
144
139
133
154
149
143
159
154
148
156
148
139
139
130
120
102
93
83
39
32
31
22
16
16
21
16
16
22
16
16
22
16
16
23
17
17
23
17
17
23
17
17
25
19
19
34
26
25
118
102
84
181
155
130
190
164
139
195
169
144
208
183
157
208
184
158
200
174
149
191
165
140
187
161
136
190
164
139
196
170
145
201
175
150
209
185
159
214
191
166
217
195
171
219
195
169
217
193
167
216
192
166
219
195
169
220
199
174
225
204
180
227
209
187
227
209
186
226
208
184
224
200
175
220
196
171
222
196
172
219
196
171
220
192
166
214
184
156
204
173
145
210
181
154
221
196
173
225
199
178
226
199
176
221
188
163
211
169
142
198
150
127
191
141
119
190
142
120
191
143
121
192
146
123
191
146
123
185
143
121
179
140
119
168
133
113
150
116
96
130
98
78
134
102
81
145
113
93
153
120
101
159
126
107
160
127
108
163
131
111
172
140
116
180
151
128
201
175
152
216
197
175
223
207
186
223
208
189
224
208
189
222
206
187
217
202
182
213
195
173
208
189
166
198
177
154
189
163
139
175
150
126
165
138
115
152
120
99
137
107
86
126
99
78
118
91
71
113
86
68
108
82
67
107
81
66
106
80
65
105
79
64
107
88
74
113
94
80
109
90
76
73
59
51
78
72
67
138
133
127
144
139
133
141
136
130
138
133
127
146
137
128
140
131
120
131
121
110
66
60
57
17
11
11
18
12
12
18
12
12
20
14
14
22
16
16
22
16
16
22
16
16
24
18
18
33
27
24
124
108
88
178
153
127
185
159
134
193
167
142
205
180
155
207
183
157
198
174
150
188
162
138
188
162
137
190
164
139
193
167
143
198
172
147
203
179
153
208
183
158
211
185
160
214
189
159
214
190
162
213
189
163
214
194
167
218
204
180
222
209
186
226
209
194
225
208
191
223
204
186
222
200
177
223
201
178
223
201
178
222
200
176
219
195
170
212
186
161
207
176
148
214
184
158
223
194
170
226
196
174
227
195
171
222
185
159
213
165
143
202
150
129
199
144
124
194
142
121
196
146
125
195
147
125
191
143
121
185
139
118
179
134
115
166
128
109
148
112
93
128
95
76
136
104
85
150
117
98
158
125
106
164
132
111
167
135
114
174
142
121
187
155
134
200
171
150
212
187
165
220
202
178
223
207
184
223
209
186
227
207
183
221
200
176
213
190
166
210
183
158
205
175
152
198
166
143
188
156
133
175
144
121
164
132
111
150
118
97
136
106
85
124
97
76
117
89
74
111
84
69
108
82
67
105
81
66
105
82
67
103
79
67
106
86
73
110
92
78
107
91
78
72
60
51
64
59
54
148
143
137
155
150
144
157
150
143
160
151
142
174
165
155
178
170
159
170
162
151
120
112
104
32
24
23
26
20
20
25
19
19
26
20
20
26
20
20
25
19
19
27
21
21
29
23
23
40
34
31
135
120
99
181
156
129
186
160
135
197
171
146
211
186
160
214
190
164
210
186
162
201
176
151
196
170
145
194
168
143
197
171
146
201
175
150
205
181
155
210
184
159
213
187
162
220
195
165
221
197
169
224
200
174
225
208
183
228
215
194
230
217
197
233
217
202
229
212
196
226
207
190
228
206
183
229
207
184
229
207
184
226
204
180
223
199
174
214
187
162
209
178
150
217
186
161
221
190
166
225
187
165
223
185
161
218
173
150
210
158
137
199
146
126
195
140
120
193
141
120
194
144
123
192
144
122
186
138
116
178
132
111
168
123
104
155
116
97
140
104
85
122
89
70
133
100
81
147
114
95
157
124
105
163
131
110
167
135
114
173
141
120
190
158
137
207
178
157
213
188
166
217
199
175
219
202
178
218
202
177
219
197
172
214
189
165
209
183
160
206
178
154
200
171
147
194
162
139
184
152
129
172
140
117
159
127
106
146
115
94
133
103
82
121
94
73
112
85
70
108
81
66
104
78
63
101
78
62
101
77
63
102
78
66
103
84
70
107
89
76
105
89
76
71
60
51
39
33
27
130
126
120
154
149
143
176
170
163
186
177
168
193
185
174
193
185
174
189
181
170
145
137
127
55
47
44
27
21
21
26
20
20
25
19
19
25
19
19
25
19
19
25
19
19
25
19
19
36
31
28
134
119
99
178
153
126
184
158
133
197
171
146
210
185
159
213
189
163
210
186
162
204
178
154
197
171
146
190
164
139
193
167
142
196
170
145
199
175
149
205
180
154
208
183
157
213
188
158
216
191
164
220
196
170
220
205
181
223
211
192
225
212
195
225
209
194
223
206
190
220
201
184
224
202
179
225
203
181
225
203
180
224
202
178
220
195
171
213
187
162
209
178
150
215
182
157
215
181
158
217
171
149
215
168
146
214
160
140
206
152
132
197
143
122
194
138
119
193
141
120
193
143
122
190
142
120
185
137
115
174
128
107
164
119
100
149
111
92
136
100
81
121
88
69
129
97
78
144
111
92
156
123
104
164
132
111
169
137
116
177
145
124
193
161
140
211
182
160
214
189
167
215
197
173
217
199
174
216
198
172
218
192
166
215
188
163
210
182
160
204
176
152
197
168
144
192
160
137
182
150
127
169
137
114
156
124
103
144
112
91
129
99
78
116
89
68
106
78
63
102
75
60
100
74
59
98
75
59
98
74
60
99
75
63
100
81
67
103
85
72
102
86
73
69
59
50
35
29
24
89
85
79
146
141
135
180
173
166
187
178
169
193
185
174
192
184
173
192
184
173
155
147
136
73
65
60
27
22
22
27
21
21
25
19
19
26
20
20
26
20
20
27
21
21
28
22
22
41
35
30
136
119
99
179
152
128
185
159
134
199
173
148
211
187
161
213
191
167
211
188
164
208
184
159
203
179
153
194
168
143
191
165
140
194
168
143
201
175
150
208
180
156
215
185
161
216
190
165
220
196
169
223
203
179
226
211
191
230
217
199
231
218
202
231
217
199
229
215
196
229
213
195
230
213
193
230
213
193
229
212
193
227
208
189
226
203
182
219
194
170
210
180
152
215
180
154
207
167
143
204
151
130
204
149
130
204
147
128
200
144
125
194
137
118
191
135
116
191
136
116
192
137
119
190
135
119
184
130
113
173
122
104
157
112
92
143
104
85
131
95
78
117
83
69
124
91
77
136
102
86
149
116
97
162
129
110
170
138
118
179
147
127
192
160
139
208
179
157
214
188
166
216
193
169
215
192
168
215
192
168
218
188
164
215
184
161
210
178
155
200
169
146
196
165
142
191
159
137
181
149
128
169
137
116
156
124
103
143
110
90
129
96
79
116
83
69
105
78
63
100
74
60
99
74
62
97
77
62
97
77
63
98
78
65
99
82
69
103
86
73
103
87
74
70
59
52
38
31
29
66
61
60
164
159
153
184
178
172
187
180
169
194
186
175
195
187
176
193
185
174
162
154
144
93
86
78
26
24
23
27
22
22
26
20
20
26
20
20
27
21
21
27
21
21
27
21
21
40
35
30
133
115
95
177
150
125
184
158
133
199
173
148
210
187
160
212
190
166
210
188
164
205
182
157
198
174
148
192
166
141
190
164
139
191
165
140
192
166
141
199
170
146
207
176
152
209
183
158
212
188
161
219
200
176
224
209
190
227
213
196
227
214
197
226
213
194
224
210
191
224
209
190
224
209
190
223
208
189
223
208
189
222
203
186
221
200
179
216
192
168
205
175
147
203
167
141
181
138
115
178
123
103
176
120
101
185
128
109
186
129
110
184
127
108
185
128
109
186
131
111
187
131
114
185
129
114
178
122
107
165
112
96
149
103
85
133
94
77
124
87
72
114
80
68
118
84
72
128
94
79
141
108
89
154
121
102
166
133
113
175
143
122
188
156
135
202
172
150
210
184
161
212
188
164
210
186
162
206
181
158
210
178
155
206
174
151
200
168
145
195
163
140
191
159
136
185
153
132
177
145
124
167
135
114
153
121
100
139
106
87
123
90
74
111
77
65
100
73
58
95
70
56
94
70
58
93
73
60
94
75
61
94
75
61
95
79
65
98
82
69
98
82
69
66
55
48
36
29
27
36
31
31
172
169
164
152
149
144
191
187
177
196
189
178
193
185
174
191
183
172
163
154
145
103
95
87
40
37
34
26
21
21
26
20
20
25
19
19
25
19
19
25
19
19
21
15
15
39
34
29
129
111
91
175
149
124
186
160
135
201
175
151
212
189
162
214
193
169
213
191
167
206
183
158
198
174
148
196
170
145
196
170
145
198
172
147
195
169
144
197
168
144
205
174
151
205
179
154
214
190
163
223
204
180
228
213
194
230
217
199
230
217
201
230
217
198
229
215
196
228
213
194
228
213
194
228
213
194
227
212
193
228
209
192
226
205
184
221
197
173
209
180
151
196
160
134
177
134
111
171
116
96
160
104
85
172
115
96
177
120
101
178
121
102
181
124
105
182
127
107
183
128
110
181
125
110
170
114
99
155
102
87
138
92
77
124
85
69
118
82
68
113
79
67
114
80
68
125
92
76
138
105
86
149
116
97
162
130
110
175
143
122
185
153
132
196
166
145
205
179
156
208
184
160
209
183
160
206
179
157
208
177
154
202
170
147
197
165
142
192
160
137
187
155
133
182
150
129
175
143
122
166
134
113
154
122
101
140
107
88
125
91
75
112
78
66
100
74
59
98
73
59
97
73
61
94
75
61
96
77
63
97
78
64
97
80
67
99
83
70
99
83
70
67
56
49
39
32
31
33
27
27
97
97
93
27
26
22
141
140
131
216
209
198
195
187
176
194
186
175
165
157
147
112
103
94
65
60
55
28
22
22
27
21
21
27
21
21
27
21
21
28
22
22
20
14
14
40
35
30
129
111
91
174
148
123
185
159
135
201
175
151
211
187
162
214
191
167
213
190
166
204
180
155
196
171
146
192
166
141
194
168
143
196
170
145
199
170
146
200
170
146
207
175
152
209
182
159
216
194
169
225
206
183
229
212
194
230
213
196
227
211
194
225
211
192
225
209
191
225
208
190
226
208
191
225
209
190
224
209
190
222
205
187
221
201
180
218
195
171
211
184
157
186
152
126
163
119
96
147
97
78
126
74
56
142
85
67
161
104
86
166
109
92
170
114
98
173
117
99
173
117
100
169
113
97
156
100
84
134
84
71
116
71
61
108
71
59
106
71
60
103
72
60
102
72
58
117
87
72
131
101
84
140
111
90
152
122
101
164
135
113
174
142
121
183
152
131
192
163
141
199
171
149
203
173
151
202
171
149
198
167
142
193
160
135
188
154
129
183
149
127
178
144
122
171
139
118
168
135
115
159
127
107
149
116
96
134
104
87
120
90
74
106
76
62
96
70
57
94
71
58
92
71
59
91
71
59
91
72
59
91
73
60
92
75
64
93
77
66
92
77
66
62
52
46
37
32
31
33
27
28
34
34
32
86
86
84
51
51
47
215
210
199
194
187
176
193
185
174
179
170
160
139
129
119
91
80
72
27
20
19
23
17
17
23
17
17
22
16
16
21
15
15
24
18
18
40
35
29
127
109
89
171
145
121
185
159
136
201
175
152
210
185
161
212
188
164
210
186
162
198
173
148
189
163
138
183
157
132
186
160
135
188
162
137
196
164
141
201
169
146
206
174
151
211
184
162
217
197
174
223
205
183
227
208
191
229
210
193
229
210
193
226
210
192
226
209
191
225
206
189
225
206
189
226
209
191
226
211
192
226
211
192
225
207
186
224
202
179
222
197
171
206
173
148
157
115
91
127
83
65
101
57
42
108
57
44
149
92
77
160
103
89
164
108
95
166
110
94
167
111
95
161
106
90
139
90
74
104
62
52
101
62
55
102
69
59
101
70
60
98
70
59
97
71
56
117
91
76
134
108
93
143
117
94
154
128
105
166
140
117
177
146
125
185
153
132
194
162
141
205
173
152
208
176
154
206
174
151
199
168
141
195
162
134
188
152
126
181
145
123
174
139
118
169
137
116
164
131
112
158
125
106
148
115
96
132
104
89
120
93
78
106
80
65
98
74
61
95
72
61
92
72
61
92
72
61
92
73
62
92
76
63
92
75
67
92
76
67
90
76
67
61
54
49
38
34
33
35
29
31
38
37
36
66
66
65
32
32
32
215
211
200
198
193
181
203
195
184
211
203
192
173
163
152
127
113
104
40
32
30
25
19
19
26
20
20
27
21
21
21
15
15
33
27
27
37
32
26
128
110
90
175
148
125
189
163
140
203
177
155
211
186
163
213
189
165
209
185
161
196
171
146
184
158
133
180
154
129
180
154
129
183
157
132
194
162
139
205
173
150
212
181
158
217
194
170
224
206
183
229
210
188
229
210
193
229
210
193
229
210
193
228
213
194
228
210
193
226
207
190
226
207
190
225
208
190
224
209
190
225
210
191
226
207
187
225
203
180
222
197
172
220
188
163
170
133
108
104
63
47
79
40
29
68
31
22
134
80
67
149
94
81
153
97
84
155
99
86
155
99
87
148
92
79
97
60
50
63
30
24
73
42
37
85
55
46
85
56
46
86
58
47
90
64
50
118
92
78
136
110
95
140
114
91
146
120
97
154
128
105
166
134
113
172
140
119
182
150
129
193
161
140
199
167
145
201
169
146
195
164
136
186
153
126
177
141
115
168
132
110
161
127
105
155
123
103
151
118
99
146
113
94
139
106
87
126
98
83
117
89
75
105
79
64
98
73
61
95
72
61
90
70
59
89
69
58
88
70
58
89
73
60
90
73
65
91
75
66
89
75
66
60
53
47
36
32
31
33
27
29
29
29
27
38
38
36
54
54
54
219
216
205
202
196
184
202
194
183
213
205
194
182
172
161
140
126
116
59
51
49
22
16
16
20
14
14
17
11
11
22
16
16
32
26
26
40
34
29
125
108
89
174
148
124
189
163
140
201
176
152
207
183
159
207
183
159
200
176
152
184
159
135
167
141
116
162
135
111
164
137
113
168
141
117
185
154
131
199
169
146
209
179
156
213
191
167
219
201
177
223
205
182
223
204
186
224
204
186
224
204
186
223
206
187
223
205
186
222
203
184
222
203
186
223
206
188
223
208
189
223
208
189
224
205
184
224
202
179
221
196
171
219
190
164
197
164
139
124
87
70
78
41
31
54
26
19
120
70
59
143
90
78
147
91
80
148
92
82
148
92
81
137
83
71
65
37
31
54
30
25
63
39
34
78
49
43
80
52
43
82
54
43
94
69
54
133
107
92
147
121
106
145
119
97
148
122
99
154
128
106
165
133
112
171
139
118
179
147
126
189
157
136
195
163
142
199
167
144
194
162
136
184
151
125
173
138
113
165
130
108
156
122
101
150
118
97
144
111
92
139
107
88
133
101
83
124
96
81
116
89
74
106
81
66
99
75
62
95
73
61
91
71
60
89
69
58
89
70
59
89
72
61
89
72
64
90
74
65
87
73
64
58
51
45
35
32
31
34
28
30
27
27
26
41
41
40
118
117
116
221
217
206
205
198
187
197
189
178
205
197
186
189
179
167
155
141
130
67
60
57
22
16
16
21
15
16
17
11
11
29
23
23
33
27
27
35
30
26
121
105
89
173
147
123
188
163
138
201
177
153
207
183
159
207
183
159
200
176
152
180
154
131
163
137
114
157
129
107
166
137
114
179
151
127
192
166
141
203
178
154
210
187
163
221
199
176
226
206
182
229
211
187
230
210
186
230
207
183
231
207
183
229
207
184
230
210
186
230
212
189
231
212
195
230
213
195
229
214
195
231
211
195
229
208
187
227
205
181
223
199
173
219
194
169
212
186
160
176
140
115
102
64
45
64
32
22
111
68
59
138
86
80
139
84
79
137
86
80
137
83
74
120
76
65
44
23
18
43
22
18
47
25
23
60
32
29
68
41
34
78
51
40
96
73
57
138
115
99
150
127
111
144
120
98
143
118
96
148
121
100
157
125
105
162
130
109
166
134
113
173
141
120
183
151
130
190
158
137
189
157
136
179
147
126
166
134
113
157
125
104
148
116
96
141
108
89
135
102
83
129
98
81
123
95
81
119
93
78
114
89
75
105
82
70
99
75
63
95
73
61
93
73
62
89
69
58
90
70
61
90
70
63
88
70
63
88
72
64
86
72
63
56
49
43
36
32
31
33
27
29
28
27
27
42
42
42
196
193
190
223
215
205
207
199
188
192
184
173
197
189
178
187
177
166
158
145
131
77
70
64
22
16
17
19
13
15
22
16
16
31
25
25
34
28
28
33
28
24
106
89
77
157
132
108
181
155
130
195
171
147
202
178
154
203
179
155
195
171
147
175
150
127
162
136
113
161
136
113
170
145
120
184
158
133
197
171
146
207
184
160
213
192
168
220
198
175
221
201
177
221
203
178
221
198
173
218
194
170
220
196
172
221
199
176
222
202
179
221
203
179
221
202
185
221
204
186
222
207
188
223
204
187
222
201
181
222
200
176
218
194
168
215
190
164
211
185
160
205
171
144
144
108
87
76
42
31
112
69
60
134
82
76
134
79
74
131
80
74
131
78
70
110
69
59
41
20
15
44
22
17
50
26
22
64
37
31
72
45
37
87
61
50
107
84
68
143
120
104
153
130
113
149
124
102
144
118
97
149
122
101
153
122
101
154
122
101
157
125
104
160
128
107
170
138
117
182
150
129
186
154
133
177
145
124
165
133
112
152
120
99
142
109
89
133
100
81
125
92
73
117
86
69
111
83
69
108
81
66
104
79
65
98
74
62
95
71
59
92
70
58
89
69
58
88
68
57
88
68
59
86
66
59
83
66
58
84
68
60
83
69
60
54
47
41
33
29
28
31
25
27
28
27
27
26
26
26
200
197
194
218
210
200
207
199
188
187
179
168
185
177
166
171
162
150
135
125
111
69
63
57
19
13
15
18
12
14
27
21
21
31
25
25
41
35
35
45
40
37
84
67
58
153
127
105
179
153
128
195
171
147
202
178
154
202
178
154
194
170
146
171
146
123
162
136
113
168
145
121
179
156
130
192
169
143
209
183
158
216
195
170
222
204
178
228
206
183
228
208
184
226
207
183
226
200
174
225
200
175
226
202
178
227
205
182
228
208
185
227
209
185
227
208
191
226
209
191
228
213
194
230
211
193
230
209
188
227
205
181
225
201
175
220
195
169
214
188
163
211
179
152
182
145
123
107
71
57
121
77
68
134
83
76
132
77
72
129
78
72
128
77
69
104
65
58
49
27
22
61
37
32
71
44
38
78
51
42
85
58
48
96
69
58
116
93
77
147
124
108
156
133
117
153
128
107
148
122
101
149
122
101
152
120
99
153
121
100
152
120
99
153
121
100
158
126
105
172
140
119
180
148
127
175
143
122
165
133
112
154
122
101
143
111
91
134
102
83
125
92
73
115
84
67
107
79
65
103
77
62
100
75
61
98
74
62
97
74
62
95
73
61
92
72
61
92
72
61
92
72
62
90
70
63
87
70
62
86
70
61
84
70
61
53
46
40
32
29
28
31
25
27
28
27
27
25
25
25
164
161
158
216
209
199
207
199
188
186
178
167
175
167
156
156
148
136
105
98
83
35
29
23
19
13
15
26
20
22
30
24
24
32
26
26
41
36
36
40
34
33
71
58
48
145
120
100
172
146
123
191
167
143
198
174
150
199
175
151
188
164
140
167
142
119
159
134
112
161
136
114
174
150
127
188
163
141
201
176
154
211
190
167
218
200
176
226
204
181
225
203
179
221
198
174
219
195
170
218
194
170
221
197
173
221
199
176
223
201
178
224
202
178
221
203
180
222
204
181
223
205
182
226
204
182
225
202
179
222
198
174
218
194
168
214
188
163
209
183
158
204
176
151
190
156
133
131
92
75
127
81
73
130
82
74
122
75
67
120
75
70
121
76
70
100
60
53
60
34
26
73
45
37
82
53
46
88
60
48
94
67
54
101
75
61
127
101
86
151
126
111
156
133
116
155
130
108
146
121
99
145
118
97
148
116
95
148
116
95
149
117
95
146
113
94
149
116
97
157
124
105
168
135
116
165
135
115
157
129
108
148
116
96
135
104
87
125
96
81
115
87
72
106
79
65
95
71
58
90
65
53
88
65
53
87
67
56
86
66
55
86
66
55
86
66
55
85
65
54
84
64
53
84
64
53
81
64
56
82
65
57
81
64
56
48
41
35
28
24
23
26
20
22
23
22
22
22
22
22
82
82
81
181
178
166
174
168
154
160
152
139
154
147
134
134
127
115
70
66
57
17
11
10
19
13
13
26
20
20
27
21
21
27
21
21
27
21
21
26
21
21
61
51
42
136
112
92
165
139
116
187
163
139
196
172
148
196
172
148
184
160
136
164
140
117
159
134
112
157
132
110
163
138
116
181
156
134
200
175
153
212
191
168
219
201
177
227
205
182
225
202
178
224
200
176
222
198
174
221
197
173
223
199
175
224
202
179
227
205
181
229
207
183
226
208
184
226
208
184
226
208
184
228
206
183
228
205
181
226
202
178
223
199
173
219
194
169
216
190
165
208
181
156
199
165
142
158
118
100
136
89
81
131
84
76
121
74
66
119
74
69
120
75
70
101
61
54
78
49
41
91
62
53
100
71
61
102
74
59
108
81
66
116
90
75
140
114
99
154
129
114
157
134
118
157
132
110
149
123
101
147
120
99
150
118
97
148
116
95
147
115
94
147
114
95
148
115
96
151
118
99
162
129
110
162
132
112
154
128
107
150
117
98
137
107
90
125
97
83
116
88
74
107
81
68
98
74
62
94
70
58
90
68
56
88
68
57
90
70
59
90
70
59
90
70
59
90
70
59
90
70
59
89
69
58
86
68
60
85
68
60
84
67
59
50
42
37
29
26
25
28
22
24
23
22
22
24
24
24
28
28
28
123
120
109
135
129
118
142
134
123
137
129
118
118
111
101
77
72
64
19
13
13
22
16
16
28
22
22
28
22
22
28
22
22
29
23
23
21
16
16
47
39
33
121
98
78
161
135
112
187
163
139
195
171
147
194
170
146
181
157
133
162
138
115
159
134
112
157
132
110
159
134
112
174
149
127
200
175
153
214
193
170
221
203
179
224
202
179
219
196
173
222
197
173
222
198
174
223
198
174
226
202
178
226
204
181
227
205
181
228
206
182
224
206
182
223
205
181
223
205
182
225
203
180
223
200
177
222
198
174
220
196
170
216
191
166
212
186
161
203
176
151
196
162
139
165
124
107
138
91
83
131
84
77
119
72
64
117
72
67
117
72
67
99
59
52
80
49
42
94
65
55
105
77
65
116
89
71
122
96
79
130
104
89
146
120
105
155
130
114
155
132
116
156
131
110
147
121
99
141
114
93
142
110
89
139
107
86
139
107
86
137
104
85
138
105
86
138
105
86
151
118
99
154
123
104
147
120
99
142
110
90
134
103
86
121
93
79
111
83
69
103
77
64
95
71
59
91
67
55
88
65
54
85
65
54
83
63
52
83
63
52
83
63
52
81
61
50
83
63
52
83
63
52
82
65
57
83
66
58
82
65
57
48
41
36
27
23
22
27
21
23
21
21
21
21
21
21
21
21
21
99
95
87
112
106
97
122
113
105
115
106
99
94
87
78
73
69
61
26
21
20
20
14
14
23
17
17
26
20
20
26
20
20
28
22
22
15
13
13
35
29
25
95
78
64
158
131
109
186
162
138
192
168
144
190
166
142
176
152
128
158
134
111
154
129
107
153
128
106
157
131
112
171
146
129
191
168
150
213
191
170
219
199
175
215
193
169
211
186
162
210
185
160
210
187
164
212
191
168
219
198
175
225
203
180
225
205
180
224
205
180
223
203
179
223
202
177
223
202
177
224
200
176
222
197
173
222
197
172
218
192
167
216
188
164
211
181
158
204
174
150
196
162
140
174
137
118
146
101
89
133
89
80
119
73
65
115
73
67
115
73
67
99
60
53
90
56
46
112
82
70
133
105
91
141
114
98
140
114
98
144
118
103
151
125
110
155
130
113
157
132
113
157
132
110
152
126
104
146
119
98
144
115
94
140
110
90
140
108
88
138
105
86
137
104
85
136
103
84
142
113
96
148
119
103
145
119
102
140
112
95
132
104
89
121
95
80
112
85
73
104
78
66
97
73
61
92
70
59
89
68
57
87
67
56
86
66
55
86
66
55
85
65
54
85
65
54
86
66
55
85
65
54
84
67
58
85
68
60
84
67
59
49
41
36
26
23
22
26
20
22
21
20
21
22
22
22
22
22
22
60
59
55
79
76
72
81
74
71
92
86
83
80
74
71
82
77
74
58
53
53
22
16
16
25
19
19
27
21
21
29
23
23
30
24
24
12
12
12
36
31
29
84
72
62
157
131
109
188
164
140
193
169
145
189
165
141
174
150
126
158
133
110
153
128
106
153
128
106
157
131
113
166
141
126
185
162
146
204
182
162
220
198
175
220
198
174
217
191
167
209
183
158
208
182
157
213
194
169
224
206
183
231
209
186
229
208
184
226
207
182
225
203
179
225
202
177
226
201
175
225
199
174
222
196
171
220
194
169
219
193
168
215
186
162
209
177
154
203
171
148
196
163
141
178
143
123
150
107
92
135
91
82
118
74
65
112
71
65
112
72
66
100
61
54
99
66
51
135
105
91
153
125
111
155
129
114
151
125
110
148
122
107
149
123
108
152
126
108
153
128
106
153
128
106
149
123
102
142
115
94
135
108
87
135
105
85
134
101
82
133
100
81
132
99
80
131
98
79
134
106
92
140
113
98
140
114
99
135
109
94
129
103
88
119
93
78
111
84
73
105
79
68
98
74
62
93
72
61
90
70
59
89
69
58
88
68
57
89
69
58
89
69
58
89
69
58
88
68
57
87
67
56
85
67
59
85
68
60
84
67
59
49
41
36
27
24
23
28
21
23
22
22
22
21
21
21
22
22
22
41
41
39
77
75
73
52
46
46
72
66
66
76
70
70
82
76
76
84
78
78
30
24
24
23
17
17
26
20
20
27
21
21
28
22
22
8
7
8
18
12
13
58
49
39
150
127
104
183
159
135
190
166
142
185
161
137
169
145
121
155
130
107
150
125
103
148
123
101
145
120
102
145
119
104
156
133
117
186
164
143
198
176
153
195
172
148
193
167
143
201
175
150
202
179
156
218
202
179
223
207
187
227
205
182
224
201
178
220
198
174
218
193
170
214
188
164
212
184
160
211
185
160
212
186
161
212
186
161
213
187
162
211
181
158
205
173
150
200
168
145
193
159
138
182
146
127
158
114
100
137
93
84
119
75
66
114
73
67
111
71
65
104
65
58
122
89
72
164
133
117
169
141
127
166
140
125
159
133
118
153
127
112
152
126
111
152
127
109
153
128
106
154
129
107
151
126
104
147
120
99
141
114
93
138
109
88
137
104
85
134
101
82
133
100
81
134
101
82
133
105
91
137
110
96
138
112
97
135
109
94
128
102
87
119
93
79
111
84
73
106
80
69
100
76
64
94
73
62
92
72
61
91
71
60
91
71
60
94
74
63
94
74
63
96
76
65
96
77
66
93
73
62
88
70
62
88
71
63
84
67
59
48
40
35
27
24
23
26
20
22
21
21
21
21
21
21
21
21
21
25
25
23
72
70
69
74
68
68
69
63
63
74
68
68
80
74
74
89
83
83
61
56
56
23
17
17
26
20
20
28
22
22
30
24
24
10
10
10
16
12
14
56
48
39
146
125
104
183
160
136
189
166
142
185
161
138
171
147
124
157
132
110
153
128
106
147
123
102
139
115
96
142
118
101
152
131
114
172
151
132
185
165
144
187
164
141
181
156
132
200
177
155
221
207
192
228
216
199
229
215
195
231
209
185
229
203
180
225
198
174
218
191
166
216
187
162
214
184
159
213
187
162
215
189
165
218
192
168
217
191
166
213
184
160
209
177
154
201
169
146
193
160
138
183
149
129
163
124
108
139
97
86
120
77
68
116
75
68
114
74
66
108
71
61
158
128
108
180
152
133
178
152
135
170
144
129
163
137
122
155
129
114
151
125
110
150
124
106
149
124
102
149
124
102
148
122
102
146
119
101
141
115
96
139
110
92
136
105
87
132
99
80
131
99
80
131
98
79
131
102
88
134
107
93
136
110
95
136
110
95
130
104
89
121
95
80
113
86
74
106
81
69
100
77
65
96
76
64
95
75
64
95
75
64
98
78
68
102
83
73
105
86
76
106
88
78
105
86
76
100
81
71
95
78
69
92
75
67
86
70
62
50
42
38
29
26
25
26
22
24
23
22
22
23
23
23
23
23
23
23
23
22
70
68
67
93
87
87
88
82
82
84
78
78
79
73
73
89
83
83
79
73
73
27
22
22
28
22
22
28
22
22
29
23
23
7
8
8
10
10
10
63
57
51
138
117
100
176
154
131
184
162
139
180
158
135
166
141
119
149
125
103
143
120
97
132
114
93
120
101
81
118
100
79
130
114
96
157
141
123
169
153
134
170
147
125
165
143
120
207
190
175
222
214
203
222
214
198
222
209
187
222
200
176
222
193
170
219
187
163
212
181
153
211
180
152
214
183
155
212
186
161
214
189
165
214
190
166
209
183
158
205
176
152
200
168
145
193
161
138
187
155
133
180
148
127
160
130
110
137
100
86
117
77
67
113
73
63
114
75
64
129
98
80
181
154
133
186
160
139
180
155
133
172
146
131
163
137
122
154
128
113
148
122
107
146
120
102
145
120
98
144
119
97
145
119
101
145
119
104
142
116
101
140
114
99
132
106
91
125
97
76
124
94
74
123
90
71
120
92
77
125
98
83
130
104
89
132
106
91
126
100
85
117
91
76
108
81
69
99
75
64
92
72
61
91
71
60
90
70
59
90
70
59
92
72
64
95
76
69
96
79
71
97
82
73
97
82
73
95
78
70
91
74
66
87
71
63
82
67
60
47
41
39
27
27
26
24
24
24
20
20
20
20
20
20
21
21
21
22
22
22
58
54
54
90
84
84
91
85
85
89
83
83
80
74
74
81
75
75
84
78
78
44
38
38
23
17
17
25
19
19
28
22
22
10
10
10
25
25
25
78
71
67
129
108
90
175
153
130
184
162
139
181
159
136
163
138
117
141
118
98
133
112
93
125
109
90
117
101
83
119
103
85
143
130
112
181
167
148
195
179
160
198
177
157
192
176
159
224
215
201
226
218
207
228
219
203
227
214
192
224
202
178
225
196
173
222
190
167
220
189
161
221
190
162
225
195
167
223
197
172
222
197
173
218
194
170
213
187
162
209
180
156
204
172
149
198
166
143
190
158
136
183
151
130
167
137
117
144
107
93
121
81
71
121
81
71
123
86
73
168
139
118
198
175
153
193
169
147
184
159
137
174
148
133
165
139
124
156
130
115
148
122
107
144
118
100
141
116
94
142
117
95
143
117
99
145
119
104
148
122
107
148
122
107
143
117
102
136
109
89
129
100
79
124
91
72
118
90
76
122
95
80
130
104
89
132
106
91
129
103
88
118
92
77
107
81
69
96
72
61
91
71
60
91
71
60
91
71
60
93
73
62
97
77
70
102
84
76
106
89
81
105
91
82
104
89
80
102
85
77
96
79
71
92
76
69
84
70
63
50
44
42
35
35
34
33
33
33
30
30
30
29
29
29
28
28
28
28
28
28
43
40
40
91
85
85
92
86
86
95
89
89
86
80
80
87
81
81
85
79
79
48
42
42
30
24
24
31
25
25
38
32
32
8
8
8
16
16
16
41
35
31
115
95
78
174
152
130
182
160
138
173
151
129
157
133
111
144
123
104
164
146
129
184
170
154
200
186
169
211
197
180
212
201
181
213
199
180
210
195
176
209
190
173
218
206
192
222
219
205
225
217
206
225
216
201
220
207
185
217
195
171
220
191
168
219
187
164
218
187
159
217
187
159
219
189
162
216
190
165
214
188
164
208
183
159
202
175
151
196
167
143
192
160
137
186
154
131
179
147
125
174
142
121
164
133
113
146
109
94
121
81
71
122
82
72
142
107
91
192
166
141
198
177
154
191
168
145
182
157
136
171
145
130
162
136
121
152
126
111
144
118
103
138
113
95
134
109
87
132
107
86
133
107
89
134
108
93
139
113
98
144
118
103
140
114
99
134
110
89
130
102
82
121
89
70
108
80
66
109
82
68
117
91
76
122
97
82
119
94
79
109
84
70
99
73
62
86
63
52
80
60
50
79
59
49
79
59
49
81
61
51
85
65
58
91
72
64
96
79
71
97
83
74
97
81
73
97
80
72
93
77
69
90
74
67
82
67
60
47
41
39
33
32
31
30
30
29
27
27
27
24
24
24
23
23
23
24
24
24
27
24
24
83
77
77
93
87
87
67
61
61
80
74
74
82
76
76
74
68
68
50
44
44
25
19
19
29
23
23
44
38
38
8
10
9
19
19
19
45
39
34
104
89
78
167
142
126
186
164
147
187
168
151
198
179
162
201
182
165
191
172
156
163
151
136
156
142
127
149
134
119
141
122
106
149
130
113
166
147
130
187
173
157
222
213
196
227
219
202
226
219
204
226
215
197
225
210
186
225
201
179
225
201
177
222
199
174
222
198
173
222
198
174
221
197
173
221
195
170
218
189
165
214
183
159
207
175
152
199
167
145
192
160
139
184
152
131
175
143
123
172
139
120
166
133
114
151
116
100
126
90
78
135
94
79
174
143
123
198
176
153
201
176
154
191
166
147
180
154
139
171
145
130
162
136
121
152
126
111
143
117
102
136
110
95
132
106
91
130
104
89
132
106
91
134
108
93
141
115
100
147
121
106
147
122
106
143
120
104
141
118
101
133
110
94
123
95
81
119
92
78
122
96
81
120
100
87
117
97
85
113
92
81
103
83
76
94
74
66
87
67
60
83
63
56
82
63
56
83
66
58
87
70
62
93
76
68
98
81
73
101
87
78
98
84
75
96
82
73
92
78
69
91
76
66
81
68
61
48
42
40
36
36
34
34
34
32
29
29
29
28
28
28
27
27
27
25
25
23
26
24
22
75
69
69
102
97
94
89
84
82
92
86
86
97
91
91
80
74
74
68
63
63
56
50
50
46
40
40
48
42
42
11
13
12
17
17
17
29
23
19
90
76
66
187
165
149
217
197
180
205
187
170
173
154
137
131
113
96
118
100
83
118
104
88
122
106
91
127
109
94
135
116
99
150
131
114
169
150
133
206
195
179
227
219
201
226
217
200
226
217
200
227
215
196
227
212
188
228
207
184
226
205
181
226
205
181
226
205
181
225
203
179
223
199
175
219
193
168
215
186
162
210
178
155
202
170
147
193
161
139
185
153
132
177
145
124
170
137
117
166
133
114
162
129
110
151
116
101
129
93
81
146
108
92
190
160
139
197
175
152
197
172
150
186
161
142
175
149
134
167
141
126
158
132
117
149
123
108
139
113
98
132
106
91
127
101
86
123
97
82
122
96
81
121
95
80
124
98
83
130
104
89
132
106
91
134
111
95
135
112
96
132
109
93
125
100
85
122
97
82
122
96
81
118
99
85
117
97
85
114
94
83
106
86
79
98
78
72
89
69
62
83
63
56
78
59
52
78
61
53
80
64
56
87
70
62
93
76
68
96
81
73
94
80
71
93
79
70
88
74
65
87
71
62
77
64
56
42
36
35
30
30
28
29
29
27
27
27
27
23
23
23
24
24
24
22
22
20
24
22
21
57
51
51
87
82
79
91
86
84
85
79
79
89
83
83
76
70
70
80
74
74
71
65
65
46
40
40
31
25
25
1
3
2
11
11
11
88
83
78
156
143
132
185
165
149
189
170
153
161
142
125
130
111
94
117
98
81
123
104
87
123
105
91
126
108
94
128
108
94
133
114
97
147
128
111
183
165
148
220
212
195
222
215
197
219
210
193
216
204
186
219
205
186
220
205
181
223
204
180
223
204
182
224
204
183
223
204
183
224
202
179
223
199
175
219
193
168
214
185
161
207
175
152
197
165
142
187
155
133
182
150
129
174
142
121
167
135
115
165
132
113
159
126
107
151
117
102
138
102
90
161
126
109
194
166
144
194
171
149
194
169
147
183
157
139
172
146
131
164
138
123
157
131
116
149
123
108
140
114
99
133
107
92
129
103
88
126
100
85
125
99
84
124
98
83
125
99
84
128
102
87
129
103
88
132
109
93
138
115
99
143
120
104
141
119
103
139
115
99
133
107
92
125
105
91
121
102
89
117
97
86
111
91
84
104
84
77
100
80
73
96
76
69
91
72
65
87
70
62
86
70
62
87
70
62
93
76
68
95
81
72
95
81
72
92
78
69
87
73
64
85
69
60
74
61
53
37
31
30
23
23
21
22
22
20
21
21
21
21
21
21
22
22
22
22
22
20
24
22
21
46
41
40
83
78
75
86
81
79
89
83
83
88
82
82
79
73
73
79
73
73
70
64
64
31
25
25
22
16
16
53
52
52
109
105
105
126
120
117
103
93
85
145
130
112
184
165
141
166
144
123
144
120
104
135
114
98
132
113
96
129
110
94
128
108
92
126
106
90
134
116
98
172
156
140
215
201
185
225
216
199
226
215
197
220
207
188
222
208
189
228
213
194
230
215
195
233
215
196
233
214
196
231
212
194
228
210
187
227
207
183
227
202
179
220
194
169
212
186
162
204
176
153
199
167
145
187
155
134
180
148
127
171
139
119
166
133
113
162
129
110
157
124
110
151
117
104
140
105
93
168
134
116
191
162
141
191
166
144
187
161
144
177
151
136
167
141
126
159
133
118
151
125
110
145
119
104
137
111
96
132
106
91
127
101
86
123
99
83
122
99
83
123
99
83
122
98
83
124
99
84
125
99
84
127
102
87
136
111
96
143
120
104
144
122
105
143
120
104
135
112
96
127
104
91
121
99
87
116
96
85
111
94
82
106
89
79
102
84
76
98
80
73
94
77
69
92
77
68
92
77
68
94
79
71
97
82
73
98
84
75
97
83
74
95
81
72
88
74
65
84
69
60
70
58
50
36
30
29
24
23
22
21
21
21
19
19
19
19
19
19
21
21
21
20
20
20
21
21
20
32
30
30
75
70
69
80
74
74
86
80
80
84
78
78
82
76
76
82
76
76
65
59
59
25
19
19
24
18
18
105
104
104
78
73
73
26
19
19
49
42
35
130
116
98
176
157
131
159
136
114
144
119
104
132
110
93
127
108
91
126
107
90
125
106
89
132
114
96
178
163
144
210
195
178
217
204
188
221
209
193
216
202
185
216
201
182
222
207
188
225
210
191
224
209
190
225
206
189
225
206
189
223
204
187
221
203
179
220
201
177
218
193
170
213
187
162
206
180
156
197
170
148
192
160
139
184
152
131
174
142
121
166
133
114
162
129
110
159
126
107
155
121
109
149
115
103
141
107
95
166
133
115
185
156
136
183
159
137
181
155
140
173
147
132
164
138
123
155
129
114
147
121
106
142
116
101
135
109
94
131
105
90
128
102
87
123
99
83
122
99
83
122
99
83
121
98
82
122
97
82
122
96
81
123
97
82
130
105
90
139
116
100
143
120
104
143
120
104
135
112
96
124
100
88
113
90
79
103
83
72
98
82
69
97
81
70
97
80
72
95
78
70
93
78
69
89
75
66
88
74
65
90
76
67
94
80
71
97
83
74
96
82
73
94
80
71
86
72
63
81
67
57
67
56
48
33
27
26
21
21
19
18
18
18
16
16
16
16
16
16
19
19
19
19
19
19
20
20
20
23
23
23
66
61
61
78
72
72
88
82
82
84
78
78
86
80
80
85
79
79
72
66
66
38
32
32
27
21
21
31
31
31
13
7
7
24
16
17
53
45
41
125
111
93
178
159
134
165
143
120
145
119
104
133
111
94
127
108
91
130
111
94
162
143
127
199
180
163
213
201
182
212
200
182
222
209
193
221
208
192
214
199
182
224
209
190
227
212
193
229
214
195
229
213
195
231
212
195
230
211
194
229
210
193
227
209
185
225
206
182
226
201
178
217
191
166
208
182
158
199
173
150
195
163
142
185
153
132
173
141
120
166
133
114
162
129
110
159
126
107
153
119
107
149
115
103
140
106
94
165
132
113
183
154
133
181
156
135
178
152
136
169
143
128
162
136
121
152
126
111
144
118
103
138
112
97
134
108
93
131
105
90
128
102
87
124
101
85
124
101
85
124
101
85
124
101
85
125
101
85
126
100
85
128
102
87
133
108
93
140
117
101
142
119
103
143
120
104
139
116
100
129
105
93
118
95
84
106
86
75
97
81
68
92
75
64
90
73
65
88
72
64
89
73
65
91
77
68
94
80
71
98
84
75
102
88
79
105
91
82
106
92
83
102
88
79
95
81
72
89
75
66
71
60
52
36
31
29
23
23
21
20
20
20
19
19
19
19
19
19
20
20
20
22
22
22
24
24
24
24
24
24
61
56
56
78
72
72
90
84
84
87
81
81
87
81
81
85
79
79
74
68
68
66
60
60
39
33
33
5
5
5
10
7
6
14
10
11
42
35
31
119
105
87
172
153
130
159
138
118
138
114
98
126
104
88
120
101
85
169
150
134
190
172
156
174
157
141
183
173
154
215
203
186
207
194
178
199
183
167
217
202
184
223
208
189
221
208
187
221
207
187
221
207
188
224
205
188
222
203
184
219
200
180
215
195
171
213
192
167
212
188
164
205
179
155
197
172
148
190
165
141
186
158
135
175
146
124
166
137
116
161
130
113
157
125
108
152
119
103
147
113
101
143
111
98
134
103
89
157
126
110
176
148
130
176
151
132
172
146
131
165
139
124
157
131
116
148
122
107
139
113
98
133
107
92
129
105
89
128
103
88
125
101
85
122
99
83
122
99
83
122
99
83
121
100
83
121
99
83
124
99
84
126
101
86
130
106
91
135
112
96
137
114
98
136
113
97
132
109
93
127
103
91
114
92
80
103
83
72
94
77
67
90
73
63
87
70
62
82
67
58
79
64
55
76
62
53
76
62
53
80
66
57
88
74
65
97
83
74
99
85
76
96
82
73
89
75
67
85
70
61
69
58
50
39
33
32
24
22
22
17
17
17
14
14
14
14
14
14
14
14
14
15
15
15
17
17
17
20
20
20
45
42
41
64
60
59
83
77
77
79
73
73
78
73
73
78
75
74
71
68
67
65
61
60
56
50
50
6
6
6
8
8
8
14
14
14
40
35
30
124
109
91
170
150
132
159
139
123
136
113
98
135
114
98
170
151
134
181
162
145
187
170
154
208
192
177
205
193
174
174
160
143
157
141
124
209
194
175
226
211
192
225
210
190
224
209
185
224
208
188
224
208
190
225
206
189
224
206
185
223
205
181
223
201
177
222
199
175
219
195
171
213
187
164
206
181
157
201
177
153
192
168
144
179
154
131
169
142
122
161
133
119
156
125
112
152
118
106
146
112
100
138
107
94
126
98
84
149
121
108
171
144
130
173
147
132
170
144
129
164
138
123
156
130
115
148
122
107
138
112
97
133
107
92
127
104
88
127
104
88
126
103
87
127
104
88
127
104
88
125
103
87
123
104
87
125
104
87
128
105
89
130
107
91
134
111
95
137
114
98
139
116
100
140
117
101
139
116
100
134
110
98
124
102
90
111
91
80
100
83
75
98
81
73
98
81
73
96
82
73
94
80
71
93
79
70
92
78
69
93
79
70
98
84
75
103
89
80
106
92
83
106
92
83
102
87
79
95
81
72
78
67
59
53
47
46
47
43
43
41
41
41
34
34
34
31
31
31
28
28
28
28
28
28
29
29
29
33
33
33
43
43
42
63
61
60
80
74
74
85
79
79
80
77
76
80
80
78
73
73
71
64
62
61
64
58
58
6
6
6
9
9
9
11
11
11
30
24
18
139
123
104
168
149
130
157
137
121
142
119
103
170
149
132
175
156
140
209
190
173
200
183
168
167
151
136
146
130
110
148
131
111
177
160
140
222
207
188
223
208
189
222
207
187
221
205
179
219
202
180
217
199
182
216
197
180
221
202
181
220
202
178
222
200
176
221
198
174
215
191
167
213
187
164
208
183
159
202
178
154
189
165
141
176
151
128
167
140
119
159
131
117
151
120
107
146
113
101
139
105
93
132
101
88
119
91
78
140
113
99
164
137
123
167
141
126
166
140
125
160
134
119
152
126
111
143
117
102
134
108
93
129
103
88
125
102
86
123
100
84
121
98
82
120
97
81
119
96
80
119
96
80
116
96
79
117
96
80
118
95
79
121
98
82
124
101
85
126
103
87
129
106
90
131
108
92
131
108
92
127
103
91
118
96
84
102
82
71
93
76
68
90
73
65
91
74
66
90
76
67
91
77
68
92
78
69
92
78
69
93
79
70
97
83
74
100
86
77
102
88
79
101
87
78
98
83
76
93
79
70
82
71
63
62
56
55
55
51
51
47
47
47
45
45
45
42
42
42
39
39
39
37
37
37
35
35
35
36
36
36
39
39
38
47
45
43
58
52
52
70
64
64
64
60
59
59
59
57
55
55
53
42
40
39
51
45
45
5
5
6
6
6
6
7
7
8
50
43
37
151
134
116
171
151
133
152
133
116
175
152
135
189
168
151
189
170
153
150
131
114
135
116
101
146
129
113
151
134
112
157
138
116
201
182
160
219
203
183
216
200
180
210
194
173
210
191
165
211
191
170
213
193
175
217
199
182
223
205
184
225
207
183
228
206
182
227
204
180
223
199
175
217
192
169
212
187
164
204
179
156
192
168
144
180
154
132
168
141
122
158
130
116
149
119
106
143
110
98
135
102
91
128
98
85
117
90
76
134
107
93
161
134
119
165
139
124
165
139
124
159
133
118
153
127
112
145
119
104
137
111
97
132
106
92
127
104
89
125
102
86
124
101
85
124
101
86
124
100
85
123
100
85
122
101
86
123
102
86
126
103
88
127
104
89
128
105
89
128
105
89
128
105
89
131
109
93
133
110
95
131
107
95
123
101
89
106
88
76
93
76
68
87
70
62
88
71
63
89
75
66
91
77
68
94
81
72
98
83
74
99
85
76
103
89
80
106
92
83
107
93
84
104
90
81
99
85
78
94
80
71
83
73
65
67
61
60
59
56
55
53
53
53
51
51
51
48
48
48
45
45
45
44
44
44
42
42
42
42
42
42
44
43
42
58
55
54
77
71
71
83
77
77
76
72
71
68
67
65
69
68
66
63
61
59
51
45
45
5
6
10
7
7
7
8
10
12
94
83
74
158
140
123
178
159
142
192
173
156
212
190
167
177
155
136
131
108
92
128
105
89
137
114
98
143
120
104
144
121
105
160
137
116
203
182
157
216
198
174
211
193
168
204
186
160
206
184
161
210
191
169
220
204
182
228
213
194
230
213
192
229
211
187
231
209
186
228
205
182
223
199
175
216
191
169
208
183
161
200
175
153
189
164
142
176
150
132
164
138
123
154
126
112
142
114
100
133
105
91
126
98
87
121
94
83
112
85
74
126
98
87
154
128
112
161
135
120
160
134
119
155
129
114
150
124
109
143
117
102
136
109
96
131
104
93
125
101
89
121
97
85
120
96
84
118
94
82
117
93
81
114
90
78
114
90
78
115
91
79
117
93
81
117
93
81
120
96
83
122
99
83
126
103
87
127
105
90
127
108
94
126
107
93
120
103
89
106
90
77
94
77
69
83
67
58
78
64
55
78
64
55
78
65
56
77
64
55
80
64
56
85
69
61
95
81
72
102
88
79
104
90
81
100
86
77
89
78
69
82
72
63
70
62
55
60
54
54
55
51
51
52
52
50
50
50
49
49
49
49
47
47
47
45
45
45
41
41
41
41
41
41
44
39
39
59
53
53
80
74
74
82
76
76
74
68
68
67
61
61
68
62
62
75
69
69
51
45
45
2
3
7
5
5
5
15
11
7
101
84
71
161
142
125
198
179
162
199
180
163
155
134
111
126
103
84
127
104
88
127
104
88
128
105
89
131
108
92
138
115
99
154
132
112
186
165
142
204
186
162
199
182
158
193
177
152
207
191
169
219
204
184
226
212
192
226
211
192
226
209
188
226
208
184
227
205
182
224
201
177
218
194
170
209
184
162
201
176
154
194
169
147
185
160
138
172
146
128
161
135
120
151
123
109
139
111
97
130
102
88
122
94
83
117
90
79
108
81
70
118
89
81
148
121
108
157
131
116
158
132
117
155
129
114
151
125
110
144
118
103
138
112
98
133
106
95
127
103
91
125
101
89
124
100
88
122
98
86
120
96
84
117
93
81
116
92
80
116
92
80
115
91
79
116
92
80
118
95
81
121
98
82
123
100
84
125
104
89
126
107
93
124
105
91
119
101
88
108
92
79
96
79
71
87
72
63
82
68
59
77
63
54
73
59
50
67
53
44
66
49
41
70
55
46
85
71
62
94
80
71
95
81
72
89
75
66
73
63
54
67
57
48
53
44
37
34
28
27
28
25
24
31
31
29
32
32
32
31
31
31
33
33
33
33
33
33
34
34
34
37
37
37
43
38
38
56
50
50
77
71
71
82
76
76
79
73
73
76
70
70
78
72
72
79
73
73
71
65
65
4
5
9
6
6
6
64
55
48
138
115
97
201
182
165
211
192
175
167
148
131
142
120
97
134
112
93
131
108
92
129
106
90
129
106
90
134
111
95
144
121
105
183
160
142
208
186
166
209
191
167
206
190
167
222
209
186
229
218
198
232
220
201
233
221
203
233
218
199
232
216
194
232
213
189
232
210
187
227
204
181
221
197
173
210
185
163
205
180
158
197
172
151
187
162
141
172
146
128
160
134
119
149
121
107
136
108
95
128
100
86
121
93
82
113
85
74
100
73
62
108
79
73
139
112
99
150
124
109
154
128
113
154
128
113
149
123
108
143
117
102
138
111
98
133
106
95
128
104
92
126
102
90
125
101
89
121
97
85
118
95
83
116
92
80
114
90
78
114
90
78
115
91
79
115
91
79
116
92
78
118
95
79
121
98
83
125
104
89
126
106
92
124
105
91
119
102
88
109
93
80
98
81
73
91
75
67
86
72
63
83
69
60
79
65
56
73
59
50
71
55
46
72
56
48
84
70
61
94
80
71
97
83
74
91
77
68
76
65
57
72
61
52
57
49
42
38
32
32
24
20
19
22
22
20
28
28
28
29
29
29
28
28
28
28
28
28
28
28
28
30
30
30
37
32
32
46
40
40
71
65
65
80
74
74
80
74
74
82
76
76
82
76
76
83
77
77
77
71
71
1
3
5
11
8
5
98
82
69
186
162
141
205
185
161
189
167
143
163
140
117
142
117
95
133
108
90
128
102
87
121
98
82
122
99
83
130
107
91
177
154
139
196
175
159
195
176
159
197
182
162
213
199
179
224
211
191
224
215
196
222
212
192
219
208
188
223
205
184
223
203
181
224
203
180
223
201
177
217
194
170
207
183
159
200
175
153
195
170
148
187
162
140
177
151
135
166
140
125
155
129
114
141
115
102
131
104
92
122
95
86
113
87
78
100
75
67
73
54
46
88
66
60
128
102
91
141
114
103
149
123
111
150
123
112
148
121
109
141
114
102
135
108
97
132
105
94
128
104
92
126
102
90
125
101
89
119
99
86
117
97
83
114
94
80
114
90
78
112
88
76
111
87
75
110
86
74
111
87
75
113
90
77
116
92
80
121
97
85
125
101
89
125
105
92
118
101
88
109
95
82
100
86
77
92
78
69
86
72
63
84
70
61
78
64
55
73
59
50
68
51
43
70
54
46
81
67
58
90
76
67
92
78
69
87
73
64
74
61
52
67
54
45
51
42
36
32
26
26
20
16
16
16
16
16
18
18
17
19
19
19
23
23
23
24
24
24
24
24
24
26
26
26
27
27
25
32
31
30
65
65
63
69
68
66
71
69
67
78
73
70
76
71
68
85
80
78
85
80
77
5
5
5
101
90
86
164
145
130
190
165
143
192
170
146
187
164
140
172
148
124
148
123
101
140
114
97
131
105
90
120
97
81
130
107
92
180
158
142
181
158
142
189
169
152
197
178
161
204
189
170
223
209
190
224
211
192
224
213
193
221
209
187
217
203
181
224
203
180
227
206
183
228
206
183
224
202
178
217
194
170
209
185
161
204
179
157
196
171
149
187
162
141
177
151
136
166
140
125
153
127
112
139
113
101
128
102
91
119
92
83
102
78
71
80
58
52
55
39
34
67
48
42
114
89
79
134
107
96
145
118
107
147
120
109
146
119
108
140
113
102
136
109
98
133
106
95
128
104
92
128
104
92
126
102
90
123
103
90
121
102
88
120
101
87
121
97
85
119
95
83
116
92
80
114
90
78
114
90
78
114
90
78
116
92
80
122
98
86
128
105
93
130
110
96
126
109
95
119
105
92
112
99
89
107
93
84
101
87
78
97
83
74
88
74
66
82
68
59
74
57
49
74
58
50
83
69
60
91
77
68
94
80
71
91
77
68
80
66
57
70
57
48
53
45
38
36
30
29
24
20
20
20
20
20
20
20
20
22
22
22
27
27
27
29
29
29
31
31
31
30
30
30
31
31
29
34
34
32
60
60
58
58
58
56
60
58
56
75
70
67
77
72
69
82
77
74
77
72
69
79
77
75
124
114
107
118
100
82
181
156
131
185
160
137
184
159
136
173
148
125
151
126
104
142
117
99
131
105
90
135
112
96
166
143
127
155
132
116
179
156
141
191
170
153
188
170
153
216
201
182
216
203
184
220
206
187
213
199
177
204
189
166
205
189
164
219
196
172
221
199
175
220
198
175
213
191
167
207
184
160
202
178
154
195
170
148
189
164
142
179
154
132
169
143
128
158
132
117
144
118
103
130
104
91
116
90
79
102
75
66
74
52
46
51
31
27
38
25
21
47
31
27
88
65
56
121
94
83
136
109
98
141
114
103
140
113
102
137
110
99
134
107
96
132
105
94
126
102
90
125
101
89
124
100
88
119
100
86
118
99
85
115
96
82
115
91
79
112
88
76
111
87
75
107
83
71
104
80
68
103
79
67
106
82
70
113
89
77
121
97
85
123
103
89
119
102
89
112
98
85
107
93
83
103
89
80
101
87
78
99
85
76
94
80
71
83
69
60
76
59
51
74
59
50
81
67
58
89
75
66
89
75
66
87
73
64
77
63
54
67
54
45
49
40
33
31
25
24
21
17
17
14
14
14
14
14
14
15
15
15
16
16
16
17
17
17
20
20
20
21
21
21
24
24
23
26
26
24
46
46
44
43
43
41
49
47
45
69
64
61
75
70
67
71
66
63
63
58
55
102
97
92
49
43
37
118
101
80
183
157
132
184
158
134
184
159
135
175
151
127
155
130
108
148
122
104
153
127
112
155
131
115
133
108
93
180
155
140
180
156
140
166
144
128
210
192
174
207
190
172
222
205
187
210
193
175
200
181
158
199
179
155
205
185
160
217
193
168
219
195
171
218
195
171
215
191
169
211
187
164
206
181
158
197
172
150
188
163
143
179
153
136
168
142
127
156
130
115
141
115
102
126
99
87
109
83
75
86
65
57
57
41
39
43
28
28
38
25
26
42
29
29
65
46
41
104
81
72
130
104
93
137
111
100
139
112
101
137
110
99
136
109
98
134
107
96
131
105
94
129
104
92
127
103
91
124
102
90
124
103
90
121
102
88
122
101
87
117
96
83
115
94
81
114
92
79
111
90
77
109
87
74
108
84
72
110
86
74
116
92
80
118
99
85
120
103
89
118
103
90
114
99
90
111
97
88
108
94
85
107
93
84
102
88
79
96
82
73
93
76
68
90
74
66
88
74
65
91
77
68
92
78
69
90
76
67
80
66
57
69
56
48
48
39
35
36
30
31
28
24
25
23
23
23
21
21
21
20
20
20
20
20
20
22
22
22
23
23
23
28
28
28
31
31
31
33
33
32
46
46
45
57
54
53
61
57
55
94
89
86
95
90
86
95
90
86
104
99
94
41
37
33
43
36
31
135
116
95
183
155
131
183
157
132
182
157
133
176
152
128
163
138
116
168
142
124
154
128
113
132
106
91
181
155
141
171
145
131
146
121
106
198
175
159
199
181
163
219
200
183
205
186
169
199
180
162
190
168
145
188
166
143
193
171
148
205
181
157
212
188
164
214
190
166
211
186
164
205
180
158
198
173
151
190
165
143
181
155
137
171
145
130
159
133
118
145
119
104
130
103
92
111
86
77
88
65
60
60
43
38
43
31
31
37
25
25
34
22
24
34
22
24
46
32
31
80
61
54
113
89
78
126
100
89
130
103
92
132
105
94
132
105
94
129
102
91
127
100
89
125
99
88
122
98
86
120
96
84
118
96
83
114
95
81
114
95
81
110
91
77
109
90
76
106
87
74
103
84
70
102
83
69
104
80
68
105
81
69
105
81
69
104
84
71
103
86
72
104
88
75
104
90
81
105
91
82
105
91
82
104
90
81
101
87
78
97
83
74
92
76
67
90
74
66
90
76
67
90
76
67
89
75
66
86
72
63
77
63
54
67
54
47
42
33
32
27
21
23
22
19
20
18
18
18
16
16
16
16
16
16
15
15
15
16
16
16
17
17
17
20
20
20
23
23
23
25
25
25
35
35
35
59
54
54
56
50
49
103
98
95
108
103
97
119
114
108
131
126
120
16
13
10
49
40
32
156
135
115
179
151
127
182
156
131
178
154
129
175
151
127
172
147
125
160
135
117
139
113
98
176
150
135
154
128
114
133
107
92
170
144
129
200
176
160
210
192
174
204
185
168
197
178
161
190
171
153
170
148
125
164
142
119
179
157
133
197
173
149
212
188
164
212
188
164
207
182
160
199
174
152
193
168
146
186
161
139
176
150
132
164
138
123
154
128
113
138
112
98
123
96
88
97
74
67
72
51
48
53
40
35
45
33
33
39
27
29
37
25
27
37
25
27
45
32
33
70
53
48
105
80
73
121
95
86
128
101
90
130
103
92
131
104
93
131
104
93
130
103
92
129
104
92
127
103
91
125
101
89
121
100
87
119
100
86
118
99
85
115
96
82
113
94
80
111
92
78
110
91
77
109
90
76
110
87
75
111
87
75
111
87
75
108
88
75
106
88
75
103
87
74
101
86
77
100
86
77
101
87
78
102
88
79
102
88
79
99
85
76
95
78
70
93
78
69
93
79
70
94
80
71
93
79
70
89
75
66
80
66
57
68
54
47
42
32
31
23
17
19
20
17
18
16
16
16
16
16
16
16
16
16
17
17
17
17
17
17
18
18
18
21
21
21
23
23
23
25
25
25
30
30
30
78
73
73
110
104
103
142
137
134
149
144
138
152
147
141
150
145
139
15
14
12
78
67
58
166
142
122
186
157
133
185
159
134
184
159
135
180
156
132
172
146
124
174
148
129
184
159
142
145
120
105
125
100
85
137
112
97
195
170
154
204
181
165
203
184
166
192
172
156
202
182
164
196
176
157
173
150
128
177
154
131
186
163
139
201
177
153
214
190
166
210
186
162
202
177
155
193
168
146
187
162
140
178
153
133
169
143
126
157
131
116
142
115
101
127
100
89
107
80
74
80
60
55
61
42
41
49
36
35
44
31
31
40
27
28
37
25
27
37
25
27
44
31
32
60
44
42
87
64
60
106
81
74
117
90
81
124
97
88
126
99
89
128
101
90
126
100
89
124
99
87
122
98
86
119
95
83
116
94
82
114
95
81
112
93
79
111
92
78
109
90
76
107
88
75
105
86
73
105
86
72
107
84
72
108
85
73
107
85
72
106
87
74
104
87
74
102
86
74
97
83
74
94
80
71
92
78
69
93
79
70
94
80
71
96
82
73
96
79
71
95
79
71
96
81
72
96
82
73
96
82
73
89
75
66
81
67
58
67
54
47
41
34
32
23
17
18
19
15
16
15
15
15
14
14
14
14
14
14
15
15
15
16
16
16
18
18
18
19
19
19
19
20
20
21
21
21
22
22
22
94
90
89
140
135
132
146
141
138
151
146
140
149
144
138
146
141
135
9
8
8
92
77
66
158
129
108
188
156
133
179
153
128
178
153
129
175
151
127
185
159
136
183
158
136
139
114
93
120
97
81
124
101
85
155
132
117
177
154
138
182
159
143
172
149
133
192
169
153
196
173
153
183
161
138
172
147
125
186
161
138
189
165
141
202
178
154
208
184
160
201
177
153
190
165
143
181
156
134
176
151
129
171
143
128
160
132
118
147
119
105
131
103
92
112
84
77
93
65
62
74
53
52
62
43
43
54
38
39
50
34
35
47
33
35
43
31
33
46
34
36
49
35
37
60
44
45
78
57
56
95
71
68
110
82
78
121
93
89
125
98
90
128
101
90
126
102
90
125
101
89
123
99
87
121
97
85
119
97
84
115
96
82
112
93
79
110
91
77
108
89
75
107
87
76
105
86
74
105
86
72
105
86
72
106
87
73
106
87
73
104
88
75
103
87
74
101
85
72
95
81
72
91
77
68
90
76
67
89
75
66
86
72
63
84
70
61
90
73
65
94
77
69
96
79
71
95
80
72
94
80
71
90
76
67
82
68
59
65
53
45
34
30
27
24
19
20
17
14
15
13
13
13
13
13
13
13
14
13
14
16
15
15
16
16
17
17
17
19
19
19
18
20
19
19
20
19
21
21
21
84
83
80
139
134
128
140
135
129
145
140
134
145
140
134
144
139
133
17
16
14
109
93
80
179
149
127
195
163
140
182
156
131
187
160
137
199
173
150
191
165
142
156
131
109
141
117
95
132
109
94
157
134
119
169
146
130
164
141
125
166
143
127
184
161
145
200
177
161
191
169
149
182
160
137
201
176
154
201
176
153
186
162
138
206
182
158
204
180
156
196
172
148
182
157
135
176
151
129
172
146
125
164
136
121
151
123
109
136
108
94
117
88
81
97
69
64
87
60
57
76
55
54
68
50
50
61
45
46
55
39
40
53
39
40
49
37
39
50
38
40
54
40
42
62
45
46
74
53
53
86
61
59
100
72
68
115
87
83
121
94
86
125
98
87
124
100
88
124
100
88
123
99
87
121
97
85
119
97
85
115
96
82
113
94
80
111
92
78
108
89
75
108
88
77
107
87
75
108
89
75
108
89
75
109
90
76
108
89
75
105
89
76
103
87
74
102
86
73
98
84
75
95
81
72
94
80
71
91
77
68
89
75
66
87
73
64
85
68
60
92
75
67
98
81
73
98
83
74
97
83
74
93
79
70
86
72
63
69
57
49
35
31
28
28
23
24
20
16
18
15
15
15
15
15
15
16
17
16
17
19
18
19
19
19
20
20
20
22
22
22
21
23
22
23
24
24
25
25
25
63
62
59
143
138
132
147
142
136
149
144
138
150
145
139
149
144
138
47
44
41
111
93
78
183
153
130
187
156
133
191
164
140
198
170
148
179
150
129
161
135
112
153
127
105
140
115
93
163
141
125
167
144
129
135
112
96
155
132
116
156
133
117
185
162
146
176
153
137
176
153
133
188
166
143
210
186
164
183
159
136
181
157
133
198
174
151
191
167
143
180
156
132
169
144
122
164
139
118
157
132
111
149
121
107
135
107
93
116
88
75
99
69
65
89
60
57
84
57
54
75
53
52
67
49
49
64
48
49
61
45
46
56
42
43
53
41
42
54
42
44
57
43
45
62
46
47
70
49
49
79
54
51
88
60
56
105
77
73
117
89
82
121
94
84
121
97
85
120
96
84
121
97
85
119
96
84
117
95
82
112
93
79
109
90
76
106
87
73
103
84
70
102
83
71
102
83
70
103
84
70
102
83
70
103
84
71
103
84
70
98
82
69
96
79
67
94
78
66
91
76
67
87
73
64
84
70
61
81
67
58
81
67
58
78
64
55
75
59
51
76
59
51
85
68
60
91
76
67
90
76
67
87
73
64
81
66
58
64
52
45
32
28
25
19
13
15
14
11
12
11
11
11
10
10
10
12
12
12
12
13
12
13
13
13
15
15
15
15
16
16
15
16
16
16
17
17
19
19
18
31
30
27
136
131
126
147
142
136
149
144
138
152
147
141
151
146
140
90
82
70
141
125
104
194
170
146
197
170
145
199
167
144
177
146
122
169
137
114
166
140
117
159
136
112
166
144
123
171
148
132
135
112
96
147
124
108
155
132
116
168
145
129
165
142
126
173
150
134
178
154
133
213
189
165
200
178
155
168
145
122
187
163
139
192
167
145
185
160
138
174
149
128
167
141
125
160
133
118
154
126
111
143
115
104
129
97
88
113
79
72
101
67
65
96
65
62
92
65
61
86
62
62
81
60
59
77
60
58
71
57
54
68
54
51
65
52
49
67
52
53
69
54
55
70
56
56
74
53
52
77
54
54
81
55
55
94
66
63
111
83
79
118
90
86
121
96
87
122
98
87
123
99
87
120
100
86
119
100
86
119
100
86
115
96
82
112
93
79
108
89
75
107
88
74
106
86
74
107
87
76
106
89
77
106
89
76
105
89
76
104
86
78
100
83
75
97
80
72
94
77
69
93
76
68
90
74
65
89
75
66
87
73
64
85
71
62
83
69
60
82
67
58
85
68
60
93
76
68
97
81
72
96
82
73
92
77
70
76
62
56
42
33
32
25
19
19
18
14
14
12
12
12
13
13
13
13
13
13
14
14
14
16
16
16
19
19
19
20
20
20
22
22
22
24
24
23
26
26
24
29
28
27
128
123
119
144
139
133
149
144
138
152
147
141
156
151
145
129
121
109
184
168
146
195
172
148
187
161
136
181
149
126
170
138
115
166
135
112
166
140
117
171
148
124
172
150
129
146
123
107
138
115
99
156
133
117
155
132
116
148
125
109
155
132
116
162
139
123
193
170
149
215
191
167
176
154
131
164
141
118
186
162
138
177
152
130
173
148
126
165
140
118
157
131
116
152
125
111
144
116
102
129
101
90
115
83
75
104
69
63
100
65
63
98
66
64
94
64
62
90
62
64
83
60
60
79
59
58
74
57
55
72
56
53
69
53
49
69
52
53
71
54
55
72
54
56
73
53
52
75
51
51
76
50
51
81
53
51
99
71
67
108
80
76
114
90
80
116
92
81
117
93
81
115
95
82
113
94
80
111
92
78
107
88
74
103
84
70
100
81
67
99
80
66
98
78
66
100
80
69
99
83
70
101
85
72
100
84
71
98
81
73
94
77
69
88
71
63
84
67
59
83
66
58
80
63
55
79
64
55
78
64
55
80
66
57
78
64
55
77
62
53
78
61
53
80
63
55
84
68
59
87
73
64
85
70
63
75
60
55
41
32
30
20
14
14
13
9
9
7
7
7
6
6
6
7
7
7
9
9
9
12
12
12
15
15
15
18
18
18
20
20
20
22
22
21
25
25
23
29
29
28
112
107
103
144
139
133
148
143
137
151
146
140
157
152
146
136
128
116
151
135
114
178
154
130
186
160
135
183
151
128
170
138
115
171
139
116
173
147
124
171
148
123
156
134
113
146
123
107
153
130
114
156
133
118
139
116
100
135
112
96
145
122
106
162
139
123
207
184
163
200
176
152
167
145
122
167
144
120
179
155
131
169
144
122
168
143
121
161
136
115
154
128
113
146
119
105
137
109
95
122
94
83
110
78
70
105
70
64
112
77
75
115
82
80
114
83
81
106
76
78
99
73
74
96
75
74
94
74
73
93
73
70
89
70
65
87
67
69
88
69
70
88
69
70
84
63
62
84
61
60
80
55
55
81
53
50
92
65
61
109
81
77
115
91
81
119
95
84
121
97
85
120
100
86
118
99
85
117
98
84
114
95
81
110
91
77
106
87
73
103
84
70
102
83
70
105
86
75
106
89
76
106
90
77
106
90
77
105
88
80
100
83
75
96
79
71
91
74
66
85
68
60
82
65
57
80
66
57
79
65
56
81
67
58
82
68
59
81
66
57
82
65
57
84
67
60
88
72
64
94
80
71
97
82
75
90
76
70
68
59
57
50
44
44
40
36
36
33
33
33
32
32
32
31
31
31
33
33
33
32
32
32
34
34
34
35
35
35
36
36
36
37
37
36
38
38
36
42
41
40
92
88
83
156
151
145
157
152
146
157
152
146
160
155
149
96
85
75
136
115
93
182
157
133
187
161
137
182
153
129
174
142
119
180
148
126
178
147
126
161
134
111
163
138
115
151
127
107
169
144
127
144
119
103
132
109
93
136
113
97
148
125
109
167
144
128
200
176
159
183
157
140
164
142
124
172
148
127
169
144
122
163
137
120
162
137
120
155
130
113
148
122
107
139
112
99
129
101
89
113
84
75
101
72
65
108
74
71
129
91
86
135
98
94
134
99
95
115
86
81
108
80
76
106
78
75
103
78
74
100
76
71
97
75
69
97
71
71
96
70
70
95
69
69
90
65
62
88
61
59
83
54
53
77
49
46
76
48
47
92
66
65
104
79
73
108
85
77
111
90
78
111
92
80
111
92
79
110
91
77
107
88
74
105
84
71
102
80
67
101
78
66
100
77
65
104
81
69
102
86
73
103
87
75
102
86
76
99
82
74
95
78
70
90
73
65
84
67
59
81
64
56
78
61
53
74
60
51
73
59
50
74
60
51
75
61
52
75
61
52
78
63
54
82
65
57
84
69
60
87
73
64
91
76
69
89
75
68
71
62
57
54
48
48
44
40
40
36
36
36
32
32
32
30
31
30
29
30
30
26
28
27
26
27
26
26
26
26
26
26
26
27
27
27
29
29
28
31
31
29
56
53
49
175
169
158
170
165
158
164
159
153
162
157
151
58
44
34
137
114
93
179
153
130
184
158
135
180
152
128
181
149
126
181
149
126
161
129
108
161
133
110
156
130
107
164
140
118
153
127
109
127
101
86
126
103
87
134
111
95
148
125
109
163
140
124
184
160
144
167
141
126
161
138
122
173
149
130
159
134
112
160
134
119
157
131
116
150
124
109
143
117
102
134
107
94
122
94
83
107
78
70
98
69
62
126
91
87
155
115
109
167
128
122
168
131
124
130
100
93
123
94
88
121
92
88
120
92
88
115
89
84
113
87
82
110
82
80
110
82
80
109
81
78
104
75
73
100
71
68
92
62
60
81
53
50
74
47
46
87
61
62
103
78
73
109
86
78
111
91
80
114
94
83
115
95
83
113
94
80
111
92
78
109
87
74
106
82
70
105
81
69
104
80
68
106
83
71
104
87
74
104
88
77
104
87
79
102
85
77
97
80
72
94
77
69
90
73
65
85
68
60
81
64
56
76
61
52
72
58
49
69
55
47
69
55
46
68
54
45
69
55
46
74
58
50
80
64
56
82
68
59
86
71
64
84
71
63
69
61
54
53
47
46
43
39
39
34
34
34
30
30
30
26
26
26
24
26
25
21
23
22
21
22
22
21
21
21
20
20
20
22
22
22
24
24
24
27
27
25
33
32
28
181
178
167
189
184
177
177
172
166
171
166
160
95
81
71
150
127
105
187
161
137
187
161
138
191
163
139
194
162
139
173
141
118
165
133
112
164
135
113
163
137
114
175
150
128
136
111
93
131
106
91
129
106
90
138
115
99
146
123
107
171
148
132
172
147
132
167
142
127
166
143
127
175
151
132
159
134
113
159
133
118
153
127
112
148
122
107
140
114
99
132
105
92
120
92
81
102
73
65
104
74
65
155
117
111
185
141
135
195
153
147
189
149
142
147
113
106
136
104
99
134
105
101
130
102
98
127
99
95
124
95
91
119
92
87
118
90
85
115
87
82
114
84
82
107
77
75
94
65
63
84
56
53
74
47
46
77
51
52
95
70
65
104
81
73
106
86
75
111
91
80
111
92
79
110
91
77
106
87
73
106
84
71
104
80
68
105
81
69
105
81
69
106
82
70
103
86
74
104
88
77
103
86
78
102
85
77
98
81
73
95
78
70
91
74
66
87
70
62
83
65
58
77
63
54
73
59
50
70
56
47
67
53
44
67
53
44
66
52
43
72
55
47
75
59
51
79
65
56
83
68
60
80
66
59
59
51
44
40
34
33
30
26
26
20
20
20
17
17
17
14
14
14
11
13
12
10
13
12
12
13
13
13
13
13
15
15
15
14
14
14
16
16
15
16
16
15
20
20
17
132
130
121
172
167
161
171
166
160
168
163
157
89
74
63
144
119
97
183
154
131
190
161
138
192
163
137
180
148
124
166
134
112
162
130
109
162
133
111
176
150
127
156
131
110
135
110
92
125
101
85
126
103
87
137
114
98
147
124
108
169
148
132
163
140
124
161
139
123
170
149
132
167
144
126
160
136
116
156
130
115
148
122
107
142
116
101
135
108
95
127
100
88
114
86
76
99
70
64
118
83
75
181
140
132
202
156
150
205
161
153
194
151
142
160
122
116
148
113
107
145
114
108
142
111
105
140
109
103
136
105
100
133
102
97
131
100
94
128
97
91
133
99
96
117
85
82
101
71
67
88
58
56
75
49
48
69
46
46
86
63
58
99
77
70
104
84
75
108
88
77
110
90
78
110
91
78
108
87
74
107
85
72
105
81
69
104
80
68
104
81
69
105
83
71
102
85
74
103
86
77
102
85
77
99
82
74
95
78
70
90
73
65
87
70
62
83
66
59
79
62
55
73
59
50
68
54
46
64
50
42
62
48
39
60
46
37
60
46
37
67
50
42
72
56
48
74
60
51
77
62
54
73
59
51
50
42
35
31
25
25
22
18
18
13
13
13
10
10
10
9
10
9
8
9
9
9
10
10
9
10
10
10
10
10
12
12
12
14
14
14
14
14
14
16
16
16
21
21
19
78
78
74
161
156
150
164
158
152
166
161
155
66
51
38
145
119
97
192
161
137
201
169
145
193
162
134
183
151
126
173
141
118
172
140
119
179
151
129
181
155
132
155
130
108
139
115
97
128
105
89
136
113
97
143
120
104
160
137
121
169
150
133
162
143
126
164
145
128
177
158
141
169
148
132
163
140
124
156
130
115
148
122
107
142
116
101
134
107
96
126
99
89
112
85
76
100
72
68
135
97
89
198
155
146
210
163
155
210
165
156
197
153
144
172
131
125
161
124
116
158
124
115
159
125
116
156
121
114
152
117
111
148
113
106
144
109
103
147
112
105
153
119
112
129
95
88
109
78
71
94
63
61
78
53
51
68
47
46
83
62
57
95
75
69
103
83
76
107
87
76
110
90
79
110
90
79
110
86
74
109
85
73
108
84
72
107
83
71
105
83
71
104
84
73
104
87
78
104
87
79
103
86
78
101
84
76
98
81
73
95
78
70
91
74
66
89
72
65
85
68
61
78
64
55
74
60
51
69
54
47
65
51
42
66
52
43
66
52
43
72
55
47
75
59
51
79
65
56
81
67
58
75
62
53
51
43
36
35
29
28
26
22
22
15
15
15
12
12
12
11
11
11
11
11
11
12
12
12
12
12
12
12
12
12
14
14
14
15
15
15
17
17
17
19
19
19
23
23
23
37
37
37
157
149
145
165
158
152
166
161
155
75
60
48
141
115
92
190
160
135
195
163
139
189
158
130
183
152
127
174
142
119
177
145
124
185
157
135
171
145
123
153
128
106
137
113
95
132
109
93
138
115
99
145
122
106
170
147
131
162
143
126
161
142
125
172
153
136
178
159
142
170
148
132
159
136
120
152
126
111
146
120
105
137
111
96
129
102
91
120
93
83
108
81
73
101
73
69
143
103
95
198
151
143
207
160
152
207
162
154
197
153
144
176
135
129
166
128
121
164
130
121
165
131
122
163
129
121
160
125
119
158
124
114
155
121
112
161
128
118
170
137
127
137
102
94
117
83
76
97
66
64
78
54
52
68
47
46
80
59
54
91
71
65
99
79
72
104
84
74
106
86
75
107
87
76
108
84
72
106
82
70
105
81
69
104
80
68
101
79
67
100
80
69
100
83
75
99
82
74
98
81
73
94
77
69
90
73
65
87
70
62
84
67
59
82
65
57
78
61
54
71
57
48
66
51
43
61
46
39
60
46
37
60
46
37
60
46
37
65
48
40
70
54
46
72
58
49
74
60
51
71
58
49
43
35
28
26
20
20
18
14
14
11
11
11
8
8
8
7
7
7
7
7
7
8
8
8
7
7
7
7
7
7
8
8
8
9
9
9
12
12
12
15
15
15
19
19
19
22
22
22
137
129
124
165
157
152
164
159
153
98
82
69
159
133
110
194
164
139
197
165
141
191
161
133
186
156
131
182
152
128
190
158
137
186
157
135
170
143
120
156
131
109
140
116
97
138
115
98
143
120
104
157
134
118
174
151
135
165
145
129
172
153
136
181
162
145
182
163
146
174
153
137
161
138
122
154
129
113
147
121
107
138
112
98
129
102
91
120
93
83
111
85
76
110
81
77
153
110
103
199
150
143
208
161
153
209
163
154
201
156
147
187
145
139
178
140
132
176
141
132
179
144
135
177
141
134
174
139
132
173
138
127
171
137
126
186
152
141
185
150
140
151
114
106
129
92
86
103
71
69
83
58
56
71
50
49
80
59
55
90
70
64
99
79
72
106
86
75
108
88
77
110
90
79
111
88
76
110
86
75
110
87
75
110
87
75
109
88
76
108
89
78
105
88
80
105
88
80
103
86
78
101
84
76
98
81
73
94
77
69
91
74
66
87
70
62
85
68
61
79
64
56
74
59
51
70
55
48
67
53
45
68
54
45
70
56
47
75
58
51
78
62
54
79
65
56
78
64
56
69
57
49
49
41
35
35
29
29
24
20
20
15
15
15
12
12
12
14
14
14
13
13
13
12
12
12
12
12
12
14
14
14
15
15
15
15
15
15
17
17
17
18
18
18
22
22
22
24
24
24
109
103
99
165
157
152
165
159
152
107
90
76
166
139
116
192
163
135
199
169
141
188
162
137
186
159
134
189
162
137
190
158
135
183
151
128
168
137
113
155
129
106
140
117
95
138
116
95
150
127
111
165
143
127
170
148
131
172
153
136
179
160
143
181
163
145
183
168
149
172
154
136
159
139
122
153
130
114
144
118
105
135
108
97
127
100
91
119
92
83
112
86
76
111
81
75
161
111
106
196
141
136
203
152
146
204
154
147
199
150
143
189
145
136
183
141
132
184
144
134
185
148
136
185
147
136
184
146
135
185
147
136
182
145
132
200
165
153
187
145
136
161
117
110
135
93
87
107
73
68
83
57
55
72
51
50
79
58
57
87
67
63
92
72
65
99
79
72
101
81
72
102
82
71
101
81
70
101
81
70
102
82
71
103
83
72
101
83
72
100
84
71
99
82
73
98
81
73
95
78
70
93
76
68
91
74
66
88
71
63
84
67
59
81
64
56
78
61
53
73
58
51
67
52
45
63
48
41
62
47
39
63
49
40
65
51
42
68
53
46
69
56
48
67
57
48
63
54
48
46
38
35
34
28
28
22
16
17
14
10
12
9
9
9
8
8
8
6
6
6
4
4
4
5
5
5
5
5
5
7
7
7
6
6
6
7
7
7
8
8
8
9
9
9
11
11
11
18
18
18
64
61
59
159
152
145
166
157
148
118
100
86
158
132
109
190
161
134
197
166
138
189
163
138
191
165
140
191
165
140
191
159
136
178
146
123
167
135
112
153
127
104
142
118
96
149
127
106
157
134
118
172
149
133
172
149
133
177
158
141
182
163
146
184
166
149
186
171
152
175
158
140
164
144
127
157
134
118
146
121
107
136
109
98
129
102
93
121
94
85
115
88
79
117
87
81
164
114
109
193
138
133
203
149
143
203
151
144
200
150
143
192
148
139
190
149
139
195
155
145
197
159
148
199
161
150
199
161
150
199
161
150
198
163
149
218
185
173
196
155
145
171
126
119
143
99
93
112
79
73
87
62
60
77
56
55
83
62
61
90
69
66
97
77
70
105
85
78
108
88
79
109
89
78
109
89
78
110
90
79
110
90
79
111
91
80
110
92
80
108
92
79
105
88
80
104
87
79
102
85
77
100
83
75
97
80
72
95
78
70
92
75
67
88
71
63
83
66
58
76
61
54
72
57
50
68
53
46
66
52
43
66
52
43
68
54
45
72
57
50
74
61
53
72
62
53
64
54
49
40
31
28
25
19
19
19
13
15
16
12
13
11
11
11
11
11
11
10
10
10
9
9
9
10
10
10
10
10
10
11
11
11
12
12
12
13
13
13
15
15
15
15
15
15
18
18
18
23
23
23
28
28
25
152
146
140
171
162
153
113
96
82
154
128
105
190
160
133
195
165
137
197
171
146
198
172
147
194
168
143
193
162
138
178
146
123
170
139
115
154
128
105
153
129
107
158
136
115
162
139
123
175
152
136
176
154
137
181
162
145
186
167
150
190
172
154
193
178
159
183
166
148
170
151
134
161
138
122
148
123
110
137
110
99
129
102
93
123
96
87
118
91
82
121
90
85
165
116
110
188
133
128
198
142
137
199
146
140
198
147
140
194
150
141
194
151
142
198
158
148
201
163
152
204
167
156
207
169
158
206
168
157
208
174
160
232
202
189
201
160
150
174
127
121
147
100
96
113
79
74
88
62
60
80
59
58
83
62
61
88
67
64
94
74
67
102
82
75
105
85
76
105
85
74
107
87
76
109
89
78
108
89
78
109
89
78
107
89
77
103
87
74
101
84
76
99
82
74
96
79
71
94
77
69
92
75
67
89
72
64
87
70
62
83
66
58
79
62
54
73
58
51
70
55
48
66
51
44
67
53
44
65
51
42
68
54
45
71
56
49
72
58
51
68
58
49
57
47
42
34
26
22
19
13
13
16
10
11
11
7
8
8
8
8
7
7
7
5
5
5
6
6
6
6
6
6
5
5
5
6
6
6
7
7
7
7
7
7
7
7
7
8
8
8
13
13
13
18
18
18
21
23
19
127
122
115
171
162
153
85
70
58
141
117
95
184
157
132
197
171
145
202
176
151
199
173
148
195
169
143
186
155
128
175
143
118
170
139
116
156
132
108
155
131
108
154
130
108
164
140
119
174
149
131
176
155
139
182
163
146
186
168
151
194
175
158
197
179
161
187
168
151
175
156
139
164
141
125
150
124
111
139
112
101
130
103
93
124
97
87
120
94
85
125
93
86
168
115
110
186
128
124
197
138
129
200
143
133
200
145
135
197
148
141
198
151
143
204
162
152
208
171
160
214
178
166
216
181
169
213
178
167
223
192
180
244
216
205
208
167
158
179
131
124
154
104
98
121
82
79
88
64
62
83
62
61
86
65
64
89
70
66
95
77
70
102
85
77
106
89
81
109
91
83
110
95
83
112
97
84
111
96
83
111
96
86
110
94
85
108
91
82
103
86
78
98
81
74
95
78
70
92
75
67
90
73
65
89
72
64
86
69
61
82
65
58
78
62
54
75
60
52
70
56
48
68
53
46
66
52
43
66
52
43
70
56
47
70
56
48
70
56
47
60
50
41
45
37
34
24
21
21
12
11
11
9
8
9
8
7
7
8
8
8
6
6
6
8
8
8
7
7
7
6
6
6
6
6
6
7
7
7
8
8
8
8
8
8
9
9
9
11
11
11
15
15
15
19
19
19
23
23
21
92
89
84
170
165
158
75
60
48
142
118
97
191
165
140
209
183
158
211
185
160
205
179
154
199
173
148
188
157
129
186
154
129
178
147
124
165
141
117
162
137
114
161
136
114
172
147
125
174
149
131
179
158
141
184
165
148
190
171
154
200
181
164
201
182
165
194
175
158
184
165
148
172
149
133
156
131
118
143
116
105
134
107
96
128
101
91
124
97
88
128
97
89
169
115
111
185
127
122
194
136
125
198
140
129
199
142
131
197
146
139
197
149
142
205
163
153
211
173
162
218
182
170
221
187
175
221
187
175
229
199
187
245
218
207
209
167
158
181
132
125
155
106
99
123
83
80
90
66
64
85
64
63
88
67
66
91
72
68
96
79
72
104
87
79
107
90
82
111
94
86
112
98
85
113
99
86
111
97
84
110
96
87
111
95
87
108
91
83
104
87
79
98
81
73
95
78
70
91
74
66
88
71
63
88
71
63
85
69
61
83
66
59
79
62
54
76
62
53
74
60
52
72
57
50
71
57
48
71
57
48
73
59
50
72
58
49
69
56
48
53
44
36
31
25
22
14
14
14
10
10
10
8
8
8
6
6
6
7
7
7
5
5
5
6
6
6
6
6
6
5
5
5
5
5
5
6
6
6
7
7
7
7
7
7
8
8
8
10
10
10
14
14
14
17
17
17
23
23
21
37
34
31
162
157
152
76
61
48
137
114
93
189
163
138
208
182
157
209
183
158
204
178
153
195
169
144
186
155
126
186
154
129
168
137
114
158
134
110
154
130
107
157
132
110
168
143
121
167
142
123
176
155
138
180
161
144
183
164
147
195
176
159
196
177
160
195
176
159
185
166
149
173
150
134
157
131
118
144
117
106
135
108
97
129
102
92
124
98
88
129
97
89
167
113
109
181
123
119
190
132
121
194
137
126
196
140
129
193
143
136
194
146
139
205
163
153
213
175
164
223
187
176
225
191
179
225
191
179
230
200
188
240
213
202
205
160
151
181
131
124
156
107
100
123
83
80
90
67
64
85
64
63
88
67
66
91
72
69
98
81
74
105
88
80
109
92
84
113
96
88
112
98
86
113
99
86
113
99
86
111
97
87
110
94
86
106
89
81
101
84
76
97
80
72
92
75
67
87
70
62
83
66
58
82
65
57
82
65
57
79
62
54
75
58
50
71
57
48
71
57
48
70
55
48
71
57
48
70
56
47
70
56
47
70
56
47
63
50
43
38
31
25
14
12
7
5
6
6
4
4
4
4
4
4
3
3
3
3
3
3
3
3
3
3
3
3
4
4
4
3
3
3
3
3
3
4
4
4
4
4
4
5
5
5
6
6
6
8
8
8
12
12
12
16
16
16
21
21
19
21
20
17
139
135
129
88
73
61
139
115
96
196
169
145
211
185
160
210
184
159
208
182
157
196
170
145
192
164
138
186
157
132
175
147
123
166
141
117
161
136
113
165
140
118
165
139
117
169
144
126
176
154
138
171
152
135
178
158
141
195
174
157
199
180
163
200
181
164
193
174
157
180
160
143
164
141
127
151
125
114
140
113
102
133
106
95
130
103
93
134
101
94
169
115
110
180
122
118
188
130
119
193
135
126
195
137
130
194
139
134
195
145
138
208
164
155
217
178
168
231
198
185
229
197
184
227
192
180
231
201
188
237
207
195
206
155
148
183
129
123
159
108
102
123
85
81
92
68
65
88
67
63
91
70
66
95
76
70
101
84
77
109
92
84
112
96
88
115
100
91
117
103
92
117
103
92
116
102
91
115
101
92
113
98
89
111
94
86
106
89
81
100
83
75
96
79
71
92
75
67
90
73
65
86
69
61
85
68
60
83
67
59
81
65
57
75
61
52
73
59
50
74
60
52
75
61
52
75
61
53
76
61
53
75
60
52
63
51
45
31
27
24
11
10
8
9
9
9
8
8
8
6
6
6
7
7
7
6
6
6
7
7
7
7
7
7
7
7
7
7
7
7
7
7
7
7
7
7
8
8
8
7
7
7
8
8
8
9
9
9
12
12
12
16
16
16
19
20
18
23
23
21
107
106
103
75
60
48
137
113
94
187
161
138
203
177
152
209
183
158
206
180
155
195
169
144
194
168
143
182
156
131
175
149
124
164
138
115
160
135
112
163
138
116
150
123
102
154
129
111
158
136
119
156
136
119
168
146
130
188
165
149
196
177
160
200
181
164
195
176
159
183
164
147
167
145
131
152
128
116
144
117
106
135
107
96
130
102
91
134
100
93
166
114
108
176
118
114
182
124
113
187
128
121
188
129
125
189
131
127
192
140
134
205
159
151
216
176
166
229
198
184
227
194
182
226
189
178
228
194
182
227
190
179
200
145
140
178
122
117
157
105
99
118
83
78
91
68
63
87
66
61
91
70
65
96
77
71
101
84
77
108
91
83
111
95
87
113
99
90
114
100
91
114
100
91
113
99
90
110
96
87
107
92
83
103
86
78
99
82
74
92
75
67
88
71
63
82
65
57
81
64
56
79
62
54
78
61
53
77
61
53
75
61
52
73
59
50
69
55
46
72
58
49
74
60
51
75
60
52
75
60
53
72
57
50
56
44
38
25
21
20
7
7
7
5
5
5
3
3
3
2
2
2
2
2
2
2
2
2
2
2
2
2
2
2
2
2
2
2
2
2
2
2
2
2
2
2
2
2
2
3
3
3
3
3
3
4
4
4
5
5
5
9
9
9
13
15
14
21
22
21
47
47
47
98
83
71
143
119
100
181
155
131
203
177
152
211
185
160
207
181
156
201
175
150
201
175
150
191
165
140
180
154
129
170
144
121
164
139
116
160
135
113
144
117
96
151
126
108
152
129
113
151
128
112
161
138
122
185
162
146
196
177
160
203
184
167
199
180
163
189
170
153
176
154
140
160
136
124
150
123
112
138
111
100
133
105
94
138
103
96
167
114
109
177
119
114
182
124
113
185
126
119
186
127
123
187
128
124
192
140
134
205
158
150
218
178
168
233
200
187
228
192
181
226
187
176
229
188
178
223
176
168
197
142
137
176
120
116
158
105
99
117
81
76
94
70
65
91
70
65
95
74
69
101
82
76
108
91
84
114
97
89
116
101
92
119
105
96
120
106
97
120
106
97
117
103
94
115
101
92
113
97
89
109
92
84
103
86
78
96
79
71
89
72
64
85
68
60
84
67
59
82
65
57
82
65
57
81
65
57
80
66
57
79
65
56
75
61
52
76
62
53
77
63
54
81
67
58
81
66
59
76
61
54
55
42
36
25
21
20
10
10
10
8
8
8
6
6
6
6
6
6
6
6
6
6
6
6
5
5
5
5
5
5
6
6
6
6
6
6
6
6
6
6
6
6
6
6
6
8
8
8
9
9
9
10
10
10
11
11
11
13
13
13
17
19
18
22
23
23
25
25
25
101
86
75
129
106
88
171
145
122
198
172
147
209
183
158
206
180
155
206
181
156
205
180
155
194
168
143
180
155
130
170
144
121
162
137
114
156
130
109
147
119
98
151
125
106
146
121
104
138
112
96
157
132
116
180
157
141
194
174
157
202
183
166
201
182
165
193
174
157
179
158
143
163
140
127
152
125
113
141
114
102
133
105
94
137
103
94
164
112
106
173
115
111
178
119
111
179
121
114
180
121
117
178
120
116
187
134
129
201
153
145
214
173
163
226
190
179
221
182
171
221
179
170
221
175
167
212
159
153
190
133
129
172
116
111
153
102
95
112
78
74
93
69
64
92
70
66
96
75
70
102
83
77
107
90
83
113
96
88
115
99
91
115
101
92
115
101
92
116
102
93
113
99
90
109
95
86
105
90
82
101
84
76
97
80
72
91
74
66
84
67
59
79
62
54
77
60
52
76
59
51
76
59
51
77
61
53
76
62
53
76
62
53
73
59
50
73
59
50
76
62
54
80
65
57
80
65
58
75
60
53
49
38
33
24
19
19
10
10
10
5
5
5
4
4
4
3
3
3
3
3
3
3
3
3
3
3
3
3
3
3
3
3
3
2
2
2
3
3
3
3
3
3
3
3
3
2
2
2
2
2
2
4
4
4
6
6
6
7
8
7
9
10
9
14
15
15
19
19
19
80
66
56
111
90
73
161
135
113
194
168
145
206
180
155
207
182
158
209
185
161
207
183
159
193
169
145
179
155
131
167
141
118
159
135
111
154
126
104
151
118
99
150
120
100
137
110
89
130
103
82
156
130
113
177
151
136
192
169
153
202
182
165
203
184
167
198
179
162
186
165
148
171
148
132
158
132
117
146
118
106
138
108
98
142
105
94
163
113
105
171
115
110
177
118
114
179
120
115
179
120
116
178
119
115
188
133
127
200
149
143
216
171
162
226
184
175
220
177
168
219
174
166
220
170
163
208
152
147
190
131
127
171
115
108
148
101
93
110
79
76
96
70
66
99
74
70
102
80
76
108
89
83
116
99
91
121
104
96
121
106
97
122
108
99
122
108
99
120
106
97
115
101
92
111
97
88
106
91
82
102
85
77
96
79
71
91
74
66
86
69
61
80
63
55
77
60
52
78
61
53
77
63
54
78
64
55
79
65
56
79
65
56
79
65
56
76
62
53
76
61
54
80
65
58
83
68
61
75
62
54
47
39
36
28
23
22
18
18
18
7
7
7
6
6
6
5
5
5
5
5
5
5
5
5
5
5
5
5
5
5
5
5
5
6
6
6
5
5
5
6
6
6
6
6
6
6
6
6
6
6
6
9
9
9
11
12
12
12
14
13
13
15
14
16
18
17
21
23
22
71
57
47
105
84
67
159
133
111
192
166
143
205
179
154
211
186
161
213
189
165
206
182
158
195
171
147
177
153
129
167
141
118
160
136
112
153
125
103
151
118
99
142
111
91
131
102
81
128
101
80
156
129
112
172
146
131
187
164
148
200
179
163
203
184
167
202
183
166
194
172
156
179
156
140
165
139
124
151
123
111
140
110
100
142
106
94
163
113
104
169
114
109
174
115
111
175
116
112
175
116
112
174
115
111
183
126
122
196
142
137
208
160
153
217
172
164
215
169
160
213
166
158
212
159
153
200
142
138
183
124
120
165
110
103
143
96
89
109
77
74
97
71
67
101
76
72
102
81
76
108
89
83
113
96
88
119
102
94
120
104
96
119
105
96
118
104
95
117
103
94
112
98
89
106
92
83
101
86
77
97
80
72
91
74
66
86
69
61
80
63
55
77
60
52
75
58
50
74
58
50
74
60
51
76
62
53
78
64
55
79
65
56
81
67
58
79
65
56
78
63
56
79
64
57
81
66
59
72
59
52
45
36
34
30
24
24
23
22
22
9
9
9
6
6
6
5
5
5
4
4
4
4
4
4
4
4
4
4
4
4
3
3
3
4
4
4
3
3
3
3
3
3
4
4
4
4
4
4
4
4
4
5
5
5
5
6
5
6
8
7
8
10
9
11
13
12
15
17
16
57
43
33
93
72
56
151
126
104
183
157
134
198
172
147
210
185
161
207
183
159
200
176
152
187
163
139
172
148
124
163
137
114
157
133
109
144
116
94
140
107
88
130
98
78
126
94
74
132
105
84
152
126
108
166
140
125
182
159
143
193
172
156
202
183
166
203
184
167
198
176
160
183
160
144
170
144
129
157
129
116
145
115
105
149
112
101
162
112
104
168
112
107
172
113
109
174
115
111
174
115
111
174
115
111
181
122
118
195
137
133
202
152
145
211
163
156
214
164
157
212
161
155
209
153
148
198
137
134
180
121
117
164
109
102
141
94
87
109
78
75
103
78
73
106
82
78
110
88
84
114
95
89
118
101
93
123
106
98
123
107
99
122
108
99
120
106
97
117
103
94
111
97
88
103
89
80
98
83
75
94
77
69
89
72
64
84
67
59
77
60
52
73
56
48
73
56
48
73
56
48
73
58
50
76
62
53
78
64
55
79
65
56
81
67
58
80
66
57
78
63
56
78
63
56
76
61
54
67
54
47
43
35
32
31
25
25
24
23
23
16
16
16
6
6
6
4
4
4
4
4
4
4
4
4
4
4
4
4
4
4
4
4
4
3
3
3
3
3
3
4
4
4
4
4
4
5
5
5
5
5
5
6
6
6
8
8
8
9
11
10
11
13
12
13
15
14
17
19
18
52
42
32
95
78
64
153
129
109
182
156
130
202
176
151
212
187
162
207
183
159
204
180
156
192
168
144
180
156
132
165
141
117
164
140
116
150
122
100
141
109
88
132
103
81
130
104
81
143
116
95
151
124
107
161
133
119
175
149
135
191
166
150
203
182
165
206
187
170
203
184
167
191
172
155
178
156
140
166
140
125
155
126
113
157
118
107
165
117
109
169
113
108
171
113
109
173
114
110
172
113
109
171
113
109
179
121
117
189
131
127
199
142
138
208
152
147
210
157
151
208
152
147
205
145
141
194
130
128
175
116
112
160
103
99
136
92
88
107
79
75
104
79
74
109
83
79
111
91
84
116
97
90
120
103
95
122
105
97
124
108
100
122
108
99
120
106
97
116
102
93
110
96
87
104
90
81
97
82
74
93
76
68
88
71
63
83
65
57
79
59
52
74
57
49
73
56
48
74
57
49
77
60
52
79
62
54
83
66
58
83
69
60
83
69
60
83
69
60
80
66
57
79
64
56
75
60
53
56
49
43
37
35
34
32
32
32
27
27
27
22
22
22
15
15
15
7
9
8
6
8
7
5
7
6
4
6
5
4
5
5
5
5
5
5
5
5
5
5
5
5
5
5
5
5
5
5
5
5
5
5
5
7
7
7
7
7
7
9
9
9
11
13
12
12
14
13
15
17
16
55
45
35
94
77
63
141
117
98
173
147
122
196
170
145
203
178
154
203
179
155
202
178
154
188
164
140
174
150
126
163
139
115
160
136
112
142
114
92
133
101
80
130
102
80
135
109
86
138
111
90
139
112
95
150
122
108
160
134
119
181
155
140
199
179
162
204
185
168
203
184
167
194
175
158
182
161
144
172
147
131
162
133
119
162
122
112
164
117
109
167
111
107
169
111
107
169
111
107
169
110
106
168
110
106
175
117
113
183
125
121
192
134
130
199
142
138
203
147
142
203
144
140
198
136
133
186
122
120
168
109
105
157
100
96
131
90
85
110
82
77
106
82
77
111
86
81
114
93
86
118
99
92
121
104
96
123
106
98
123
108
99
121
107
98
118
104
95
113
99
90
106
92
83
95
82
73
89
74
65
85
68
60
80
63
55
77
58
51
72
52
45
68
51
43
70
53
45
71
54
46
75
58
50
77
60
52
80
63
56
82
68
59
81
67
58
82
68
59
78
64
55
73
59
51
66
51
44
42
35
30
18
17
15
20
20
20
20
20
20
17
17
17
12
12
12
6
8
7
3
5
4
2
4
3
1
3
2
2
3
2
2
2
2
2
2
2
2
2
2
2
2
2
2
2
2
3
3
3
3
3
3
5
5
5
6
6
6
7
7
7
8
10
9
11
13
12
15
17
16
57
47
37
94
77
64
145
121
102
184
158
132
198
172
147
203
179
154
210
186
162
211
187
163
194
170
146
176
152
128
174
150
126
164
141
117
149
121
99
142
110
89
145
116
94
147
121
98
141
114
93
140
113
96
149
122
108
158
132
117
179
154
139
201
180
163
206
187
170
206
187
170
200
181
164
194
173
156
185
160
145
176
146
133
173
133
123
169
122
114
170
115
110
170
112
108
170
111
107
169
110
106
167
109
105
175
117
113
181
123
119
187
129
125
196
138
134
200
141
137
200
139
136
195
132
129
182
117
115
166
107
103
153
98
93
130
92
86
113
85
80
112
88
83
116
91
86
119
98
92
122
103
96
125
108
100
129
112
104
128
113
105
127
113
104
121
107
98
116
102
93
105
91
83
97
83
74
89
73
65
86
69
61
82
65
57
80
62
55
78
58
51
73
56
48
73
56
48
76
59
51
81
64
56
85
68
60
88
71
63
89
74
66
86
72
63
84
70
61
80
66
57
76
61
53
66
51
44
39
32
27
17
16
14
16
16
16
22
22
22
23
23
23
18
18
18
16
18
17
10
12
11
9
11
10
6
8
7
6
7
7
6
6
6
6
6
6
6
6
6
6
6
6
7
7
7
6
6
6
7
7
7
9
9
9
9
9
9
9
9
9
10
12
11
12
14
13
15
17
16
60
50
41
99
83
69
151
124
104
181
151
129
185
159
136
194
169
145
202
178
154
200
176
152
181
157
133
179
155
131
178
153
131
161
136
114
149
123
101
147
118
97
151
124
102
146
119
98
136
109
92
138
111
96
144
117
102
147
121
106
172
147
132
194
172
156
203
184
167
205
186
169
202
183
166
195
176
159
187
166
149
181
154
139
175
140
123
167
124
110
165
114
103
165
110
105
165
108
103
164
106
102
164
106
102
170
112
108
175
117
113
181
122
118
190
129
126
196
132
129
196
131
129
190
125
123
176
111
109
160
101
97
146
95
90
129
90
83
114
87
78
113
88
79
115
90
82
118
98
88
119
101
90
123
106
95
124
107
96
122
107
95
118
104
92
115
101
92
108
94
85
94
80
71
87
71
63
81
64
56
78
61
53
76
57
49
72
52
45
71
51
44
67
48
41
68
50
42
69
52
44
75
58
50
80
63
55
83
66
58
84
68
60
85
70
62
83
68
61
79
64
57
71
56
50
57
44
39
30
23
22
12
9
10
8
8
8
6
6
6
15
15
15
13
13
13
11
11
11
8
9
9
7
7
7
5
6
5
3
4
3
2
2
2
2
2
2
2
2
2
1
1
1
1
1
1
2
2
2
1
1
1
3
3
3
4
4
4
5
5
5
5
7
6
7
9
8
10
12
11
59
49
40
93
76
63
148
120
100
178
146
125
182
156
133
193
168
144
195
171
147
189
165
141
185
162
138
185
161
137
180
155
133
164
139
117
160
134
113
164
137
116
163
136
115
153
126
105
144
116
102
147
120
105
150
124
109
154
128
113
172
148
132
193
170
154
203
184
167
206
187
170
203
184
167
199
180
163
196
175
158
191
164
149
182
151
131
173
132
115
167
118
105
166
111
106
166
110
105
165
107
103
167
109
105
171
113
109
174
116
112
181
122
118
190
128
125
196
131
129
196
131
129
188
123
121
175
110
108
159
101
97
143
94
89
130
91
84
121
94
83
122
96
86
124
100
90
125
104
93
128
110
98
129
113
100
130
114
101
128
113
100
123
109
96
119
105
96
111
97
88
97
83
74
88
71
63
81
64
56
78
61
53
78
59
52
77
57
50
77
57
50
76
56
49
76
57
50
76
59
51
79
62
54
82
65
58
86
69
61
88
71
63
89
73
65
85
70
63
81
66
59
72
57
51
53
42
38
27
21
22
14
10
12
10
10
10
7
7
7
11
11
11
16
16
16
15
15
15
16
16
16
12
12
12
10
10
10
10
10
10
8
8
8
7
7
7
8
8
8
8
8
8
8
8
8
7
7
7
8
8
8
9
9
9
11
11
11
12
12
12
12
13
12
12
14
13
15
17
16
41
32
23
73
57
44
137
108
88
176
144
123
179
153
130
185
160
136
187
163
139
187
163
139
188
164
140
182
158
134
180
155
133
170
145
123
174
149
127
179
152
131
170
143
122
159
132
111
151
123
109
150
123
109
150
124
109
152
126
111
167
142
127
185
162
146
195
176
159
200
181
164
200
181
164
198
179
162
196
176
159
195
168
153
184
155
135
175
135
118
168
119
105
164
109
104
161
105
100
161
103
99
162
104
100
164
107
103
166
108
104
171
112
108
180
118
115
186
121
119
186
121
119
180
115
113
169
104
102
153
96
91
138
91
85
127
91
83
121
94
83
121
95
85
122
98
88
121
101
90
123
105
93
124
108
95
124
108
95
121
106
93
116
102
89
110
96
88
101
87
78
86
72
63
76
60
52
73
56
48
69
52
44
68
49
42
69
49
42
69
49
42
72
52
45
72
54
46
72
55
47
76
59
51
80
63
55
84
67
59
86
69
61
86
70
62
83
68
61
78
63
56
67
52
47
47
36
32
24
17
18
12
8
9
7
7
7
5
5
5
5
5
5
5
5
5
8
8
8
9
9
9
9
9
9
7
7
7
7
7
7
6
6
6
4
4
4
4
4
4
4
4
4
4
4
4
4
4
4
4
4
4
3
3
3
5
5
5
6
6
6
5
7
6
7
9
8
8
10
9
64
52
45
86
67
52
150
120
100
175
143
122
173
145
122
176
148
125
179
152
128
184
159
136
183
158
134
183
158
135
173
150
127
173
149
126
187
164
141
189
164
142
177
152
132
166
140
122
161
135
120
155
129
114
149
123
108
152
126
111
163
139
123
176
153
137
186
167
151
195
176
161
199
180
164
198
179
162
197
176
160
195
170
155
187
161
140
179
141
124
170
122
108
165
112
106
161
107
101
161
104
100
162
104
100
166
108
104
169
111
107
172
113
109
179
117
114
185
120
118
186
121
119
179
114
112
168
104
102
152
97
92
138
94
86
128
96
86
125
99
88
126
102
91
129
106
96
128
109
98
130
112
101
130
114
103
128
112
101
125
110
99
121
105
95
115
101
92
105
91
82
91
77
68
81
64
56
76
59
51
72
55
47
72
53
46
72
52
45
73
53
46
77
57
50
78
59
52
78
61
53
81
64
56
83
67
59
87
70
62
88
71
63
86
70
63
83
68
63
75
61
56
63
50
45
42
32
29
21
16
17
11
9
9
8
8
8
5
6
5
5
5
5
6
6
6
7
7
7
10
10
10
11
11
11
11
11
11
12
12
12
11
11
11
8
8
8
7
7
7
7
7
7
6
6
6
6
6
6
6
6
6
7
7
7
8
8
8
9
10
9
10
12
11
11
13
12
12
14
13
75
61
57
99
78
61
160
131
110
173
141
120
175
143
121
177
145
122
180
148
125
185
159
136
187
161
138
185
159
136
172
148
124
180
158
134
194
172
149
189
166
144
183
161
142
173
150
134
169
146
130
155
130
115
150
124
109
155
129
114
161
137
122
170
147
131
176
157
143
190
171
157
194
175
160
197
178
161
197
176
160
195
172
156
189
164
142
180
146
127
169
125
110
162
112
105
158
106
100
159
103
99
161
103
99
163
104
100
167
108
104
168
109
105
175
113
110
181
116
114
182
117
115
175
110
108
162
103
99
147
97
90
135
95
86
125
96
86
125
100
89
124
102
91
124
104
93
125
105
94
126
108
98
125
108
100
122
108
99
121
105
97
116
99
91
109
95
86
98
84
75
85
71
62
76
59
51
72
55
47
69
52
45
70
50
43
71
51
44
73
53
46
77
57
50
78
60
52
79
62
54
82
65
57
83
66
58
85
68
60
85
68
60
84
68
62
82
67
64
72
60
56
59
49
44
37
27
26
17
16
16
10
10
10
6
6
6
5
6
6
5
6
5
5
5
5
6
6
6
8
8
8
8
8
8
10
10
10
10
10
10
9
9
9
8
8
8
8
8
8
6
6
6
5
5
5
4
4
4
4
4
4
4
4
4
4
5
5
5
7
6
6
8
7
7
9
8
10
12
11
55
41
36
112
91
74
153
124
103
165
133
112
168
136
113
170
138
115
174
143
120
173
147
124
182
156
133
169
143
120
155
128
105
172
148
125
185
163
140
178
156
133
166
144
125
165
142
126
158
135
119
147
122
106
149
123
108
153
127
112
153
129
113
159
136
120
165
146
132
175
156
142
184
165
151
191
172
155
194
173
157
194
171
155
191
165
143
181
148
129
168
128
111
161
111
104
158
105
99
157
102
97
159
101
97
162
103
99
164
105
101
168
109
105
175
113
110
180
115
113
180
115
113
172
108
106
158
101
97
144
97
89
134
98
89
127
101
90
128
104
92
127
105
94
128
108
97
130
110
99
129
111
101
127
110
102
123
109
100
119
103
95
115
98
90
106
92
83
95
81
72
85
71
62
77
60
52
72
55
47
69
52
44
70
50
43
70
50
43
72
52
45
77
57
50
80
61
54
81
64
56
83
66
58
86
69
61
84
67
59
84
67
59
80
64
58
76
61
58
68
57
53
55
45
40
35
26
25
14
12
12
9
9
9
7
7
7
4
6
5
4
5
5
4
4
4
3
3
3
4
4
4
4
4
4
5
5
5
8
8
8
8
8
8
9
9
9
8
8
8
8
8
8
8
8
8
8
8
8
7
7
7
7
7
7
8
9
8
8
10
9
8
10
9
10
12
11
14
16
15
68
54
49
127
105
89
158
129
108
167
135
114
172
140
117
175
143
120
178
147
124
175
148
126
178
151
129
157
130
107
152
123
101
173
147
125
180
158
135
171
149
126
165
142
123
163
140
124
157
133
118
150
125
110
151
126
110
150
125
110
150
126
110
153
130
115
154
135
122
163
144
131
174
155
141
185
166
149
193
172
155
194
170
154
191
166
145
182
151
132
167
130
113
162
112
105
158
106
100
157
102
97
159
101
97
161
103
99
164
105
101
169
110
106
174
112
109
179
114
112
175
111
109
167
106
103
154
100
95
141
97
88
134
100
90
127
103
91
128
105
93
128
106
94
129
109
98
130
110
100
128
110
100
126
109
101
121
107
98
116
101
92
112
95
87
103
88
80
93
78
70
82
68
59
76
59
51
73
56
48
71
54
46
72
53
46
74
54
47
76
56
49
80
60
53
83
65
57
85
68
60
87
70
62
90
73
65
88
71
63
85
68
60
80
64
58
76
61
58
67
56
52
54
44
40
37
27
26
15
13
14
10
10
10
9
9
9
6
7
7
6
7
6
6
6
6
5
5
5
5
5
5
6
6
6
6
6
6
8
8
8
10
10
10
12
12
12
12
12
12
11
11
11
10
10
10
10
10
10
9
9
9
9
9
9
8
8
8
8
10
9
9
11
10
10
12
11
15
17
16
79
69
61
118
94
79
153
121
99
164
132
110
170
138
115
169
137
114
168
136
113
164
132
111
154
122
101
134
102
81
139
108
87
159
131
109
161
136
114
160
135
113
161
135
117
157
131
116
153
127
112
142
118
100
131
109
89
124
105
89
122
102
88
124
104
91
130
110
99
143
124
111
156
137
123
175
156
140
186
165
149
189
166
150
186
163
147
178
149
135
162
127
115
156
113
104
152
103
96
150
100
93
154
96
92
156
97
93
162
103
99
166
107
103
171
109
106
174
109
107
168
109
105
160
103
99
148
99
92
139
97
88
132
100
89
128
101
90
126
107
93
126
106
94
127
107
96
125
108
100
124
108
100
120
106
97
116
102
93
111
96
87
103
86
78
94
77
69
82
66
58
74
60
51
67
53
44
66
51
42
64
47
39
67
47
40
69
49
42
74
54
47
78
58
51
82
63
56
83
66
58
82
65
57
81
65
57
79
65
56
75
61
52
72
57
51
67
52
49
60
49
48
50
40
39
38
28
27
17
12
13
6
6
6
6
6
6
4
4
4
3
3
3
3
3
3
2
2
2
2
2
2
2
2
2
2
2
2
3
3
3
4
4
4
5
5
5
6
6
6
7
7
7
6
6
6
7
7
7
7
7
7
7
7
7
7
8
8
8
10
9
8
10
9
12
14
13
14
16
15
70
60
52
124
103
87
164
132
110
175
143
121
175
143
120
174
142
119
169
137
114
161
129
108
142
110
89
134
102
81
139
107
86
151
123
101
163
138
116
166
141
119
165
140
121
160
134
120
154
128
113
129
105
89
115
93
76
108
90
76
109
91
79
114
96
85
125
105
94
141
121
109
154
135
120
172
153
136
183
162
145
189
166
150
186
163
147
177
148
134
163
128
116
156
114
104
153
105
97
152
102
95
158
100
96
159
101
96
163
104
100
168
109
105
173
111
108
173
108
106
167
108
104
158
103
98
146
98
91
139
100
90
133
102
91
131
104
93
128
108
95
128
108
96
129
109
98
128
110
103
126
111
102
122
108
99
116
102
93
109
94
85
101
84
76
92
75
67
84
69
60
78
64
55
73
59
50
73
58
49
74
57
49
77
57
50
80
60
53
83
63
56
86
66
59
90
71
64
90
73
65
91
74
66
91
75
67
87
73
64
82
68
59
75
61
54
69
54
51
60
49
48
50
40
39
39
29
28
22
17
18
9
9
9
8
8
8
7
7
7
5
5
5
6
6
6
7
7
7
7
7
7
6
6
6
7
7
7
8
8
8
8
8
8
9
9
9
12
12
12
14
14
14
16
16
16
14
14
14
14
14
14
14
14
14
12
13
12
12
14
13
15
17
16
19
21
20
19
21
20
54
44
36
109
91
74
160
130
108
173
141
120
173
141
118
170
138
115
163
131
108
149
117
96
132
100
79
127
95
74
128
96
75
142
114
93
156
131
109
156
131
109
151
125
107
143
117
102
129
104
89
107
83
68
98
75
60
88
72
59
90
74
63
96
79
70
112
92
81
128
109
96
139
120
106
153
134
117
170
149
133
179
156
140
179
155
139
172
143
129
159
125
112
151
109
99
149
101
94
149
99
92
152
94
90
153
94
90
157
98
94
160
101
97
161
99
97
164
99
97
158
99
95
151
97
91
141
97
88
136
99
88
131
101
89
128
101
90
123
104
90
122
103
90
123
103
92
121
104
96
116
101
92
111
97
88
105
91
82
98
82
74
88
71
63
77
60
52
71
55
47
66
52
43
63
49
40
63
48
40
65
48
40
68
48
41
71
51
44
74
54
47
79
59
52
83
64
57
83
66
58
83
66
58
82
66
57
77
63
54
73
59
50
66
51
45
59
44
41
51
41
39
43
33
32
37
27
26
22
17
17
7
7
7
4
4
4
2
2
2
3
3
3
2
2
2
1
1
1
1
1
1
1
1
1
1
1
1
1
1
1
2
2
2
3
3
3
2
2
2
4
4
4
4
4
4
6
6
6
6
6
6
6
6
6
8
8
8
8
10
9
12
14
13
15
17
16
16
18
17
99
90
80
123
103
85
171
143
118
177
149
125
177
146
118
173
141
116
164
132
109
151
119
96
136
104
82
127
95
74
131
103
82
147
121
99
155
130
109
151
125
109
140
114
99
135
109
94
116
90
75
100
75
62
93
70
59
86
69
61
87
70
62
90
73
65
108
90
82
121
104
92
132
116
101
144
124
112
160
140
126
173
153
139
175
152
136
167
141
126
160
127
114
154
114
104
153
107
99
152
105
97
154
103
96
156
102
96
160
104
99
165
107
103
166
108
104
165
106
103
162
103
99
153
102
96
145
102
93
136
106
93
133
107
94
132
108
96
129
110
96
128
109
96
128
108
97
123
106
98
120
103
95
116
99
91
109
93
85
100
84
76
90
73
65
82
65
57
76
60
52
73
59
50
72
58
49
74
59
50
76
59
51
76
59
51
79
62
54
82
65
57
84
66
59
87
70
62
89
72
64
88
71
63
86
69
61
82
66
57
77
62
55
67
54
46
54
42
37
50
40
39
42
33
32
36
29
29
27
21
21
13
9
10
8
8
8
6
6
6
6
6
6
6
6
6
6
6
6
6
6
6
6
6
6
6
6
6
6
6
6
6
6
6
7
7
7
8
8
8
8
8
8
9
9
9
11
11
11
14
14
14
15
16
15
18
20
19
20
22
21
24
26
25
24
26
25
24
26
25
96
86
78
142
122
102
175
147
121
178
151
126
178
148
119
174
142
117
166
134
111
153
121
99
132
100
78
126
94
73
133
106
86
145
119
97
150
125
103
140
114
99
135
109
94
124
98
83
108
82
67
95
70
58
90
66
56
83
66
58
74
57
50
85
68
60
94
77
70
105
89
78
111
94
81
128
108
97
138
119
106
159
140
126
163
140
124
159
133
118
155
123
110
150
111
100
148
102
94
147
100
92
149
99
92
151
98
92
155
100
95
157
99
95
158
100
96
156
98
94
150
94
89
144
95
88
137
97
87
129
100
86
126
101
88
125
101
89
120
101
87
119
99
87
118
98
87
111
94
86
108
91
83
102
85
77
96
79
71
87
70
62
79
62
54
69
53
45
62
46
38
62
48
39
63
49
40
67
51
43
68
51
43
68
51
43
70
53
45
73
56
48
76
59
51
79
62
54
81
64
56
80
63
55
79
62
54
76
59
51
69
54
47
64
51
43
46
35
30
42
32
31
38
29
29
30
24
24
26
21
21
14
10
10
7
7
7
5
5
5
4
4
4
3
3
3
3
3
3
2
2
2
2
2
2
2
2
2
2
2
2
2
2
2
3
3
3
3
3
3
3
3
3
3
3
3
5
5
5
6
6
6
8
9
9
11
13
12
12
14
13
17
19
18
19
21
20
19
21
20
76
67
55
144
125
101
179
152
124
180
153
128
182
151
123
177
146
121
168
136
113
152
120
97
132
100
78
126
95
74
132
105
84
139
113
91
138
113
92
134
108
93
131
105
90
121
95
80
98
72
57
89
64
52
84
60
50
76
59
51
64
47
39
74
57
49
81
64
56
88
71
62
99
82
72
109
89
78
130
111
98
148
129
115
154
131
115
153
127
112
152
120
107
151
112
101
151
105
97
149
102
94
150
100
93
151
99
93
154
99
94
159
101
97
161
103
99
159
101
97
155
102
96
147
102
94
142
106
94
136
107
94
132
107
94
129
105
93
125
105
91
122
103
90
119
99
88
113
96
88
107
90
82
99
82
74
94
77
69
90
73
65
81
65
57
75
58
51
69
54
45
67
53
44
67
53
44
72
57
48
75
58
50
74
57
49
74
57
49
77
60
52
79
62
54
80
63
55
80
63
55
78
61
53
76
59
51
73
56
48
65
50
43
60
47
39
46
35
30
35
25
24
34
26
25
28
22
22
25
19
19
14
10
11
7
7
7
5
5
5
4
4
4
4
4
4
3
3
3
3
3
3
3
3
3
3
3
3
3
3
3
3
3
3
4
4
4
4
4
4
4
4
4
5
5
5
6
6
6
8
8
8
11
12
11
15
17
16
16
18
17
20
22
21
21
23
22
22
24
23
101
88
72
154
132
106
186
157
130
188
158
134
188
156
131
181
149
126
171
139
116
157
125
102
140
108
86
137
105
84
139
112
91
139
113
94
139
114
96
139
113
98
135
109
94
116
90
76
98
73
60
92
69
57
89
67
57
72
55
47
68
51
43
70
53
46
74
57
49
85
68
61
93
76
68
102
83
74
122
102
92
137
117
105
143
119
105
142
118
103
147
117
103
149
112
101
149
105
96
147
102
93
147
98
91
148
97
92
151
98
94
153
99
96
155
101
97
154
99
96
149
99
93
142
100
91
138
104
93
133
106
94
128
105
92
124
103
90
119
100
87
113
94
82
109
91
79
101
84
76
95
78
70
89
72
64
81
66
57
78
63
54
71
56
47
67
51
44
63
47
40
61
47
39
66
51
43
70
54
46
72
55
47
73
56
48
74
57
49
77
60
52
76
60
53
77
61
53
77
61
54
74
57
50
71
55
47
67
51
43
62
49
43
56
44
39
48
37
34
34
26
25
33
26
25
29
23
23
26
20
20
16
12
12
9
9
9
7
7
7
5
5
5
4
4
4
5
5
5
5
5
5
4
4
4
4
4
4
4
4
4
4
4
4
5
5
5
4
4
4
5
5
5
5
5
5
5
5
5
7
7
7
7
8
7
9
10
10
14
15
14
17
19
18
19
21
20
19
21
20
115
100
84
167
142
117
187
157
132
190
158
135
188
156
133
181
149
126
169
137
114
152
120
97
136
104
82
136
105
84
135
108
87
134
108
90
133
107
92
133
107
92
126
100
85
100
74
60
92
68
56
86
64
53
79
59
48
56
39
32
55
38
31
54
37
30
58
41
34
70
53
45
74
57
49
91
71
64
108
88
79
119
99
88
123
99
87
128
104
90
141
112
98
143
110
97
145
105
95
144
100
91
144
97
89
146
97
91
148
97
94
148
97
94
148
97
94
148
97
94
145
98
91
140
101
93
137
106
96
132
108
96
130
108
95
123
104
90
117
97
86
109
91
79
102
86
73
95
78
70
87
70
62
83
66
58
76
61
52
73
59
50
69
55
46
66
51
44
61
46
39
62
47
40
65
50
43
69
53
46
73
56
48
73
56
48
72
55
47
71
54
46
71
55
48
70
55
48
67
52
45
64
49
42
60
45
38
57
42
35
52
40
36
45
34
31
43
31
31
31
25
23
30
24
23
28
22
22
25
19
19
15
11
11
6
6
6
4
4
4
2
2
2
2
2
2
2
2
2
2
2
2
2
2
2
3
3
3
3
3
3
2
2
2
2
2
2
2
2
2
3
3
3
3
3
3
3
3
3
4
4
4
5
5
5
7
7
7
11
11
11
14
15
14
16
18
17
19
21
20
131
115
97
182
156
131
193
162
137
194
162
139
191
159
136
183
151
128
175
143
120
162
130
107
148
116
95
146
114
93
139
112
91
134
108
90
137
111
96
137
111
96
122
96
81
104
78
63
98
74
62
91
69
57
74
54
44
58
41
34
56
39
32
57
40
33
64
47
40
73
56
49
78
61
53
90
70
63
106
86
77
114
94
83
117
92
80
124
100
86
141
112
98
144
114
101
146
109
98
144
105
94
148
101
93
148
99
93
149
98
95
149
98
95
149
98
95
149
98
95
145
101
92
140
105
95
137
109
98
133
109
97
129
108
95
122
103
89
114
94
83
105
87
75
96
80
67
89
72
64
81
64
56
78
61
53
71
57
48
70
57
48
68
54
45
66
52
45
62
47
40
63
48
41
69
54
47
73
57
49
76
59
51
76
59
51
76
59
51
76
59
51
73
58
51
72
57
50
70
55
48
66
51
44
63
48
41
59
44
37
53
42
37
48
37
34
42
30
30
31
26
23
28
23
21
28
22
22
24
18
18
16
12
12
8
8
8
7
7
7
6
6
6
5
5
5
5
5
5
5
5
5
6
6
6
5
5
5
5
5
5
5
5
5
5
5
5
5
5
5
5
5
5
5
5
5
6
6
6
6
6
6
7
7
7
8
8
8
11
11
11
16
18
17
17
19
18
18
20
19
138
121
100
182
156
130
190
160
134
193
161
137
190
158
134
180
148
125
172
140
117
158
128
104
147
116
94
142
112
90
134
107
86
130
103
86
133
107
92
125
99
84
104
78
64
103
77
62
93
69
57
81
59
48
56
36
26
47
31
23
45
28
21
50
33
25
55
38
31
61
43
36
68
50
42
81
61
54
91
71
63
98
78
68
101
78
66
115
91
78
131
104
90
135
107
94
138
103
92
138
101
90
140
94
86
139
92
86
141
91
88
142
92
89
142
93
89
142
93
89
139
98
90
136
103
92
132
106
95
131
107
95
126
105
92
116
97
83
106
87
76
97
79
67
89
73
61
80
63
56
72
55
47
67
50
42
62
48
39
62
47
39
61
47
39
61
46
39
56
41
34
55
40
33
60
45
38
63
48
40
67
51
43
65
48
40
63
47
39
62
46
38
59
44
37
58
43
36
56
41
34
54
39
33
51
37
31
46
32
26
41
30
26
37
26
23
32
20
20
24
18
16
25
19
18
25
19
19
22
16
16
14
10
10
7
5
6
4
4
4
2
2
2
2
2
2
2
2
2
2
2
2
2
2
2
1
1
1
0
0
0
0
0
0
1
1
1
1
1
1
1
1
1
1
1
1
2
2
2
2
2
2
2
2
2
5
5
5
8
8
8
10
12
11
13
15
14
13
15
14
153
130
106
191
160
132
194
163
135
195
164
136
193
161
134
185
153
128
179
148
125
166
140
115
156
130
106
149
123
100
139
112
91
136
110
93
135
109
94
120
94
80
114
88
73
109
83
68
97
73
63
78
56
48
62
42
35
56
39
31
57
41
33
62
45
37
66
46
39
69
49
42
72
52
45
84
64
57
90
70
63
94
74
66
98
78
67
114
92
81
128
104
92
140
112
101
142
111
100
140
106
94
143
102
93
142
99
92
143
98
93
145
98
94
143
98
93
144
100
94
138
100
93
135
105
95
133
109
97
132
108
96
126
104
91
115
96
82
103
87
74
94
78
67
87
70
62
79
62
55
72
55
48
68
51
44
64
49
42
65
50
43
65
50
43
66
51
44
64
49
42
64
49
42
67
52
45
69
54
47
70
55
48
70
53
46
69
53
46
67
52
45
64
49
42
64
49
42
61
46
39
59
44
41
57
44
41
52
41
37
49
40
35
45
35
32
38
28
27
27
21
21
26
20
20
29
23
23
25
19
19
22
16
16
17
11
13
9
9
9
5
5
5
5
5
5
5
5
5
5
5
5
5
5
5
5
5
5
5
5
5
6
6
6
6
6
6
6
6
6
6
6
6
5
5
5
6
6
6
7
7
7
7
7
7
10
10
10
11
11
11
15
16
15
15
17
16
15
17
16
163
138
112
190
159
131
193
162
134
194
163
135
191
160
132
184
153
128
176
145
121
165
139
114
158
132
109
148
122
99
140
113
92
135
109
91
126
100
85
118
92
77
113
87
72
102
76
62
84
60
51
67
45
37
62
42
35
59
42
34
60
43
35
61
43
36
63
43
36
62
42
35
70
50
43
81
61
54
83
63
56
85
65
58
92
72
61
99
77
65
112
88
76
130
102
91
135
104
93
135
101
89
136
98
87
135
94
86
135
90
85
133
89
84
131
88
82
130
89
83
129
94
86
128
100
89
127
103
91
124
100
88
117
95
82
103
85
71
91
74
62
82
66
55
75
58
50
69
52
45
61
44
37
60
43
36
54
39
32
55
40
33
54
39
32
54
39
32
53
38
31
53
38
31
55
40
33
57
42
35
58
43
36
59
42
35
57
41
34
55
40
33
54
39
32
52
37
30
52
37
30
50
35
32
47
33
30
43
32
28
39
30
25
35
26
22
29
19
18
19
12
12
16
10
10
23
17
17
20
14
14
16
10
11
13
7
9
6
5
6
4
4
4
3
3
3
3
3
3
3
3
3
2
2
2
1
1
1
1
1
1
1
1
1
1
1
1
1
1
1
1
1
1
1
1
1
0
0
0
1
1
1
1
1
1
3
3
3
5
5
5
7
9
8
9
11
10
10
12
11
169
142
115
191
160
132
195
164
136
196
165
137
193
162
134
188
156
131
182
150
127
173
147
122
165
139
115
156
130
107
145
118
97
134
107
90
124
99
84
120
94
79
109
83
68
95
69
55
81
57
47
74
52
44
72
52
45
72
55
47
72
55
47
70
52
45
70
50
43
69
49
42
78
58
51
80
60
53
83
63
56
85
65
57
92
72
61
96
74
62
108
84
72
132
104
93
138
107
96
137
104
92
138
103
91
138
98
90
138
94
89
135
94
88
135
95
89
135
97
89
135
103
94
133
106
95
130
106
94
127
103
91
117
95
82
103
84
70
92
75
63
84
68
57
80
63
55
76
59
52
69
52
45
66
49
42
63
48
41
62
47
40
63
48
41
63
48
41
62
47
40
61
46
39
61
46
39
65
50
43
64
49
42
63
46
39
60
43
36
58
43
36
54
39
32
55
40
33
55
40
33
54
39
36
51
38
34
47
36
32
42
33
28
37
28
25
33
23
22
23
16
16
18
13
13
22
16
16
23
17
17
20
14
15
17
11
13
10
9
9
7
7
7
5
5
5
5
5
5
5
5
5
5
5
5
5
5
5
5
5
5
6
6
6
5
5
5
6
6
6
6
6
6
6
6
6
6
6
6
8
8
8
9
9
9
13
13
13
15
15
15
18
20
19
18
20
19
19
21
20
174
144
121
191
160
132
192
161
133
193
162
134
190
159
131
189
158
130
182
151
124
173
147
124
168
143
119
155
131
107
142
117
95
129
104
86
124
98
83
113
87
72
99
75
61
92
68
55
81
61
47
75
56
44
77
57
46
80
60
49
77
57
47
70
51
40
69
49
42
69
49
42
75
55
48
74
54
47
74
56
48
75
57
50
81
61
54
84
63
54
92
72
61
114
90
80
120
93
84
121
92
83
122
93
82
123
91
82
123
88
79
122
87
79
122
89
81
124
92
85
123
95
86
122
98
88
117
97
85
112
91
80
100
82
70
87
71
59
79
62
54
73
57
49
67
52
45
62
47
40
58
43
36
54
39
32
53
38
31
52
38
31
54
39
32
52
37
31
51
36
29
52
37
30
52
37
30
52
37
30
53
38
31
51
36
29
47
32
25
47
32
25
46
31
27
46
31
27
45
30
27
45
33
29
45
33
30
41
30
26
37
27
25
33
23
22
28
18
17
22
15
15
16
10
10
20
14
14
23
17
17
19
14
14
17
11
11
14
8
8
10
6
6
6
6
6
4
4
4
3
3
3
3
3
3
3
3
3
3
3
3
3
3
3
3
3
3
2
2
2
2
2
2
2
2
2
2
2
2
3
3
3
4
4
4
5
5
5
8
8
8
9
11
10
11
13
12
12
14
13
179
148
126
192
161
133
192
161
133
195
164
136
193
162
134
188
157
129
182
151
123
174
148
125
169
144
120
156
132
109
140
115
93
128
102
84
118
92
77
105
79
64
101
76
63
92
69
57
84
65
51
83
64
52
85
65
54
86
66
55
82
62
51
75
55
44
71
52
45
75
55
48
74
54
47
71
51
44
70
51
44
71
54
46
76
56
49
80
60
51
92
72
61
107
83
73
112
86
77
115
89
80
120
92
81
122
92
82
122
89
80
123
91
82
123
92
83
124
95
87
124
97
88
121
98
88
115
95
84
106
86
75
94
75
65
85
68
59
79
62
54
73
57
50
68
53
46
64
49
42
62
47
40
58
43
36
58
43
36
58
43
36
58
43
36
56
41
34
56
41
34
56
41
34
56
41
34
55
41
34
55
40
33
53
38
31
49
34
27
47
32
25
47
32
29
47
32
29
47
32
29
45
34
30
45
34
30
42
31
27
37
27
26
33
23
22
27
17
16
20
14
14
15
9
9
14
8
8
23
17
17
20
14
14
19
13
13
15
9
9
11
7
7
6
6
6
4
4
4
4
4
4
4
4
4
3
3
3
3
3
3
3
3
3
3
3
3
3
3
3
2
2
2
3
3
3
3
3
3
4
4
4
5
5
5
7
7
7
10
10
10
12
14
13
15
17
16
17
19
18
182
151
129
195
164
135
194
163
135
196
165
137
196
165
137
190
159
131
185
155
127
181
155
132
175
151
127
163
139
115
148
123
101
133
108
90
119
93
78
113
87
72
107
83
69
99
76
64
95
76
62
94
74
62
95
75
64
96
76
65
89
69
58
82
62
52
81
61
54
79
59
52
70
50
43
64
44
37
63
44
37
65
48
40
71
51
44
79
59
50
86
66
55
94
70
60
96
73
63
101
78
68
109
81
70
111
83
72
109
80
70
110
82
71
110
83
73
112
86
77
115
88
79
111
88
78
102
82
71
93
73
62
84
66
56
75
58
50
68
51
43
65
49
42
62
47
40
60
45
38
57
42
35
54
39
32
53
38
31
54
39
32
53
38
31
52
37
30
51
36
29
51
36
29
50
35
28
52
37
30
51
36
29
49
34
27
47
32
25
45
30
23
45
30
27
45
30
27
47
32
29
46
34
30
45
34
30
45
34
30
40
30
28
35
25
24
30
20
19
23
16
16
18
12
12
15
9
9
23
17
17
21
15
15
19
13
13
16
10
10
13
9
9
9
9
9
6
6
6
5
5
5
5
5
5
4
4
4
4
4
4
4
4
4
4
4
4
5
5
5
4
4
4
5
5
5
5
5
5
5
5
5
5
5
5
7
7
7
11
11
11
11
13
12
14
16
15
15
17
16
184
154
128
194
163
135
193
162
134
195
164
136
194
163
135
188
157
129
186
155
127
183
153
130
174
147
123
155
130
107
139
114
92
122
96
78
110
84
69
108
82
67
102
77
64
97
73
61
90
68
55
92
71
58
92
72
59
90
68
56
87
64
52
84
62
50
81
61
51
73
53
45
58
38
31
54
36
29
54
37
30
58
41
34
64
46
39
73
54
46
77
57
49
81
60
52
81
60
51
87
66
55
95
71
61
97
72
61
95
67
58
97
69
63
99
74
65
99
77
66
99
76
66
96
76
67
89
71
62
80
62
53
72
55
47
64
49
42
60
45
38
60
44
37
58
43
36
56
41
34
56
41
34
54
39
32
52
37
33
52
37
33
52
37
33
50
35
31
47
32
28
45
30
26
45
31
26
45
31
26
46
31
27
46
31
27
45
30
26
44
29
25
40
25
22
41
27
24
40
28
24
40
29
25
40
29
25
37
26
22
30
20
19
26
17
16
21
13
13
16
10
10
13
7
7
13
7
7
19
13
13
17
11
11
16
10
10
13
7
7
11
5
6
7
3
4
3
2
3
1
1
1
1
1
1
1
1
1
1
1
1
2
2
2
1
1
1
1
1
1
1
1
1
2
2
2
3
3
3
2
2
2
3
3
3
5
5
5
8
8
8
10
12
11
12
14
13
15
17
16
189
159
132
196
165
137
195
164
136
199
168
140
199
168
140
197
166
138
198
167
140
193
161
138
179
151
128
160
134
111
148
123
101
130
104
86
120
94
79
114
88
73
108
84
70
103
79
67
101
77
65
101
80
67
100
81
67
101
77
65
99
75
63
95
71
59
86
66
55
73
53
44
62
42
35
57
40
33
58
41
34
62
45
38
66
49
43
75
56
49
80
60
53
81
61
54
79
59
51
82
63
53
87
68
59
86
64
55
85
60
53
87
61
57
86
64
57
87
68
59
90
70
61
86
67
59
81
64
56
72
55
47
66
50
42
61
46
40
61
46
39
59
44
37
58
43
36
57
42
35
56
41
34
53
38
31
53
38
35
52
37
34
52
37
34
51
36
33
50
35
32
48
33
30
47
32
29
48
33
30
50
35
33
52
37
34
52
37
34
51
36
33
49
34
31
47
33
30
45
34
30
45
34
30
45
34
30
43
32
28
37
27
26
30
22
21
25
19
19
20
14
14
17
11
11
16
10
10
22
16
16
26
20
20
24
18
18
22
16
16
19
13
14
17
11
13
9
8
8
7
7
7
7
7
7
6
6
6
5
5
5
6
6
6
6
6
6
5
5
5
5
5
5
5
5
5
6
6
6
6
6
6
7
7
7
10
10
10
14
14
14
15
17
16
16
18
17
18
20
19
186
156
129
193
162
134
191
160
132
196
165
137
198
167
139
196
165
137
193
162
135
187
155
132
169
141
118
153
127
104
139
114
92
120
94
76
111
85
70
106
80
65
98
73
60
93
69
57
93
69
57
93
72
59
92
73
59
93
69
57
89
65
53
83
59
47
69
49
38
60
40
32
53
33
26
47
30
23
46
29
22
50
33
26
54
37
30
59
40
33
64
44
37
64
44
37
64
44
37
65
45
38
65
47
39
62
42
36
63
40
34
65
42
36
63
42
36
63
45
38
65
45
38
66
47
40
61
44
36
58
41
33
52
36
29
50
35
28
50
35
28
49
34
27
48
33
26
47
32
25
47
32
25
46
31
24
43
28
25
43
28
26
43
28
25
42
27
24
40
25
22
38
23
20
38
23
20
40
25
22
42
27
24
42
27
24
42
27
24
42
27
24
42
27
24
40
27
23
38
27
23
36
25
21
38
27
23
35
24
20
30
20
19
24
15
15
18
12
12
14
8
8
14
8
8
13
7
7
17
11
11
21
15
15
18
12
12
17
11
11
13
7
8
12
6
8
5
4
4
2
2
2
1
1
1
1
1
1
1
1
1
1
1
1
1
1
1
1
1
1
1
1
1
1
1
1
1
1
1
2
2
2
2
2
2
3
3
3
5
5
5
6
8
7
7
9
8
8
10
9
187
158
131
195
164
136
194
163
135
199
168
140
202
171
143
202
171
143
199
168
140
194
163
138
174
144
120
158
130
107
141
116
93
124
98
79
117
91
75
111
85
70
104
79
65
101
76
63
101
76
63
102
79
65
101
80
66
102
77
64
95
70
58
87
62
50
77
55
44
71
50
40
66
44
36
59
40
34
55
37
31
55
38
31
59
41
34
65
46
39
69
49
42
66
47
40
66
47
41
67
47
43
63
48
43
61
44
39
61
42
38
60
42
36
59
42
37
61
45
40
64
45
41
63
46
41
61
45
39
60
43
36
55
40
32
53
38
31
54
39
32
54
39
32
56
41
34
55
40
33
55
40
34
54
39
33
51
36
33
50
35
32
50
35
32
48
34
31
47
33
30
43
29
26
43
29
26
44
30
27
45
31
28
49
34
31
50
35
32
52
37
34
51
36
33
49
35
32
46
35
31
45
34
30
44
33
29
42
31
27
38
28
26
30
22
21
24
18
18
19
13
13
17
11
11
15
9
9
17
12
12
27
21
21
24
18
18
21
15
15
19
13
13
17
11
12
10
9
9
7
7
7
5
5
5
5
5
5
5
5
5
6
6
6
5
5
5
6
6
6
6
6
6
6
6
6
7
7
7
7
7
7
8
8
8
11
11
11
14
14
14
15
17
16
17
19
18
17
19
18
185
155
128
191
160
132
193
163
135
199
168
140
202
171
143
201
170
142
197
166
138
190
159
131
168
137
109
149
118
95
130
104
81
119
93
72
112
85
66
107
81
66
104
78
63
104
78
63
108
82
67
108
84
68
102
79
63
98
72
57
91
64
52
83
56
45
75
51
39
71
47
36
64
40
31
55
34
29
52
33
27
48
31
24
52
31
26
54
33
27
54
34
27
51
34
27
52
34
29
53
35
33
48
33
30
46
31
29
48
33
30
48
33
30
45
30
27
46
31
28
47
32
29
46
31
28
47
32
28
46
31
24
42
27
21
43
28
21
45
30
23
46
31
24
47
32
25
45
30
23
43
28
23
41
26
23
37
22
19
37
22
19
38
23
20
34
22
19
34
23
19
33
22
18
34
23
19
35
24
20
36
25
21
42
27
24
44
29
26
44
29
26
42
27
24
41
27
24
39
28
24
38
27
23
37
26
22
36
25
21
31
21
20
27
18
18
21
15
15
18
12
12
16
10
10
14
8
8
17
11
11
27
21
21
25
19
19
21
15
15
18
12
12
13
7
7
7
6
6
4
4
4
2
2
2
2
2
2
2
2
2
2
2
2
1
1
1
2
2
2
2
2
2
2
2
2
1
1
1
2
2
2
3
3
3
3
3
3
5
5
5
5
7
6
7
9
8
10
12
11
185
156
129
191
160
132
195
164
136
202
171
143
206
175
147
204
173
145
200
169
141
188
157
129
168
137
110
154
122
99
137
111
88
127
101
80
122
95
77
120
94
79
116
90
75
116
91
76
119
93
78
113
89
74
104
81
65
101
75
60
95
69
56
88
61
50
83
59
47
79
55
44
74
50
40
63
42
37
55
37
31
53
36
29
57
36
31
57
37
31
58
39
32
55
38
30
56
39
34
56
38
36
50
35
32
49
34
31
51
36
33
50
35
32
50
36
33
51
36
33
52
37
34
54
39
36
55
40
37
55
40
33
54
39
32
52
37
30
52
37
30
51
37
30
52
37
30
51
36
29
48
33
28
47
32
29
47
32
29
47
32
29
47
32
29
44
32
28
42
31
27
41
30
26
41
30
26
43
32
28
42
31
27
48
33
30
49
34
31
50
35
32
51
36
33
48
35
32
45
34
30
43
33
29
43
32
28
41
30
26
36
26
25
29
21
20
24
18
18
19
13
13
18
12
12
16
10
10
17
11
11
28
22
22
26
20
20
23
17
17
21
15
15
17
11
11
10
9
9
6
6
6
4
4
4
4
4
4
4
4
4
3
3
3
3
3
3
3
3
3
4
4
4
4
4
4
6
6
6
6
6
6
6
6
6
10
10
10
12
13
13
16
18
17
16
18
17
18
20
19
185
155
129
192
161
133
197
166
138
204
173
145
206
175
147
205
174
145
199
167
139
183
151
123
171
139
112
158
127
104
144
117
95
138
111
90
136
109
90
131
105
89
127
101
85
125
99
83
121
95
80
111
86
71
102
79
63
98
72
57
90
63
51
86
59
48
82
58
46
83
59
48
79
55
45
65
44
39
56
37
31
53
36
29
54
33
28
56
35
29
53
34
27
53
36
28
51
34
29
50
32
30
42
27
25
40
25
23
43
28
25
43
28
25
42
27
24
42
27
24
42
27
24
42
27
24
43
28
25
43
28
22
44
29
22
45
30
23
43
28
21
41
26
20
41
26
19
39
24
18
38
23
18
39
25
22
39
24
21
38
23
20
38
24
21
37
26
22
35
24
20
36
25
21
35
24
20
38
27
23
38
27
23
41
26
23
41
26
23
42
27
25
45
30
27
43
30
27
42
31
27
42
31
27
41
30
26
39
28
24
35
25
23
29
21
20
25
19
19
19
13
13
18
12
12
16
10
10
15
9
9
25
19
19
25
19
19
24
18
18
21
15
15
17
11
11
10
9
9
7
6
6
6
6
6
4
4
4
4
4
4
3
3
3
3
3
3
3
3
3
4
4
4
3
3
3
5
5
5
4
4
4
4
4
4
6
6
6
10
10
10
12
14
13
13
15
14
14
16
15
185
156
129
192
161
133
200
169
141
206
175
147
206
175
144
205
172
140
195
161
129
186
151
121
173
140
111
159
128
101
154
122
102
148
119
97
144
118
95
139
112
91
133
107
86
126
102
81
116
88
74
98
71
57
94
68
53
92
66
51
89
62
49
85
58
47
82
58
48
82
58
48
76
53
43
66
46
39
60
40
33
58
38
31
58
38
31
59
39
32
59
39
32
57
37
30
54
35
31
51
33
31
42
26
27
41
25
24
46
31
28
48
33
30
48
33
30
45
30
27
45
30
27
46
31
28
46
31
29
46
31
28
47
32
29
48
33
30
49
34
31
48
33
30
48
33
30
46
31
28
45
30
27
43
28
26
40
29
25
41
30
26
41
30
26
44
33
29
44
33
29
43
32
28
42
31
27
42
31
27
42
31
27
45
30
27
46
31
28
48
33
30
49
34
31
47
34
31
44
33
29
43
32
28
42
31
27
37
26
22
32
22
21
28
18
18
24
14
15
19
12
13
16
10
10
15
9
9
17
11
11
21
15
15
24
18
18
21
15
15
20
14
14
16
10
10
13
7
7
8
4
4
4
4
4
3
3
3
3
3
3
3
3
3
3
3
3
3
3
3
3
3
3
3
3
3
4
4
4
4
4
4
5
5
5
6
6
6
9
9
9
13
14
13
15
17
16
16
18
17
