P3
50 50
255
152
147
142
148
141
136
143
136
129
149
133
118
163
132
112
185
156
135
201
178
155
204
182
159
197
176
153
188
167
144
184
161
137
175
153
129
162
145
126
159
151
141
160
155
149
160
155
149
157
152
146
154
149
144
152
147
141
148
143
137
141
136
131
135
131
125
135
130
124
129
124
118
112
108
101
119
114
108
123
118
111
124
118
111
122
116
110
138
133
129
161
157
154
168
163
159
172
167
161
181
174
165
196
183
169
194
177
156
166
144
121
146
122
100
143
118
98
136
114
99
125
103
87
114
95
80
189
185
180
197
197
195
195
195
193
196
195
194
199
196
195
203
198
197
205
200
197
207
202
197
163
158
152
158
152
146
155
146
137
158
142
126
168
137
116
192
161
140
204
180
156
206
184
160
203
182
159
195
176
152
187
165
142
180
156
132
172
151
128
166
153
138
166
158
150
164
159
153
161
156
150
154
149
144
134
129
125
96
91
88
74
70
68
62
60
58
65
63
61
86
83
79
98
93
90
120
115
112
124
119
113
121
114
108
134
128
122
157
152
149
168
163
160
174
169
164
181
175
167
200
188
172
206
189
170
194
172
148
166
141
118
157
131
109
155
131
110
150
127
111
138
115
99
125
106
91
195
188
183
205
203
202
204
203
202
205
201
200
206
200
200
207
202
200
209
204
201
212
207
204
166
161
156
162
157
151
162
153
143
164
149
133
167
136
115
183
152
131
192
166
143
195
171
147
192
171
147
188
170
145
184
163
139
178
153
130
173
148
125
168
149
129
165
155
143
159
154
148
147
142
137
114
110
107
62
57
56
39
33
33
33
32
32
36
36
35
39
39
39
42
41
41
46
46
46
62
62
60
90
86
82
134
126
119
158
152
145
166
161
156
171
166
161
178
172
165
194
183
167
207
188
165
208
184
161
192
168
144
181
156
132
177
152
130
171
147
127
160
137
121
140
117
101
121
102
88
198
191
187
208
202
202
207
201
201
206
200
199
207
202
198
210
204
201
212
207
205
216
210
209
166
161
155
163
158
152
167
160
151
170
155
139
166
135
114
176
144
123
184
155
133
183
157
134
181
156
133
179
156
132
179
155
131
175
148
126
171
143
121
170
146
124
168
152
137
122
115
105
71
66
63
44
38
38
32
26
26
28
23
22
31
31
29
35
35
33
34
34
34
33
33
33
33
34
33
35
35
35
40
39
39
80
77
72
143
139
133
166
161
154
173
168
160
186
178
165
203
186
164
210
187
163
211
187
162
203
179
155
193
169
145
179
157
134
170
146
130
156
133
117
133
108
93
129
112
99
198
191
187
206
202
201
206
201
199
207
202
198
209
204
199
211
205
202
212
206
205
213
208
207
164
159
153
164
159
153
169
163
155
171
154
139
162
131
110
166
134
113
172
139
119
171
137
117
167
137
115
167
141
118
170
145
121
170
143
120
170
139
117
172
145
122
181
158
137
144
127
109
58
52
48
36
30
30
29
22
22
33
27
27
36
33
32
35
32
31
30
29
29
29
29
29
30
31
30
30
31
30
31
31
31
35
34
34
62
57
56
139
133
126
178
169
156
201
185
164
208
187
163
212
189
164
202
178
153
194
171
148
186
165
142
177
154
134
159
135
119
144
118
103
129
103
88
141
126
115
196
191
187
207
202
202
210
204
204
208
203
201
206
202
200
208
202
201
209
203
203
212
206
204
157
152
146
164
159
153
163
157
150
158
140
125
158
129
109
163
134
114
172
141
120
174
142
122
170
139
118
165
134
113
164
134
113
165
135
112
168
136
114
171
143
120
186
162
138
190
167
143
93
80
67
54
43
36
56
46
39
58
52
45
55
49
46
40
34
33
33
29
28
36
32
31
37
33
33
37
32
32
38
34
33
39
35
35
43
37
36
96
83
72
189
170
148
207
184
159
210
186
163
197
174
150
192
169
145
182
160
138
170
147
129
153
128
112
143
117
102
135
109
94
126
100
85
150
138
130
199
194
192
209
203
203
208
202
202
206
200
200
205
200
200
208
203
202
211
206
204
213
207
206
143
138
132
155
150
144
121
117
113
121
105
92
154
128
107
167
140
119
179
153
130
184
159
136
181
156
133
172
143
121
164
132
111
162
130
107
166
134
111
172
145
121
184
159
134
191
165
140
159
135
112
137
114
94
157
136
118
157
141
123
146
132
118
92
80
70
105
92
79
89
76
64
82
69
60
70
59
49
68
56
47
63
51
44
76
63
52
160
138
117
200
175
151
202
177
152
194
170
146
186
162
138
178
153
131
164
139
118
149
124
106
143
117
102
138
112
97
132
107
91
125
100
85
162
153
145
200
195
192
208
202
201
208
203
202
205
204
202
206
204
203
210
205
203
210
205
201
209
203
202
88
78
73
99
91
86
61
53
47
96
80
66
151
124
103
167
139
118
179
151
129
186
160
137
187
161
138
180
152
129
171
140
119
167
135
113
171
139
116
179
152
128
188
162
138
194
169
146
188
159
137
188
160
139
212
192
173
219
203
185
215
199
181
194
173
156
199
178
156
189
167
147
187
166
148
161
139
119
139
114
95
125
99
79
142
116
94
183
157
133
192
166
141
189
163
138
178
152
129
172
144
122
157
126
106
145
120
101
146
121
105
146
121
105
141
117
102
131
109
94
123
101
89
175
165
157
200
195
190
208
203
199
210
204
203
205
202
201
201
200
198
203
199
198
204
198
198
206
200
199
65
50
43
65
50
44
55
45
39
100
85
72
166
139
118
175
143
122
183
153
131
186
159
136
185
160
137
182
155
132
178
149
127
176
147
123
180
151
127
193
167
142
205
181
156
212
194
171
205
180
158
210
188
167
214
193
172
219
201
180
221
202
182
210
187
166
216
195
172
217
198
179
218
199
182
204
184
165
172
146
124
160
129
108
166
138
116
180
154
129
187
161
136
175
149
125
169
143
120
156
128
106
150
122
101
150
126
110
151
129
112
151
129
113
142
123
107
130
110
95
124
107
93
186
179
171
202
197
191
207
202
197
205
200
198
200
196
195
199
197
196
201
198
197
204
199
199
207
201
201
61
48
41
61
47
43
45
35
32
76
64
55
181
155
133
179
147
126
182
152
130
184
158
135
186
159
136
185
156
133
186
156
133
186
160
136
196
170
145
212
186
161
215
193
167
216
195
173
216
192
169
222
201
181
211
184
161
211
186
163
212
186
163
197
169
147
214
191
168
215
194
171
206
184
163
210
189
168
201
179
159
186
159
137
189
163
140
191
165
141
183
157
133
178
153
129
169
144
120
158
131
109
156
131
110
156
133
117
156
134
117
151
130
113
141
120
104
129
109
93
140
126
112
188
183
176
199
194
188
205
200
196
205
200
198
204
198
198
205
199
199
207
202
200
206
201
199
204
199
197
58
46
42
57
45
41
34
25
23
95
82
69
192
167
144
196
168
146
188
156
135
186
156
134
188
157
134
192
160
137
198
166
140
201
175
150
211
186
160
217
193
167
213
187
162
210
184
160
220
200
178
222
204
187
206
180
157
206
180
157
200
170
146
188
160
137
209
185
161
213
189
165
195
166
144
207
183
161
217
197
178
208
185
162
211
188
165
207
184
161
193
170
145
186
161
137
175
150
126
170
145
122
169
146
124
167
144
124
161
138
122
153
130
114
141
118
102
131
110
94
159
148
138
190
185
179
199
194
188
205
200
196
207
202
200
205
199
199
203
197
197
202
197
194
201
196
192
200
195
192
55
44
40
51
41
37
28
23
20
131
112
96
203
178
154
212
185
161
203
174
150
195
163
140
193
161
137
197
165
141
203
173
145
211
185
160
221
200
176
220
199
174
203
173
149
203
174
150
220
202
182
217
198
176
207
183
160
208
184
161
200
174
151
193
167
144
210
186
163
215
193
169
199
173
149
203
180
157
218
198
180
209
186
164
214
194
174
217
200
181
205
185
164
187
162
138
183
157
132
182
158
134
182
160
137
177
155
137
165
145
129
152
130
114
136
111
96
128
107
90
175
168
159
194
189
184
200
195
191
203
198
195
202
197
194
199
194
191
199
194
191
200
195
192
201
196
193
202
197
194
53
45
40
48
39
34
36
30
26
166
146
126
214
188
164
217
186
161
211
182
158
205
176
152
203
174
148
205
178
151
208
184
156
216
191
166
225
204
182
221
201
179
196
166
140
202
174
148
218
194
174
213
187
165
212
189
167
213
191
170
207
184
164
197
175
153
214
197
178
218
200
181
208
187
166
205
181
160
211
191
171
203
179
156
210
189
166
222
209
191
220
208
188
204
183
159
192
166
142
186
162
138
186
162
139
182
160
137
168
147
129
149
123
108
132
106
91
133
112
98
182
176
168
191
186
183
195
190
187
200
195
190
201
196
190
200
195
189
199
194
188
201
196
190
201
196
194
200
195
192
52
44
39
44
35
30
41
34
29
189
168
147
219
195
170
220
192
167
220
193
168
221
197
173
220
199
174
219
198
174
218
197
173
220
198
174
223
201
178
222
200
176
194
165
141
196
166
141
207
179
156
205
174
153
214
194
174
221
204
187
218
200
182
211
195
177
216
207
193
218
203
188
209
194
177
188
164
144
184
161
140
180
152
131
194
169
145
219
207
189
226
215
199
217
196
174
200
175
150
188
162
138
182
156
132
178
154
131
163
138
119
144
118
103
130
105
89
143
125
113
183
177
170
191
186
182
196
191
186
201
196
190
202
197
191
201
196
190
198
193
187
196
191
185
194
189
185
193
188
185
53
45
40
41
32
29
52
44
37
193
170
148
217
194
169
221
201
175
225
205
180
224
204
181
217
196
173
200
178
155
172
147
125
158
133
112
165
139
119
191
168
146
191
163
140
185
155
133
195
167
146
201
174
152
217
199
180
228
214
197
227
211
193
223
208
192
226
222
216
228
222
219
214
207
200
139
117
100
131
107
91
141
114
98
169
142
122
207
190
168
219
204
188
215
194
172
207
181
156
196
170
145
186
160
136
176
151
128
158
132
114
138
112
97
130
106
91
145
128
115
186
179
172
193
188
182
196
191
185
200
195
189
199
194
189
195
190
186
193
188
182
192
187
181
190
185
179
183
178
173
54
44
40
39
29
27
42
34
30
159
136
114
203
178
153
217
194
169
224
202
178
223
202
179
206
182
159
156
126
105
108
81
63
83
60
49
74
53
43
89
70
57
155
128
108
187
159
138
204
181
163
211
188
166
220
203
185
230
217
202
228
211
193
225
208
192
229
226
221
227
224
221
200
187
173
113
91
75
114
90
77
120
96
84
134
109
93
158
136
119
171
150
134
177
153
133
196
167
144
201
176
151
194
169
145
178
153
131
157
131
112
138
112
97
134
112
96
141
125
111
180
174
166
186
181
175
190
185
179
195
190
184
195
190
187
194
189
186
191
187
182
175
171
165
141
136
133
84
78
76
57
44
40
40
30
28
55
44
37
150
128
106
197
168
141
206
178
151
214
189
165
221
198
175
200
176
153
126
98
80
93
77
67
133
128
124
52
41
37
49
38
34
89
72
59
186
165
145
221
208
194
221
203
183
223
208
191
227
217
202
225
207
188
222
204
185
223
213
201
201
187
173
156
133
113
109
87
74
112
92
81
111
91
81
99
80
70
83
67
56
79
63
53
105
86
71
144
119
99
179
154
131
191
167
143
187
164
141
167
143
123
145
121
104
137
115
98
144
128
114
177
172
164
186
181
175
191
186
180
196
191
185
198
193
187
187
182
179
142
138
135
66
62
59
43
37
37
39
33
32
59
45
39
55
41
36
122
101
83
191
163
138
206
182
156
216
195
171
223
207
186
225
212
192
199
182
163
104
86
74
68
59
53
123
119
117
46
38
35
39
30
28
54
42
37
173
159
146
233
226
220
228
214
199
226
214
199
227
217
202
222
204
183
220
200
180
220
204
185
172
151
131
109
85
72
110
89
78
110
92
83
95
80
72
57
46
40
41
33
28
40
32
28
52
40
34
78
59
48
119
94
77
164
140
117
184
160
136
174
151
128
150
125
104
136
112
96
147
131
117
180
174
167
187
182
176
187
182
176
185
181
175
147
143
137
78
74
71
44
38
38
36
30
30
37
31
31
47
42
40
64
49
42
103
84
70
188
162
138
207
181
153
211
187
160
220
201
179
227
216
198
226
216
200
179
163
147
93
80
69
44
37
32
45
38
36
39
32
29
51
43
40
50
38
34
157
146
137
235
230
225
230
218
208
230
218
208
228
219
205
224
206
185
219
196
175
223
202
182
188
167
145
120
97
83
114
95
83
104
88
80
62
50
45
39
30
26
32
26
23
30
25
23
41
32
29
64
50
42
91
70
58
126
102
84
158
132
110
166
140
117
151
126
104
129
105
89
127
112
99
144
137
131
135
130
124
124
118
114
94
90
85
46
41
39
29
23
23
29
23
23
32
26
26
36
30
30
49
43
42
72
56
48
162
141
121
212
187
163
212
187
161
202
174
149
204
182
159
223
212
193
227
219
203
185
171
154
103
89
79
40
34
30
41
36
33
42
36
33
41
34
31
63
51
44
165
151
135
225
214
202
226
215
201
227
217
204
225
213
196
221
200
176
215
190
167
218
195
172
198
176
153
152
128
109
116
98
85
89
74
65
44
34
30
38
28
27
33
27
25
31
26
23
35
29
27
58
47
41
81
64
54
104
81
68
129
101
82
154
124
102
153
127
105
125
103
87
88
74
64
64
57
53
54
47
44
47
41
38
34
28
26
26
20
20
26
20
20
27
21
21
32
26
26
39
33
33
49
43
43
79
64
54
193
172
149
217
195
171
219
199
175
202
175
150
190
162
134
208
189
165
225
217
199
207
196
178
128
115
100
62
52
46
41
33
27
48
40
35
65
55
45
131
115
99
194
170
148
216
195
173
224
209
192
225
211
193
222
200
177
215
185
160
207
177
151
207
181
158
200
176
152
168
142
122
121
101
85
74
59
50
44
33
31
44
35
33
37
30
26
34
29
24
42
37
34
43
34
31
71
58
51
115
93
81
146
120
102
165
139
117
163
138
115
144
121
102
99
82
70
57
50
45
39
34
31
28
22
22
23
17
17
23
17
17
24
18
18
25
19
19
29
24
24
38
33
33
51
45
45
80
65
56
202
179
155
217
197
174
224
210
189
211
188
163
201
171
144
204
175
149
214
193
171
222
209
191
208
198
182
171
161
146
138
130
117
139
129
116
177
162
143
205
181
157
196
167
140
211
186
161
224
205
187
224
202
180
219
188
164
204
172
145
197
166
140
201
173
148
199
173
150
175
148
126
146
121
101
95
75
62
55
44
38
43
33
30
47
38
36
40
31
28
32
26
23
41
32
27
82
70
60
171
152
135
201
180
163
195
172
152
164
139
117
144
120
99
127
106
91
81
69
60
40
34
31
26
20
20
22
16
16
22
16
16
23
17
17
25
19
19
29
23
23
36
30
30
46
41
41
90
76
64
198
174
150
210
189
165
220
203
181
212
190
166
201
176
151
209
184
158
219
192
166
221
197
170
221
202
179
222
208
187
221
210
192
221
209
189
214
194
170
201
171
143
196
166
138
208
183
158
224
203
185
224
197
172
214
179
154
201
166
140
199
166
142
201
169
148
194
167
144
169
141
119
153
124
104
131
103
85
88
67
55
64
49
40
50
40
33
47
37
30
45
37
31
70
61
53
178
166
154
221
207
189
208
186
166
170
143
122
138
112
90
129
103
84
131
109
93
108
92
80
44
36
33
28
22
22
34
30
28
27
22
21
23
17
17
23
17
17
24
18
18
28
23
23
51
45
45
95
82
68
186
161
137
202
178
153
209
185
161
198
173
148
196
171
146
210
186
160
218
195
170
221
196
170
218
193
167
219
196
171
221
204
180
223
204
179
215
191
166
212
183
156
205
175
147
212
186
161
227
203
182
222
190
164
205
164
140
199
156
132
201
162
138
195
161
139
178
148
127
148
118
97
146
114
94
149
117
98
139
109
90
151
127
107
171
155
136
175
161
145
181
168
151
202
188
171
217
201
182
198
177
155
163
134
113
134
106
85
121
95
76
118
91
76
120
97
83
115
97
83
61
51
45
96
92
87
135
130
124
117
110
103
55
49
45
19
13
13
17
11
11
18
12
12
34
28
28
100
87
72
182
156
131
202
177
151
207
183
158
195
169
144
193
167
142
202
177
151
211
186
161
217
192
165
219
198
173
224
209
187
226
210
192
224
204
183
224
202
178
221
197
173
211
182
155
216
185
161
222
186
164
214
169
146
197
145
124
193
143
122
190
143
121
177
133
112
152
116
97
131
98
79
150
118
99
164
131
111
179
147
126
204
177
155
218
200
177
220
202
179
215
193
170
206
180
157
191
162
139
168
138
116
142
111
90
118
91
72
107
81
65
103
79
64
104
82
69
106
89
75
70
62
54
137
132
127
167
160
152
176
168
158
150
142
133
48
42
39
24
18
18
25
19
19
26
20
20
102
88
73
180
154
129
205
180
155
212
189
165
202
178
153
193
167
142
196
169
145
205
175
151
213
189
163
225
207
185
229
215
198
227
213
195
227
211
192
226
210
191
224
204
184
214
188
162
193
155
131
174
122
103
179
123
105
181
125
106
183
127
109
175
121
105
149
101
86
124
87
72
114
81
68
134
102
85
157
125
105
179
148
127
201
173
151
209
184
160
208
180
156
202
169
146
190
158
136
179
146
126
159
127
106
132
100
82
106
77
63
96
72
59
94
74
61
95
78
65
97
81
69
57
47
42
100
97
94
146
142
135
198
191
180
180
172
161
97
90
83
29
24
23
25
19
19
25
19
19
97
83
69
179
154
130
204
180
156
207
183
159
184
158
134
174
147
123
187
159
135
206
177
154
218
197
174
226
208
187
228
208
189
226
209
189
226
208
189
226
210
192
226
208
188
223
200
175
200
169
145
124
88
71
112
66
55
150
95
83
152
97
85
123
77
66
77
46
39
84
55
47
93
67
54
134
109
94
146
120
98
161
132
111
177
145
124
193
161
140
196
164
140
181
148
123
165
130
109
152
120
100
139
108
90
121
93
79
103
77
64
93
72
61
90
71
60
90
73
63
88
73
64
51
44
40
35
32
32
104
103
100
208
202
192
201
193
182
162
151
141
54
47
44
22
16
16
30
24
24
70
58
50
161
136
114
195
171
147
195
171
147
166
141
118
167
142
119
193
168
145
215
194
170
224
202
179
222
200
175
222
198
174
224
203
180
224
205
183
224
207
186
226
205
184
223
199
174
215
189
163
191
159
136
127
87
75
130
80
73
125
77
70
87
53
46
75
50
42
89
63
52
114
89
75
151
127
111
150
125
104
149
120
99
151
119
98
156
123
103
170
137
117
165
134
114
145
114
94
126
95
78
108
81
66
98
74
60
93
71
59
90
69
58
89
69
58
86
67
59
83
67
59
44
38
34
27
24
25
106
104
101
183
177
166
167
159
148
127
120
108
39
34
31
26
20
20
32
27
27
33
27
24
131
109
91
188
164
140
182
158
134
157
132
110
154
129
108
175
150
132
208
187
165
211
188
164
211
187
163
220
200
177
226
205
181
224
202
178
221
199
174
221
196
172
218
193
168
212
183
159
198
166
144
162
123
107
127
83
74
114
72
66
104
69
59
136
108
95
144
118
103
146
121
105
154
129
110
152
126
105
143
115
94
138
107
87
136
103
84
138
107
90
144
116
99
134
107
90
116
89
76
101
76
64
91
70
59
88
68
57
88
68
58
89
69
58
86
68
58
83
67
59
42
35
32
24
21
22
26
26
26
79
77
72
91
84
81
82
76
73
57
52
52
26
20
20
28
22
22
18
17
16
107
91
77
180
158
135
173
150
128
150
128
108
149
132
114
159
143
126
185
169
150
193
175
155
218
206
192
225
213
194
224
199
176
219
190
165
218
188
161
216
190
166
212
187
162
203
173
149
191
159
136
171
139
119
132
94
82
124
86
75
168
142
122
183
157
137
167
141
126
151
125
110
144
118
99
142
117
97
142
116
100
140
113
97
131
102
83
123
93
77
126
100
85
128
102
87
112
86
73
95
72
61
89
69
58
92
72
62
99
80
72
100
84
75
96
79
71
86
70
63
43
38
36
27
26
26
24
24
24
44
42
41
88
82
82
83
77
77
81
75
75
40
34
34
32
26
26
47
45
45
103
92
85
180
160
143
172
152
135
147
129
113
136
120
105
139
122
106
174
158
142
216
206
189
223
213
195
225
211
191
227
206
184
225
204
182
224
200
176
217
190
165
205
174
151
189
157
135
174
141
121
163
130
112
144
109
95
170
138
120
193
169
148
179
154
137
161
135
120
144
118
103
131
106
90
126
101
85
128
103
87
133
108
92
136
112
96
135
112
96
130
105
90
121
100
87
111
91
81
97
78
71
89
70
63
86
70
62
93
77
69
97
83
74
92
78
69
81
67
59
38
34
32
25
25
25
23
23
23
26
24
23
73
68
66
87
82
81
85
79
79
71
65
65
38
32
32
48
47
47
50
44
39
151
134
114
152
130
111
138
117
101
161
143
127
185
170
153
201
188
171
216
201
184
222
208
188
224
209
190
225
207
189
223
203
182
220
197
173
209
183
159
195
167
145
176
146
125
162
130
113
153
119
105
141
109
96
168
139
122
177
151
134
164
138
123
147
121
106
134
109
94
128
103
88
124
101
85
123
101
84
124
100
85
129
105
90
139
116
100
138
115
99
123
100
88
103
84
73
94
77
68
90
74
66
88
74
65
93
79
70
101
87
78
96
82
74
80
67
59
39
35
33
26
26
25
22
22
22
23
23
23
45
42
42
78
72
72
83
78
77
76
72
72
54
50
49
6
6
7
66
56
48
165
147
130
173
153
134
161
141
124
156
136
121
149
130
113
177
158
137
212
196
175
211
194
171
218
201
180
224
206
187
226
205
182
222
198
174
210
185
162
194
169
146
171
144
125
151
122
108
135
104
92
120
92
80
144
117
104
162
136
121
154
128
113
140
114
100
129
104
90
123
100
86
120
97
83
118
95
81
118
95
82
121
98
84
126
103
87
129
107
92
123
102
90
101
83
73
87
71
62
84
70
61
84
70
61
91
77
68
101
87
78
95
81
73
78
68
60
54
49
48
45
44
44
41
41
41
38
38
38
41
39
39
65
60
60
76
71
71
69
65
64
63
58
58
66
60
56
149
128
111
192
170
148
161
137
116
135
111
94
134
111
95
162
139
123
193
172
155
211
195
175
221
208
188
219
206
185
225
205
183
224
203
179
214
190
166
199
174
152
182
157
138
159
133
118
134
108
95
111
85
75
82
60
53
103
80
71
141
114
102
146
120
107
138
111
99
130
105
93
125
101
89
120
99
85
116
94
81
114
90
78
112
88
76
114
90
77
122
99
87
122
104
90
109
94
83
96
82
73
88
74
65
76
61
53
79
64
56
92
78
69
83
70
61
61
51
43
31
26
25
21
21
21
24
24
24
26
26
26
29
28
28
50
48
47
66
63
62
78
72
70
80
75
72
66
58
52
164
140
118
182
157
133
172
147
124
159
134
117
151
126
111
167
142
127
197
177
160
206
187
170
193
173
153
189
167
144
210
186
162
211
186
163
199
174
152
183
158
138
162
136
121
134
108
96
97
74
67
60
44
40
40
27
28
49
35
34
98
75
68
126
99
89
131
104
93
129
103
91
126
101
89
121
99
86
117
97
84
112
93
79
109
89
75
107
85
73
109
86
74
109
91
77
106
91
80
102
88
79
100
86
77
95
79
71
92
76
68
93
79
70
84
70
61
57
46
41
26
21
22
17
17
17
17
17
17
19
19
19
23
24
23
34
33
33
88
84
83
125
120
116
132
127
121
97
85
72
183
155
132
186
158
135
178
151
128
157
133
111
148
125
110
158
135
119
173
150
134
186
163
145
193
170
147
186
162
138
197
173
149
183
159
137
168
142
123
151
123
110
123
94
84
96
69
64
76
55
54
63
47
47
56
42
42
57
43
45
70
52
51
91
66
63
113
86
80
122
97
87
123
99
87
119
97
84
114
95
81
109
90
76
105
86
74
105
86
73
105
87
74
102
85
74
96
81
70
91
76
67
87
73
64
84
69
61
89
72
64
94
79
70
88
74
65
57
47
41
22
18
18
14
14
14
15
15
15
17
18
18
20
20
20
25
25
24
105
102
97
146
141
135
150
145
139
135
120
103
184
158
135
179
148
125
172
142
119
163
139
116
153
129
111
143
119
103
145
123
107
180
156
139
181
158
137
171
147
125
167
141
122
155
129
112
138
111
98
114
85
76
122
87
82
133
99
95
110
82
79
101
78
75
96
74
70
93
70
70
91
67
67
86
59
58
85
57
55
104
79
73
114
91
80
115
95
82
111
92
78
105
85
71
102
81
68
103
84
72
103
87
75
99
82
74
90
73
65
82
65
57
77
63
54
76
62
53
76
61
52
82
66
58
88
74
66
74
62
57
42
37
37
28
27
27
24
25
25
24
24
24
25
25
25
28
28
27
70
67
64
162
157
150
163
158
152
122
101
83
189
160
136
188
157
132
172
140
119
172
145
122
150
125
105
132
109
93
149
126
111
167
146
129
170
149
133
166
143
125
152
127
112
139
112
99
120
93
83
118
86
79
190
146
139
197
153
146
160
123
116
150
118
111
146
114
108
140
108
101
142
110
103
116
84
79
85
57
55
80
58
55
100
80
72
109
89
77
108
88
75
106
83
71
104
81
69
103
84
73
102
85
76
97
80
72
90
73
65
83
66
59
73
59
50
65
51
43
64
50
41
71
56
47
78
63
55
64
53
46
31
26
25
15
15
15
11
12
11
11
12
11
12
12
12
15
15
15
26
26
24
127
123
118
166
160
154
137
115
96
193
163
137
192
164
139
189
160
136
175
145
122
150
125
104
150
127
110
169
147
131
177
158
141
185
168
150
171
152
134
152
127
113
133
106
96
118
91
82
142
101
96
198
145
139
201
152
144
189
146
137
189
151
141
192
155
144
192
156
145
200
163
153
152
110
104
99
69
66
79
58
57
93
72
67
104
84
75
107
87
76
108
87
76
108
88
77
104
87
77
100
83
75
96
79
71
90
73
65
83
66
58
73
58
51
66
52
44
67
53
44
72
58
50
68
57
50
43
35
31
21
16
17
10
10
10
9
9
9
8
8
8
10
10
10
11
11
11
15
15
15
60
58
55
157
150
143
119
99
82
196
170
146
205
179
154
193
164
138
178
148
123
160
135
112
163
138
116
173
150
133
182
162
145
196
177
160
189
170
153
165
142
127
140
114
103
127
100
90
151
107
100
187
130
122
196
140
130
196
146
139
209
168
158
221
187
175
225
192
181
223
187
177
169
120
113
109
77
73
87
66
64
95
77
71
107
90
82
112
97
86
113
98
87
111
96
87
106
89
81
97
80
72
89
72
64
85
69
61
80
64
56
73
59
50
71
57
49
72
57
49
68
55
47
41
34
28
13
12
12
7
6
6
6
6
6
6
6
6
5
5
5
6
6
6
7
7
7
11
11
11
22
22
21
112
109
104
114
95
79
187
161
138
207
181
156
202
176
152
184
159
134
165
139
116
154
126
106
150
125
107
155
131
114
188
166
150
200
180
163
184
163
148
157
132
119
138
110
99
152
108
101
177
119
112
183
124
119
187
132
127
209
165
156
225
188
177
223
181
172
206
156
149
164
111
106
107
76
72
95
73
68
105
87
81
115
99
90
118
104
95
116
102
93
109
95
86
101
84
76
90
73
65
81
64
56
78
62
54
78
63
55
76
62
53
75
61
53
79
64
56
64
51
45
22
19
18
6
6
6
4
4
4
4
4
4
4
4
4
4
4
4
4
4
4
5
5
5
7
8
8
12
13
13
30
31
30
86
69
56
168
143
120
203
178
154
205
181
157
184
160
136
163
138
115
145
116
94
134
105
84
143
117
98
170
145
130
196
175
158
201
181
164
180
158
142
158
130
116
159
115
106
170
113
108
172
114
110
176
118
114
196
141
136
209
159
152
207
152
147
187
126
123
150
100
94
108
80
75
108
86
80
116
98
91
122
106
97
120
106
97
113
99
90
100
85
76
90
73
65
80
62
54
73
56
48
74
58
50
79
63
55
81
67
58
79
65
57
75
61
54
51
42
37
26
24
24
14
14
14
5
6
6
4
5
4
3
4
3
4
4
4
4
4
4
4
4
4
6
6
6
9
11
10
14
16
15
80
65
53
163
134
113
190
165
141
197
173
149
184
160
137
171
147
124
160
133
111
154
128
107
145
118
102
152
126
111
183
160
144
202
183
166
198
179
162
188
163
148
175
137
122
167
114
106
165
108
103
168
110
106
178
119
115
192
130
127
191
127
125
168
107
104
138
93
87
118
91
82
120
98
89
124
107
96
125
110
98
118
104
94
103
89
80
85
69
61
77
60
52
74
54
47
72
54
47
76
59
51
83
66
58
86
70
62
81
66
59
64
50
45
26
20
19
12
12
12
14
14
14
12
12
12
8
9
8
6
6
6
5
5
5
5
5
5
5
5
5
6
6
6
8
9
9
11
13
12
93
75
63
162
131
111
174
143
120
178
151
128
177
151
128
170
144
122
182
159
136
169
146
128
156
131
116
150
125
110
160
137
122
176
157
143
190
171
155
194
172
155
184
154
135
165
120
108
159
105
99
161
103
99
168
109
105
178
115
112
177
113
110
154
100
95
132
98
88
126
103
91
128
107
96
127
110
101
122
107
97
112
96
87
92
78
69
75
59
51
71
53
45
73
53
46
79
60
52
82
65
57
85
69
61
84
67
60
75
61
57
50
39
36
16
13
13
6
7
7
5
5
5
6
6
6
8
8
8
9
9
9
9
9
9
8
8
8
7
7
7
7
7
7
8
10
9
11
13
12
104
87
74
166
136
114
172
140
117
161
130
108
138
107
86
143
115
93
158
133
112
152
126
109
130
106
91
108
88
74
107
89
78
128
108
97
154
135
120
178
156
141
177
151
136
158
120
109
152
103
96
155
99
94
162
104
100
168
106
103
160
103
98
142
100
91
131
103
91
126
106
94
125
106
97
119
104
95
108
93
85
92
75
67
76
61
53
70
55
46
71
53
45
77
58
50
83
65
57
86
69
61
83
67
59
73
59
51
59
47
44
42
33
32
18
13
14
6
6
6
4
4
4
4
4
4
4
4
4
5
5
5
7
7
7
9
9
9
10
10
10
11
12
12
14
16
15
18
20
19
131
113
94
182
153
128
181
149
124
161
129
107
135
103
82
137
110
90
139
113
96
124
98
84
96
72
59
79
60
51
70
53
46
84
68
59
104
86
76
134
114
102
146
122
108
149
114
102
147
103
94
148
98
91
153
99
95
155
99
96
147
100
92
136
104
93
127
104
91
118
99
86
109
91
81
97
80
72
85
69
61
73
57
49
64
49
41
67
52
44
72
55
47
73
57
49
76
60
52
75
59
52
70
54
46
59
46
40
42
32
29
32
25
24
21
16
16
6
6
6
4
4
4
3
3
3
3
3
3
3
3
3
3
3
3
4
4
4
5
5
5
9
10
10
15
17
16
19
21
20
168
143
118
193
162
135
187
156
131
169
139
116
150
121
99
136
109
90
129
103
88
109
84
69
87
64
53
62
43
35
57
40
33
65
47
40
79
60
53
96
76
68
109
87
75
132
105
92
140
105
93
141
98
90
142
95
90
141
95
90
137
101
92
131
106
94
119
99
86
100
82
71
84
67
58
71
54
47
64
49
42
62
48
40
59
44
37
64
49
42
68
52
44
66
50
43
63
48
41
59
44
38
53
40
34
44
34
30
32
23
22
25
19
19
20
15
15
10
7
8
4
4
4
4
4
4
3
3
3
3
3
3
3
3
3
3
3
3
4
4
4
6
6
6
11
12
11
14
16
15
184
154
128
194
163
135
191
160
132
179
151
126
163
138
115
138
112
92
117
92
77
100
76
62
85
65
52
83
63
53
78
58
48
73
53
46
73
53
46
74
55
48
83
63
54
104
81
71
119
91
81
123
91
81
123
88
80
123
90
83
123
96
86
113
92
81
94
76
65
78
61
52
68
52
45
60
45
38
57
42
35
56
41
35
55
40
33
56
41
34
55
40
33
51
36
29
49
34
29
48
34
31
45
34
30
37
27
25
26
18
17
18
12
12
21
15
16
16
11
11
8
7
7
5
5
5
4
4
4
4
4
4
4
4
4
4
4
4
4
4
4
7
7
7
12
13
12
15
17
16
191
160
133
195
164
136
197
166
138
191
160
134
166
138
115
134
108
88
112
86
71
101
77
64
97
75
62
97
75
62
90
66
54
75
54
44
58
39
32
56
38
32
65
47
40
73
54
46
76
56
48
79
59
51
79
56
49
80
60
52
81
62
54
72
55
47
61
45
38
57
41
34
55
40
33
53
38
31
50
35
31
49
34
31
45
31
27
44
30
26
47
32
29
47
33
29
45
31
28
42
31
27
41
30
26
31
22
21
20
14
14
15
9
9
21
15
15
20
14
14
15
9
10
6
5
5
3
3
3
3
3
3
3
3
3
3
3
3
4
4
4
6
6
6
11
12
12
14
16
15
189
158
131
200
169
141
204
173
144
192
160
131
163
132
106
138
111
89
127
101
83
119
94
77
111
86
71
99
74
59
88
62
50
79
55
44
68
46
38
55
36
30
56
36
30
56
37
30
53
35
32
46
31
28
48
32
29
47
32
29
48
33
30
48
33
29
47
32
27
47
32
26
46
32
26
44
29
25
41
27
24
41
28
25
39
28
24
39
28
24
42
29
25
46
31
28
46
32
29
42
31
27
39
29
25
31
22
21
21
15
15
16
10
10
21
15
15
23
17
17
18
12
12
8
6
7
4
4
4
3
3
3
3
3
3
3
3
3
4
4
4
6
6
6
10
11
11
14
16
15
