P3
100 100
255
33
68
37
35
69
37
37
69
40
37
71
40
43
72
44
39
75
44
40
77
45
40
79
45
41
80
49
42
82
52
43
81
51
42
80
47
38
79
45
38
78
43
33
77
41
34
75
39
34
74
39
30
74
37
30
73
37
28
72
36
32
72
35
32
74
37
32
73
36
34
73
36
38
74
38
38
74
38
40
72
38
42
70
38
44
70
38
46
73
42
46
75
44
45
76
44
45
76
45
44
75
45
39
77
45
41
77
47
38
77
46
38
77
44
38
77
46
38
79
48
42
80
50
43
82
53
41
83
55
40
82
54
40
81
51
36
79
47
34
75
42
29
71
36
28
69
34
29
70
32
30
72
32
30
74
31
32
75
32
35
77
34
34
79
35
39
83
39
40
85
40
39
86
42
40
86
43
41
90
44
43
94
49
45
94
51
46
95
53
46
96
51
47
96
51
44
95
52
43
94
52
44
90
51
42
88
50
38
84
46
36
83
43
38
81
40
38
80
38
36
78
38
35
77
35
33
73
32
32
73
31
37
76
35
45
81
43
48
87
48
48
91
49
47
92
51
48
92
54
50
92
51
51
92
51
52
91
52
52
92
53
53
93
54
55
94
54
55
96
56
58
96
59
60
94
57
59
92
56
57
90
52
53
89
46
51
88
44
47
87
43
47
88
42
45
91
41
43
92
42
37
68
38
35
70
37
37
69
39
38
72
41
41
74
44
40
75
43
37
77
44
41
78
45
44
80
49
44
82
50
45
81
50
43
80
47
40
79
46
39
79
43
36
79
42
37
76
41
41
77
40
41
78
41
32
77
40
31
76
40
34
76
38
37
75
38
36
75
38
36
75
39
37
77
39
44
76
40
43
75
40
42
72
39
45
72
39
46
75
42
49
77
45
49
76
46
48
77
46
47
77
47
45
76
45
43
76
46
44
77
47
39
78
47
41
77
47
40
78
49
44
79
51
43
83
53
44
83
54
40
82
52
39
81
49
37
78
45
36
74
41
32
72
35
31
70
33
31
72
34
31
73
32
33
75
31
35
76
32
39
79
35
43
82
38
49
87
43
47
87
42
44
88
42
44
89
46
47
93
48
48
95
52
49
97
54
48
98
55
48
98
54
48
98
54
49
98
53
50
96
55
46
94
53
44
92
52
40
89
46
41
88
43
41
87
42
40
84
41
39
82
40
36
80
37
35
78
34
35
77
33
40
81
38
47
86
44
50
92
48
52
96
50
52
97
53
52
97
53
55
96
54
54
97
53
55
97
54
59
96
54
59
98
56
58
98
58
59
100
59
60
100
59
60
99
58
58
96
55
58
95
53
55
93
50
52
92
48
50
92
45
50
93
44
48
94
43
47
95
43
35
70
37
34
71
38
35
72
39
37
73
42
40
75
44
40
76
43
41
76
44
42
77
45
42
79
48
42
81
49
46
82
50
43
82
47
43
81
47
41
81
46
40
79
44
37
79
43
41
79
44
89
93
51
44
80
42
36
79
42
36
79
42
36
78
41
37
78
40
37
78
41
41
79
42
42
78
42
44
77
44
46
75
43
47
74
42
47
75
43
51
78
47
51
78
47
50
78
47
45
77
46
46
76
45
48
77
46
50
79
48
47
79
48
44
78
48
43
78
49
43
81
51
43
82
52
43
83
54
40
84
52
40
81
51
34
79
45
33
75
41
31
74
36
33
73
34
33
75
34
33
75
34
34
76
34
37
78
35
40
82
37
65
89
44
69
92
47
62
92
44
52
91
45
47
93
47
51
94
52
51
97
53
50
100
54
49
102
56
49
101
56
49
100
55
49
100
53
50
98
56
46
98
53
44
96
52
42
94
50
41
92
46
40
92
45
39
91
42
39
88
41
38
84
39
37
82
37
36
81
35
42
84
39
46
90
45
50
96
50
55
99
53
53
101
54
53
100
54
57
100
55
56
101
57
59
100
58
62
100
59
62
101
60
61
103
61
60
105
61
62
106
61
64
102
60
63
99
58
60
99
56
58
98
52
55
96
50
52
98
46
53
98
47
46
99
46
50
99
47
36
72
38
36
72
37
36
73
39
39
74
42
41
75
44
41
77
43
42
77
44
41
78
45
43
79
46
42
82
48
46
83
50
47
83
50
43
85
49
43
84
48
40
83
46
42
81
46
43
81
43
112
98
54
110
98
57
64
84
46
44
81
45
43
80
43
41
81
43
41
81
45
43
81
44
43
79
43
43
79
44
46
77
43
46
75
43
49
76
44
50
78
47
52
79
47
52
79
48
50
77
47
50
78
47
52
78
48
54
80
49
52
80
50
48
80
50
48
81
51
49
83
53
44
84
53
42
85
53
43
85
53
44
83
51
40
80
46
37
78
42
34
76
38
35
77
36
38
78
35
38
78
36
36
79
36
42
81
37
86
100
66
133
116
71
140
122
83
117
106
57
65
95
49
56
95
50
50
99
53
50
101
55
52
103
57
53
104
56
51
104
56
51
104
56
50
102
55
49
100
56
48
100
54
49
99
53
44
98
51
44
97
48
45
96
47
42
95
45
44
92
44
41
90
41
39
86
39
39
87
38
41
90
41
49
94
46
52
98
51
54
103
54
57
105
56
56
105
57
57
105
57
60
106
60
63
105
61
62
106
61
63
107
60
60
107
62
60
108
62
63
109
63
62
107
61
62
104
58
61
104
57
58
103
55
58
102
52
53
102
50
56
101
51
53
103
51
51
104
49
39
72
37
37
72
39
38
74
41
37
77
42
37
78
43
39
78
44
44
79
45
41
78
45
44
80
45
46
82
48
47
84
50
47
86
51
46
87
51
46
86
51
44
85
49
45
83
47
50
84
46
116
102
58
158
109
57
136
108
66
76
87
47
48
83
45
42
84
47
44
84
47
43
83
46
45
81
45
46
81
45
48
78
44
46
77
44
49
77
43
51
79
46
52
80
47
53
80
47
54
80
48
53
80
49
54
80
50
56
81
51
54
81
51
54
81
51
52
82
53
49
85
52
49
87
55
47
88
55
46
86
54
43
84
49
40
82
46
41
80
42
35
80
40
40
80
39
40
81
37
42
80
39
44
82
39
127
123
94
224
199
174
218
184
160
213
162
130
189
140
90
135
114
63
88
107
59
52
101
53
51
104
55
53
106
57
55
107
58
52
107
57
53
105
57
51
104
56
50
105
56
51
104
56
49
103
54
47
102
53
50
101
52
48
99
50
45
99
48
46
96
44
49
93
43
41
92
39
43
92
41
44
95
44
47
98
47
51
102
52
55
106
55
56
108
56
58
108
56
59
109
58
62
110
61
63
110
61
63
109
63
65
110
64
60
112
63
63
112
64
62
113
64
66
110
64
64
109
61
61
107
60
61
107
56
60
106
53
57
106
52
58
105
52
56
107
52
52
108
53
38
74
36
38
75
39
40
77
41
42
79
43
43
80
45
42
81
45
42
81
45
45
81
46
47
81
47
49
83
49
48
85
50
49
89
52
49
88
52
47
89
52
45
88
50
47
87
48
60
88
49
134
111
63
186
123
78
198
143
104
179
133
92
101
95
51
48
87
51
47
86
50
46
84
49
48
82
47
48
82
47
50
80
45
48
78
44
51
77
44
52
78
46
54
82
46
55
83
48
55
82
52
54
83
50
55
82
51
58
83
52
58
84
52
55
85
52
52
87
53
52
88
52
50
92
55
50
90
55
49
88
53
44
86
51
45
84
48
44
83
45
43
84
42
45
84
42
43
85
41
42
84
40
96
100
62
219
194
171
208
169
150
214
184
175
211
177
169
209
156
140
211
165
140
138
131
95
54
103
54
53
106
57
54
107
58
59
108
59
51
109
57
53
107
57
54
106
57
55
107
57
54
107
57
54
107
56
52
106
54
53
105
53
50
105
52
48
102
49
49
100
47
47
98
44
48
97
44
48
98
43
47
99
44
48
103
46
51
106
51
56
109
55
59
112
57
60
113
58
61
114
60
65
115
61
65
115
62
64
113
64
68
114
65
65
115
65
65
116
65
64
116
65
66
114
64
64
113
62
63
110
61
65
111
58
62
111
56
60
111
55
60
111
55
60
112
55
56
113
56
37
76
37
38
77
39
40
81
41
43
81
44
46
82
46
44
82
47
44
82
46
44
82
46
47
82
49
51
84
49
51
87
51
53
90
52
53
91
52
51
90
52
51
89
49
49
90
49
73
93
51
185
139
99
183
135
104
173
124
97
190
148
121
201
158
123
99
98
60
50
90
52
49
89
51
51
86
50
53
84
51
50
82
47
50
81
46
51
81
45
52
81
45
56
83
48
57
85
50
58
84
52
57
85
52
56
85
52
60
85
52
60
85
52
59
87
53
54
90
53
54
91
54
52
94
56
51
92
57
50
89
54
47
89
52
47
88
49
46
87
46
46
89
44
48
90
45
46
90
43
45
89
41
187
159
129
203
164
142
190
136
120
192
132
117
187
116
101
186
108
90
182
105
79
165
142
115
60
105
57
59
108
59
56
111
58
54
114
58
50
113
57
51
111
56
53
110
55
56
111
57
53
111
58
52
110
57
54
110
55
53
110
55
51
109
52
51
107
50
50
104
47
49
103
46
51
102
46
48
103
45
50
104
47
52
106
48
54
109
51
57
113
55
57
116
57
63
117
59
63
116
60
64
118
61
67
119
64
68
117
64
68
118
65
69
118
65
69
120
65
67
119
65
65
117
63
64
116
61
65
115
60
63
115
59
59
115
57
59
116
58
61
114
58
61
116
57
60
117
57
40
77
38
39
80
41
39
82
43
45
84
44
46
84
48
47
83
47
45
82
46
47
83
47
47
86
47
49
89
49
51
90
51
51
91
52
51
92
51
53
90
51
53
91
50
53
92
50
82
95
53
186
145
115
165
99
72
174
111
89
182
131
110
182
132
104
196
155
122
89
102
65
52
92
55
53
90
53
54
88
51
52
85
49
53
84
49
53
84
48
55
85
47
57
85
48
58
87
51
60
88
52
57
90
52
61
89
54
61
89
54
60
89
52
62
90
53
56
92
54
54
94
56
57
96
57
56
94
58
53
92
55
50
93
51
48
92
49
45
93
47
49
94
47
51
95
46
51
95
45
116
117
79
203
155
123
194
138
122
197
146
137
193
141
131
186
109
89
186
105
83
176
85
62
163
121
94
75
110
60
58
111
57
57
114
59
56
117
59
53
116
57
50
115
56
53
114
56
56
114
57
51
115
58
52
114
57
54
113
56
53
115
56
51
113
53
52
111
52
51
109
49
52
107
49
50
106
49
50
107
49
50
109
50
51
110
49
54
112
50
58
115
52
59
119
58
60
120
59
64
119
59
66
121
63
70
121
65
68
119
63
68
121
65
67
122
67
67
122
66
66
121
64
65
120
64
65
118
62
64
118
61
62
118
60
61
118
59
62
117
58
64
118
59
61
119
57
61
120
58
40
80
37
41
83
40
43
84
42
45
85
45
47
86
47
46
86
47
47
85
48
47
86
49
49
89
48
51
91
50
54
92
53
54
93
54
53
93
52
54
93
53
53
94
52
54
95
51
134
127
94
176
120
94
178
108
83
187
124
104
194
141
121
191
141
121
188
145
120
185
155
122
61
96
56
56
94
55
55
92
53
56
90
52
54
90
50
56
89
50
56
90
49
55
91
49
57
91
50
62
91
52
63
93
54
65
93
56
64
93
55
62
92
53
61
94
53
58
95
54
59
98
55
59
98
58
58
97
58
54
95
56
54
97
52
50
96
49
49
96
49
54
98
49
50
100
50
59
99
48
196
168
136
189
135
112
194
132
113
199
150
143
191
140
132
193
133
124
190
112
90
184
87
63
169
108
85
102
121
78
58
115
59
58
117
61
60
120
61
54
118
58
50
118
58
51
117
56
56
118
59
56
117
58
54
117
57
57
117
57
55
118
54
52
117
52
54
115
51
50
115
49
55
112
51
53
111
49
51
113
47
52
113
49
53
115
47
53
117
49
58
120
52
64
121
56
61
123
56
63
121
58
68
123
63
67
124
65
68
123
64
69
123
66
70
124
67
68
125
67
63
124
64
63
122
63
64
121
62
63
120
61
62
121
59
62
121
56
62
121
56
64
120
57
62
122
56
61
124
57
43
83
40
43
85
41
41
87
42
43
89
46
46
89
47
48
89
48
47
89
49
51
90
50
49
93
50
54
94
52
56
94
54
56
94
55
58
96
55
57
96
55
57
96
55
62
98
56
163
148
122
172
90
63
191
113
88
194
120
99
196
132
114
197
138
115
194
142
116
188
136
103
153
128
93
61
99
57
60
95
56
58
95
54
56
95
51
58
95
51
56
96
51
60
95
51
59
95
51
61
95
52
61
97
53
63
98
55
63
97
54
60
95
50
60
96
53
60
99
56
60
101
57
60
101
58
60
100
57
58
100
57
55
101
55
53
100
53
54
100
52
56
103
53
59
104
53
129
132
95
202
154
123
195
135
115
202
159
145
197
156
143
185
126
114
188
115
102
195
114
93
194
106
79
162
71
49
124
134
97
56
118
61
58
121
62
60
122
62
58
121
61
56
121
57
53
121
57
55
121
59
54
121
58
55
120
58
54
121
57
55
121
54
54
120
52
53
119
51
54
118
49
55
117
50
56
116
50
54
117
49
53
118
48
52
119
48
52
120
50
55
123
54
59
125
55
62
126
55
62
125
58
66
126
61
69
126
63
68
126
61
67
126
63
70
127
64
68
127
64
65
125
62
67
125
60
64
124
58
63
123
58
63
123
58
62
124
55
64
124
55
63
125
55
63
127
56
61
128
57
44
86
42
43
89
41
44
90
44
45
91
46
43
92
48
49
92
49
51
91
52
51
93
53
54
96
52
57
96
53
57
96
55
59
96
58
60
98
59
59
100
58
60
100
58
69
101
61
170
144
118
182
96
67
195
109
83
195
127
106
194
128
112
197
141
122
199
137
116
187
130
104
198
159
127
94
109
71
63
101
59
63
100
57
61
100
55
62
100
53
58
100
52
59
98
54
61
98
54
61
99
53
61
101
53
60
101
54
62
99
54
61
98
52
60
101
55
59
104
57
62
104
59
62
105
59
64
103
58
63
103
59
61
105
57
60
106
55
59
106
54
59
108
55
63
109
55
190
170
141
183
113
86
194
134
114
188
126
106
180
115
107
184
121
115
197
140
130
202
128
107
194
101
72
168
65
43
118
123
80
60
121
61
58
122
61
59
124
60
57
124
58
56
124
55
56
125
54
58
124
58
57
123
57
56
123
56
56
123
57
53
124
53
54
125
52
53
123
51
56
122
51
54
121
50
55
120
51
54
121
52
53
122
50
54
123
50
54
124
50
56
126
54
57
126
56
59
128
57
63
128
57
64
129
60
68
129
60
65
129
61
67
128
61
69
129
63
67
128
63
62
128
61
62
127
58
62
127
58
61
127
58
61
125
57
61
126
55
62
127
57
61
128
57
60
129
58
59
132
58
45
90
43
43
92
43
45
92
44
46
93
46
47
94
50
52
94
51
52
96
52
54
98
53
57
99
54
59
99
56
59
100
56
60
100
58
63
102
60
63
103
61
65
104
61
75
107
62
179
144
124
189
98
69
203
123
95
197
122
103
190
127
113
194
141
125
198
147
131
192
136
112
183
128
98
176
146
115
68
106
60
64
106
60
63
106
58
63
105
56
61
104
57
60
103
55
61
104
56
64
105
55
63
105
56
65
104
56
63
103
54
62
101
54
64
105
55
62
107
58
63
108
61
61
108
61
66
107
61
66
108
61
64
110
61
62
110
58
60
113
58
65
114
57
113
126
79
208
166
140
189
129
109
184
122
102
186
132
120
186
136
127
191
136
127
202
152
140
204
131
105
195
97
67
177
79
54
131
129
87
57
123
58
56
125
59
60
126
57
57
127
57
55
128
56
56
128
57
59
127
56
56
126
55
57
126
55
55
125
52
55
126
53
54
127
52
57
127
51
58
126
52
57
124
54
54
125
53
55
126
52
57
126
52
58
127
53
57
128
52
58
129
51
59
129
53
60
130
57
62
131
58
63
130
59
63
131
59
65
131
59
65
132
61
67
132
62
65
131
60
63
130
59
61
130
58
62
129
58
61
128
57
61
128
57
60
128
56
60
130
57
62
131
56
61
131
57
60
135
58
46
92
42
47
94
43
43
94
45
48
96
46
50
97
50
52
98
51
53
99
53
57
101
55
60
101
57
61
103
58
64
103
59
64
103
61
65
106
61
64
108
63
69
108
65
79
110
65
182
143
123
198
103
72
211
126
98
203
130
113
195
134
122
192
136
124
193
140
125
196
148
130
186
121
93
189
145
116
127
129
95
70
112
63
67
111
61
64
110
59
61
109
57
62
108
57
64
108
58
66
110
57
66
109
58
65
109
56
65
107
55
67
104
57
67
109
57
65
111
61
66
113
62
65
113
61
67
112
61
67
113
62
67
115
62
64
116
60
67
117
60
77
118
58
183
162
125
184
121
93
189
134
117
185
130
119
185
140
128
190
139
131
200
163
156
202
143
129
199
109
82
186
86
57
176
75
50
152
132
101
60
125
60
57
126
58
57
128
57
54
129
56
54
129
57
59
130
57
56
130
56
56
128
56
56
129
54
57
129
52
55
129
52
57
129
50
58
129
51
61
129
52
59
130
52
59
128
53
59
129
55
57
129
55
56
130
53
54
132
52
55
132
50
55
132
52
59
132
55
61
133
56
64
133
58
64
133
59
66
133
59
67
133
61
67
133
60
67
133
58
63
132
58
63
133
57
63
132
59
63
131
59
63
131
60
64
131
57
62
132
57
63
133
56
60
133
54
57
137
56
48
95
44
47
96
43
46
98
44
46
100
48
50
101
52
54
101
54
55
102
55
60
105
58
62
105
60
63
106
60
64
106
61
65
108
62
64
110
64
69
112
65
74
115
69
87
117
71
194
150
131
206
99
65
215
136
104
210
146
129
202
158
149
195
148
135
193
149
135
193
145
127
189
135
109
182
123
93
192
165
139
74
115
63
67
116
63
65
115
60
65
114
59
67
114
60
65
114
60
67
115
60
67
114
59
66
113
58
68
113
59
68
112
58
68
115
59
69
116
63
67
118
63
67
118
62
70
117
63
68
118
63
69
120
64
69
120
63
71
121
62
102
122
62
205
164
132
180
114
87
182
127
107
188
144
131
187
139
126
180
120
109
181
106
89
189
105
78
195
108
79
179
88
61
173
75
51
167
131
107
59
128
58
55
129
56
57
130
55
56
130
56
53
131
56
56
132
57
55
131
55
56
130
52
55
131
52
52
132
50
54
132
50
55
132
49
57
133
51
55
132
52
60
131
53
60
131
54
59
131
52
61
132
54
56
134
51
59
135
52
55
135
52
56
134
53
57
136
54
57
137
57
59
137
55
65
136
56
66
135
58
62
136
58
63
136
56
60
135
56
64
135
57
64
134
57
66
133
59
66
133
60
66
134
60
63
134
58
63
134
55
60
135
54
59
137
54
59
139
57
48
98
45
46
99
45
46
101
46
50
104
50
52
105
53
57
105
55
56
107
55
60
109
60
63
109
60
63
109
62
64
111
62
67
112
65
69
114
66
69
115
67
72
118
69
102
127
85
194
147
132
201
92
61
214
126
95
212
153
135
198
142
130
188
133
123
181
117
104
179
114
96
176
107
82
185
125
96
189
141
111
143
137
100
74
119
64
69
118
62
66
118
62
69
118
63
69
119
61
68
118
60
68
118
60
67
117
60
68
117
61
69
117
62
69
119
64
70
120
64
72
120
65
70
120
64
73
121
64
71
122
66
74
123
67
76
124
66
87
125
62
181
165
127
185
125
94
173
107
86
179
128
116
181
130
119
178
120
112
183
133
127
180
124
111
184
106
86
188
104
74
173
86
60
173
83
62
159
112
89
61
128
58
57
130
56
54
132
54
53
133
55
52
133
54
53
134
54
52
134
52
54
131
51
53
133
51
51
134
51
52
134
49
54
134
48
55
135
50
54
135
51
55
134
52
54
135
52
56
135
54
61
135
55
56
136
53
58
136
54
54
138
54
58
138
55
58
138
55
61
138
58
60
139
58
59
139
57
59
138
57
58
138
56
63
136
56
63
136
58
64
135
57
63
135
60
66
134
60
68
135
60
67
136
61
66
136
58
61
137
55
59
138
55
58
140
56
62
140
58
48
102
47
47
102
47
49
104
49
53
106
52
56
108
56
54
110
55
56
111
58
61
113
62
65
113
62
65
113
64
68
115
65
73
116
67
72
117
67
74
118
67
75
120
68
120
136
98
195
134
119
192
93
67
209
134
113
213
166
152
203
154
143
193
145
139
187
136
126
187
138
126
184
135
119
179
120
97
178
119
89
188
151
119
89
120
63
76
122
66
72
122
66
70
122
66
69
122
64
68
122
60
68
121
61
70
122
62
71
122
61
73
123
64
74
123
66
72
124
66
72
125
65
71
125
66
72
125
68
73
126
69
76
128
69
90
127
66
126
129
67
213
173
138
184
124
97
181
135
120
184
145
132
184
153
141
185
152
146
181
145
139
178
129
122
185
123
108
177
95
72
161
69
49
168
78
59
159
103
84
63
130
57
56
131
52
54
133
51
54
135
52
56
135
52
53
135
52
54
135
51
55
135
50
56
136
49
58
135
52
53
136
49
53
136
46
55
136
50
54
136
50
53
137
52
54
137
52
57
137
53
55
139
54
58
138
55
56
139
56
56
140
57
60
140
57
59
140
57
62
140
58
62
140
59
62
139
57
62
139
58
59
139
57
61
139
56
61
138
56
63
138
58
68
136
59
67
136
60
68
137
61
63
138
60
63
138
58
66
138
57
63
138
57
62
141
58
63
142
58
48
107
48
50
107
50
54
108
52
55
112
54
54
113
57
57
114
56
58
115
58
64
117
63
65
117
63
67
118
64
67
119
67
71
119
70
73
121
67
74
121
68
75
122
69
137
147
111
193
113
92
194
102
73
195
99
69
201
120
93
192
111
88
189
125
112
192
150
144
188
144
134
183
134
121
178
130
109
175
116
86
182
130
97
166
140
99
102
124
67
77
127
67
72
127
65
70
126
63
68
125
60
69
125
59
70
126
60
72
127
62
77
128
65
77
128
65
78
127
67
73
129
63
73
129
62
74
129
66
77
130
67
83
132
68
132
134
76
208
172
136
198
145
116
179
125
102
183
143
123
181
146
133
178
141
131
166
116
110
158
103
97
155
82
73
161
75
57
162
68
41
150
66
47
165
80
64
155
93
74
66
133
58
57
133
51
57
134
51
54
137
53
54
137
52
54
138
52
54
138
50
54
138
49
53
138
47
55
138
49
54
138
47
53
138
46
53
138
48
54
139
49
55
139
51
56
139
51
58
139
53
59
139
55
58
141
55
59
141
57
57
142
57
60
143
58
60
143
58
61
144
59
61
143
58
61
142
58
57
142
57
59
140
56
62
140
57
61
139
57
61
138
58
67
139
58
67
138
58
66
139
59
65
140
60
67
140
58
61
140
57
66
141
59
62
144
58
64
145
60
51
111
50
54
112
51
57
113
54
57
115
57
54
117
57
58
116
57
63
118
61
67
120
64
68
121
65
69
123
66
69
124
68
70
125
69
72
124
68
73
124
68
78
125
70
125
142
106
183
95
74
187
102
72
185
93
58
197
106
74
194
123
103
190
136
126
194
155
150
193
164
156
193
162
149
182
140
123
169
113
88
168
102
70
205
162
129
177
144
97
94
130
67
75
130
64
74
130
64
70
129
60
71
129
60
74
129
61
76
129
61
93
133
72
86
132
69
90
134
74
83
133
70
81
132
66
81
132
68
83
133
67
104
134
71
204
161
117
228
187
157
180
116
87
173
120
99
171
127
108
171
136
126
163
124
115
158
116
107
156
97
91
152
76
65
151
59
39
146
52
29
144
63
49
161
82
65
156
99
79
63
134
56
55
135
52
55
137
53
56
138
52
56
138
53
54
140
50
54
140
49
54
139
47
53
140
45
55
140
47
54
139
46
54
140
45
54
139
46
55
140
49
55
141
50
59
141
53
60
141
55
58
142
56
58
143
54
56
144
55
57
144
57
61
144
58
61
146
57
61
145
59
61
145
57
59
144
57
59
142
55
56
142
54
59
143
54
62
140
57
61
141
59
64
139
60
66
140
60
67
140
60
69
141
60
69
141
59
66
141
58
64
143
58
65
145
58
65
147
58
55
114
50
53
116
50
54
117
56
56
119
58
58
120
59
57
121
59
62
122
62
64
124
64
67
126
68
71
126
70
74
126
70
73
127
70
73
127
71
74
127
71
76
128
73
126
143
103
180
94
72
178
97
69
174
89
54
186
95
63
183
95
76
183
119
108
176
113
100
170
108
97
167
113
101
171
123
108
163
107
87
164
100
72
182
130
99
216
163
120
156
139
90
93
134
71
92
135
76
87
134
70
107
137
82
134
144
98
157
154
114
156
153
111
132
144
98
134
147
102
146
147
104
158
154
115
131
141
91
119
138
81
172
148
97
232
175
130
209
163
132
176
122
97
163
116
98
163
121
103
152
109
94
142
92
81
148
97
88
152
99
89
153
89
76
140
57
41
135
47
29
144
68
56
158
77
62
153
102
80
63
137
56
54
137
50
53
139
50
56
140
50
56
141
49
54
142
48
53
141
47
53
141
46
53
141
45
52
141
44
54
140
44
53
140
44
54
139
46
53
142
47
54
143
49
56
143
51
59
143
54
59
144
55
60
144
56
58
144
57
60
144
57
58
146
58
60
146
58
61
145
60
59
146
56
60
144
54
58
143
55
56
142
54
60
143
57
64
141
58
63
142
60
66
141
60
67
142
60
66
142
60
66
142
60
66
144
59
64
144
59
65
144
59
64
147
58
66
148
59
56
120
49
52
120
50
54
121
55
57
122
59
56
123
60
61
124
60
63
126
62
67
128
65
70
128
69
73
128
71
73
129
71
73
130
72
75
130
72
76
131
72
78
131
71
111
140
92
177
99
80
172
91
66
162
74
44
171
72
41
175
79
57
177
104
89
172
112
104
169
122
114
172
130
122
177
138
124
170
125
105
171
121
96
169
108
77
208
160
125
211
153
110
189
155
122
181
157
125
201
173
142
218
185
160
237
199
177
247
210
188
244
201
178
238
206
185
228
189
169
237
194
174
246
209
187
224
186
160
207
167
131
229
173
133
231
182
144
197
145
109
173
120
91
164
126
103
167
131
115
157
121
106
159
124
113
143
97
84
149
104
95
147
93
81
135
62
43
127
48
35
136
57
49
150
62
55
144
116
86
55
138
46
50
139
45
51
141
46
54
142
48
51
142
47
53
143
46
54
143
47
52
142
44
53
142
42
55
142
42
53
143
42
53
142
43
48
143
43
50
143
47
56
144
50
56
144
52
57
145
52
58
145
53
58
145
55
58
144
57
57
146
56
58
146
57
58
146
58
59
146
57
58
146
58
58
146
56
57
144
53
57
144
54
59
144
57
63
143
58
65
143
60
64
144
61
67
143
62
68
144
62
66
144
61
66
145
61
65
144
60
66
146
59
69
147
60
69
149
60
54
124
52
54
124
52
58
124
56
58
125
59
60
126
60
58
128
59
63
129
63
67
131
66
72
131
68
73
132
69
71
131
69
74
132
72
74
134
71
77
134
72
80
134
73
107
141
90
175
104
92
168
81
63
152
66
45
156
54
27
166
76
56
163
86
74
152
82
72
147
84
77
151
99
93
169
129
120
156
108
95
149
90
66
161
103
77
194
143
115
217
159
117
224
167
129
240
191
164
245
198
176
245
195
171
247
199
173
248
197
168
245
193
162
250
209
183
248
202
176
248
202
178
249
205
182
242
190
160
235
173
131
235
173
124
215
161
122
188
139
107
149
92
62
166
127
102
170
137
117
148
113
95
137
95
81
137
93
81
127
77
64
128
69
52
121
46
33
119
39
31
135
58
49
145
59
52
136
119
83
53
140
44
50
140
44
52
142
46
54
143
47
52
144
47
54
144
45
51
144
47
51
143
44
52
143
41
53
143
42
52
143
42
54
143
41
51
143
43
52
144
49
55
144
49
56
145
51
59
145
52
55
145
52
58
146
55
58
146
55
57
146
59
58
146
59
60
145
59
60
147
58
59
147
59
59
146
57
61
145
53
55
145
52
64
144
58
67
143
61
66
144
61
67
143
61
65
145
62
66
144
61
67
144
61
68
145
61
65
145
58
68
145
60
68
147
59
68
148
61
56
127
52
59
128
55
59
128
57
60
128
59
63
128
60
61
131
61
64
132
62
69
133
66
70
134
67
71
135
67
71
134
67
70
135
69
72
136
69
73
136
70
74
137
70
92
143
83
174
124
109
162
56
45
149
58
42
146
49
28
150
53
30
145
58
41
152
89
83
162
119
114
168
138
128
162
128
118
161
121
108
156
106
88
156
99
73
181
124
92
214
162
124
223
166
124
223
159
115
236
178
144
239
183
152
244
193
163
248
197
166
239
176
138
245
191
157
250
207
178
246
189
154
246
194
163
230
169
126
232
167
113
224
156
104
214
165
130
183
136
104
142
87
54
135
88
64
135
90
71
144
109
91
140
105
90
136
96
83
126
80
67
119
63
51
107
29
20
113
44
34
129
53
43
143
67
58
132
129
87
55
141
44
47
143
44
52
143
44
54
145
46
53
145
47
51
145
43
53
144
42
51
145
38
53
144
39
49
145
40
50
145
39
49
145
42
50
145
42
54
145
47
56
145
50
58
146
52
55
146
51
55
146
51
56
147
53
57
147
57
58
146
59
62
147
58
60
146
59
63
147
60
61
147
60
60
146
57
59
146
55
59
146
56
63
145
60
66
144
61
65
145
61
65
145
60
66
145
61
67
145
60
68
145
62
68
145
61
67
146
58
68
147
61
71
147
61
70
147
59
59
129
52
59
130
53
61
131
55
59
131
59
62
131
59
64
132
60
65
134
62
67
136
63
68
137
66
66
137
68
70
138
70
68
138
68
72
138
69
75
138
70
74
140
69
80
140
72
170
131
111
162
58
44
153
63
45
141
49
34
141
55
41
151
91
85
161
118
114
169
139
135
171
145
140
167
136
129
173
138
123
174
134
112
154
102
73
172
116
82
205
155
119
220
161
114
225
163
113
224
157
112
240
187
153
239
180
143
248
198
166
242
184
145
243
188
151
247
199
167
243
189
153
233
171
128
234
181
136
222
155
101
210
136
80
217
165
126
180
132
92
139
83
50
102
46
26
117
71
51
131
91
72
124
81
65
114
69
56
96
54
48
94
28
22
101
31
23
107
38
28
123
46
40
148
76
67
137
137
96
52
144
43
49
145
41
56
144
43
51
146
44
52
146
43
51
146
39
49
144
40
49
146
37
49
146
37
50
145
40
53
146
39
54
146
41
51
146
42
54
145
48
57
146
50
59
145
51
59
146
52
58
147
53
58
147
56
60
147
60
57
147
58
58
147
58
58
147
59
60
147
59
60
148
58
58
148
59
60
147
58
61
147
57
65
146
60
66
145
61
64
145
60
66
145
58
66
146
60
67
145
61
68
145
62
68
145
62
69
146
61
69
147
61
71
148
59
68
148
59
61
132
53
60
132
55
58
133
57
59
134
59
59
134
57
60
135
58
65
135
61
69
137
64
70
139
67
70
140
69
71
140
69
71
141
71
74
141
70
74
141
70
75
142
69
76
143
70
159
140
110
163
71
52
152
61
43
142
58
45
133
48
36
146
90
85
159
130
127
143
103
97
142
107
100
155
122
111
172
138
120
163
123
100
155
103
71
160
105
71
192
144
112
206
138
91
228
168
119
225
164
113
228
164
118
240
184
147
240
187
151
236
178
139
239
182
142
246
198
163
246
199
165
233
170
124
228
173
129
217
153
107
201
126
74
195
129
82
172
109
62
128
73
39
108
57
32
102
57
41
93
52
36
99
55
41
99
64
54
103
60
52
101
46
39
101
37
29
104
37
28
128
61
54
149
83
71
154
129
94
55
145
43
50
146
42
51
146
41
51
147
40
51
146
40
50
146
40
48
145
37
52
145
37
50
146
38
54
146
38
51
147
41
52
147
41
55
147
43
57
145
47
55
146
49
55
147
51
53
147
52
56
147
53
56
148
58
57
147
57
53
147
55
60
146
58
60
147
58
60
148
59
60
148
60
61
149
60
63
149
59
58
148
58
66
146
61
66
146
62
65
146
61
65
145
62
65
146
61
65
146
61
67
146
60
67
147
60
67
147
61
68
148
61
67
149
62
67
149
61
58
135
53
58
135
54
57
136
54
60
136
56
62
136
57
57
138
57
62
138
59
66
140
64
68
142
66
71
143
67
74
143
69
72
142
70
74
143
70
75
143
69
74
144
70
78
144
70
169
165
144
171
89
68
147
46
31
137
54
38
132
57
47
136
79
75
121
60
54
129
82
79
155
122
113
163
131
114
156
118
100
132
80
63
143
84
55
165
110
77
198
144
105
194
122
73
216
153
104
224
169
121
222
157
109
236
185
148
235
181
144
223
152
104
228
162
111
243
194
159
244
202
169
227
163
117
220
157
109
225
169
125
206
145
102
192
120
70
161
94
45
132
76
43
109
60
37
117
75
55
104
60
39
102
65
50
100
70
60
92
49
35
82
21
14
90
24
15
112
54
45
139
80
73
149
71
54
160
103
73
56
146
46
49
148
40
51
147
39
50
146
39
51
146
39
50
146
38
50
146
36
51
147
38
50
147
38
49
147
39
49
147
40
54
147
42
53
147
43
53
146
45
58
147
50
55
147
50
55
147
52
57
147
54
59
147
56
58
147
56
56
146
56
54
146
57
57
147
57
59
148
59
62
148
60
63
149
59
62
150
59
61
149
61
66
146
62
68
146
63
66
146
64
68
145
63
64
145
62
67
146
62
67
146
61
67
147
62
68
147
63
71
147
64
71
148
64
69
149
63
55
137
54
55
138
53
56
137
53
55
138
54
56
139
56
59
138
57
62
140
59
67
142
61
70
144
65
70
145
67
71
145
68
73
146
67
73
145
68
72
144
67
72
145
67
78
147
71
183
169
148
177
109
92
150
61
52
135
51
36
127
49
39
117
45
35
121
68
65
143
108
100
137
102
88
113
68
55
124
78
61
131
77
56
142
85
54
170
113
71
183
114
65
187
117
72
209
149
108
212
153
106
216
154
109
233
187
154
220
153
109
221
149
99
222
156
101
229
169
124
237
193
158
220
158
113
214
143
90
213
148
100
211
146
97
192
122
70
156
85
36
152
98
59
114
67
42
111
71
51
108
66
47
85
68
66
50
16
8
45
3
2
68
7
3
90
29
21
133
75
61
145
96
81
150
71
48
150
90
61
64
148
47
57
148
41
53
147
40
48
148
39
52
147
39
53
147
39
50
146
39
48
147
37
51
146
38
53
148
38
52
147
39
56
147
41
53
147
43
55
147
46
57
147
50
59
147
51
57
148
53
59
147
53
57
148
54
53
147
57
57
146
54
56
147
55
59
147
58
60
149
59
61
148
59
62
150
60
64
150
62
66
149
62
67
148
64
71
146
65
69
148
67
68
147
64
66
146
63
67
146
63
69
146
64
69
147
64
70
148
64
72
149
65
70
149
66
68
150
63
55
139
51
54
139
51
54
140
51
54
139
52
57
140
56
59
141
57
61
142
58
66
144
61
68
146
63
71
146
66
69
147
68
74
147
69
69
148
68
68
147
66
70
147
66
78
148
70
188
151
127
186
128
117
167
100
95
145
74
67
125
51
40
118
51
41
123
74
64
80
33
24
85
45
39
121
80
71
124
82
71
138
88
66
154
99
65
165
99
52
184
113
61
187
120
80
204
143
100
203
139
91
197
126
79
223
173
138
211
140
92
216
148
100
221
154
100
218
152
106
219
156
110
217
160
120
199
121
67
204
140
90
184
104
49
180
108
57
162
98
54
149
99
64
140
105
86
118
77
57
122
91
79
91
61
51
72
28
15
64
27
19
69
29
27
94
41
34
121
53
40
139
86
69
147
82
65
158
94
70
74
149
54
55
150
41
54
148
39
51
149
40
52
148
41
49
147
38
49
146
38
49
147
36
51
147
38
53
147
39
52
147
39
54
147
42
53
148
44
53
148
47
58
148
49
59
147
52
57
148
52
55
148
54
59
148
56
58
147
56
58
147
56
58
147
56
60
147
57
62
148
61
65
149
60
66
150
62
65
149
63
67
149
64
69
148
67
69
148
66
71
148
69
71
149
68
68
147
64
68
146
64
70
147
65
69
147
65
72
148
65
73
148
66
72
149
66
70
150
64
56
139
50
56
140
50
54
140
47
55
140
50
56
141
53
56
142
52
61
143
56
62
146
60
68
147
63
69
148
65
70
148
66
70
148
67
70
148
67
69
147
66
70
148
65
74
150
66
188
140
113
192
119
114
187
141
138
176
122
113
133
68
57
118
54
46
88
29
22
95
62
53
138
100
83
152
112
96
154
109
92
143
92
70
167
110
70
166
95
44
190
120
68
208
145
98
207
141
94
207
146
98
186
106
55
223
172
135
201
129
80
209
137
85
216
151
100
201
128
81
212
145
99
218
164
124
190
116
67
188
115
64
176
101
50
178
114
67
168
108
64
147
96
63
153
114
88
121
85
65
109
79
68
74
49
35
73
48
41
65
48
44
60
24
20
84
23
14
105
35
23
132
66
44
159
114
100
159
91
69
82
150
59
65
149
46
58
150
41
56
148
41
53
148
41
56
147
40
53
146
37
49
148
35
51
147
39
52
148
40
56
148
41
55
148
43
57
148
45
56
147
47
55
147
49
60
147
51
61
147
53
59
148
57
61
148
59
58
148
55
59
147
56
57
147
55
60
148
56
61
148
60
61
149
62
63
150
63
65
149
64
68
150
65
70
149
67
70
149
67
71
149
69
75
148
70
71
149
67
69
148
65
72
148
65
69
149
66
71
148
66
73
148
66
70
150
66
69
150
64
55
140
48
54
140
48
54
140
46
53
141
46
57
141
49
57
143
50
60
145
53
65
147
59
68
149
62
68
149
63
68
150
64
71
150
65
71
150
64
70
150
64
70
150
66
78
151
68
187
134
110
194
128
121
197
158
148
171
94
76
129
60
49
107
43
37
126
86
75
117
78
65
102
65
50
131
91
78
143
91
77
151
102
77
169
113
70
172
103
52
183
112
60
190
118
64
186
112
65
187
117
69
181
100
50
213
157
115
203
141
98
204
130
80
209
142
90
195
115
65
208
144
94
216
160
115
186
110
63
186
111
62
172
102
57
178
118
77
171
115
75
172
126
94
171
128
97
167
137
117
124
94
76
90
63
50
88
70
59
38
14
9
44
10
7
77
14
8
94
26
18
132
66
50
168
128
114
158
112
92
86
152
61
59
151
45
55
150
42
53
149
42
51
149
42
51
147
39
50
148
37
52
147
39
49
148
40
54
148
41
55
148
43
57
147
44
55
147
45
55
147
47
56
147
49
57
147
51
58
148
51
62
148
56
61
147
58
60
148
56
59
147
55
59
148
56
59
147
58
62
148
60
64
149
62
66
149
61
65
150
65
70
149
67
69
150
68
71
149
69
71
149
70
76
149
72
75
150
72
73
150
72
69
149
66
68
150
67
70
150
67
72
149
66
70
148
66
65
151
59
53
141
46
52
141
45
47
142
45
51
142
44
52
143
46
53
144
48
59
145
52
63
148
56
64
150
58
68
150
61
68
152
63
70
152
63
69
152
66
68
152
63
72
152
64
94
154
75
187
139
112
200
143
137
196
142
119
154
64
45
127
56
44
102
52
45
59
8
5
58
34
30
89
66
53
120
84
70
145
99
78
160
111
84
177
124
85
176
113
66
171
101
54
165
88
37
172
109
72
168
96
50
175
95
51
208
150
109
209
151
113
201
133
90
206
138
90
202
136
94
213
157
115
206
143
98
182
105
57
183
108
59
188
124
78
178
117
71
173
115
71
184
131
97
181
134
97
179
150
124
162
130
105
170
143
122
124
90
66
88
58
43
76
41
33
80
19
10
94
32
24
143
85
72
174
133
118
160
133
108
74
153
54
59
152
44
60
150
42
58
150
41
53
149
41
53
149
40
53
149
40
56
148
39
52
148
41
53
149
43
54
148
43
59
149
47
58
148
50
57
148
50
56
147
49
60
147
50
60
147
53
62
148
55
64
148
58
63
147
57
59
147
58
64
147
56
59
147
59
63
148
60
66
149
62
67
149
64
68
149
67
68
150
68
69
151
69
71
150
69
71
151
70
75
151
74
77
150
76
75
151
74
74
149
70
73
148
68
73
149
67
72
149
67
70
149
64
68
150
60
53
142
46
51
142
45
51
142
44
50
143
41
52
143
45
54
145
47
61
145
52
62
149
54
61
151
56
66
151
58
66
152
63
69
153
62
67
153
63
68
153
61
69
153
60
83
153
69
184
143
114
203
158
147
185
116
85
145
54
35
113
35
26
86
19
13
74
33
26
78
55
44
99
75
62
154
118
95
161
122
94
189
143
108
182
130
91
180
120
74
173
109
65
158
95
58
176
110
70
179
109
62
188
120
81
209
156
120
214
160
122
202
138
98
207
142
99
195
124
81
219
171
134
203
146
105
179
106
63
191
121
70
196
136
89
180
117
71
186
123
75
181
126
93
177
131
103
162
114
81
184
148
119
180
142
108
169
135
107
150
115
89
83
40
24
85
33
21
112
56
44
149
88
74
169
125
102
152
137
95
72
154
54
60
153
47
58
151
45
57
150
43
57
150
41
56
150
40
56
149
42
56
148
44
58
150
46
61
150
47
58
150
49
61
149
50
61
149
51
61
148
52
60
148
50
62
147
53
61
148
54
61
148
57
62
148
59
62
148
58
60
148
57
62
148
57
63
148
58
64
148
60
64
149
62
68
150
66
69
150
66
70
151
68
72
151
69
73
151
70
73
150
72
75
151
74
80
150
77
78
150
75
76
150
71
74
149
69
74
149
68
74
148
67
69
150
65
69
150
60
52
143
43
50
143
41
51
143
42
52
144
40
54
144
44
55
146
47
58
147
50
59
150
53
66
151
56
68
151
60
63
155
61
65
154
61
64
155
60
67
154
59
69
153
60
69
152
61
177
150
116
209
173
160
183
113
85
139
53
34
106
31
21
107
43
35
74
39
33
93
65
55
119
86
68
168
126
98
186
149
114
185
136
97
182
126
81
177
112
62
180
122
79
177
121
80
187
128
85
189
128
89
197
145
111
215
170
134
215
166
127
197
126
82
195
126
77
187
118
76
208
165
132
212
169
134
181
112
73
194
129
83
197
139
92
188
130
86
193
141
103
190
136
99
168
120
93
175
130
102
173
120
76
175
127
90
175
133
97
164
127
96
93
52
39
90
37
26
127
67
52
143
81
62
151
99
70
140
131
80
72
154
54
63
153
48
60
152
45
60
151
42
60
151
42
57
150
43
55
150
44
57
150
47
63
151
48
61
151
50
64
151
52
63
150
54
62
151
52
63
149
53
59
149
54
61
149
55
61
149
55
64
149
56
62
149
58
64
148
58
63
148
56
63
148
58
65
148
60
66
149
63
67
150
65
67
151
67
70
150
69
70
152
69
72
152
69
72
151
70
70
151
70
74
151
70
77
151
74
75
152
75
74
151
72
74
150
69
75
150
69
72
150
67
69
149
64
71
150
61
50
143
40
50
143
39
51
144
39
50
145
42
50
145
41
54
146
43
59
149
47
60
150
53
62
151
56
65
152
58
65
154
59
62
155
59
63
155
59
66
155
58
67
154
59
86
156
68
179
163
120
212
182
164
184
122
97
148
72
59
122
63
49
112
53
40
79
27
20
114
77
59
153
112
87
183
143
110
196
151
111
188
133
91
183
124
78
183
118
70
195
136
87
198
142
98
203
146
104
195
141
105
196
140
106
221
183
154
213
172
136
187
116
71
194
125
81
193
136
100
201
149
116
210
173
144
178
118
87
197
138
93
195
137
92
196
143
100
191
137
103
189
150
123
177
126
94
167
108
63
168
111
68
165
109
65
156
106
66
144
99
66
125
81
57
117
65
51
126
72
60
128
69
48
121
74
42
136
128
70
81
154
58
60
155
49
57
153
45
60
151
42
61
151
44
62
151
45
62
150
46
64
150
49
65
152
53
66
152
55
66
151
55
65
151
56
66
150
55
65
150
56
65
148
55
64
149
54
64
147
57
66
148
58
60
149
59
64
148
55
64
147
57
61
148
59
64
148
62
67
149
65
67
151
67
64
151
68
71
150
68
71
151
68
74
150
68
75
150
70
70
151
69
74
151
71
76
152
75
75
152
74
76
152
73
74
151
70
75
151
71
74
150
69
70
150
65
70
150
64
53
142
37
48
144
39
49
143
40
49
143
40
51
145
39
53
148
42
58
149
45
63
150
50
62
151
54
63
152
55
64
154
59
64
155
59
62
155
57
63
155
58
66
156
59
77
156
62
156
157
100
206
170
145
180
112
89
161
89
75
136
76
64
127
73
61
123
70
58
172
133
107
205
169
135
194
149
111
188
132
88
183
125
80
187
125
76
197
136
87
207
149
101
209
162
121
215
169
126
199
139
98
195
129
84
213
170
137
210
170
140
184
123
87
190
117
67
204
153
117
207
164
134
208
169
141
175
114
85
198
134
89
205
153
114
200
147
104
200
156
125
188
142
116
182
132
99
170
113
69
172
115
70
163
106
66
142
88
49
143
95
59
131
85
60
113
62
46
115
62
45
113
59
34
100
52
22
125
125
61
75
154
57
64
154
50
60
153
45
59
152
44
63
151
45
62
151
47
64
151
49
67
151
53
69
151
57
69
153
57
69
151
59
69
151
58
70
151
58
69
150
58
67
149
56
65
148
54
66
148
56
66
149
58
63
148
59
62
148
56
62
148
55
62
148
56
64
149
60
65
150
62
66
150
65
67
150
66
71
150
67
72
151
68
73
150
68
73
151
68
69
152
67
72
152
71
79
151
76
75
153
76
74
154
73
74
153
73
74
153
72
74
151
70
70
150
64
69
150
62
47
142
36
45
144
35
45
143
37
45
144
38
51
145
36
54
145
41
60
148
44
61
151
49
60
152
50
61
153
56
65
155
55
65
154
56
64
155
56
65
155
59
67
155
60
78
155
64
145
153
88
196
152
118
168
107
81
159
98
77
143
79
62
135
77
63
151
104
86
187
147
119
187
143
108
188
135
94
184
128
84
179
120
78
183
117
69
206
148
98
205
149
103
215
167
123
213
162
118
203
146
107
187
110
61
201
138
97
215
180
153
197
148
116
185
116
74
204
150
113
212
170
136
215
184
159
175
103
66
195
126
78
208
155
115
202
156
123
196
148
120
188
139
111
191
132
86
183
127
84
181
124
79
173
122
79
159
106
66
146
98
62
149
101
68
129
83
60
109
55
33
108
54
23
88
33
4
114
132
63
74
153
54
67
153
48
65
151
45
62
152
45
61
151
48
65
151
51
65
152
52
69
153
53
70
153
59
71
153
60
70
153
60
72
152
61
71
151
61
69
150
61
70
148
60
65
149
57
64
150
56
65
149
56
66
149
57
61
148
55
62
148
54
62
148
56
64
148
57
67
149
62
68
149
65
69
150
65
68
151
66
71
150
69
71
151
68
72
151
69
73
152
69
73
152
71
76
153
73
76
154
74
77
155
74
78
153
76
76
153
73
74
153
70
71
151
66
70
150
63
48
143
33
46
143
33
45
144
35
47
144
34
50
145
37
53
147
39
56
149
44
58
151
48
60
152
48
61
153
53
63
155
54
64
155
54
62
155
55
67
155
57
67
156
60
72
156
62
117
152
76
171
124
82
151
93
60
137
72
46
132
61
41
143
83
61
173
131
108
196
154
122
198
150
112
192
144
109
192
135
91
190
133
87
202
142
96
215
162
113
204
147
103
210
157
114
216
171
133
210
161
124
193
126
85
188
112
63
213
173
141
203
164
135
196
135
93
196
144
110
210
161
128
214
175
144
176
100
58
201
143
101
205
148
110
203
159
129
207
174
153
204
159
129
202
157
116
197
143
101
188
135
91
174
119
76
168
113
74
164
113
73
148
97
61
169
126
91
142
92
60
103
48
20
90
40
9
126
130
65
80
151
51
67
153
49
61
152
43
63
152
43
65
152
47
67
152
51
70
152
56
73
153
59
73
153
61
74
155
62
73
154
62
72
154
63
73
152
63
72
151
61
70
149
60
69
149
59
66
150
59
66
149
58
63
149
55
63
149
55
63
147
54
62
148
54
63
147
55
65
150
59
67
150
62
69
150
64
71
151
66
71
151
68
73
151
69
72
152
69
74
153
71
75
154
73
79
154
76
78
155
77
78
155
79
76
155
76
76
154
72
74
154
70
73
151
68
72
150
66
48
142
31
49
143
33
49
143
34
45
145
35
51
145
38
52
148
41
57
150
45
59
152
49
60
153
49
60
156
50
64
156
53
65
156
53
67
155
56
63
156
54
68
156
59
75
156
63
130
157
89
168
122
81
137
80
42
121
61
36
121
62
47
134
79
64
174
131
108
191
144
112
192
139
97
196
146
107
200
154
124
204
156
121
206
150
107
210
152
103
217
170
130
206
151
113
204
149
108
212
163
125
203
148
111
184
118
77
207
157
124
215
179
150
187
123
80
197
140
100
207
154
119
217
184
155
183
113
81
201
153
120
200
149
110
211
171
140
219
191
169
208
162
126
203
150
108
195
142
101
200
152
115
188
138
102
178
127
87
172
120
78
164
111
73
176
125
82
178
124
83
156
99
63
129
77
39
160
133
87
94
152
60
67
153
48
63
152
43
64
152
45
65
152
47
67
152
52
71
153
58
71
154
58
73
154
61
78
154
65
76
155
66
78
154
66
75
153
64
77
151
65
74
151
63
70
150
62
69
149
60
69
149
59
65
149
55
64
148
56
64
147
54
61
147
53
64
148
55
66
149
59
67
150
62
69
150
64
73
151
68
74
151
69
74
152
70
72
154
71
71
154
72
73
156
74
78
156
76
79
157
78
79
156
77
77
155
75
75
154
73
77
154
71
74
152
69
74
150
67
45
144
33
48
144
36
50
144
35
50
145
38
49
147
39
53
149
41
60
151
46
58
153
48
63
154
51
61
157
53
63
157
55
67
156
57
67
156
56
68
156
59
69
157
58
78
155
63
133
159
89
176
131
92
126
69
31
117
61
34
131
72
43
167
118
89
177
130
101
184
136
107
193
142
104
198
144
104
204
148
106
211
156
110
214
164
126
211
159
120
209
158
119
216
171
134
209
163
130
204
146
109
211
170
142
194
140
110
199
144
108
214
176
144
189
130
92
194
136
96
201
146
109
204
161
129
185
117
77
202
150
116
201
153
120
206
168
145
219
187
163
204
147
101
203
145
103
210
162
126
202
154
115
191
138
100
186
131
88
184
133
91
180
128
86
175
122
81
175
121
77
178
124
82
173
125
85
184
147
109
123
152
77
78
152
55
62
151
46
63
152
46
65
152
49
70
152
55
70
153
58
72
154
61
78
155
64
77
156
66
77
156
67
81
154
68
79
154
67
77
153
65
75
151
65
72
151
63
71
151
60
69
150
58
67
148
55
66
147
54
63
148
53
61
146
52
61
148
53
66
149
58
70
151
64
70
152
67
71
152
68
73
151
69
74
153
70
74
154
72
75
154
72
76
156
74
78
157
76
78
157
77
77
158
77
76
157
75
80
154
75
78
154
72
74
154
70
72
151
68
46
144
35
48
144
36
47
145
36
50
146
39
50
147
39
55
149
42
59
152
45
61
155
49
63
156
53
67
157
55
66
158
57
68
158
59
67
157
59
70
159
59
73
158
63
78
158
65
125
159
87
187
142
103
162
104
64
166
102
61
188
126
82
200
149
107
201
151
110
200
151
110
202
152
110
203
149
106
217
172
130
215
161
116
218
167
124
220
172
135
217
177
150
215
172
144
204
147
108
199
137
96
219
182
152
200
136
97
202
149
114
206
164
132
184
122
82
189
128
88
193
134
93
206
162
125
185
113
69
208
168
139
189
137
106
205
164
141
209
175
148
187
110
64
188
113
62
209
150
104
211
154
111
214
170
140
208
163
125
197
146
105
181
129
90
182
131
89
174
121
81
184
136
95
189
139
99
189
147
113
143
160
99
74
152
50
64
151
44
65
151
47
68
152
51
70
152
54
71
154
58
73
155
62
80
154
65
82
155
69
80
156
70
78
156
68
78
156
68
78
154
68
76
153
66
73
152
63
73
152
61
71
151
60
67
148
55
65
148
52
64
147
53
64
146
52
63
146
54
67
149
59
71
151
64
72
153
67
74
152
69
73
153
69
75
152
70
74
154
73
77
154
74
76
156
75
77
157
76
77
159
77
81
157
78
79
157
77
79
157
76
78
155
73
77
153
72
76
151
71
51
144
34
48
146
34
48
146
35
49
147
39
50
148
38
58
149
41
62
152
46
63
155
50
63
157
54
66
158
56
69
158
59
68
158
60
71
158
58
70
158
61
74
157
64
94
157
72
141
157
90
199
154
115
197
144
102
194
133
88
196
132
83
201
142
96
199
144
100
210
162
120
213
164
121
216
165
122
224
178
135
223
173
133
225
173
132
219
162
118
212
156
117
216
181
154
204
147
108
196
132
94
228
194
165
199
130
84
197
136
100
208
173
144
189
133
93
181
119
77
177
112
68
200
150
114
175
96
49
216
174
144
187
140
112
206
163
134
198
158
132
177
107
68
189
127
85
206
151
110
209
158
126
202
153
116
197
144
108
187
132
89
194
147
108
195
149
110
195
144
106
192
141
102
192
143
104
189
149
115
155
163
106
75
152
51
64
150
45
65
152
47
66
153
50
69
152
53
72
152
59
75
154
63
79
154
66
79
155
67
79
156
70
80
157
71
78
157
71
83
155
69
79
155
69
76
153
65
71
153
61
70
151
60
68
149
56
64
148
54
63
148
51
63
148
52
65
148
53
68
148
56
71
151
64
71
153
66
74
153
70
73
154
71
76
153
72
76
154
73
76
155
75
77
156
75
79
156
76
81
158
77
81
158
77
78
158
76
80
158
77
80
156
74
80
154
74
78
153
72
51
145
34
47
145
35
52
146
36
49
147
38
51
149
36
58
150
41
58
152
45
66
154
52
67
157
55
68
157
58
67
158
59
70
158
57
73
157
58
72
158
60
73
157
62
97
159
74
169
167
112
207
163
122
203
153
113
205
151
105
201
142
97
206
148
99
216
169
127
216
166
123
220
175
135
225
175
131
226
176
132
228
177
135
223
168
124
204
128
74
203
140
98
221
191
167
214
166
131
194
126
87
225
192
159
198
130
85
196
136
99
205
166
134
188
139
103
168
102
62
175
107
63
202
161
128
182
110
69
209
162
124
189
147
120
202
157
122
203
170
148
178
110
65
203
157
121
204
164
135
197
152
120
194
152
121
199
154
123
194
138
95
204
154
113
208
167
130
198
150
113
181
126
86
200
156
118
204
168
133
152
160
103
81
153
56
67
150
47
67
152
47
67
152
49
68
152
54
74
153
58
77
154
62
80
154
65
81
156
68
81
156
71
85
157
72
86
156
71
82
155
70
80
155
67
75
153
64
73
153
61
72
150
60
66
150
55
65
149
53
65
148
53
63
148
53
64
148
54
68
149
56
69
150
58
72
153
65
74
154
70
75
155
69
76
154
71
76
155
74
73
157
74
75
158
74
78
158
74
80
159
75
80
159
76
80
159
78
82
157
78
81
158
76
82
155
75
80
154
71
49
146
36
48
146
34
48
147
36
52
147
38
56
149
38
62
152
42
61
154
46
66
155
52
65
157
55
68
158
56
67
159
55
69
159
58
70
158
57
73
158
61
76
158
64
93
158
70
173
170
119
212
170
132
212
165
126
211
163
121
213
161
117
213
164
121
219
172
132
222
174
132
227
179
134
230
181
138
233
185
142
233
184
143
218
154
105
198
129
80
179
91
43
213
177
153
217
173
141
203
142
105
224
192
162
195
136
99
202
147
109
208
164
127
184
131
96
169
107
66
187
130
92
191
138
96
170
105
65
194
148
112
205
175
151
193
140
102
185
143
113
178
116
73
194
147
114
199
162
131
203
175
151
175
137
111
164
110
71
179
123
81
196
148
108
190
142
102
178
125
84
178
123
82
187
136
94
201
159
123
181
172
128
100
152
68
70
152
50
68
150
49
67
151
50
69
151
54
74
153
61
79
154
64
78
155
65
81
155
70
83
157
69
83
157
71
82
157
71
81
157
69
77
156
67
78
153
64
74
152
62
72
151
59
68
149
57
63
149
54
65
150
52
66
149
55
67
149
56
65
150
56
68
150
58
70
152
62
73
154
66
73
153
70
74
153
71
78
155
74
78
156
74
79
156
74
79
158
74
82
158
75
79
159
74
79
159
76
80
158
77
82
158
77
82
155
76
80
154
72
52
146
35
48
147
34
50
147
38
52
149
38
58
149
40
56
152
44
59
154
47
67
156
51
69
158
56
69
159
56
69
158
56
68
158
57
70
158
58
72
157
60
75
156
63
93
157
71
180
174
128
216
177
141
220
176
136
218
174
134
217
172
134
213
165
124
220
173
132
221
169
126
225
174
128
225
167
116
229
179
138
230
192
162
227
192
169
209
167
138
184
123
96
195
151
125
213
169
136
205
156
121
221
190
162
193
141
102
199
142
104
191
143
109
184
141
109
183
129
91
182
129
93
179
131
95
157
94
54
195
158
129
203
176
150
181
137
108
176
141
116
178
144
119
197
172
152
200
177
161
207
189
174
187
164
149
163
124
102
175
123
88
191
143
104
199
154
120
196
152
115
173
123
84
167
113
71
197
153
117
212
183
150
152
163
104
80
152
55
65
151
47
67
151
48
70
152
54
76
153
60
78
155
63
78
155
64
81
156
67
85
156
69
84
157
70
82
157
70
80
157
68
80
155
66
77
153
64
73
153
61
71
151
58
68
151
57
67
151
53
67
151
55
67
151
57
66
151
56
66
150
55
68
150
57
71
151
61
72
151
65
72
153
66
73
153
69
78
155
73
78
158
73
78
156
74
78
159
72
78
159
72
79
158
73
80
158
75
80
159
76
80
158
77
79
155
75
78
154
72
52
146
37
50
146
36
54
147
39
53
149
39
56
150
40
60
152
44
62
154
47
66
156
53
70
158
55
71
158
56
69
158
57
71
158
57
70
158
58
72
157
59
72
157
61
102
157
74
203
183
144
225
187
154
224
181
143
219
176
136
217
170
127
224
181
142
225
181
141
232
189
150
231
181
137
228
175
133
220
182
155
225
193
170
222
187
160
215
184
159
202
163
132
194
154
129
199
152
118
203
160
127
215
186
156
187
138
101
192
145
108
184
139
104
182
142
110
175
126
94
192
143
108
183
143
110
140
82
49
162
120
90
185
155
125
158
114
82
158
126
100
148
120
98
127
91
65
158
128
109
168
144
126
172
152
134
160
129
107
165
113
79
186
137
100
194
153
119
190
144
110
185
140
102
169
117
76
181
134
95
200
170
133
155
164
105
83
152
58
65
150
45
66
150
47
71
152
54
74
154
59
76
155
62
79
156
64
81
157
66
82
157
68
82
157
68
81
158
68
81
157
67
80
156
65
79
154
63
77
152
60
71
153
58
69
152
57
69
152
58
68
153
57
69
153
58
67
152
57
66
151
56
68
150
57
66
151
58
69
152
60
74
151
65
73
153
68
76
157
72
77
158
72
78
158
72
78
159
70
83
158
70
79
158
72
80
158
73
80
157
74
79
158
74
82
155
76
81
154
73
49
146
37
48
147
37
55
147
37
54
149
39
58
151
41
61
152
43
62
155
48
65
155
51
68
157
57
68
159
56
68
159
56
70
159
57
72
159
59
73
157
60
84
157
67
125
164
93
205
186
147
221
180
145
219
176
137
210
159
115
219
172
132
228
186
151
229
189
153
233
191
154
225
176
133
225
186
154
223
195
173
226
203
183
225
201
180
214
187
165
196
162
139
175
130
100
179
131
96
193
150
117
193
160
128
177
135
101
173
127
94
178
139
108
184
142
107
197
155
122
190
149
114
169
131
98
137
92
64
113
73
43
137
100
71
121
77
44
109
81
55
89
74
60
66
51
38
68
52
37
65
41
30
94
61
47
116
69
48
155
95
63
175
120
83
186
145
112
183
142
108
178
133
98
165
118
80
165
120
83
185
155
117
117
153
76
74
151
50
65
150
45
67
149
48
70
153
54
73
155
59
75
156
62
78
156
65
81
157
67
82
157
67
83
157
68
84
157
68
80
157
68
79
156
64
76
154
61
75
154
60
73
153
59
69
153
57
70
154
58
70
153
59
71
153
58
70
150
58
67
151
56
70
151
57
70
152
59
69
152
60
72
153
63
75
154
66
76
156
69
77
158
69
77
158
69
78
159
69
80
158
68
76
159
68
79
157
71
82
157
75
79
156
74
78
157
71
82
155
72
49
146
36
49
146
37
52
148
37
54
150
38
57
151
43
61
151
45
61
154
47
64
156
52
67
158
56
67
158
56
69
158
57
71
159
58
70
159
58
73
157
59
88
156
66
118
162
82
201
182
140
217
176
139
203
149
105
207
153
110
224
180
142
228
189
154
228
185
148
226
182
144
219
172
132
212
171
139
211
178
154
219
200
182
198
169
147
178
150
131
162
131
110
152
121
97
156
110
78
162
118
87
163
127
94
162
119
88
166
128
98
178
142
113
192
157
128
184
137
101
184
140
106
152
112
81
111
75
49
92
53
27
89
54
26
70
41
14
46
35
16
18
16
3
59
50
35
63
56
31
44
31
14
113
84
63
107
56
32
118
54
28
143
76
40
174
117
79
176
131
95
177
132
97
148
102
67
130
87
50
164
134
94
113
154
74
71
150
49
66
150
46
69
151
49
71
153
54
74
155
59
76
155
62
76
156
64
80
157
66
82
158
67
81
157
67
85
157
68
80
157
66
78
156
62
77
155
61
75
155
60
72
153
57
68
153
57
71
153
56
70
153
58
70
152
56
67
151
56
68
151
56
71
151
59
72
152
60
72
153
61
70
153
61
75
154
64
76
156
66
78
157
67
76
158
67
78
158
67
79
158
68
78
158
72
80
157
74
79
158
75
78
157
74
79
157
74
82
155
72
52
145
34
52
146
35
50
148
36
59
149
40
59
150
42
61
152
46
62
154
49
64
156
53
69
158
57
67
158
58
70
159
58
70
159
57
70
159
58
72
158
58
77
158
62
118
162
83
205
187
146
214
171
135
200
150
109
198
142
100
227
188
154
228
192
160
230
190
157
221
176
138
201
144
101
185
127
87
177
143
123
151
118
97
125
98
77
80
65
51
74
53
49
69
43
25
105
69
43
132
89
57
145
108
77
137
93
60
159
124
96
175
140
111
193
159
132
182
138
104
172
129
95
149
114
86
91
57
29
86
57
29
83
55
28
23
18
5
33
36
15
7
10
3
38
29
7
67
50
25
56
39
25
148
120
98
165
124
95
111
68
47
117
61
36
125
63
29
143
92
57
144
102
68
118
77
45
112
68
33
150
124
82
110
152
72
72
152
52
66
151
47
67
152
48
72
153
54
75
155
56
76
156
61
78
156
64
81
157
65
82
158
66
81
158
67
80
158
66
78
157
65
77
157
63
75
156
60
75
154
56
72
151
52
70
153
53
69
154
53
70
153
57
68
153
55
69
152
55
70
152
59
70
153
59
71
153
60
73
154
61
71
154
60
73
155
62
74
157
65
76
157
69
77
158
68
76
159
65
78
158
68
80
159
71
80
157
73
78
158
74
80
158
75
81
158
74
79
156
72
47
145
31
49
147
33
53
148
37
56
149
40
59
150
42
60
152
44
64
154
49
66
156
54
67
158
58
69
158
58
67
159
57
70
160
57
69
159
57
73
158
57
82
158
66
142
164
98
214
187
148
207
163
128
206
158
121
212
167
131
221
182
149
224
188
157
212
166
129
196
128
81
173
92
42
144
68
29
122
67
44
94
66
55
84
68
44
81
74
55
92
101
107
61
49
20
56
45
15
111
84
64
143
114
87
144
106
77
159
123
98
185
151
124
188
151
120
181
141
106
163
123
89
131
95
66
96
64
34
91
67
41
57
39
20
26
28
11
40
45
25
17
23
10
45
33
9
77
58
27
89
74
63
171
142
117
194
164
140
179
145
119
131
87
62
101
48
27
116
62
32
131
85
50
120
77
44
100
61
29
138
131
82
94
155
67
72
152
53
65
152
48
69
152
49
71
155
52
73
155
55
75
156
58
76
156
61
81
157
64
82
157
67
83
159
66
81
158
67
80
158
66
78
158
62
77
156
57
71
155
53
69
153
49
68
153
50
67
154
50
69
153
53
69
154
57
70
153
57
72
153
60
72
154
60
70
154
60
71
154
61
72
154
61
73
155
63
73
157
65
76
157
67
78
158
67
78
158
67
77
158
67
79
158
71
79
158
73
83
158
76
82
159
74
79
158
75
80
156
74
46
143
32
49
146
34
53
147
37
55
149
38
60
150
42
65
151
45
62
154
51
65
155
57
68
157
59
69
158
56
71
159
56
72
159
56
70
159
57
73
159
59
76
159
64
126
162
87
210
179
139
206
160
125
204
159
125
219
178
144
221
185
153
206
162
127
191
123
82
156
74
27
121
43
7
112
43
19
178
141
117
116
88
77
95
88
65
84
80
52
28
33
22
62
62
29
79
78
46
58
50
28
155
132
114
165
136
116
168
128
96
189
153
125
182
143
114
170
128
95
159
120
90
127
89
60
113
81
50
112
93
66
35
20
7
31
35
15
52
57
33
45
54
31
67
58
30
87
70
42
118
98
90
195
165
138
199
171
151
166
129
101
145
106
76
134
95
69
110
63
40
107
59
27
113
70
36
118
79
47
142
142
88
102
156
71
75
152
56
64
153
48
68
152
49
69
154
52
74
155
55
75
155
56
79
155
59
80
156
62
79
158
63
81
158
64
80
158
65
81
159
65
78
158
64
75
157
59
72
154
55
68
152
49
69
152
51
68
153
51
68
154
54
70
154
59
73
153
60
71
154
60
72
153
61
69
153
60
71
153
61
73
155
63
76
156
64
76
157
65
75
158
65
77
158
65
77
158
65
79
158
68
78
158
69
78
159
72
80
160
77
81
159
77
81
157
76
80
156
75
42
143
30
48
146
31
49
147
35
52
149
38
59
150
42
62
151
45
64
154
50
63
156
53
69
158
56
67
158
58
71
159
57
70
159
57
67
159
59
71
160
61
78
158
66
119
160
82
213
182
144
198
152
118
196
152
120
208
168
133
206
163
129
180
123
82
143
73
31
121
55
22
132
76
46
173
121
89
211
179
153
151
122
106
97
92
69
93
99
75
36
50
35
81
95
67
99
110
86
62
63
42
150
131
118
195
176
159
176
132
98
190
150
119
185
147
118
173
132
98
157
121
89
138
99
68
130
96
66
144
121
98
47
29
16
32
34
13
59
64
35
80
82
49
97
82
47
104
94
72
160
130
116
204
177
155
179
146
123
176
133
101
154
112
79
115
73
43
84
40
13
84
37
10
99
56
26
109
69
39
139
138
84
105
156
71
78
153
57
67
152
49
68
153
49
70
155
51
71
155
53
71
155
53
75
156
57
79
156
60
77
159
64
81
159
65
82
159
66
80
160
65
79
159
63
75
156
59
71
154
52
66
153
48
67
153
48
67
154
50
70
155
53
71
156
59
72
155
59
71
155
61
70
155
61
70
154
60
73
156
61
75
156
64
75
157
65
75
158
65
76
158
65
76
159
66
77
159
66
75
158
65
77
157
68
79
160
72
81
160
75
81
159
76
80
159
75
78
157
74
48
142
27
44
145
31
53
146
35
52
148
38
59
148
42
58
151
44
64
153
48
66
156
53
65
158
55
68
158
57
69
160
59
69
160
58
70
159
59
75
159
63
99
162
77
161
173
108
222
192
159
204
163
130
211
173
139
203
155
119
173
114
76
142
76
35
136
75
39
155
102
69
181
133
100
206
171
142
220
190
162
193
163
142
97
84
65
105
111
85
75
90
64
104
118
92
113
125
106
74
69
48
146
128
116
213
193
177
187
146
115
189
152
121
198
160
130
175
132
100
159
117
84
151
111
79
155
117
84
169
139
111
65
39
21
15
11
4
65
60
31
90
87
53
97
82
53
129
102
86
198
167
143
193
157
131
175
129
96
161
115
81
142
93
61
112
73
41
91
53
22
84
42
13
74
31
7
98
61
31
133
141
80
100
155
69
75
153
54
67
152
47
66
152
48
68
155
50
70
155
52
70
156
53
72
156
54
76
158
59
79
159
64
78
161
65
80
161
66
80
160
63
78
158
61
74
158
58
70
156
53
66
154
48
66
156
47
68
155
50
71
154
55
70
156
56
72
156
59
71
155
61
69
155
61
71
155
62
73
156
63
75
157
65
78
156
66
78
158
66
76
158
66
77
158
65
76
158
66
76
156
65
77
158
68
80
159
72
79
159
72
79
160
74
79
159
75
81
157
75
45
142
25
47
143
30
52
145
33
55
147
36
54
149
38
57
151
43
62
153
47
66
156
53
69
157
56
69
158
58
72
160
60
72
159
62
72
159
60
78
160
66
101
163
79
161
173
110
222
191
159
204
161
126
196
151
116
182
130
95
138
72
35
128
62
28
150
97
66
190
153
121
212
177
150
214
180
151
216
191
171
218
192
169
143
110
93
106
113
87
118
119
85
125
132
103
127
130
108
50
38
20
150
118
103
217
194
171
204
162
125
201
165
135
190
151
124
177
130
98
169
124
93
178
134
104
180
134
98
179
141
110
95
53
31
72
33
17
54
34
21
80
64
48
122
89
69
187
149
121
188
148
118
158
98
64
148
94
60
142
93
65
104
59
28
111
82
52
94
66
38
86
56
31
82
48
22
107
71
40
128
145
79
95
155
69
77
154
56
67
151
49
69
153
49
69
154
51
70
155
51
69
156
52
72
157
55
75
159
61
77
160
62
80
162
65
81
162
64
78
161
63
76
159
60
73
158
56
71
156
53
68
155
49
67
156
50
70
156
52
70
156
55
71
155
57
70
156
60
68
156
60
73
155
62
75
156
64
75
156
65
75
157
66
76
157
65
75
157
65
75
157
65
74
157
64
74
156
64
76
156
65
78
157
67
76
158
68
78
158
69
77
159
70
78
158
74
79
157
75
41
141
25
48
143
29
47
144
32
53
145
35
56
147
39
57
150
41
64
152
48
64
155
53
69
157
57
71
159
61
72
159
63
73
160
62
74
159
64
84
162
70
104
162
75
171
173
113
224
190
160
205
160
126
188
138
99
164
110
74
140
81
47
159
109
76
174
135
102
188
148
115
202
160
124
204
161
126
198
162
133
204
177
154
194
165
144
128
97
81
108
98
76
121
124
101
93
91
73
98
62
53
162
115
101
212
174
146
211
172
140
209
170
138
205
168
143
196
151
119
192
147
115
195
145
107
179
131
93
160
111
76
124
81
58
147
97
71
167
135
113
171
136
114
190
153
129
159
98
65
141
72
37
148
87
60
139
77
42
127
71
40
111
72
40
112
83
50
96
67
37
84
55
29
86
58
35
116
89
63
135
150
94
97
154
69
71
152
54
67
151
50
67
154
50
69
154
51
68
155
51
70
156
55
74
157
58
77
160
61
79
160
63
81
162
67
78
163
66
78
162
62
79
160
61
74
159
57
69
157
51
69
156
50
69
156
52
69
156
52
72
156
57
73
156
60
70
158
61
71
156
60
72
156
62
74
157
64
76
156
66
76
157
67
77
157
67
75
158
65
76
157
64
73
157
63
72
157
62
73
157
63
74
158
64
77
157
66
77
158
66
75
158
66
75
157
72
78
158
74
40
140
24
43
142
28
49
144
30
49
145
34
52
147
37
58
149
41
59
152
48
63
155
54
65
157
57
71
159
61
73
159
65
72
160
66
74
161
62
84
163
69
104
165
78
182
175
122
226
188
155
199
150
113
164
110
75
136
77
44
158
111
81
161
121
92
173
140
111
169
123
90
168
109
69
171
116
78
161
98
58
176
117
76
189
144
112
186
143
111
155
110
84
126
81
68
152
109
88
182
131
108
169
118
102
196
144
109
214
174
142
212
164
130
220
181
155
210
166
136
213
172
142
194
140
101
171
115
75
140
76
37
148
92
63
171
123
93
194
167
147
191
154
130
161
103
69
152
89
57
136
82
54
129
75
47
127
72
43
127
82
52
123
82
50
108
72
39
103
74
44
85
57
30
80
52
30
122
103
81
140
161
121
120
170
122
98
162
103
89
162
90
81
158
76
68
154
53
70
155
53
71
156
56
71
158
60
76
160
59
79
160
62
80
163
65
78
162
65
79
162
63
78
159
61
74
158
59
71
157
54
71
156
52
71
155
53
72
155
54
74
157
57
72
158
61
72
157
60
71
157
63
74
158
64
75
157
64
75
157
65
77
157
67
77
157
66
74
157
63
74
156
62
72
156
62
74
156
63
73
156
62
76
157
64
76
158
65
75
158
65
76
157
65
76
158
69
79
158
72
40
139
23
40
141
25
46
143
29
51
144
31
50
146
35
55
148
42
60
151
48
64
153
55
69
155
56
71
158
61
74
158
64
76
160
65
74
161
63
79
163
66
117
163
81
209
189
146
228
191
160
193
142
106
162
107
71
166
121
88
164
119
85
162
121
87
171
134
103
169
121
86
167
105
65
155
89
50
159
88
45
162
94
49
139
65
27
155
91
58
192
149
116
209
174
147
222
193
169
205
160
132
181
115
78
178
111
68
209
159
120
216
169
135
235
200
176
235
195
168
232
194
169
208
157
124
184
126
84
149
89
52
157
93
62
158
100
67
188
151
124
165
114
80
161
101
67
142
81
49
134
84
58
119
66
38
107
59
32
117
73
44
98
56
28
108
79
48
104
80
53
91
65
36
89
60
31
122
103
68
115
150
78
79
154
60
90
160
84
87
158
82
85
158
79
84
159
79
81
158
73
75
159
65
75
158
61
76
159
60
75
159
64
78
162
67
79
163
65
80
163
64
76
161
60
72
160
57
71
158
54
71
158
52
72
157
54
73
157
57
75
158
59
75
158
62
73
158
62
75
159
64
76
159
66
75
157
66
79
157
67
79
157
68
75
157
64
76
157
63
73
156
62
73
156
62
74
156
63
75
157
63
71
157
63
71
157
63
76
157
65
76
156
67
74
157
71
80
157
72
38
139
22
39
140
23
41
143
28
44
143
31
52
145
36
56
147
41
58
151
45
63
152
52
63
154
58
69
157
60
72
159
61
72
159
63
75
159
65
89
161
71
137
167
88
211
188
143
225
188
154
201
158
123
178
137
109
169
132
106
172
137
107
176
140
110
178
144
114
165
116
78
175
124
85
160
100
63
142
78
38
133
73
40
128
66
32
144
85
50
156
93
56
187
137
105
217
185
159
205
153
119
171
97
53
168
98
57
206
150
108
218
167
133
240
204
181
241
201
177
238
202
180
213
165
137
175
110
71
161
97
54
154
89
54
161
95
55
188
136
102
172
113
80
161
98
67
136
78
47
128
75
46
133
87
59
132
88
58
104
58
32
105
72
42
103
80
54
97
73
47
96
71
42
98
69
41
126
113
74
116
153
83
98
158
73
84
157
63
75
154
55
78
156
65
78
157
70
73
156
59
72
158
60
74
159
61
72
159
61
75
160
62
79
162
63
80
161
66
78
163
65
76
162
61
73
160
57
74
159
55
74
160
56
74
159
58
76
159
61
76
159
62
76
159
64
77
158
65
76
161
67
76
160
68
78
158
69
79
157
70
79
158
67
76
156
65
75
158
62
74
156
61
75
156
63
73
156
62
72
157
63
72
157
63
73
158
65
77
157
68
78
158
68
79
157
71
79
157
72
40
138
21
37
141
22
41
143
26
42
144
30
48
145
37
57
146
42
57
151
44
64
152
53
66
154
58
69
156
60
71
157
63
71
159
63
75
161
65
103
163
76
157
168
100
226
192
156
228
199
179
215
193
183
199
175
163
174
142
117
166
133
104
168
139
113
177
147
121
178
142
115
157
111
79
161
114
82
139
89
53
119
65
29
125
66
29
143
79
43
154
93
60
172
118
85
200
161
135
188
132
100
165
91
48
172
103
63
193
128
85
210
159
129
233
190
163
236
194
170
239
201
180
214
166
139
169
102
65
153
86
42
147
80
42
161
94
57
185
128
91
185
131
98
149
91
59
127
72
44
112
60
35
94
54
30
92
47
23
99
64
32
111
84
57
102
81
60
98
74
49
96
72
45
90
58
29
126
113
72
129
158
92
106
162
81
81
156
62
73
155
56
70
156
55
72
155
55
75
158
65
75
158
64
72
158
62
76
159
60
76
160
61
77
161
62
80
162
65
75
162
63
75
161
61
75
160
59
76
160
60
77
161
61
80
160
63
76
162
61
77
160
62
74
160
65
75
160
67
78
161
67
79
160
68
78
157
68
80
157
68
77
158
67
74
157
64
74
157
63
75
156
63
74
157
62
73
157
60
74
156
63
70
157
62
73
157
65
74
157
67
76
157
68
76
156
71
81
156
72
40
138
21
42
139
23
44
142
29
47
143
32
55
145
37
57
147
42
60
149
46
67
152
54
65
154
58
71
156
61
80
158
64
81
160
67
86
162
70
119
168
89
185
185
143
234
209
190
227
199
176
203
159
127
182
137
103
175
141
115
184
155
129
180
153
127
179
150
122
183
152
125
163
125
97
150
95
60
143
98
66
139
96
67
137
83
46
140
80
47
157
92
56
167
105
69
189
136
104
174
108
74
159
86
45
181
113
69
179
113
66
206
148
111
237
194
167
236
194
171
239
200
181
219
171
142
170
108
71
136
68
28
141
76
35
164
104
68
172
116
79
179
136
108
166
118
86
142
92
65
116
67
40
94
55
30
99
66
37
92
58
34
79
46
22
90
61
30
89
63
35
78
49
26
89
57
29
128
122
77
111
154
76
90
159
67
75
156
58
76
156
58
75
157
57
72
158
57
75
159
60
71
160
63
75
160
64
77
160
61
74
161
62
76
161
65
78
162
65
75
162
63
76
161
60
76
160
58
75
160
59
77
162
61
79
161
65
76
162
66
78
161
66
76
161
67
78
161
67
77
161
67
77
159
68
77
158
66
76
158
65
76
157
65
77
157
64
76
157
64
76
157
65
74
157
63
75
156
62
73
157
61
72
156
62
72
157
63
75
156
65
77
156
66
75
157
69
79
157
70
38
138
22
42
139
22
44
142
26
47
144
31
54
146
36
59
147
42
61
149
50
66
153
56
70
153
59
72
156
61
77
158
63
93
161
72
121
172
103
153
180
132
191
178
135
230
191
158
220
180
148
202
155
119
167
115
79
156
116
86
170
140
114
168
137
109
160
129
102
169
139
114
174
144
117
151
113
82
130
73
40
141
81
45
138
79
46
142
83
52
151
90
57
172
116
83
185
129
92
181
117
80
165
102
64
168
94
47
174
102
57
213
159
126
243
203
183
234
191
170
238
201
182
229
190
169
178
121
87
151
84
43
151
89
51
150
99
67
166
114
78
185
142
110
163
124
96
145
107
83
116
70
49
100
64
43
90
59
36
69
39
19
69
34
11
81
47
19
79
51
25
72
42
18
99
71
40
138
136
91
94
157
67
77
157
58
76
158
57
76
159
59
76
159
60
75
158
61
76
159
64
75
160
62
74
162
63
74
161
65
78
161
65
80
162
66
79
163
65
78
162
65
75
160
62
76
159
59
75
162
58
80
162
62
80
162
66
79
163
68
75
162
67
77
163
68
79
162
68
77
160
68
76
159
66
78
157
66
76
158
65
77
157
65
76
157
64
76
157
65
76
157
64
74
158
62
74
158
63
75
157
61
76
155
62
74
157
62
74
157
64
74
157
66
75
157
70
79
157
72
42
139
21
42
139
21
46
142
26
50
143
32
53
144
38
57
147
45
62
150
51
67
152
58
71
154
59
72
156
61
76
159
64
97
166
95
120
168
103
158
170
110
216
179
137
231
190
157
218
180
148
203
155
121
161
102
65
135
89
62
159
127
105
178
147
120
158
120
92
136
87
53
139
97
66
166
137
116
170
141
118
167
127
96
157
116
87
141
87
53
168
112
81
175
126
95
185
131
97
172
115
81
180
121
83
181
109
65
181
108
63
218
171
145
239
204
191
241
206
190
238
204
187
232
198
183
176
127
104
139
79
43
147
91
59
173
126
93
171
119
81
159
114
83
161
121
92
156
118
87
130
93
65
107
79
52
80
56
34
73
47
24
65
33
9
63
31
7
63
30
8
66
30
6
103
77
47
129
146
92
111
163
87
91
161
71
79
159
62
80
160
62
79
159
63
78
158
64
77
159
65
76
160
65
76
162
64
75
162
66
80
162
65
80
162
65
79
163
66
76
163
63
74
161
61
73
160
58
76
163
60
79
164
65
79
164
66
81
163
68
82
162
68
81
162
69
79
161
68
76
160
67
78
158
66
75
158
65
75
158
65
77
158
65
74
157
63
76
156
65
75
156
63
74
158
62
74
158
62
76
156
61
74
155
61
75
156
63
74
157
64
73
157
65
75
157
68
78
156
68
41
140
24
41
140
22
45
141
25
50
143
31
55
145
40
59
146
43
63
149
50
70
152
56
68
154
60
76
156
64
95
163
88
102
163
86
137
163
92
196
167
116
239
193
158
231
191
161
221
185
154
205
162
130
167
111
73
142
89
56
137
95
68
150
107
75
134
81
46
117
60
21
104
50
18
125
85
60
163
130
104
157
112
78
137
86
57
151
96
66
171
126
96
183
142
114
186
140
108
196
147
116
200
147
111
192
126
85
183
112
69
218
179
162
239
207
196
236
207
198
225
190
177
217
184
174
186
151
137
154
101
70
146
96
67
159
110
76
167
120
86
150
105
70
116
75
43
113
76
47
117
87
57
109
86
62
86
63
43
76
49
25
72
44
18
65
34
7
67
29
4
74
35
9
111
90
55
122
150
88
100
161
79
82
161
68
80
161
61
77
162
65
77
161
64
77
161
64
77
161
67
76
162
66
75
162
65
77
162
68
79
163
65
78
163
66
77
163
64
79
163
63
75
161
62
75
161
61
79
162
65
83
163
65
81
164
65
81
163
68
79
161
69
80
161
68
80
161
68
79
159
68
79
157
66
75
158
65
76
157
65
76
157
64
77
156
64
75
156
63
74
156
62
74
158
62
74
157
60
73
156
59
73
156
60
73
156
64
74
156
64
76
157
65
76
157
66
79
156
66
46
139
26
46
139
25
46
141
24
51
143
30
56
144
39
61
147
44
64
150
50
68
152
58
68
154
61
88
159
77
96
159
76
125
161
85
183
168
108
234
182
140
240
197
166
228
188
158
220
183
152
207
169
136
178
128
93
146
89
53
132
81
49
141
92
60
126
75
41
123
75
43
118
80
52
123
87
58
125
84
53
129
80
47
138
92
63
162
121
91
174
135
111
181
138
108
200
156
124
208
159
125
200
149
115
183
125
92
184
120
81
209
174
162
213
172
164
213
182
180
205
172
170
185
139
131
143
95
80
122
79
51
139
97
68
154
109
77
147
102
65
148
109
76
107
68
40
104
72
47
112
87
62
106
89
77
94
74
65
90
71
63
88
67
55
82
60
50
78
48
32
87
55
26
125
114
78
122
157
90
98
161
79
83
160
68
80
161
64
80
162
66
80
162
67
79
162
69
81
161
69
78
162
69
78
163
68
80
164
68
78
163
67
76
163
68
79
163
67
78
162
66
78
161
64
78
161
65
77
162
67
81
163
67
82
163
65
80
162
68
79
162
66
79
161
67
80
160
67
81
159
68
78
157
66
77
156
65
76
156
65
77
156
64
77
156
64
75
155
62
74
156
63
76
157
63
75
156
61
72
156
60
72
156
59
74
157
61
73
157
62
76
156
64
78
156
67
74
155
64
48
141
28
48
140
24
48
141
24
53
143
30
55
144
37
59
148
43
65
150
51
68
152
58
82
156
68
94
156
71
137
160
84
191
169
110
235
188
148
236
185
148
233
190
158
229
187
155
218
178
146
207
171
136
187
146
113
156
107
70
141
88
52
126
76
42
132
88
58
126
86
54
128
92
62
125
95
67
124
94
67
134
101
70
165
138
113
164
136
112
155
120
92
171
133
105
192
152
121
203
158
125
192
142
114
178
127
100
159
104
77
189
143
133
195
148
137
191
147
143
186
141
138
166
116
99
124
76
58
83
50
36
169
133
109
156
114
84
134
94
61
122
83
52
124
94
83
120
94
83
133
113
99
106
84
62
74
46
21
75
51
27
74
51
30
70
38
12
69
30
4
94
65
35
135
127
90
139
170
112
105
165
86
85
162
69
80
161
63
81
162
65
81
163
68
81
162
69
81
162
68
78
163
69
78
164
68
79
164
69
78
164
66
79
164
66
81
164
66
79
162
66
77
162
65
79
163
65
82
162
63
82
163
66
80
163
66
82
162
68
81
162
67
77
162
67
80
161
67
81
158
67
79
158
66
78
156
65
81
155
64
77
155
63
77
156
63
77
156
63
75
157
64
75
158
63
73
157
59
73
155
60
74
155
60
75
157
59
74
155
61
75
157
63
76
157
64
73
155
61
49
141
30
50
140
26
49
141
26
53
143
30
57
144
39
61
147
44
64
149
53
71
152
60
82
153
66
122
156
80
196
172
119
234
184
145
243
194
158
237
191
157
239
198
167
226
184
151
222
186
156
208
171
138
193
156
125
171
130
99
142
90
54
128
78
48
132
90
63
138
105
78
143
115
90
133
101
73
128
95
69
132
101
76
158
131
108
165
139
114
168
135
111
158
116
88
187
148
119
202
159
129
188
146
121
215
179
158
166
125
109
144
99
92
155
104
90
172
122
114
162
111
101
109
69
53
63
26
20
138
111
97
177
146
125
156
114
86
132
90
65
163
128
105
160
133
116
125
103
88
126
112
101
129
120
111
120
112
108
112
102
99
105
94
95
99
85
85
107
88
85
119
105
90
140
151
116
121
168
112
92
164
81
81
161
62
81
161
62
80
163
67
80
164
69
79
163
68
83
162
71
81
163
69
78
164
69
80
165
70
79
165
68
79
164
67
81
163
68
78
163
68
78
163
66
81
163
66
80
163
63
81
164
63
82
164
64
83
162
67
81
161
67
80
161
67
80
161
67
81
158
67
80
156
66
80
155
64
79
154
63
78
155
64
76
155
64
77
157
65
77
157
65
76
157
64
72
156
60
71
155
58
76
155
59
72
157
56
73
156
59
78
156
63
77
156
62
74
155
58
50
142
31
52
141
28
50
142
26
54
143
30
58
145
37
63
147
45
66
149
51
70
152
57
102
155
74
178
168
106
235
193
154
242
190
154
241
185
146
244
202
172
235
193
161
225
186
155
215
174
142
209
174
142
198
163
135
181
150
124
149
108
80
130
87
58
121
81
58
127
93
68
137
105
77
132
98
68
127
92
65
136
102
79
168
144
121
176
152
128
166
128
98
164
119
90
181
135
106
177
135
106
196
155
130
220
192
176
224
204
195
155
124
119
96
44
42
150
101
95
138
83
77
73
32
25
80
48
34
158
138
125
174
147
127
166
137
114
176
140
111
167
134
108
163
130
100
171
145
121
142
121
100
97
81
61
78
58
39
60
30
9
58
24
4
69
32
5
85
55
24
112
96
63
121
149
89
104
164
85
105
169
97
106
168
102
104
167
97
85
164
77
83
165
70
82
165
71
83
164
70
80
165
67
80
165
69
82
166
72
81
165
66
78
164
67
81
164
69
81
164
68
79
164
64
78
164
64
81
162
65
82
163
64
82
163
66
82
162
68
81
160
68
81
160
68
80
160
67
80
158
68
79
156
67
77
154
65
78
154
63
77
156
64
79
156
64
79
157
63
78
157
64
76
157
60
72
155
56
74
155
58
74
156
57
73
156
56
74
156
59
76
156
60
74
155
56
73
155
54
55
143
32
52
143
29
50
143
26
56
144
34
60
147
39
63
148
44
66
149
51
69
152
58
113
155
77
215
183
140
246
200
164
243
192
157
243
192
156
242
199
168
227
182
145
218
175
140
207
165
130
212
176
146
199
160
130
182
151
122
165
132
101
143
106
75
118
72
40
116
70
38
113
73
43
122
90
62
133
105
83
141
116
95
172
154
139
176
151
133
163
124
102
201
169
146
212
179
154
202
162
135
206
172
148
212
188
173
209
189
179
186
167
160
139
110
110
132
80
74
112
57
50
88
48
41
122
105
93
160
145
133
154
133
118
124
95
79
111
76
54
113
78
56
119
91
75
132
109
100
141
132
126
100
87
75
74
49
30
73
41
16
73
39
11
78
47
20
92
66
38
118
115
75
123
163
100
109
170
93
87
166
71
80
163
62
81
162
63
102
169
95
107
170
102
95
168
90
82
167
68
83
166
69
81
166
71
82
167
68
81
166
69
82
164
69
83
164
68
81
165
69
80
164
66
82
164
66
82
163
64
80
163
63
82
163
66
82
161
68
79
159
66
81
159
67
82
160
67
80
158
67
80
155
65
78
154
64
80
155
63
79
156
63
78
156
62
79
157
63
77
157
64
77
156
56
75
155
55
73
155
56
70
156
54
71
156
55
75
155
58
75
157
57
73
157
54
74
155
55
56
143
34
55
143
32
52
144
30
57
145
35
61
148
41
64
149
46
72
149
53
97
152
64
175
169
111
237
196
156
248
205
173
244
195
160
241
189
151
235
188
152
219
170
131
211
167
133
210
170
137
207
166
132
200
163
133
182
148
119
161
126
96
144
106
75
133
97
69
140
106
89
122
84
61
108
66
34
125
101
82
148
133
122
172
157
144
191
166
145
216
192
171
217
190
166
203
171
147
187
152
129
192
161
138
197
170
156
187
170
161
184
172
168
169
156
157
116
65
64
95
45
40
102
77
73
131
116
106
132
113
100
130
111
94
116
87
63
114
81
56
140
110
85
153
122
95
156
131
107
154
142
128
143
145
148
131
128
132
111
101
101
87
67
56
85
59
34
98
75
47
117
125
76
110
162
85
93
166
77
85
165
70
81
163
64
81
164
64
85
166
69
87
166
74
95
169
88
102
171
97
98
171
95
83
167
75
85
168
71
80
167
69
82
166
68
81
166
67
81
165
69
79
164
63
80
164
64
80
162
63
81
163
65
81
163
65
80
161
64
78
160
64
78
160
66
80
159
67
82
157
66
79
155
64
80
154
63
81
155
63
78
156
61
77
157
61
77
157
63
79
157
64
72
157
57
73
155
55
73
155
56
70
156
53
73
156
55
74
157
56
74
157
55
72
156
54
71
154
52
59
144
35
58
143
31
56
144
32
57
146
37
61
149
41
66
149
49
77
150
54
147
154
78
230
195
165
244
196
159
245
202
171
238
181
143
236
182
143
223
177
142
214
168
131
210
164
132
204
159
125
199
156
120
197
158
126
181
142
111
173
143
121
166
144
129
158
135
116
131
97
66
106
66
35
108
67
43
106
69
44
117
89
67
153
134
119
199
182
166
206
188
177
184
156
140
180
143
124
175
137
115
182
148
128
185
157
141
185
162
148
185
174
168
165
155
154
105
74
72
90
44
45
120
103
97
130
115
105
129
109
93
124
106
90
124
105
90
103
77
58
103
75
56
104
76
61
115
85
59
130
115
96
88
65
48
72
42
21
124
119
116
148
147
146
137
133
131
121
116
99
118
148
93
98
168
82
91
168
77
85
165
69
79
165
61
81
165
64
85
166
70
87
169
73
86
168
73
82
167
69
83
167
69
92
171
84
87
169
77
85
166
71
83
167
69
81
166
67
82
165
65
81
164
64
81
163
63
82
162
63
80
163
64
81
162
65
80
160
63
79
159
64
79
158
66
79
158
64
84
156
65
80
154
61
78
154
62
79
153
62
78
155
62
81
156
61
81
158
63
80
157
59
75
157
58
75
157
55
76
157
56
74
157
56
73
157
55
73
157
54
74
157
55
72
155
53
71
152
50
63
144
37
57
145
31
58
145
34
60
146
38
65
150
44
79
149
50
107
151
58
193
167
104
235
191
160
243
195
158
242
198
164
232
181
145
213
153
112
215
165
130
211
159
121
215
170
137
205
161
127
200
157
124
194
153
121
183
148
126
168
138
117
153
120
93
141
109
83
126
90
60
108
68
36
102
64
34
125
100
87
160
149
146
200
197
198
209
203
197
219
200
182
219
195
171
204
177
155
195
170
154
183
160
146
179
156
141
181
167
160
173
160
155
144
128
122
116
97
95
91
56
56
115
98
94
109
91
77
109
93
77
98
78
65
90
65
44
107
86
74
127
111
103
136
117
110
140
130
127
137
137
137
106
97
98
75
46
22
77
49
25
82
56
29
110
97
82
149
152
140
149
171
146
131
174
127
110
172
100
85
167
69
84
165
65
86
165
67
86
166
69
87
169
72
85
168
72
84
167
71
84
167
70
85
168
72
84
169
69
83
167
69
84
167
67
82
165
67
85
165
66
81
164
62
81
163
63
80
163
62
79
163
62
77
161
62
79
159
61
78
159
64
77
158
63
79
157
64
81
155
62
82
153
62
81
153
61
82
153
61
80
155
62
79
157
64
80
157
60
79
157
58
77
158
56
77
158
55
76
158
57
76
157
57
76
157
56
76
156
55
73
157
53
72
155
52
67
153
50
60
145
37
60
145
33
60
145
34
63
147
41
74
150
45
85
151
52
146
154
76
222
174
125
235
181
138
236
186
150
235
191
157
225
171
132
212
150
108
216
166
130
214
164
126
205
148
106
204
160
127
202
165
134
197
160
129
178
137
105
159
118
85
145
106
73
132
98
70
120
90
64
140
120
112
136
123
120
157
149
147
158
147
145
146
132
126
197
184
173
196
169
145
148
108
87
150
123
116
159
132
119
150
118
101
144
120
108
146
125
117
127
100
87
127
109
103
111
92
89
91
55
53
114
97
93
115
102
97
107
93
86
103
87
77
101
84
72
109
86
70
110
85
64
116
95
78
119
105
95
125
119
119
149
151
156
137
137
138
89
74
60
91
69
44
100
83
51
108
128
74
124
167
115
145
185
148
130
178
132
108
171
105
90
167
80
84
167
65
86
167
68
87
168
72
86
168
73
84
167
70
85
168
70
86
169
73
85
168
72
85
167
70
84
166
69
82
165
68
83
164
66
80
165
62
79
164
61
81
162
61
80
161
61
78
159
60
78
159
63
78
158
63
77
158
60
79
156
62
81
154
62
78
154
60
79
154
62
82
154
65
80
156
63
82
157
62
80
158
58
79
159
58
76
160
56
77
160
57
79
159
60
75
157
58
74
157
55
73
158
52
72
156
52
72
154
51
65
154
46
62
145
40
59
145
36
60
146
36
62
148
40
69
150
46
86
151
54
199
167
112
238
186
144
234
179
136
235
185
148
234
189
155
223
173
136
213
158
120
220
175
143
217
172
138
200
144
104
207
166
137
197
158
127
188
146
111
183
144
112
162
123
92
153
119
95
164
147
137
151
135
126
151
139
133
151
140
137
118
95
81
102
67
44
141
128
124
197
194
194
197
188
182
192
180
172
181
153
136
180
156
139
157
134
124
155
137
129
146
129
120
131
115
109
124
110
108
104
87
85
82
54
55
110
94
94
109
97
95
102
90
85
99
86
77
95
76
63
104
85
71
111
94
83
104
91
78
103
94
87
91
73
61
104
92
84
143
144
145
144
149
151
110
100
92
106
105
67
102
151
79
97
166
85
95
169
84
120
177
123
129
179
135
116
174
113
97
169
87
85
167
70
84
168
71
85
167
70
82
168
67
84
169
70
87
169
71
86
168
74
84
169
70
85
167
68
84
165
66
83
164
66
82
165
65
81
164
62
80
162
60
78
160
59
77
159
58
80
157
60
75
159
59
79
156
59
81
154
61
79
154
60
80
153
60
81
153
60
83
155
62
81
157
63
85
157
61
80
158
59
80
159
59
77
161
57
78
161
59
78
160
60
75
157
57
74
156
54
73
156
52
71
156
48
67
155
47
67
152
45
65
144
42
63
145
38
61
147
37
64
149
41
80
151
49
162
159
87
237
191
149
239
186
147
226
166
124
228
176
139
223
176
139
212
161
123
222
172
136
221
174
136
212
169
135
202
151
115
202
155
123
203
163
132
194
154
123
176
132
97
170
136
116
165
137
120
156
135
126
165
152
147
144
120
103
124
94
70
124
92
64
134
113
103
180
172
170
186
182
183
184
175
170
170
147
128
158
133
116
132
100
83
136
110
94
129
109
98
129
116
112
121
111
110
106
94
95
88
69
69
80
51
49
84
64
65
87
75
75
92
83
81
95
84
80
102
92
85
108
94
83
109
104
98
123
120
118
106
97
94
115
110
106
88
68
52
95
77
63
142
138
138
144
145
141
119
140
107
100
157
85
94
165
84
88
166
75
84
167
67
98
169
92
115
175
114
113
175
110
92
169
79
86
168
72
84
167
68
82
167
65
84
167
67
87
168
72
88
169
73
87
169
73
83
168
69
83
166
65
82
165
63
80
165
62
82
164
63
79
163
59
76
160
57
76
157
58
75
158
58
78
157
59
75
155
57
78
154
59
82
153
59
81
153
60
83
152
61
81
155
62
82
157
63
82
158
61
84
158
61
83
160
59
79
161
58
79
161
61
79
160
61
75
158
56
71
157
51
69
155
48
68
154
46
70
152
45
65
150
41
61
145
42
65
146
41
65
148
41
68
150
45
136
154
74
226
177
128
239
184
142
232
180
140
220
161
121
219
167
127
226
182
149
230
193
162
226
182
146
222
180
146
215
175
146
198
144
108
202
154
120
203
163
129
193
155
124
178
143
120
177
140
115
175
152
142
148
122
109
140
104
77
144
115
91
126
94
67
147
135
130
183
179
178
155
149
148
127
108
99
167
158
156
161
156
150
152
138
132
144
125
116
134
114
100
123
107
100
113
99
100
95
81
81
88
72
73
85
71
70
84
66
64
80
62
60
82
65
61
81
69
66
91
82
78
102
100
96
110
107
103
110
107
103
103
92
84
112
102
98
112
103
97
113
107
103
91
71
50
97
81
58
143
149
134
145
178
152
106
168
104
89
168
74
85
167
71
80
166
64
81
167
63
90
167
75
108
172
106
108
175
109
88
168
77
83
167
67
81
167
67
83
167
68
85
168
70
88
169
73
88
168
74
87
169
72
83
167
68
79
166
64
80
164
62
81
162
62
79
161
60
74
158
56
73
157
55
74
157
55
75
157
55
78
154
55
79
153
58
80
153
58
82
153
58
79
155
61
81
156
64
83
157
65
83
159
64
83
160
62
81
161
60
80
162
59
81
161
61
80
161
61
76
158
58
74
156
53
67
153
44
66
152
41
65
151
39
65
149
38
67
146
45
70
147
45
75
147
45
129
153
70
213
170
119
240
186
142
231
172
130
229
177
138
221
166
126
217
164
125
226
181
146
234
197
166
226
181
146
219
173
137
211
172
141
206
163
129
198
145
106
194
150
121
193
156
132
180
148
127
180
154
142
158
114
84
154
116
90
156
127
105
141
109
83
165
151
146
187
183
183
145
133
128
107
81
64
134
123
118
134
119
109
154
147
147
158
152
151
142
132
129
138
129
124
120
107
99
105
86
82
101
86
84
104
92
91
95
85
84
95
83
81
97
86
84
96
84
79
97
89
84
102
99
94
108
109
103
109
105
100
102
90
80
94
80
66
104
94
87
98
84
75
116
112
110
109
95
84
104
87
62
113
131
80
134
172
131
140
180
149
102
171
99
85
167
70
80
165
63
78
164
62
80
165
63
85
167
73
104
171
102
104
171
102
90
169
79
81
165
63
84
166
67
85
167
71
88
168
71
87
168
73
87
169
72
85
167
72
81
166
65
80
164
60
78
163
60
77
162
58
71
159
54
73
157
54
74
157
54
73
158
55
75
155
53
80
154
56
80
153
57
79
154
57
81
155
61
81
157
66
81
160
67
83
162
66
83
161
63
81
162
61
80
162
60
81
162
61
78
161
59
76
159
56
73
157
55
68
153
44
64
151
40
61
149
37
58
150
32
87
145
54
111
150
68
152
155
86
201
164
112
234
182
138
234
177
133
230
170
128
229
173
133
228
179
144
220
165
127
228
184
151
217
177
144
216
170
135
192
136
98
204
161
129
198
151
117
196
148
121
190
148
122
192
158
137
179
147
130
156
110
79
148
105
74
149
107
75
160
129
105
170
157
151
184
176
173
142
127
119
121
96
78
130
117
108
137
127
120
142
132
127
139
131
126
138
128
126
146
144
144
137
137
137
129
124
120
120
109
105
120
112
109
116
108
106
109
101
99
108
100
100
104
95
89
102
94
88
108
105
99
112
110
106
107
103
97
98
87
77
93
71
55
92
71
53
90
70
49
110
98
92
93
77
60
126
120
117
111
96
70
119
134
80
107
160
85
130
176
127
139
181
149
94
169
93
79
164
63
78
164
59
77
164
62
81
166
63
87
167
73
96
169
90
96
169
92
89
166
80
82
165
66
84
167
68
84
168
71
86
169
73
88
169
72
86
167
70
83
165
63
82
164
62
80
164
61
77
163
58
75
159
54
72
159
52
73
158
53
75
157
55
75
156
54
77
156
56
76
155
57
79
154
60
77
157
60
82
159
65
87
160
69
84
164
71
84
163
65
81
163
60
82
163
61
80
162
61
78
161
59
76
159
57
72
157
52
65
153
43
61
151
36
60
150
32
58
148
28
181
160
107
204
167
119
225
177
136
235
186
153
236
181
142
234
176
134
230
168
125
228
174
137
223
173
136
218
164
125
215
168
133
216
176
146
200
150
114
193
137
100
185
130
95
195
155
131
191
144
112
189
148
121
180
142
125
165
117
83
157
110
74
125
72
36
138
94
64
177
159
149
176
166
164
149
127
113
134
108
93
138
121
110
153
141
133
140
127
120
134
120
112
133
127
124
120
107
100
135
130
129
128
123
119
132
132
131
135
135
134
128
127
125
126
123
121
119
116
114
114
109
107
114
112
109
112
111
107
108
107
101
101
91
81
98
80
66
91
69
51
88
65
44
86
64
41
89
69
48
97
81
68
101
87
76
98
75
47
139
148
129
103
152
76
88
164
71
81
167
68
122
175
123
133
178
141
86
164
74
74
164
58
74
164
59
81
165
62
81
165
62
87
167
75
89
165
80
95
166
88
89
166
80
86
166
66
85
168
68
85
168
67
87
168
68
84
167
65
81
165
63
83
165
62
82
166
61
76
164
58
74
162
54
73
159
52
75
158
52
75
158
54
75
158
56
78
157
60
80
157
58
80
156
60
80
158
61
86
159
67
85
162
69
86
162
71
86
164
67
83
163
61
83
164
62
81
162
62
80
160
61
76
159
57
70
156
50
63
152
40
62
149
32
57
148
27
55
148
24
233
177
143
231
172
134
237
182
143
237
180
138
234
176
133
229
170
125
219
155
111
223
164
125
222
174
138
215
163
125
214
169
134
212
170
137
198
143
105
194
137
97
204
163
140
201
161
129
186
142
114
199
159
133
189
142
107
178
131
96
154
102
63
110
57
20
143
133
132
164
159
157
140
114
98
142
116
97
142
115
94
161
151
145
133
113
101
142
127
119
135
124
121
110
91
81
106
88
79
107
93
83
105
94
85
125
121
120
134
135
136
130
130
130
133
133
133
126
122
120
122
120
117
119
119
117
112
108
104
96
82
69
90
69
53
88
67
46
89
67
48
88
68
51
89
70
52
83
61
37
87
66
45
105
90
76
118
117
75
114
149
83
122
173
123
79
164
65
81
166
66
81
165
67
122
175
124
127
174
132
78
163
61
76
164
59
78
166
62
82
165
62
81
165
62
89
167
80
80
163
65
95
168
88
89
168
81
85
167
67
85
167
66
84
167
67
82
166
65
81
165
63
81
166
62
82
165
62
78
163
58
75
162
54
74
161
54
74
159
53
74
159
55
77
160
57
79
159
62
82
158
63
81
158
59
79
160
61
81
161
65
86
162
68
84
164
69
84
164
65
82
164
61
80
162
63
82
160
63
79
159
60
75
158
54
67
155
46
63
151
38
57
148
28
55
147
21
53
147
22
231
167
128
230
167
125
236
180
136
227
164
121
223
159
114
228
171
131
219
161
119
223
169
130
217
164
127
213
158
122
212
163
128
210
166
132
199
147
113
206
155
122
207
162
129
200
157
127
213
180
159
196
140
96
191
139
99
173
122
84
140
87
51
142
123
122
148
145
144
99
81
80
108
80
67
124
91
72
158
143
136
133
106
88
148
134
125
134
116
106
119
106
100
91
62
44
93
73
61
87
66
53
85
63
47
93
78
65
113
105
101
113
110
106
130
131
132
129
128
129
121
121
118
117
116
113
96
85
76
91
74
56
88
71
51
88
68
49
87
68
48
85
63
40
83
62
40
88
66
44
84
61
37
88
62
39
119
116
87
109
146
71
107
164
97
107
168
105
79
163
66
80
163
65
77
163
64
123
174
125
116
173
117
76
165
63
80
165
63
80
166
62
80
164
61
80
163
61
88
165
81
80
164
64
94
169
89
87
167
75
83
166
64
82
167
64
84
166
64
81
166
63
81
166
62
80
165
62
80
165
59
77
163
57
77
161
56
75
159
54
75
159
54
77
162
57
83
160
64
80
159
65
80
159
62
82
160
62
83
161
64
83
163
66
83
165
67
82
164
66
81
164
61
81
162
61
78
160
60
77
159
57
72
156
51
67
153
46
60
151
35
56
148
26
53
145
18
53
145
23
227
164
122
232
172
128
231
175
130
224
162
119
225
166
125
215
155
114
227
177
140
228
182
147
217
160
121
208
147
104
204
144
104
209
161
127
209
163
131
206
153
114
195
136
95
206
168
147
201
151
111
189
131
85
166
105
63
153
94
54
146
112
103
146
140
137
97
79
75
104
64
39
111
69
40
134
113
103
140
113
96
135
114
106
133
107
92
131
114
103
110
81
61
99
75
57
83
55
38
85
59
41
75
47
25
83
63
45
89
73
60
86
70
58
107
101
97
97
89
83
92
82
74
92
80
67
82
61
42
80
58
37
83
64
41
84
64
44
78
53
29
79
52
29
79
52
30
78
52
27
80
50
25
84
49
20
115
97
79
117
135
79
100
157
74
110
168
107
92
165
87
78
162
65
75
161
65
82
163
74
125
175
130
103
170
105
79
164
63
78
164
61
79
163
60
79
162
60
80
162
64
85
164
72
81
165
70
95
168
85
85
165
70
84
165
66
83
166
65
81
166
64
81
166
62
80
165
62
81
165
60
77
163
57
77
162
55
78
160
55
78
160
55
80
162
59
83
161
64
81
160
64
82
161
62
82
160
63
81
162
61
80
162
65
82
163
66
80
164
62
77
163
60
80
162
61
77
159
57
73
157
55
69
155
49
65
152
42
60
150
34
54
148
25
50
145
16
54
146
24
229
164
121
232
172
126
223
158
112
221
163
119
219
162
119
223
168
127
224
172
131
220
167
126
218
162
122
211
153
115
210
155
119
209
166
133
204
160
127
202
148
110
202
151
123
191
137
101
190
138
102
176
118
75
159
101
63
149
107
88
148
135
133
98
81
79
117
75
48
136
87
53
149
110
89
145
119
105
129
93
68
132
109
97
131
102
82
136
117
108
102
71
46
103
78
65
103
78
59
91
62
36
79
50
26
83
60
41
80
56
37
71
46
26
80
60
44
73
50
32
73
52
37
77
53
31
82
61
38
71
48
26
77
51
26
81
56
30
83
55
31
78
50
24
79
54
28
77
49
24
73
37
10
82
42
11
114
92
57
140
144
108
109
157
78
82
162
67
113
170
115
77
160
64
76
160
61
78
161
66
91
164
87
125
177
135
80
163
75
78
163
62
80
163
63
78
164
62
79
163
61
87
165
75
84
166
72
86
166
73
90
168
82
82
165
69
80
166
63
81
166
65
83
165
67
83
165
63
81
165
60
78
163
58
79
162
55
81
161
55
78
162
56
78
163
60
84
163
67
83
163
67
81
163
62
79
162
60
80
162
63
80
162
65
79
161
63
81
163
62
80
162
60
78
161
58
78
158
56
71
156
51
66
154
45
63
151
39
58
149
30
53
147
20
53
144
18
57
145
22
229
168
123
226
162
115
218
152
106
216
153
111
224
166
127
227
176
140
226
180
145
213
155
114
214
157
119
211
155
118
210
155
115
219
177
145
221
186
157
209
167
139
199
151
121
194
143
106
186
136
102
162
104
62
144
89
55
161
146
145
123
89
78
147
103
74
167
121
86
170
121
83
153
124
113
122
71
37
114
96
91
96
71
57
110
88
79
102
69
48
103
70
45
115
92
80
105
79
61
96
68
45
92
67
44
87
63
42
77
49
27
65
35
11
70
44
24
71
44
23
66
40
20
75
48
24
80
56
32
74
49
26
68
41
16
83
59
35
86
63
39
86
63
38
83
60
35
81
56
32
83
53
26
102
76
49
148
131
105
153
157
112
105
161
93
83
161
69
84
161
72
107
166
109
76
160
62
76
160
66
78
163
66
97
165
96
120
172
130
80
163
63
79
162
62
78
163
62
78
163
62
81
165
68
90
168
81
86
168
76
85
167
74
88
166
75
83
165
66
82
165
67
82
165
64
82
164
62
81
164
61
80
163
58
78
163
59
77
163
58
80
162
59
82
163
64
84
162
66
85
162
66
83
164
64
80
163
60
79
162
60
79
161
62
78
161
61
77
161
60
77
161
58
77
160
57
74
158
56
70
155
50
65
153
42
60
152
34
55
149
25
54
146
21
53
144
20
54
145
22
224
161
117
220
157
112
221
159
114
224
168
127
221
167
128
222
169
130
224
176
140
215
160
120
204
147
107
203
148
112
206
150
113
217
174
141
214
179
150
205
172
148
198
148
112
192
137
96
181
126
87
164
110
73
178
150
138
162
117
94
169
116
84
186
140
107
191
152
120
187
157
138
141
82
43
112
64
47
110
80
73
88
48
23
117
94
86
90
57
39
87
51
34
97
68
48
102
75
56
86
55
31
94
72
56
80
54
32
76
48
27
72
43
19
70
42
19
74
49
27
61
33
14
74
48
22
78
54
29
78
54
29
69
41
16
72
45
23
84
61
39
88
67
46
84
59
35
81
53
26
89
61
31
120
97
74
150
137
112
152
158
112
127
166
107
94
162
76
84
162
68
95
163
91
90
162
84
76
158
64
77
160
66
78
161
67
107
169
113
99
168
99
80
162
62
76
163
63
79
164
63
83
164
71
89
168
80
90
168
77
87
167
74
86
165
73
82
164
70
80
164
66
79
164
63
81
164
62
80
164
61
82
163
62
81
162
61
80
163
58
81
164
60
83
165
65
87
164
64
84
164
65
82
163
63
81
163
62
79
162
61
79
161
62
79
161
60
76
160
57
77
160
58
78
158
58
74
156
55
67
153
45
63
151
40
59
150
33
52
148
24
55
145
22
53
144
22
54
145
25
225
162
117
219
160
116
221
162
121
214
152
109
217
166
128
217
163
124
209
150
109
200
138
95
203
145
109
208
159
124
203
151
116
207
157
122
214
181
158
203
166
138
194
143
108
193
136
97
186
132
95
186
156
142
183
139
115
191
144
113
192
140
104
189
144
108
189
155
132
173
138
112
128
77
40
124
96
89
97
47
18
111
77
65
106
72
50
106
67
39
117
86
61
84
46
20
69
35
14
71
31
7
71
42
27
65
29
6
78
49
25
75
48
26
73
47
23
77
50
28
65
35
12
75
48
24
77
52
27
84
60
35
74
48
22
72
43
16
73
43
15
80
53
25
81
47
19
83
50
19
92
67
36
120
99
75
158
144
119
155
165
118
127
167
102
107
168
102
85
159
72
73
158
62
99
163
99
73
157
62
76
157
64
77
160
66
79
161
65
118
170
123
84
163
74
77
162
63
80
164
67
84
165
72
87
167
76
94
167
84
88
165
76
84
164
73
84
164
70
82
163
68
82
163
63
82
164
62
82
162
62
82
163
64
81
161
63
82
162
59
84
164
63
85
165
66
86
164
66
82
164
64
79
164
62
80
164
60
78
162
58
78
162
59
78
161
58
75
159
55
75
159
55
77
157
58
71
155
53
66
152
43
62
150
36
56
149
29
53
147
20
53
145
20
52
144
25
56
144
28
208
141
95
201
137
96
217
159
118
211
147
104
211
153
112
207
149
111
213
161
124
203
140
99
202
146
110
209
159
123
207
156
119
208
157
122
208
172
147
190
146
113
198
154
122
191
142
105
191
147
119
189
151
130
199
157
131
189
132
87
182
127
89
165
116
85
171
140
120
149
102
66
131
88
63
140
104
85
113
65
30
120
87
70
119
71
38
125
84
53
102
63
37
73
37
15
68
37
16
92
56
31
79
50
32
78
41
13
89
61
38
80
56
35
75
48
25
78
54
30
70
42
18
75
47
22
79
50
24
85
65
40
80
56
32
81
53
26
76
46
18
80
52
26
82
56
29
87
61
32
99
77
51
129
110
88
173
150
124
172
161
119
136
168
108
118
168
106
89
158
73
79
157
66
80
157
72
91
159
91
76
157
64
78
158
65
76
159
65
91
163
89
105
166
108
76
161
67
80
163
69
83
165
71
87
166
75
91
167
79
86
165
75
82
164
72
81
164
71
83
164
68
80
163
65
82
164
65
83
163
63
84
161
63
82
161
61
81
161
59
84
163
63
85
165
68
83
164
65
84
164
65
82
163
62
80
162
60
77
162
58
77
162
59
76
161
57
73
158
52
72
157
52
72
156
54
66
154
49
62
149
40
61
149
34
57
148
25
51
146
20
50
145
18
53
144
22
55
144
28
198
131
88
204
140
99
204
142
101
200
138
98
199
136
97
201
140
99
203
141
100
194
128
85
204
147
110
207
150
112
204
147
109
196
147
119
199
152
116
195
154
124
204
169
139
212
179
150
206
176
156
197
154
124
192
133
94
179
114
66
166
100
55
175
134
112
166
127
98
152
105
71
169
138
118
162
123
89
138
89
51
136
90
58
110
59
24
97
47
20
105
63
34
67
25
5
94
64
40
106
70
39
71
41
20
82
50
22
82
54
30
78
52
30
78
52
29
81
54
29
77
53
26
77
48
24
80
53
25
84
63
39
87
68
45
79
56
31
84
62
34
77
47
18
80
52
24
87
61
32
102
80
55
135
116
95
169
151
129
167
162
119
120
161
91
91
160
75
79
157
65
74
154
60
72
155
61
95
158
93
74
156
63
77
156
63
76
159
64
78
158
65
101
165
101
93
161
89
84
161
70
85
164
72
86
166
75
88
166
77
85
164
75
84
163
71
83
163
70
84
162
70
83
162
68
83
163
66
86
163
63
83
161
67
83
161
61
80
161
60
83
163
64
85
165
67
85
163
69
85
164
64
80
162
61
77
162
58
78
162
57
78
162
57
76
159
54
72
157
52
70
155
49
70
154
50
65
151
45
62
147
39
58
147
30
55
147
24
51
146
18
52
144
17
55
143
24
56
143
29
205
139
97
205
146
106
207
154
116
207
149
110
199
136
96
191
125
88
203
144
104
206
150
111
206
148
108
196
134
94
187
129
95
190
137
107
195
147
110
216
182
152
212
177
147
213
182
159
202
161
132
197
148
111
192
138
99
183
118
70
174
109
66
169
124
101
167
119
88
171
132
103
166
131
111
152
111
77
161
119
86
156
115
82
133
87
51
109
57
21
118
75
45
79
35
9
101
67
40
102
67
37
64
31
10
81
50
27
86
55
29
74
41
14
80
56
34
87
68
47
83
60
36
80
57
34
85
63
39
84
62
36
85
67
45
81
61
36
84
62
35
86
63
36
81
55
28
84
57
27
102
77
49
135
111
86
169
146
118
167
164
121
127
163
92
102
160
82
81
154
64
73
154
58
69
153
58
73
153
63
90
158
86
74
157
63
77
157
64
76
158
64
82
158
71
102
164
106
84
162
74
83
163
71
86
164
73
85
165
74
86
162
73
84
162
71
82
162
70
82
161
68
82
162
66
84
162
65
85
163
66
87
160
67
84
160
66
83
161
62
84
162
64
84
164
68
84
163
66
83
162
65
78
162
59
77
161
57
76
161
56
74
160
55
73
158
49
70
156
50
68
153
49
69
152
46
64
149
41
59
148
36
56
146
30
54
145
24
47
145
16
50
143
17
52
142
25
54
145
30
205
139
96
195
131
89
201
145
107
199
140
100
182
114
73
186
118
76
189
127
87
196
143
109
188
127
86
186
125
83
195
144
114
199
145
110
207
161
127
205
161
124
223
194
168
215
186
164
198
153
121
195
146
110
192
138
95
182
120
76
172
118
87
167
108
72
171
122
84
168
131
108
156
110
78
155
113
80
155
115
86
148
108
77
146
101
63
110
61
26
93
46
19
86
43
18
101
60
32
75
37
13
74
44
27
83
52
27
80
51
26
79
55
32
85
63
43
93
81
67
88
70
51
84
69
52
89
78
61
85
65
40
88
65
40
84
63
38
84
64
41
87
66
40
84
63
40
83
60
31
102
77
52
134
110
87
168
139
113
176
154
116
135
160
93
101
159
81
82
157
68
77
155
65
72
152
59
73
153
60
86
157
83
74
155
64
76
156
63
75
157
64
80
158
71
83
159
75
94
165
93
81
162
69
84
161
72
85
163
72
83
160
69
81
160
68
83
159
68
81
160
68
82
161
69
84
161
67
84
162
66
86
160
66
85
160
68
85
160
66
85
162
67
86
163
69
86
162
65
82
161
62
75
161
56
75
161
55
75
160
54
73
158
49
69
156
46
66
154
47
66
151
46
64
151
43
62
148
41
58
147
38
56
146
30
54
145
28
45
144
18
49
142
20
54
142
28
58
143
33
192
122
78
188
123
81
204
151
112
187
125
83
180
113
72
166
102
64
156
93
57
173
111
73
180
116
76
197
140
104
194
140
105
203
148
109
207
160
124
218
175
141
207
170
145
200
162
135
209
175
148
195
153
118
187
139
101
186
136
93
188
140
109
169
103
57
158
96
54
146
104
89
148
97
61
145
98
60
139
94
61
150
109
77
146
107
72
115
69
36
92
45
14
64
18
4
99
59
32
85
45
17
63
30
7
73
41
18
71
37
11
76
46
22
92
75
60
97
90
80
93
87
77
94
85
76
88
81
71
88
76
58
86
71
46
82
60
37
88
69
48
84
61
38
78
58
33
81
56
30
100
76
49
130
109
84
162
134
103
175
158
118
133
156
87
94
154
67
77
152
59
68
151
55
70
151
56
73
152
58
72
154
62
85
158
79
76
156
61
74
157
63
75
156
64
79
158
67
94
162
90
85
160
73
79
159
68
80
160
68
82
159
68
78
159
66
80
158
66
79
158
67
84
160
69
86
160
68
83
161
67
85
159
67
88
159
68
85
161
70
85
161
70
86
163
69
84
162
67
83
160
64
75
161
55
75
159
53
74
158
51
70
156
47
67
154
45
66
150
46
64
149
42
64
148
41
61
148
38
58
146
35
55
146
29
52
145
28
50
143
23
49
142
24
56
141
29
58
142
33
183
114
71
196
140
100
195
142
105
175
111
70
153
91
53
140
82
46
167
111
74
177
120
83
199
144
105
204
149
113
205
149
108
201
143
103
202
149
111
201
158
131
195
147
111
213
180
151
207
173
144
180
129
95
200
162
129
198
155
120
171
122
85
158
93
45
152
92
64
147
95
68
134
78
46
138
93
62
130
86
52
146
107
75
138
100
68
121
79
50
109
65
30
82
33
6
63
24
7
88
48
19
61
26
9
59
29
15
62
29
11
85
54
32
90
69
54
93
83
74
93
92
86
99
98
93
90
87
79
97
92
82
93
84
70
86
70
51
84
68
46
84
66
44
77
52
27
79
50
22
102
74
44
129
105
78
160
139
112
161
153
110
129
160
94
107
160
86
93
157
76
74
153
60
70
150
55
69
151
58
72
151
60
88
156
81
74
154
61
76
155
62
73
155
60
79
155
68
78
157
68
90
161
86
79
158
65
79
159
66
80
157
66
77
157
64
76
158
64
80
157
66
84
158
68
83
160
67
86
160
66
87
159
68
87
160
69
89
161
70
88
161
70
85
161
69
84
160
67
82
160
63
76
160
57
75
158
53
73
158
51
67
155
45
65
152
42
67
150
42
64
149
41
62
147
38
62
146
39
59
146
34
55
145
33
52
144
29
50
144
26
50
143
28
55
141
30
57
143
34
184
113
71
201
144
104
181
125
86
165
106
69
140
80
43
158
97
59
182
125
87
203
153
115
191
134
97
207
161
124
199
147
109
194
132
90
190
131
94
207
166
138
200
152
119
200
152
117
193
145
108
210
177
151
202
167
134
179
141
113
161
108
69
157
96
50
154
100
74
128
65
25
104
45
18
114
70
40
122
77
45
150
113
86
143
105
72
109
69
36
114
77
48
94
50
16
69
22
2
74
35
16
79
44
27
71
32
6
66
28
4
71
38
19
88
66
51
90
75
65
98
95
89
95
94
89
96
96
90
89
85
77
97
93
85
87
75
63
81
61
39
80
59
37
77
55
32
77
50
21
97
66
33
131
104
75
156
130
96
149
150
97
102
152
67
75
152
50
72
151
52
70
150
53
68
149
54
67
149
56
70
149
58
79
153
67
81
153
67
73
153
59
70
152
52
76
154
62
75
154
61
79
156
70
78
156
66
76
157
63
77
157
65
74
156
62
75
155
61
80
156
63
81
158
65
86
159
69
86
159
67
88
159
69
89
158
71
90
159
72
87
160
70
84
159
68
82
159
66
78
160
62
79
159
57
75
159
52
75
158
53
68
153
46
65
150
41
66
149
41
64
149
40
60
146
36
60
145
36
56
146
33
54
145
31
53
144
29
51
143
29
53
143
29
57
142
33
57
144
37
182
114
70
180
115
72
169
108
71
153
97
60
143
85
46
160
101
63
185
122
83
195
139
99
207
164
129
201
154
119
213
170
138
207
159
122
210
166
136
206
155
118
200
152
117
198
152
113
203
160
125
202
167
139
195
160
128
172
135
107
172
125
88
169
118
75
144
90
68
103
33
3
93
28
4
105
47
19
130
82
50
135
94
60
122
81
48
113
75
43
116
79
48
111
73
41
93
47
15
80
34
8
76
32
10
93
54
20
87
49
20
65
32
10
49
21
9
80
55
34
90
75
62
96
91
86
92
89
83
95
88
80
81
66
52
80
65
46
73
48
21
79
50
19
85
60
33
82
54
25
95
66
34
129
101
69
154
130
96
144
155
99
106
154
72
79
152
51
71
152
49
70
151
51
70
149
54
72
148
54
72
147
56
68
148
54
79
152
69
68
149
49
65
149
45
72
150
52
68
151
51
71
151
54
77
154
64
74
153
57
75
156
61
72
155
55
74
154
55
78
156
62
81
158
66
88
159
67
89
159
68
91
159
68
90
159
70
90
158
71
88
159
68
83
158
65
82
159
65
79
159
61
76
157
57
77
158
55
74
157
51
70
154
49
65
151
44
65
149
44
64
147
42
60
145
37
60
144
33
57
143
32
54
143
29
53
143
30
52
143
29
55
142
29
61
142
34
62
144
40
186
126
88
171
102
60
178
129
99
170
128
105
146
89
54
169
112
74
194
135
92
192
132
87
198
143
106
206
162
127
229
193
163
220
179
148
205
155
123
194
138
98
182
131
98
181
128
89
193
145
107
193
151
117
179
138
108
167
120
90
180
138
104
165
119
82
133
76
40
121
61
22
120
59
22
124
68
33
124
70
35
129
80
45
117
73
42
105
71
43
112
79
52
113
79
46
103
64
34
90
49
19
67
23
4
89
50
21
95
62
38
77
42
16
53
19
2
55
25
7
82
62
42
92
84
75
83
73
61
86
72
57
87
72
55
83
63
43
82
60
37
80
56
30
90
68
39
92
69
41
101
77
50
125
100
72
149
131
99
141
153
95
103
156
76
84
154
65
84
156
67
77
152
59
70
149
54
73
146
54
72
147
57
71
147
54
78
149
66
67
148
45
60
147
39
64
147
41
70
149
47
66
149
44
71
151
53
72
151
54
73
153
55
74
154
54
77
155
56
81
157
62
85
159
67
88
159
67
90
160
69
90
160
71
91
159
71
88
158
69
87
158
68
85
157
65
83
157
64
83
157
59
77
157
58
76
157
55
75
155
53
69
153
50
68
151
46
67
148
46
63
146
42
59
143
35
58
142
32
54
141
30
47
142
28
52
142
30
56
141
29
57
141
31
58
143
36
65
143
45
193
135
93
185
129
96
202
168
148
190
155
137
163
113
81
197
143
105
193
131
88
174
108
65
186
124
82
216
174
140
218
178
145
210
172
143
201
146
109
193
137
99
182
131
94
188
139
101
182
130
87
182
131
91
169
126
97
176
133
100
179
140
105
171
127
91
139
81
39
143
82
36
138
77
35
118
61
33
107
54
27
117
63
28
99
57
28
66
36
20
98
66
40
123
90
60
109
72
42
99
60
26
76
31
5
72
32
10
87
51
28
89
57
32
76
44
19
68
36
11
64
38
17
82
70
56
83
69
55
88
75
60
90
75
54
89
74
52
89
74
52
82
61
38
80
54
28
69
42
16
93
66
41
118
90
62
150
126
95
150
153
103
116
157
82
97
156
72
82
156
63
76
153
56
71
149
54
70
147
53
73
148
54
73
146
52
71
148
52
75
150
60
63
147
40
64
146
38
66
147
43
65
147
40
69
149
47
74
151
57
72
152
53
75
154
58
77
156
59
81
159
65
85
159
68
89
158
68
92
159
71
92
160
72
90
160
71
86
158
67
82
157
66
84
156
65
81
157
64
77
157
60
77
156
58
75
156
56
79
154
55
74
152
55
72
150
49
69
147
46
65
144
41
60
142
35
56
140
31
51
139
28
52
138
28
51
140
27
53
140
30
57
141
32
59
142
38
67
142
46
193
135
95
211
173
146
208
174
153
184
140
115
189
136
97
196
142
100
189
132
93
206
161
131
199
153
123
219
184
156
202
159
124
199
163
138
184
130
91
185
139
110
192
146
115
184
132
93
192
146
109
187
139
99
191
157
130
191
156
125
197
166
140
185
153
128
149
98
62
147
89
48
130
69
29
105
41
7
104
48
17
90
42
20
58
26
14
84
45
25
113
83
61
121
88
57
116
85
56
105
72
40
96
56
22
78
36
7
67
34
13
83
52
26
88
63
40
81
50
22
78
48
19
74
50
22
80
63
43
84
66
50
84
68
50
86
70
51
89
74
54
88
73
54
85
64
40
78
52
26
79
48
17
108
75
40
153
127
94
157
156
109
112
156
81
85
155
65
79
156
62
74
152
52
69
149
50
70
148
50
72
147
53
72
147
51
69
148
48
73
151
55
63
147
41
59
146
36
61
146
38
63
146
39
66
149
45
71
151
55
73
151
54
77
153
58
79
155
59
80
158
62
83
158
65
88
158
67
92
159
71
91
160
71
91
160
70
87
156
68
85
155
66
84
155
63
81
156
63
77
156
61
77
155
60
75
155
58
76
154
58
74
151
55
72
149
52
72
145
49
66
143
41
60
140
35
56
138
31
50
136
27
52
136
26
54
137
27
56
139
33
57
140
36
61
140
39
67
141
44
200
148
107
214
180
157
206
173
150
183
134
104
199
152
117
198
145
104
206
159
124
201
164
138
209
168
141
213
177
150
208
173
147
205
169
143
204
169
141
202
162
136
173
112
68
195
152
121
203
168
142
177
132
96
191
159
135
195
162
136
177
141
114
189
162
139
178
142
116
163
121
94
146
97
65
116
47
7
99
39
8
80
23
5
67
16
3
106
56
27
119
81
57
105
70
46
124
97
75
106
75
47
105
72
42
95
62
32
72
33
7
82
50
22
69
38
18
87
60
34
95
69
40
96
76
53
85
67
44
84
67
48
86
69
48
86
68
47
88
69
42
92
76
52
97
78
54
88
68
41
88
62
34
112
82
51
153
133
101
162
163
122
125
163
100
91
157
72
80
155
61
75
152
56
70
149
51
71
148
49
76
148
52
73
149
50
69
149
52
75
150
55
67
147
42
61
146
38
59
146
35
62
146
38
66
148
45
72
150
52
75
150
54
72
153
53
78
154
55
80
157
62
85
157
65
89
159
68
91
159
72
92
160
72
91
158
71
87
156
66
86
154
66
85
154
63
83
154
62
79
155
58
78
154
62
73
154
58
77
152
59
80
150
58
75
147
51
69
144
44
64
141
42
57
139
34
59
136
30
52
135
25
48
135
26
51
137
30
60
138
34
61
138
35
66
138
40
67
140
46
198
150
114
209
175
153
204
174
153
209
170
143
216
179
155
196
145
112
196
151
119
213
175
150
209
168
139
215
180
155
210
176
153
212
181
156
209
174
143
210
177
155
189
138
101
200
160
131
200
166
141
183
141
109
201
168
139
196
161
135
181
147
119
192
167
146
185
155
131
168
125
92
178
140
114
122
61
19
117
56
15
92
30
3
100
47
18
119
66
32
108
57
27
85
46
27
89
58
38
104
72
44
105
76
48
98
69
44
82
49
20
75
44
17
73
40
9
75
47
23
89
64
40
98
83
65
79
61
41
64
41
20
77
53
30
87
68
45
92
75
52
86
66
37
91
69
42
95
80
56
101
83
61
117
92
68
148
133
102
149
157
108
120
165
98
98
159
79
82
155
63
75
151
54
71
148
50
73
148
51
77
149
53
73
149
52
74
151
51
71
150
49
67
149
45
62
147
39
60
146
38
59
145
37
64
147
45
70
149
49
74
149
51
73
152
53
79
154
56
86
155
63
86
156
65
89
158
68
92
160
74
92
160
75
91
158
73
88
156
69
85
154
65
81
154
62
80
153
63
80
153
61
77
153
61
77
151
61
75
152
60
79
150
61
73
147
55
68
143
46
64
140
41
58
137
32
58
134
28
52
134
25
55
134
29
58
135
31
60
137
34
61
136
34
65
137
40
70
139
48
171
114
73
198
162
139
211
179
159
205
160
132
214
183
161
189
142
112
184
134
101
203
159
126
206
166
135
198
159
129
206
163
133
217
186
159
208
170
137
205
172
142
194
149
115
191
143
108
192
146
113
191
153
125
180
136
102
168
126
95
173
134
105
169
132
106
171
135
106
164
117
83
158
112
79
135
80
38
127
69
27
113
56
19
130
70
29
110
51
14
105
53
21
72
21
4
69
34
15
99
65
37
98
65
38
89
56
29
89
57
27
85
54
27
71
42
14
79
51
22
71
44
20
71
48
28
73
50
31
72
48
26
65
35
10
83
62
40
85
64
38
85
63
36
95
75
47
107
90
65
107
87
65
121
97
71
157
145
118
153
162
119
118
162
91
97
159
78
91
158
74
81
153
63
71
148
51
73
149
51
76
150
53
77
150
54
76
150
52
70
149
45
70
147
46
63
148
41
63
146
41
63
144
41
64
146
44
70
147
47
69
149
49
73
150
51
79
152
55
84
154
62
86
156
65
88
157
69
92
158
75
92
159
76
89
157
72
88
156
69
86
153
66
80
153
64
80
152
63
79
151
61
78
151
62
76
149
60
74
151
60
79
150
62
77
146
56
70
141
48
67
138
41
60
136
33
54
133
27
54
133
27
54
133
28
57
136
32
61
135
36
61
134
37
67
136
44
71
140
51
184
134
98
181
136
105
211
179
157
179
121
86
198
162
140
174
117
82
187
135
96
187
135
97
183
134
95
197
153
121
201
156
119
199
152
116
198
161
128
186
141
106
188
142
108
189
138
96
189
135
91
184
136
101
164
115
75
151
99
61
165
120
84
151
102
65
175
135
100
167
120
79
153
106
67
146
99
63
141
92
51
143
93
53
142
85
43
118
63
25
95
44
12
86
33
9
97
64
40
80
47
24
90
61
36
95
67
39
104
78
54
97
70
44
82
54
28
82
55
30
83
58
33
61
32
9
58
25
6
78
47
24
79
49
25
73
45
17
72
41
14
83
53
21
83
56
21
96
72
41
110
89
63
126
102
75
152
140
108
142
155
104
102
157
73
92
157
70
83
155
63
74
150
53
73
148
48
75
149
51
77
149
54
77
150
54
76
149
51
70
148
45
72
147
47
67
146
41
64
144
40
62
144
41
66
146
44
71
147
46
68
148
47
71
148
47
80
151
55
83
154
60
85
155
63
88
156
66
92
158
74
91
158
76
88
156
72
86
156
68
85
152
67
82
152
63
81
151
64
81
150
63
78
150
62
76
148
61
73
150
60
77
147
61
74
145
55
68
140
47
66
136
41
59
135
34
55
132
27
55
132
25
55
132
28
60
133
33
63
133
38
66
133
40
67
137
47
73
140
52
151
95
58
163
109
69
179
125
90
178
125
95
168
117
82
179
122
82
180
130
90
177
125
82
178
130
93
199
159
125
199
154
119
194
146
106
191
146
109
190
148
114
200
165
133
198
152
115
185
134
92
169
114
74
170
121
83
162
118
80
171
126
87
168
125
88
161
114
76
164
119
79
157
111
76
161
122
91
143
103
68
148
105
66
133
89
51
123
81
44
100
50
15
101
53
19
85
38
14
74
28
7
74
38
18
87
56
32
108
86
63
97
71
46
94
66
38
71
38
11
65
37
15
61
26
5
72
38
12
59
25
4
72
41
18
77
48
24
75
44
16
74
37
7
84
47
13
91
57
21
101
71
37
121
93
61
153
136
104
153
160
117
109
160
84
93
158
69
81
152
58
75
148
49
75
147
48
75
148
51
76
150
51
75
148
52
71
147
49
69
146
45
69
147
46
66
145
43
65
144
39
65
143
37
69
144
45
71
146
49
71
145
49
76
146
52
80
150
56
85
154
63
86
155
64
87
156
67
91
157
73
90
157
73
88
155
71
86
154
68
84
152
67
83
152
67
81
151
65
80
149
65
81
148
64
80
148
62
78
147
62
76
147
59
75
145
57
71
141
51
66
138
42
63
136
36
55
133
28
52
131
25
53
131
26
60
130
32
65
132
38
68
133
41
71
137
48
72
138
54
150
96
62
186
138
99
172
109
63
163
102
63
164
108
68
161
96
54
166
111
68
161
102
62
182
135
98
198
159
125
199
160
124
193
149
112
187
140
103
206
171
137
208
173
141
196
153
117
183
137
98
167
112
72
164
113
72
161
112
72
158
108
68
164
113
70
158
107
62
166
124
84
150
106
69
141
100
70
136
98
69
122
75
40
145
108
73
123
84
50
99
56
23
102
60
28
99
47
12
78
27
4
73
27
5
83
50
21
88
59
36
69
40
20
74
46
26
66
31
7
80
43
14
77
39
10
85
50
21
84
52
25
64
24
3
59
22
2
67
31
4
64
27
5
76
34
3
94
55
19
109
76
39
127
98
65
153
135
102
148
153
101
119
160
91
93
157
70
72
151
48
73
148
44
74
146
49
76
147
51
75
146
53
73
146
50
71
145
45
70
145
44
72
145
43
70
145
39
67
144
39
65
143
38
69
143
42
73
144
49
73
144
49
75
145
51
80
149
58
85
153
65
87
153
66
87
155
68
90
156
73
91
157
74
87
154
70
83
153
66
82
150
64
82
152
64
82
150
63
81
148
65
80
148
66
80
147
68
79
146
65
77
147
63
74
146
60
73
144
53
66
138
43
65
135
37
58
132
30
55
130
24
57
128
23
54
129
29
67
130
37
68
132
41
68
135
47
70
137
49
