P3
# Created by GIMP version 3.0.2 PNM plug-in
169 300
255
239
250
212
237
251
207
238
252
211
237
253
218
237
253
217
237
253
213
237
254
209
237
252
214
238
252
214
237
253
210
237
253
208
236
252
213
235
253
212
233
254
210
233
253
207
237
252
203
220
218
179
183
138
123
170
102
102
163
93
95
158
85
90
156
79
87
155
74
81
149
71
78
145
67
77
141
59
70
138
55
68
140
52
70
142
50
66
143
48
64
142
45
64
142
45
64
142
45
64
142
45
64
141
45
64
138
44
62
137
45
63
130
50
67
98
37
54
85
35
56
83
34
59
82
34
56
85
38
56
90
43
56
89
46
55
94
47
57
99
50
59
103
53
60
105
59
62
108
66
67
114
75
73
130
94
86
193
182
160
233
247
212
236
252
213
241
252
218
242
253
221
242
253
223
242
253
223
240
253
223
241
254
227
241
253
229
241
254
227
241
254
224
241
254
224
241
254
224
239
253
220
238
253
219
240
253
219
240
254
220
238
253
222
238
253
222
238
253
222
239
254
224
239
254
223
237
253
218
237
253
216
238
252
215
237
252
214
236
252
214
236
252
214
238
253
214
239
252
212
242
253
211
243
254
215
243
253
219
243
254
222
243
253
225
242
253
218
240
251
210
241
252
214
243
252
219
245
253
216
243
254
217
239
253
217
236
252
216
238
253
217
241
255
219
242
255
220
242
253
215
242
253
214
242
252
216
242
253
217
240
254
217
242
254
219
244
253
223
244
253
227
244
254
227
243
254
221
243
254
221
241
253
223
240
253
223
240
253
223
240
253
223
239
254
218
240
251
211
229
224
176
198
179
120
188
167
100
183
160
93
182
157
91
175
150
87
166
144
79
169
145
76
170
140
72
163
136
69
161
133
66
167
138
72
163
133
68
158
129
64
156
125
60
157
123
59
157
124
58
156
123
56
154
121
54
150
117
49
153
119
49
160
126
54
164
128
57
157
120
49
156
120
52
156
125
54
149
118
60
92
65
34
62
36
20
61
36
25
59
37
24
60
39
25
60
40
25
59
37
23
61
36
24
56
37
24
61
41
26
60
41
23
59
40
23
62
41
19
66
43
23
64
36
29
48
11
21
47
9
20
47
9
20
47
11
21
45
12
21
44
13
21
44
13
21
45
12
21
45
12
21
45
12
21
45
12
21
235
253
208
234
252
207
233
253
209
234
253
212
235
251
213
235
252
211
235
253
208
235
252
210
236
252
210
235
252
205
234
253
201
232
250
198
231
250
196
228
251
194
229
251
194
234
252
197
222
222
177
184
142
122
168
101
99
163
93
96
160
87
92
155
79
87
151
76
81
148
71
78
147
64
75
143
57
70
139
56
68
140
52
69
142
50
66
143
47
64
142
45
64
142
45
64
142
45
64
142
45
64
140
45
64
136
42
60
135
43
61
130
48
66
98
36
54
85
34
56
84
33
59
84
33
56
86
37
56
91
42
56
91
45
55
94
47
57
99
51
59
104
55
62
105
59
62
109
67
68
116
77
74
131
94
87
193
181
159
234
247
212
235
252
212
239
252
216
240
253
218
240
253
219
240
253
221
240
253
221
241
254
223
241
254
224
241
254
224
241
254
224
241
254
224
240
254
224
234
253
216
234
253
215
235
253
216
237
254
217
237
252
217
237
252
217
237
252
217
237
253
219
237
253
218
236
252
214
235
252
211
237
253
212
237
253
212
236
253
211
235
253
212
236
252
213
236
252
211
238
251
209
240
252
211
239
253
215
240
253
219
239
254
221
240
253
217
240
253
212
240
253
214
241
253
219
242
253
219
241
254
219
239
253
217
236
251
215
237
251
218
241
254
221
243
254
221
243
254
216
243
254
215
243
253
217
243
253
218
241
254
215
242
254
218
243
254
221
243
253
223
242
254
220
242
254
215
241
253
215
242
254
218
242
254
219
242
254
219
242
253
218
238
251
215
239
247
204
215
209
156
191
173
109
186
165
97
184
160
93
181
156
89
175
149
86
167
143
79
167
142
75
165
135
69
160
131
65
157
127
62
161
130
65
157
126
61
156
127
61
159
127
62
158
124
60
158
123
57
156
121
55
153
118
52
154
119
52
156
124
50
160
127
52
163
130
53
157
122
47
155
119
52
158
126
60
136
106
55
74
46
21
63
37
21
62
38
25
60
38
24
61
41
26
61
41
26
60
37
23
62
36
23
59
36
23
62
40
25
61
39
24
57
37
23
62
41
21
68
44
26
56
28
23
45
9
18
46
10
20
46
10
20
46
11
21
45
12
21
44
13
21
44
13
21
45
12
21
45
12
21
45
12
21
45
12
21
235
253
203
234
253
207
233
253
207
232
253
206
233
252
207
233
252
208
234
252
209
235
252
212
236
253
211
236
253
207
234
253
202
233
251
196
230
250
193
227
250
190
228
251
192
232
252
197
223
225
180
185
144
125
168
102
101
162
92
94
158
85
90
155
79
87
148
75
80
149
70
78
148
62
75
142
57
69
141
56
69
141
51
69
142
49
66
143
47
64
142
45
64
142
45
64
141
44
63
141
44
63
140
44
63
137
44
62
136
43
61
130
47
65
99
37
55
85
33
56
82
33
58
82
36
57
85
39
56
88
43
56
92
44
55
95
48
58
99
52
60
104
57
63
105
60
63
108
66
67
118
79
77
132
95
88
191
180
158
233
246
211
235
251
212
235
252
211
235
251
212
237
253
216
238
253
217
239
253
218
238
252
216
238
252
215
237
253
214
237
253
213
237
253
213
237
253
213
233
253
211
233
253
211
233
252
210
235
252
211
236
252
211
236
252
211
236
253
211
235
253
212
235
253
212
234
253
209
233
252
205
234
252
206
233
253
207
232
253
207
232
253
207
233
252
211
234
252
210
236
252
209
236
252
209
236
253
210
235
253
213
235
253
216
234
253
214
233
253
209
234
253
212
235
252
218
239
254
222
239
254
220
237
253
215
236
252
213
240
253
216
242
254
217
242
253
217
243
254
215
243
253
215
244
254
218
243
254
219
243
253
219
242
253
221
242
253
224
242
253
225
242
253
219
241
254
214
241
253
214
243
254
218
243
255
219
242
254
218
241
253
217
238
251
212
235
237
193
204
194
136
189
170
101
185
162
92
183
159
90
180
153
85
171
143
82
163
138
76
159
133
68
159
128
63
155
124
59
156
123
59
156
122
58
157
124
59
159
130
62
162
131
64
160
127
60
158
123
57
159
123
57
158
122
57
159
124
57
157
125
52
159
127
52
160
127
51
158
123
48
156
120
53
157
126
65
121
93
51
67
39
22
65
38
23
64
41
23
61
40
24
62
41
27
60
40
25
60
38
24
63
36
23
60
37
21
61
37
24
62
37
25
60
38
27
63
42
25
67
43
29
49
19
18
44
9
18
42
7
17
45
10
19
45
11
20
45
12
21
44
13
21
44
13
21
45
12
21
45
12
21
45
12
21
45
12
21
235
254
199
235
253
204
233
252
204
233
253
204
233
252
208
234
252
208
234
252
209
235
253
211
235
253
212
235
254
212
234
255
206
234
252
204
234
252
203
233
253
203
232
252
204
233
251
205
223
225
188
184
145
129
168
102
101
162
92
94
158
85
90
156
80
87
149
75
79
149
68
76
148
62
75
143
59
71
141
56
69
141
51
69
142
49
66
143
47
64
143
46
65
142
45
64
141
44
63
141
44
63
140
44
63
136
42
60
135
42
60
131
47
66
101
38
56
85
33
56
85
32
59
87
35
59
88
38
57
90
41
55
93
44
57
95
48
59
98
51
60
101
55
61
105
60
63
110
68
69
119
79
76
132
95
88
190
178
156
233
246
210
236
252
210
236
251
209
236
251
210
237
253
214
237
253
215
237
252
215
236
252
212
235
252
209
235
252
205
235
253
203
235
252
203
234
252
204
235
252
208
236
252
208
237
252
209
236
251
208
234
252
206
234
252
206
235
253
207
235
253
207
234
253
208
233
253
206
233
252
202
231
250
202
230
251
203
227
250
203
226
250
205
230
251
210
230
250
208
231
249
206
232
249
205
233
251
206
231
252
208
232
252
210
233
253
210
232
252
207
234
253
211
235
252
216
236
253
220
237
253
219
236
253
215
237
254
211
238
253
210
239
253
210
239
252
210
239
253
211
240
253
213
240
252
215
240
252
215
242
253
214
241
253
215
238
253
217
240
252
220
243
253
220
242
252
216
242
252
216
243
253
219
244
254
220
243
253
219
241
252
218
241
251
210
224
223
175
194
181
119
187
167
97
184
160
92
182
155
87
176
149
81
168
140
79
164
137
76
157
130
66
157
125
60
157
123
59
156
122
59
156
121
58
160
127
61
162
132
63
158
127
58
156
124
55
158
124
55
159
123
55
159
123
55
160
124
56
156
125
53
158
126
53
159
127
54
158
123
50
157
121
55
151
121
63
100
73
40
64
37
25
66
40
25
65
42
25
63
41
27
62
40
26
60
39
24
61
38
23
63
36
22
62
36
21
62
36
24
63
36
25
60
38
27
64
41
27
64
38
27
46
16
17
43
10
19
43
10
19
43
11
20
44
11
20
45
12
21
45
12
21
44
13
21
45
12
21
45
12
21
45
12
21
45
12
21
229
253
195
230
253
197
231
254
202
232
253
206
234
252
210
234
253
208
234
253
207
236
253
203
235
252
208
235
253
211
234
255
203
235
254
203
235
253
205
233
251
206
234
250
207
235
251
209
223
227
193
185
148
130
169
103
100
163
92
94
159
86
90
154
79
85
147
74
79
150
67
76
149
62
75
144
60
72
142
57
70
142
52
70
142
49
66
142
46
63
143
46
65
141
44
63
141
44
63
141
44
63
141
44
63
139
42
61
137
40
59
133
47
67
101
38
56
83
33
55
85
33
60
87
34
58
86
36
55
86
37
51
91
43
59
95
47
61
97
50
60
100
53
61
104
61
64
111
69
69
118
77
73
129
94
85
186
175
152
230
245
205
235
252
205
235
251
206
236
251
208
238
253
212
238
253
213
236
253
212
236
253
210
235
253
208
236
253
202
236
253
200
234
252
200
234
252
200
235
253
205
235
253
206
236
254
206
235
253
205
231
251
200
231
251
200
232
252
201
232
252
200
230
252
201
228
251
203
227
250
204
219
246
203
201
229
189
179
209
170
162
193
157
165
194
159
178
204
169
188
212
178
203
225
190
219
239
202
232
248
209
234
250
207
231
253
206
231
253
208
232
253
210
232
253
211
236
252
213
237
253
216
237
254
213
236
254
210
236
253
211
235
252
210
235
252
210
234
253
208
234
252
209
235
253
212
236
253
214
239
252
212
238
253
212
236
253
211
236
251
212
241
253
216
239
251
212
240
252
211
240
253
214
240
254
215
240
253
214
238
251
211
237
243
197
210
209
154
190
173
109
187
167
98
184
158
92
180
151
87
177
149
84
169
145
80
167
141
76
165
137
71
162
130
65
160
128
63
158
125
64
158
125
62
162
131
63
161
131
61
159
129
59
157
127
57
159
127
53
159
126
51
157
123
49
158
124
50
157
125
50
157
125
50
159
127
52
159
125
53
157
124
57
141
113
60
84
58
33
61
34
23
66
39
28
65
41
29
63
39
27
62
39
25
62
39
24
61
38
21
60
37
20
61
35
23
62
35
26
63
36
24
61
38
23
65
41
27
61
32
26
46
11
17
43
10
19
45
12
21
43
12
20
43
11
20
44
11
20
45
12
21
45
12
21
45
12
21
45
12
21
45
12
21
45
12
21
224
252
194
227
252
197
233
253
203
234
252
206
232
254
207
231
253
205
231
253
204
235
253
201
236
252
203
235
253
205
234
254
201
229
252
195
228
252
195
228
252
195
229
251
196
231
251
200
223
230
186
186
151
129
169
103
100
162
92
94
158
85
89
154
80
85
146
74
79
149
67
76
149
63
75
143
60
71
144
57
71
142
52
70
141
50
65
141
46
63
142
45
64
141
44
63
141
44
63
141
44
63
141
44
63
140
43
62
138
41
60
134
47
67
103
39
57
84
33
55
84
33
59
84
33
56
84
35
54
87
40
53
91
43
57
94
46
58
98
51
60
99
52
59
100
58
60
109
68
67
119
76
73
128
92
83
184
174
151
228
245
204
232
253
204
233
252
202
235
253
204
237
253
207
237
253
207
236
253
207
237
254
207
236
253
207
235
253
205
235
253
204
233
252
200
232
252
198
233
252
202
234
253
203
234
253
204
234
254
204
231
254
202
229
252
200
228
251
199
228
251
201
226
249
201
218
244
199
183
215
179
136
182
150
125
176
148
120
177
149
115
174
148
113
172
145
112
169
143
116
170
146
119
171
146
124
169
142
150
182
151
190
213
178
220
240
207
230
250
216
232
252
215
234
253
213
236
252
211
237
253
211
237
253
209
236
253
210
236
253
211
236
253
211
236
253
211
235
252
210
234
251
209
235
253
211
236
253
211
237
253
211
236
253
211
236
253
211
234
252
210
236
253
210
235
253
208
235
253
208
236
253
208
236
252
208
236
252
208
234
250
204
229
234
181
199
193
134
187
169
102
186
166
97
181
155
90
178
148
84
177
150
84
172
149
82
169
144
77
168
140
73
166
135
68
164
134
67
162
131
68
159
128
63
161
131
62
162
132
62
160
130
60
159
129
59
159
129
55
160
129
54
160
128
53
162
129
55
157
125
50
156
124
49
158
128
52
157
129
52
158
129
61
126
98
54
69
42
22
63
36
25
68
41
30
61
36
24
60
36
24
61
38
24
62
39
24
61
38
21
61
38
21
61
37
24
62
37
27
63
36
24
61
37
21
67
41
27
55
27
21
43
11
18
43
10
19
45
12
21
43
12
21
44
12
20
44
11
20
45
12
21
45
12
21
45
12
21
45
12
21
45
12
21
45
12
21
228
252
196
229
252
200
231
252
204
230
252
205
228
252
202
227
251
199
226
251
197
230
251
197
230
252
197
228
252
196
226
252
196
226
252
196
226
253
194
225
252
191
225
251
190
224
250
189
221
232
177
188
154
129
170
103
101
162
91
94
158
85
89
155
80
86
148
74
79
146
69
76
146
64
75
144
57
70
144
55
70
142
52
70
141
50
66
141
47
63
141
44
63
140
43
62
139
42
61
141
44
63
141
44
63
141
44
63
140
43
62
135
48
67
105
40
58
84
32
54
85
35
61
86
38
60
84
37
55
86
41
54
91
43
57
94
46
57
97
50
57
98
52
58
101
61
62
109
68
68
120
76
73
127
90
82
183
175
150
225
245
203
228
253
203
236
252
198
235
252
199
232
252
200
230
252
199
230
253
198
230
253
200
230
253
203
232
252
206
233
252
206
231
253
202
230
253
197
231
251
199
231
251
200
229
249
198
230
251
199
226
250
198
226
250
198
226
250
198
223
246
198
189
217
177
133
177
145
115
173
147
109
176
151
95
159
137
79
138
121
68
124
110
65
119
107
62
119
105
66
127
112
79
141
124
99
161
141
111
166
144
120
167
144
128
165
142
166
196
168
212
238
204
227
250
211
230
251
207
230
252
202
230
252
203
233
252
208
235
252
210
235
252
210
235
252
210
236
252
213
236
252
212
236
253
210
236
253
209
235
253
211
236
253
211
236
253
211
236
253
209
235
252
207
235
253
206
235
253
204
234
253
203
234
253
203
233
253
203
231
249
198
219
222
163
193
182
119
188
168
99
184
165
94
179
153
87
178
148
84
177
150
85
173
150
82
170
144
76
168
140
71
167
137
67
165
135
66
159
129
64
156
126
60
158
128
58
157
127
57
155
125
55
157
127
57
160
131
57
160
131
55
159
127
52
159
127
52
158
124
50
155
125
50
157
130
53
157
131
51
148
123
54
101
75
39
64
37
21
64
37
26
67
40
29
63
39
27
61
37
25
62
39
25
64
41
25
63
40
22
62
40
22
61
38
24
59
35
25
60
36
22
63
37
19
68
42
25
49
21
16
42
10
21
44
11
20
44
12
21
44
13
21
44
13
21
45
12
21
45
12
21
45
12
21
45
12
21
45
12
21
45
12
21
45
12
21
229
252
197
229
253
198
228
253
199
228
252
201
227
251
201
227
251
200
227
252
199
228
251
200
227
251
195
223
251
188
222
252
187
223
253
191
223
253
193
224
253
194
222
251
192
220
250
186
219
231
174
189
157
131
170
103
102
161
92
94
158
86
91
155
79
86
151
73
80
148
69
80
146
64
76
144
56
69
146
54
71
144
52
70
142
51
68
140
47
65
141
46
64
140
45
64
141
44
63
141
44
63
142
45
64
142
45
64
141
44
63
136
48
68
106
39
59
85
31
54
85
34
60
82
34
55
85
38
54
87
41
56
91
43
57
95
47
58
98
51
59
99
51
57
102
58
63
106
66
67
118
76
74
126
90
84
183
175
151
227
244
201
227
251
200
234
252
196
232
252
195
227
252
194
225
253
194
226
252
194
226
252
195
226
252
197
227
252
200
226
252
202
226
252
203
226
252
202
226
252
201
226
252
200
226
252
199
226
252
197
224
251
195
227
248
199
217
242
199
153
191
152
118
173
141
108
171
144
92
156
132
67
124
112
57
112
104
58
110
104
55
106
100
58
108
100
56
108
100
52
108
98
53
110
99
51
106
95
60
109
97
72
124
109
87
140
118
110
158
132
125
168
136
154
189
154
200
229
189
224
249
203
228
249
199
232
251
203
233
251
205
233
251
202
234
252
205
235
253
205
236
253
208
236
252
207
236
253
204
234
253
206
235
253
208
237
253
211
236
253
209
235
253
204
236
252
203
236
253
201
236
251
198
232
252
197
231
253
197
232
245
191
214
209
149
190
174
108
188
167
97
184
164
93
178
153
85
176
151
83
176
151
83
172
148
79
170
143
75
167
138
70
165
135
66
165
133
63
160
127
61
161
128
60
162
129
57
160
125
56
157
123
56
156
125
54
158
128
55
155
124
52
157
123
54
157
122
55
158
122
49
158
126
48
158
130
53
156
131
53
136
113
51
77
53
24
62
35
21
61
35
23
61
36
24
64
39
27
68
42
31
67
43
29
67
44
28
64
42
25
61
41
24
59
39
23
61
38
24
62
36
22
66
38
23
67
39
28
46
16
16
42
10
21
44
11
20
44
11
20
45
12
21
45
12
21
44
13
21
44
13
21
44
13
21
44
13
21
44
13
21
44
13
21
44
13
21
228
252
199
228
252
199
228
252
199
228
252
199
227
251
199
229
251
198
231
252
197
229
251
197
227
252
190
222
251
180
220
251
179
220
250
183
220
250
185
222
252
191
221
251
189
218
251
184
217
231
173
188
157
132
169
105
103
161
92
94
159
87
91
155
79
87
150
73
80
148
69
81
145
64
76
143
58
69
147
54
72
145
52
70
142
49
67
140
47
65
141
47
65
140
46
64
140
44
63
141
44
63
142
45
64
142
45
64
141
44
64
136
48
68
107
39
59
86
31
55
86
35
61
88
38
59
85
37
52
85
37
54
92
41
57
95
45
58
99
48
59
102
52
60
103
56
64
107
65
67
115
74
73
124
89
84
181
172
150
226
242
198
228
251
199
230
251
198
228
251
197
226
252
197
225
252
197
225
253
198
225
252
199
225
252
200
224
252
200
224
252
201
224
252
202
224
252
204
225
252
201
225
252
199
224
251
196
224
251
195
220
249
193
210
237
195
138
177
144
113
176
149
97
164
144
69
130
115
52
112
100
54
107
102
51
103
99
50
100
97
49
99
96
49
102
96
48
102
96
46
101
95
46
100
95
49
101
96
49
97
90
49
99
89
56
109
95
62
116
98
77
131
107
108
161
133
119
168
134
155
191
152
216
240
196
230
249
199
229
250
194
228
251
193
229
252
199
234
253
201
235
253
203
236
252
204
236
253
200
234
254
201
235
253
203
235
252
206
236
253
207
235
253
203
235
253
202
235
253
201
232
252
197
229
252
195
228
252
193
227
236
180
204
193
133
189
170
103
187
165
94
185
162
92
178
154
84
176
152
82
171
147
77
171
145
75
168
140
72
167
137
70
165
133
66
165
132
63
163
130
63
162
129
59
163
129
55
161
125
55
157
122
56
159
126
55
155
127
49
154
124
48
158
122
52
159
120
52
157
119
49
159
125
49
160
130
54
157
129
59
117
93
42
64
41
18
61
36
22
61
37
24
61
37
25
63
37
26
67
40
29
68
41
29
67
41
28
63
39
25
61
40
25
58
40
23
61
39
22
63
37
22
69
41
28
61
32
24
44
12
15
43
10
21
44
11
20
44
11
20
45
12
21
45
12
21
44
13
21
44
13
21
44
13
21
45
12
21
45
12
21
45
12
21
45
12
21
226
252
198
226
252
198
225
251
198
226
251
196
228
251
193
226
251
190
224
250
188
225
251
186
224
251
179
220
250
172
218
250
173
218
250
175
218
250
178
219
250
181
218
250
182
216
251
179
219
234
175
188
158
134
164
105
102
159
91
92
157
84
89
154
79
86
148
72
79
147
70
81
144
64
75
143
58
69
147
54
72
145
52
70
142
49
67
140
47
65
141
47
65
139
45
63
140
43
62
142
45
64
142
45
64
142
45
64
141
44
63
136
47
67
106
38
58
86
32
55
86
34
60
87
35
57
87
37
52
86
38
54
92
40
58
96
44
59
99
48
59
100
51
60
103
57
64
107
62
66
113
72
71
121
87
82
179
170
147
227
243
199
230
252
201
227
251
202
225
251
202
225
251
202
225
252
201
224
252
200
224
252
202
224
252
203
225
252
203
227
252
202
226
252
201
226
253
200
224
253
197
221
250
193
219
248
189
220
249
191
204
231
186
124
170
138
112
171
147
88
151
130
54
115
99
51
105
94
50
103
96
49
102
97
47
98
94
46
96
93
46
96
93
45
96
97
44
95
96
42
96
96
43
95
96
45
96
96
46
98
95
45
95
89
47
93
87
56
105
97
55
109
97
58
116
100
82
144
120
111
168
137
134
174
139
207
233
190
226
251
193
225
251
187
227
252
198
232
253
201
233
253
199
234
252
199
235
253
200
234
253
199
234
252
201
235
253
205
234
252
205
234
252
202
231
252
199
231
253
199
228
254
198
225
252
194
227
248
187
222
225
167
199
180
121
189
170
101
185
163
90
184
158
88
178
152
82
177
150
81
171
144
75
168
141
72
167
138
70
168
136
69
166
133
65
165
132
63
166
133
66
165
132
62
165
132
57
162
128
56
160
125
56
163
129
56
155
125
45
153
122
43
156
120
47
158
119
49
156
120
52
161
127
56
159
127
52
151
120
60
99
72
34
61
37
21
60
38
23
61
38
24
61
37
25
62
36
25
66
39
28
64
36
25
62
36
24
61
35
24
61
39
25
58
39
22
61
39
22
66
39
24
72
44
30
54
25
17
44
10
14
45
9
21
44
11
20
44
11
20
45
12
21
45
12
21
44
13
21
44
13
21
44
13
21
44
12
20
44
11
20
45
12
21
45
12
21
223
251
192
223
251
192
224
252
192
222
251
190
220
251
184
221
252
184
220
251
182
222
250
177
220
249
168
218
250
165
217
251
167
218
251
170
218
251
173
218
250
176
217
250
177
214
250
174
219
235
174
193
164
139
161
105
102
157
89
91
156
84
88
154
79
86
152
72
80
149
67
80
147
63
76
145
58
70
147
54
72
145
52
70
143
50
67
140
47
65
140
46
64
139
45
63
141
44
63
142
45
64
142
45
64
142
45
64
141
44
63
136
48
68
109
41
60
87
33
56
86
34
60
88
35
57
86
35
51
90
40
57
91
43
61
94
47
62
95
49
60
96
51
60
101
56
62
109
63
66
113
71
71
118
85
80
176
168
145
226
242
197
229
252
200
224
252
200
224
252
200
225
252
200
225
252
199
227
252
197
226
252
198
226
251
200
227
251
202
227
251
201
227
251
198
226
252
196
223
252
194
219
249
189
217
248
186
206
236
179
126
167
132
109
171
147
72
140
120
46
104
87
43
97
86
43
95
88
41
88
85
37
87
84
40
92
88
41
91
88
42
91
90
46
91
97
44
90
96
42
89
94
41
89
94
41
90
95
40
93
93
45
92
92
45
89
85
48
95
90
50
101
94
52
106
97
52
113
101
64
128
106
102
157
129
132
172
139
207
238
188
222
250
187
227
250
194
230
251
199
231
252
195
232
252
195
234
251
201
235
251
203
234
251
205
233
251
207
234
252
207
233
252
201
229
251
198
227
253
197
226
253
197
228
252
194
230
245
184
214
208
150
196
172
113
189
170
100
185
162
88
184
156
86
177
150
81
176
149
80
170
143
74
168
139
70
166
136
68
166
134
67
164
131
63
161
130
60
160
129
62
164
133
63
167
137
61
167
135
61
165
131
60
165
129
56
162
126
50
159
123
49
155
121
50
158
124
55
157
123
56
158
123
57
157
124
50
144
110
58
83
55
26
60
37
25
58
38
24
60
37
23
60
36
24
62
36
24
62
35
24
60
37
25
60
38
26
60
39
27
60
42
27
58
39
22
61
39
23
66
40
25
69
40
28
47
17
10
45
11
15
46
10
22
44
11
20
44
11
20
45
12
21
45
12
21
44
13
21
44
13
21
44
13
21
45
11
20
46
10
20
47
11
21
47
11
21
222
252
191
221
251
189
222
251
188
220
251
184
216
251
182
217
251
185
217
251
182
218
251
176
217
250
168
216
250
162
216
251
158
217
252
162
217
251
165
218
252
169
218
251
170
217
250
169
220
237
171
193
165
137
160
102
100
155
88
90
158
84
88
151
76
80
149
71
78
149
68
77
145
62
74
145
57
71
145
56
69
141
52
70
141
49
64
141
46
62
141
44
63
141
45
64
142
45
64
142
45
64
142
45
64
142
45
64
141
45
63
136
48
63
111
42
58
88
32
52
88
35
58
88
34
57
85
34
53
89
39
57
89
44
61
90
45
59
95
49
61
97
51
61
101
55
62
108
63
66
114
73
72
117
86
82
171
166
136
225
243
186
228
250
192
225
251
195
224
252
195
225
252
196
225
252
194
226
252
191
225
252
191
223
252
190
223
251
192
224
252
195
224
251
193
223
251
192
224
252
195
218
250
183
207
243
183
132
177
136
108
172
147
76
140
121
43
99
87
46
100
94
42
101
97
42
96
95
43
91
95
40
89
92
33
83
82
34
84
81
42
89
88
45
90
96
41
90
95
37
89
93
37
89
92
36
89
94
35
92
99
38
90
95
40
89
89
39
84
84
45
96
94
44
99
95
45
104
94
51
112
97
54
112
91
94
141
119
141
179
143
213
245
190
223
250
186
226
251
192
227
251
193
228
250
193
232
252
197
234
252
206
233
252
208
231
252
204
230
252
200
228
251
195
227
252
191
227
252
193
228
253
193
225
250
190
226
235
176
204
196
134
192
171
105
190
167
96
187
162
90
183
155
88
178
149
80
177
148
77
170
141
75
166
137
66
165
136
64
166
134
66
160
126
61
159
123
58
157
123
55
161
129
58
166
136
62
165
132
58
161
127
53
161
126
52
166
130
53
163
127
52
157
120
49
159
122
53
156
121
54
156
123
53
156
124
56
129
97
51
70
42
20
59
36
22
60
37
24
62
37
23
60
36
23
62
36
24
62
36
26
60
37
25
59
37
24
62
40
27
59
40
27
58
40
24
62
40
22
65
40
27
64
33
28
46
12
15
44
9
17
46
11
18
44
11
20
45
12
21
45
12
21
44
12
20
42
11
19
43
12
20
44
13
21
44
12
21
44
11
20
44
10
19
45
12
21
218
251
188
217
251
185
217
251
183
217
250
181
218
251
178
218
250
179
217
250
174
218
250
170
219
250
168
217
250
162
217
250
159
218
251
157
218
252
159
219
252
163
219
251
165
216
250
163
217
236
163
192
166
131
161
102
97
155
87
89
157
82
87
153
77
82
149
72
79
149
68
77
147
63
76
146
59
72
145
56
69
140
53
70
140
49
64
142
46
62
142
45
64
142
45
64
142
45
64
142
45
64
142
45
64
142
45
64
141
44
62
136
47
62
113
42
58
88
31
50
88
34
57
88
34
57
86
35
55
89
38
56
89
40
58
92
45
59
96
49
61
96
51
60
99
54
61
107
62
65
113
72
71
118
86
81
167
163
130
220
241
180
225
251
189
224
252
190
224
252
190
223
252
189
223
252
190
223
251
192
222
252
189
221
252
185
219
250
185
219
250
185
220
251
182
219
251
180
221
250
182
216
248
186
151
197
150
101
175
144
75
151
126
46
105
89
48
97
91
44
97
93
37
96
95
36
93
93
38
89
92
37
88
91
40
88
93
37
82
86
39
79
81
45
87
90
42
88
90
41
88
89
41
88
93
36
87
97
33
90
95
36
88
88
42
87
87
39
79
81
45
87
88
44
90
90
44
96
91
48
99
91
49
98
86
60
110
92
83
129
99
165
196
150
221
247
188
223
249
185
224
250
186
227
250
187
230
252
190
230
252
199
229
252
202
228
252
198
226
251
190
224
250
180
223
250
176
226
252
181
226
253
186
224
247
183
219
222
161
196
184
119
189
169
98
190
167
93
185
160
89
182
155
89
177
150
79
175
148
76
170
142
76
166
138
70
165
136
68
163
131
67
157
123
62
156
121
57
158
123
55
162
128
57
165
132
58
162
129
54
158
124
50
159
123
49
164
129
49
164
129
49
161
125
49
160
123
51
158
122
53
155
122
51
154
122
59
109
77
39
64
36
17
60
37
23
62
39
26
63
39
24
61
38
24
61
37
25
63
38
27
59
37
24
59
38
25
61
40
27
60
39
27
59
38
24
61
37
20
68
41
29
61
29
26
45
10
15
45
10
20
45
10
18
44
11
20
45
12
21
45
12
21
44
12
21
43
12
20
44
12
21
44
13
21
44
12
21
44
11
20
42
10
19
43
10
19
218
252
178
217
252
177
217
251
174
217
251
173
218
249
172
219
250
171
219
251
164
219
250
159
219
250
158
219
250
157
218
249
154
218
249
155
220
251
159
220
250
162
219
250
163
215
249
161
217
236
163
194
168
132
161
103
95
156
88
88
157
80
86
154
77
85
149
72
79
147
67
76
144
61
73
144
56
70
143
55
68
139
53
70
139
49
63
141
46
62
141
44
63
142
45
64
142
45
64
142
45
64
142
45
64
141
44
63
140
43
61
138
46
62
115
41
58
89
30
50
89
35
58
88
34
57
87
36
56
90
39
58
92
40
59
95
44
60
96
48
61
97
52
61
98
54
60
106
61
65
112
73
71
119
87
82
166
162
128
218
240
178
222
251
186
221
250
189
220
251
189
220
250
189
221
251
190
220
251
187
219
250
186
218
250
186
217
249
182
216
248
179
216
248
179
214
245
177
212
246
178
183
217
166
107
163
131
92
166
142
52
119
101
41
89
81
42
93
89
37
92
91
37
89
91
34
88
91
37
86
92
37
85
91
35
83
91
39
85
85
46
72
64
58
77
64
70
88
71
81
95
78
62
87
76
42
81
80
38
83
86
39
80
84
37
74
77
29
62
67
31
62
67
31
67
70
32
69
67
39
72
67
44
78
68
54
96
81
69
118
95
92
134
96
203
230
177
223
248
185
226
251
187
228
251
187
229
251
187
226
251
191
226
251
193
224
251
189
222
250
183
221
250
177
223
250
173
226
251
177
223
252
180
223
244
177
214
210
146
196
178
110
189
169
94
190
167
92
184
159
89
178
151
85
176
149
79
172
146
74
169
142
76
168
140
71
167
137
69
165
133
68
162
128
65
161
126
62
161
126
59
165
129
59
164
129
57
162
129
54
161
127
53
163
127
53
165
130
51
167
132
53
166
129
54
160
123
51
159
121
53
157
123
51
145
114
56
90
58
30
62
34
20
60
36
24
61
38
24
61
38
23
61
38
24
62
38
26
61
37
26
58
38
25
59
40
26
59
38
25
58
38
25
60
37
24
64
38
21
66
37
26
52
20
18
45
10
17
46
10
22
45
10
19
44
11
20
45
12
21
45
12
21
45
12
21
45
12
21
45
12
21
45
12
21
44
11
20
44
11
20
43
10
19
43
10
19
220
251
169
220
252
168
220
252
166
220
251
166
221
249
168
220
251
166
219
251
160
220
251
158
221
250
159
221
250
161
221
249
163
221
250
162
220
250
162
219
249
163
219
249
165
217
250
164
220
238
167
196
169
136
162
102
95
157
86
87
158
79
86
154
75
85
149
71
80
148
65
76
141
56
69
139
54
66
141
54
67
140
53
70
139
49
64
141
46
62
141
44
63
142
45
64
142
45
64
142
45
64
142
45
64
141
44
63
141
43
61
139
47
63
115
40
57
90
30
50
90
35
59
89
35
58
89
37
57
91
41
58
95
41
60
96
43
60
96
48
61
97
52
61
97
55
59
104
61
64
111
73
72
117
85
79
163
158
124
215
239
175
219
251
182
219
250
180
219
250
179
217
248
178
217
249
181
215
248
181
208
243
182
194
230
175
179
219
165
162
205
153
148
191
144
136
180
137
118
172
126
90
144
114
74
136
119
61
128
114
51
106
96
38
82
79
33
82
81
30
78
81
31
78
82
31
80
85
38
83
90
41
79
89
40
81
91
42
81
76
131
132
101
178
167
113
170
159
110
163
151
106
125
123
88
77
87
67
40
68
67
27
56
68
24
53
61
22
49
58
27
50
60
27
55
60
28
59
63
35
60
64
37
62
61
40
75
67
53
102
83
77
127
95
149
177
130
222
248
189
226
252
190
227
251
188
227
250
187
224
251
187
222
251
188
222
251
185
220
252
183
222
252
184
227
253
184
225
251
182
222
250
177
221
236
167
206
195
130
193
173
104
189
169
91
188
166
89
185
159
89
178
151
85
174
149
79
169
144
74
167
141
75
168
140
69
167
138
66
165
134
65
165
133
65
160
126
61
162
127
59
162
126
55
163
127
55
164
129
57
162
128
54
160
126
50
167
131
55
168
132
58
165
128
57
160
122
54
161
122
55
159
125
55
134
103
52
75
44
22
62
34
19
60
38
25
61
38
23
60
37
23
59
38
24
60
38
25
59
38
25
60
40
27
60
41
27
60
39
26
59
38
25
61
37
23
64
38
23
62
32
24
47
13
15
45
11
19
46
11
22
45
11
21
44
11
20
45
12
21
45
12
21
45
12
21
45
11
20
45
11
21
46
12
21
45
12
21
45
12
21
44
12
20
44
12
20
218
249
164
219
250
163
219
250
159
219
249
160
219
249
162
216
252
158
214
249
158
219
251
160
222
250
159
221
250
160
223
249
169
221
249
166
217
250
160
214
249
156
214
249
159
214
249
158
219
239
163
200
173
136
163
102
95
159
85
86
160
79
85
155
75
82
150
70
82
150
62
75
144
57
68
138
57
65
141
53
67
141
50
68
140
48
64
141
46
62
139
42
61
142
45
64
142
45
64
142
45
64
142
45
64
141
44
63
140
44
61
140
49
65
117
42
59
89
30
50
88
34
58
89
36
59
89
38
57
89
41
56
92
43
57
94
46
60
95
47
61
96
50
61
94
53
57
100
61
64
108
71
73
118
80
82
163
153
125
213
236
172
213
249
170
219
249
172
216
248
172
200
238
168
172
214
155
142
188
141
113
169
128
103
167
132
99
169
138
97
170
141
88
159
134
80
150
127
67
138
115
59
124
108
50
111
102
40
102
97
39
97
94
37
92
91
38
87
90
39
84
89
36
81
86
32
79
84
30
74
80
30
72
74
32
69
79
40
72
72
118
118
83
181
168
114
163
141
89
143
122
79
126
111
71
158
148
110
56
55
39
39
46
50
32
44
52
27
42
58
29
47
62
29
52
58
30
53
59
35
54
60
34
56
57
38
68
63
41
82
68
65
112
90
97
134
96
211
240
184
221
251
186
224
252
184
224
250
185
220
251
185
220
251
183
220
251
183
220
252
182
221
251
185
221
251
186
220
251
182
225
248
177
219
225
157
200
184
118
192
173
102
188
169
92
185
162
88
179
154
83
176
151
81
174
149
80
172
145
76
167
139
71
165
135
67
165
135
65
166
136
64
164
134
62
159
126
58
159
126
56
160
126
55
162
127
56
166
129
59
161
126
52
158
125
46
164
129
53
163
127
55
160
123
53
157
120
51
158
120
55
155
122
63
116
86
48
68
39
19
65
38
20
60
39
22
61
37
25
61
36
25
60
37
24
60
38
25
59
39
25
59
40
26
60
38
25
60
38
25
61
38
24
60
39
22
63
37
25
55
25
24
45
10
18
45
11
20
45
12
21
44
13
21
45
12
21
45
12
21
45
12
21
45
11
20
45
9
19
46
10
20
47
11
21
46
12
21
44
11
20
44
13
21
44
13
21
213
250
161
213
249
158
212
249
154
213
249
156
214
248
157
215
249
152
216
248
155
220
251
162
221
250
164
222
250
165
223
250
168
217
250
163
212
249
152
212
250
148
211
249
149
211
250
150
216
239
158
199
176
136
162
101
94
158
84
85
157
77
83
153
73
80
149
68
80
148
62
75
147
59
71
143
57
67
145
54
69
142
50
69
141
49
65
140
47
63
139
44
62
140
45
63
141
45
64
141
44
63
142
45
64
140
43
62
141
44
62
140
49
65
118
42
60
90
30
51
88
34
59
88
36
59
87
36
55
89
41
56
88
44
57
91
47
60
95
47
61
98
49
62
95
51
59
99
59
66
106
69
74
112
79
83
157
152
125
208
234
171
211
247
170
197
234
169
150
195
139
105
165
123
96
171
138
94
172
149
87
162
142
73
145
127
57
127
111
46
114
101
40
107
98
39
105
99
39
102
96
38
97
94
39
96
97
37
93
96
32
92
91
30
89
90
29
87
89
32
83
88
32
81
88
31
81
88
33
80
88
34
81
84
36
80
84
38
79
84
49
74
65
85
84
57
135
115
73
120
99
59
133
110
74
124
102
66
97
78
52
81
74
56
59
55
46
36
40
43
28
45
54
25
52
59
25
52
59
27
52
55
32
54
53
39
63
63
40
71
67
48
92
78
79
125
92
193
224
169
220
251
188
223
252
186
222
251
186
220
250
188
219
250
185
219
250
184
220
250
183
219
250
185
215
251
184
222
249
181
226
242
175
212
211
145
194
179
110
190
172
98
187
166
93
182
160
87
178
153
81
177
151
80
176
150
80
172
145
75
167
139
70
164
134
67
163
132
65
165
135
65
160
130
59
159
126
58
159
126
57
160
126
55
162
126
55
164
128
56
162
128
53
157
124
47
159
122
50
158
120
50
155
117
48
152
115
47
151
116
51
147
114
64
91
63
32
67
39
19
65
38
20
63
38
23
61
37
25
60
37
25
60
38
25
59
37
24
57
38
24
60
38
25
60
38
25
61
37
25
61
38
24
60
37
21
63
36
25
51
20
19
43
7
16
44
11
20
45
12
21
44
12
21
45
12
21
45
12
21
45
12
21
45
12
21
45
11
20
46
11
21
46
12
21
45
12
21
45
12
21
44
13
21
44
13
21
211
248
164
212
249
162
212
250
160
211
250
159
210
247
157
217
247
155
220
249
160
221
250
165
219
251
169
222
249
170
220
249
164
212
249
157
208
248
145
207
247
137
205
246
137
205
247
140
212
238
151
195
178
133
161
102
93
156
82
84
157
76
82
153
72
79
148
67
79
146
62
74
147
59
71
145
54
66
146
52
69
144
51
70
145
54
69
141
49
65
139
45
63
138
44
62
139
45
63
140
44
63
142
45
64
141
44
63
140
43
61
144
51
67
124
47
65
93
32
53
88
34
58
88
36
59
87
35
55
88
40
55
87
43
56
88
44
57
93
49
62
97
52
65
99
52
64
102
60
70
107
70
78
109
79
84
140
138
121
174
202
162
149
186
143
92
149
113
89
169
138
84
165
142
78
157
137
73
148
131
43
111
98
43
103
96
44
102
98
41
99
98
41
96
99
41
93
99
39
92
95
37
91
95
36
89
93
35
83
89
31
81
86
29
82
87
28
83
89
29
82
91
28
81
90
27
81
90
30
81
91
30
81
91
32
82
83
29
81
86
34
79
86
45
70
73
81
76
64
97
86
66
96
85
66
98
86
66
76
65
46
92
83
65
65
53
36
74
68
54
38
44
38
33
46
47
27
47
51
25
50
53
31
54
58
37
60
64
40
66
63
42
84
71
71
121
86
180
214
155
214
249
179
218
251
178
219
250
181
219
250
184
218
249
182
218
250
181
219
251
181
219
251
185
216
251
184
222
248
180
225
235
171
203
196
132
189
174
102
187
169
92
185
164
95
181
158
88
179
154
82
176
151
78
175
150
78
175
148
76
169
141
71
164
134
68
163
132
66
159
128
62
155
125
55
160
127
58
158
125
55
158
124
53
161
126
53
165
129
54
164
129
55
160
126
53
158
120
50
157
118
49
151
112
45
150
111
45
152
117
55
136
104
63
76
48
23
68
42
21
70
42
25
68
39
25
61
37
24
59
36
23
59
37
24
60
38
25
58
39
25
60
38
25
61
37
25
61
37
25
62
37
24
62
37
22
62
33
23
48
15
15
43
7
16
44
10
20
44
11
20
43
12
20
45
12
21
45
12
21
45
12
21
45
12
21
44
11
20
45
12
21
45
12
21
45
12
21
45
12
21
44
13
21
44
13
21
218
240
168
220
244
170
219
246
168
216
248
166
212
248
162
217
248
162
219
249
164
220
249
168
220
250
172
220
248
170
218
248
164
211
250
156
208
248
147
206
248
139
204
248
136
202
248
136
209
236
144
194
177
130
161
101
93
155
81
83
155
75
81
153
72
79
150
66
75
148
62
71
148
58
68
147
54
66
146
52
70
144
51
69
143
53
69
142
48
66
139
42
61
138
44
62
138
45
63
140
45
63
142
45
64
142
45
64
141
42
62
144
50
67
126
50
67
92
33
52
89
35
58
88
35
60
85
35
56
89
39
58
91
44
58
95
45
61
94
50
66
91
56
69
88
61
69
79
76
79
77
100
96
82
122
115
85
139
126
82
150
131
87
157
139
83
159
141
77
161
144
72
152
137
65
141
126
63
139
124
60
133
123
56
126
118
53
119
111
49
112
103
42
104
96
35
96
90
32
87
86
26
75
76
25
65
68
27
59
65
24
58
67
22
59
68
23
65
74
27
70
81
28
76
88
26
78
89
29
80
90
28
80
92
29
80
88
28
79
88
28
79
89
30
78
84
36
76
79
39
70
71
40
72
69
37
72
65
42
71
65
46
65
60
70
68
56
79
70
56
71
60
45
89
81
63
50
52
39
34
48
55
30
53
61
32
59
59
38
64
59
41
77
69
67
111
79
181
217
154
213
249
174
217
250
173
218
250
170
218
251
172
217
250
167
218
250
168
218
250
172
219
250
179
217
249
181
224
248
180
221
225
161
201
185
120
192
174
100
187
171
95
185
163
95
180
156
87
176
150
79
175
149
75
174
148
74
173
145
72
168
140
67
164
134
65
163
132
64
161
131
62
158
128
58
161
128
57
161
128
56
163
130
58
166
131
59
168
131
58
167
132
58
166
131
57
163
126
53
158
120
51
151
113
43
153
115
48
158
125
63
117
87
53
69
41
19
68
39
21
69
39
24
68
37
25
63
36
25
63
37
26
62
36
25
60
38
25
60
38
25
61
37
26
60
38
25
62
36
24
64
35
23
64
36
24
59
28
22
45
10
14
43
10
18
43
11
19
44
12
21
44
13
21
45
12
21
45
12
21
45
12
21
45
12
21
45
12
21
45
12
21
45
12
21
45
12
21
45
12
21
45
12
21
45
12
21
209
192
145
212
200
152
215
210
157
219
220
162
221
227
164
222
233
165
220
237
162
220
241
167
221
245
168
217
245
160
215
246
155
213
245
151
209
245
147
208
248
147
209
249
147
205
248
144
206
236
146
194
179
133
160
99
92
156
81
85
154
73
80
152
70
78
150
65
74
149
60
70
149
57
68
147
54
67
145
51
69
142
50
68
140
51
67
142
48
66
142
45
64
137
43
61
137
44
62
139
43
61
140
43
62
139
42
61
140
43
61
144
52
68
130
51
69
91
33
50
86
35
56
89
33
59
87
34
58
85
42
62
86
49
63
81
54
66
71
78
82
72
109
105
77
131
119
84
142
133
80
146
136
71
148
137
65
148
134
63
146
130
62
141
126
65
137
127
64
134
126
65
136
127
67
138
129
66
141
131
68
143
135
69
145
138
71
146
138
71
146
135
70
146
135
67
143
132
65
139
129
60
126
119
53
109
105
40
87
86
27
62
68
21
50
60
23
46
60
23
44
61
20
51
66
23
64
76
28
75
85
27
75
87
27
75
87
27
76
87
26
76
86
27
76
82
29
74
81
32
72
81
34
74
82
31
76
82
28
76
81
30
77
82
32
78
73
41
67
59
68
67
56
71
61
45
75
70
50
38
46
51
28
51
59
29
57
58
39
62
59
43
74
67
75
111
77
195
230
162
216
251
172
219
251
173
218
251
164
217
251
155
216
249
153
215
248
156
217
249
164
218
250
170
217
249
175
222
242
172
212
213
146
198
178
110
191
172
98
186
169
95
185
162
94
181
158
88
178
152
81
176
149
76
174
147
72
170
142
69
169
139
67
166
136
64
165
135
62
163
133
60
163
132
60
164
130
58
164
131
58
166
132
59
166
132
59
165
131
57
165
131
54
166
133
55
166
131
54
160
124
54
157
122
49
160
124
56
153
122
64
94
65
36
66
39
19
68
39
24
67
39
25
64
37
25
61
36
24
62
36
25
63
35
24
61
37
25
61
37
25
61
37
26
60
38
25
62
36
23
65
36
23
62
34
23
52
20
18
45
9
16
44
10
19
43
10
19
44
13
21
44
13
21
45
12
21
45
12
21
45
12
21
45
12
21
45
12
21
45
12
21
45
12
21
45
12
21
45
12
21
45
12
21
45
12
21
192
131
117
191
136
119
192
143
122
194
151
127
197
158
130
200
170
133
201
180
135
204
190
140
207
201
145
206
213
144
207
222
145
212
225
143
212
230
146
213
238
150
214
243
154
207
244
149
209
237
149
199
182
133
160
97
90
156
78
84
154
71
80
153
68
79
150
63
75
149
59
72
148
55
69
150
55
71
146
53
71
144
52
69
142
52
69
142
50
67
139
45
63
139
43
62
140
44
63
141
42
59
141
44
60
140
45
61
142
46
62
146
52
69
130
54
71
92
34
51
85
36
56
88
36
60
82
40
63
70
53
69
74
91
95
80
125
122
73
142
134
61
139
129
53
127
118
45
112
108
37
98
100
32
93
96
30
92
94
31
91
92
32
91
91
33
91
92
31
89
91
31
89
91
31
89
91
31
90
91
30
91
92
28
91
94
28
95
93
32
101
96
39
107
102
47
116
110
49
125
116
56
133
124
63
139
131
65
140
133
63
137
130
58
118
117
44
88
93
25
56
68
19
44
60
19
46
61
20
51
65
27
65
80
29
72
86
27
74
86
25
75
86
26
76
85
28
75
86
30
74
86
30
75
83
29
75
81
31
76
82
30
76
82
27
76
85
27
75
79
34
68
67
46
61
56
64
69
56
38
51
51
26
51
57
26
55
62
34
61
60
45
75
65
101
134
89
209
243
167
216
250
165
218
251
169
218
251
163
220
249
154
219
249
154
218
249
160
217
251
164
218
252
163
217
248
163
221
236
160
206
203
132
193
176
105
188
169
95
184
166
94
185
162
94
183
159
89
179
152
82
176
149
78
172
145
73
169
141
67
171
143
67
172
143
67
169
140
64
163
133
57
163
133
57
167
133
58
167
134
59
167
133
58
165
132
55
163
130
51
162
129
49
166
134
52
163
130
51
158
125
53
158
125
49
164
130
61
143
112
62
77
48
26
66
38
24
67
39
26
67
39
25
63
38
25
61
36
24
63
36
25
65
36
26
61
37
25
61
36
24
61
36
25
57
37
23
60
37
23
65
37
24
61
33
23
49
16
16
45
8
17
45
7
18
45
9
19
44
11
20
43
12
20
45
12
21
45
12
21
45
12
21
45
12
21
45
12
21
45
12
21
45
12
21
44
11
20
44
11
20
44
11
20
43
10
19
189
121
117
189
123
116
190
124
116
190
124
115
187
122
113
186
121
111
186
121
110
184
123
110
182
128
110
180
136
111
181
144
114
184
153
119
188
165
124
191
178
129
197
191
135
199
203
134
207
206
141
196
165
129
160
94
91
155
75
82
154
70
81
154
67
80
151
62
78
150
58
75
150
55
73
149
53
72
146
52
70
144
52
70
142
52
69
141
49
67
139
46
64
140
44
62
142
44
63
143
43
59
144
47
62
140
46
60
141
47
62
149
55
72
135
58
76
93
35
52
82
40
57
68
52
63
66
94
95
78
127
126
71
137
131
56
124
118
39
102
102
29
85
90
29
84
91
30
84
94
30
85
97
29
84
97
30
84
95
32
83
93
30
85
93
33
86
94
31
83
91
30
83
91
30
83
91
29
85
91
30
84
92
31
83
94
30
83
90
29
84
86
28
83
85
28
83
85
24
82
82
24
85
83
26
91
87
35
103
98
43
120
112
56
134
128
60
137
132
56
129
126
46
103
105
22
59
67
20
45
59
17
47
64
23
59
75
27
72
85
24
74
85
24
75
87
25
75
87
26
74
87
24
75
88
23
74
87
27
75
89
24
76
89
25
76
87
25
75
84
27
74
81
32
73
78
36
69
68
24
51
53
23
51
56
25
53
64
32
60
61
47
75
61
164
194
141
209
241
159
213
246
156
215
248
162
218
251
162
223
248
161
221
249
157
218
249
158
214
249
157
214
250
154
214
245
150
215
227
146
199
192
120
190
175
100
188
169
95
184
164
94
181
158
90
179
155
86
176
149
79
175
148
78
171
143
73
169
141
67
172
144
66
175
146
67
171
142
63
167
138
59
168
138
59
173
138
61
173
138
62
168
132
56
166
132
54
164
133
51
163
132
49
165
134
50
161
130
49
157
125
51
157
125
48
164
131
62
124
92
51
66
37
21
63
36
25
67
37
26
69
38
25
67
37
26
64
37
26
66
37
27
67
37
27
63
37
25
61
36
24
62
37
26
58
37
23
59
37
23
64
38
24
57
29
21
44
11
13
45
7
18
46
6
18
46
7
18
43
9
18
41
10
18
45
12
21
45
12
21
45
12
21
45
12
21
45
12
21
45
12
21
45
12
21
44
11
20
44
11
20
43
10
19
43
10
19
155
104
104
162
109
109
166
111
110
172
116
113
176
116
112
179
116
113
181
114
113
180
112
111
178
111
108
176
108
105
174
108
102
170
107
99
167
104
96
166
102
93
164
103
91
162
111
90
167
118
96
172
109
102
162
87
92
155
72
82
154
69
81
154
63
79
155
61
79
148
56
73
149
55
73
148
51
70
145
52
70
144
51
68
141
49
64
141
49
65
139
46
64
138
43
61
141
42
62
143
41
60
146
45
63
144
46
65
139
49
68
145
55
76
136
60
76
82
46
56
69
86
85
79
125
121
67
138
130
49
117
112
32
89
92
27
85
91
27
84
92
27
82
93
26
81
95
31
81
96
31
82
97
27
83
98
29
82
98
31
81
96
29
82
95
29
83
94
29
83
94
30
84
95
28
82
91
28
81
87
28
81
87
29
81
88
30
82
88
29
79
86
27
77
84
27
77
84
28
78
85
26
78
84
22
77
82
21
78
82
21
82
85
23
85
87
36
98
100
50
116
114
55
126
121
58
122
119
42
84
87
19
46
61
17
44
61
20
57
70
23
71
82
21
75
87
22
76
88
23
74
87
20
73
86
20
73
87
20
73
87
20
73
87
20
76
86
24
77
87
24
75
86
26
75
85
27
75
82
30
71
76
23
54
59
25
54
59
27
63
61
64
105
83
149
194
147
169
210
146
203
238
165
216
245
167
216
243
164
218
248
162
213
250
160
210
251
156
212
250
151
210
248
146
213
242
145
213
217
140
197
180
110
193
172
101
185
167
95
183
162
91
178
155
85
175
151
82
173
149
79
172
147
77
172
144
74
171
143
71
171
142
69
171
142
65
169
138
61
168
136
59
168
135
58
169
136
57
169
136
58
166
132
57
165
130
55
165
132
55
165
133
55
164
132
54
162
129
50
162
125
52
161
126
54
157
125
65
100
69
37
65
34
16
62
34
23
65
37
25
69
37
25
68
36
24
68
36
24
66
36
25
66
36
26
64
36
27
61
34
25
64
36
26
63
36
21
63
37
21
65
37
25
54
24
19
45
10
17
46
8
21
46
8
19
43
7
17
42
9
18
41
10
18
43
12
20
44
12
20
43
11
19
43
10
19
44
11
20
45
12
21
45
12
21
46
12
22
47
10
22
45
8
21
42
11
21
116
77
77
120
80
79
126
83
81
130
85
83
134
87
84
140
90
88
145
93
92
150
97
96
156
101
100
161
101
100
162
99
98
164
100
98
165
98
97
167
93
95
164
87
89
162
85
87
161
83
86
169
88
96
164
83
91
155
70
81
158
68
82
157
64
80
154
61
79
148
55
73
147
54
72
146
51
70
145
51
69
143
49
66
142
48
64
142
48
65
140
46
64
137
42
61
141
45
64
144
45
63
147
45
66
144
46
66
138
48
66
138
57
73
105
67
77
82
114
116
72
146
136
63
137
130
38
94
97
33
82
86
30
81
87
31
81
89
30
79
89
29
79
91
29
80
93
31
80
94
31
80
94
29
80
92
30
80
90
31
80
89
31
80
88
30
80
90
25
82
91
26
82
91
29
78
88
30
80
87
29
79
86
28
78
85
29
79
86
27
77
85
27
77
85
27
77
85
30
75
85
28
74
84
26
74
83
25
75
83
24
75
85
23
76
85
23
76
85
24
73
82
23
76
81
27
86
89
39
89
94
27
66
78
17
44
60
18
42
60
22
54
70
25
69
84
19
74
86
22
73
86
21
74
86
20
75
86
19
74
84
19
74
84
19
72
82
21
74
83
22
75
84
22
75
84
20
77
83
21
78
80
30
76
77
34
80
73
68
127
115
75
144
129
78
157
133
86
161
135
106
165
127
163
204
145
202
239
168
214
245
169
211
248
162
213
250
159
213
249
158
214
248
158
219
239
154
206
204
131
194
175
105
189
170
98
184
166
94
178
159
88
175
152
82
170
147
77
170
146
76
170
144
75
174
145
75
169
141
69
169
139
67
167
138
61
165
134
57
165
133
56
165
131
54
166
130
52
167
131
54
168
132
57
167
131
56
165
130
54
163
130
53
160
127
50
159
124
47
161
123
51
161
127
56
142
111
58
78
48
23
62
33
16
60
32
19
62
34
20
68
36
21
69
37
22
68
36
22
67
36
24
66
36
25
63
36
25
63
36
27
63
36
26
64
37
21
65
37
21
66
36
25
50
17
15
45
10
18
46
9
20
45
8
19
43
7
17
44
10
20
43
12
20
43
12
20
44
12
20
44
10
19
43
9
18
43
10
19
44
11
20
45
12
21
44
11
22
43
10
21
41
10
20
40
12
21
111
76
77
112
75
76
114
75
75
115
74
75
113
73
75
114
72
74
114
70
73
113
70
72
117
73
75
121
73
75
123
73
74
125
76
77
131
78
81
135
78
82
142
80
85
145
78
84
148
79
88
161
88
96
160
81
89
153
72
81
155
66
80
154
62
78
150
60
76
147
54
72
145
52
70
143
52
69
142
53
69
138
49
64
138
49
63
137
49
64
136
48
64
137
45
63
141
45
64
140
42
61
145
45
66
146
44
67
129
55
70
95
78
80
84
127
123
73
143
138
75
141
136
47
95
88
46
73
70
43
74
76
33
79
84
28
80
85
29
79
87
30
77
87
29
78
88
29
81
90
28
81
89
28
79
87
26
79
86
26
79
84
29
78
83
30
78
87
25
79
87
25
78
86
29
77
86
30
78
86
29
78
85
27
76
83
26
75
84
26
76
86
26
76
86
26
76
86
25
74
85
26
75
86
22
74
84
21
75
84
21
74
87
21
75
87
21
76
87
21
76
87
22
73
86
24
71
86
22
70
84
22
71
81
26
66
78
18
46
62
15
40
58
21
56
74
24
71
85
21
72
85
21
72
83
23
73
82
23
72
82
22
72
81
22
71
79
21
71
79
21
75
81
20
76
82
23
75
84
19
77
80
23
80
79
28
83
80
31
90
87
33
97
94
34
102
93
42
107
96
56
124
105
81
149
118
103
164
122
162
208
153
200
241
167
209
246
160
208
248
156
213
246
157
219
227
152
200
191
123
192
173
103
187
170
98
184
163
92
175
155
84
172
149
79
169
146
76
169
145
75
170
144
75
169
141
71
168
139
68
168
139
66
167
138
61
167
136
59
165
133
56
163
130
53
161
129
50
163
130
53
163
131
55
165
130
55
163
127
51
159
124
48
157
123
47
159
123
49
162
124
51
160
128
59
121
93
47
67
39
21
66
38
25
61
34
19
63
35
15
68
37
18
70
39
19
69
38
18
67
37
21
65
36
23
62
34
22
62
35
24
61
37
25
64
37
21
68
38
23
64
31
23
46
11
14
45
10
20
44
9
18
45
8
18
44
8
18
44
11
20
43
12
20
44
11
20
44
11
20
46
11
21
45
10
20
43
10
19
44
11
20
43
10
19
42
10
20
39
12
21
36
12
20
37
11
20
114
73
77
115
72
75
117
72
75
116
72
75
115
72
77
114
70
76
113
68
74
110
66
73
108
66
72
105
64
68
103
62
65
104
59
64
102
57
62
101
55
60
103
56
59
104
53
56
110
55
61
145
76
82
158
80
87
149
71
81
149
65
79
150
62
77
145
57
73
146
54
71
144
52
70
140
52
70
138
54
70
134
51
67
133
51
67
129
53
67
125
53
67
125
52
67
122
49
66
118
50
65
114
53
66
113
50
65
91
82
83
86
133
129
70
143
137
78
141
130
104
127
102
168
170
122
180
172
117
149
144
108
51
71
72
34
77
82
27
79
88
29
77
85
26
78
85
22
80
85
23
79
86
24
77
85
21
77
84
20
78
83
24
76
82
27
77
84
26
76
84
27
76
84
27
76
85
26
75
85
26
75
85
26
75
83
24
74
85
23
74
87
24
74
86
24
74
85
24
74
86
25
75
88
23
75
88
22
75
88
22
73
88
22
73
88
21
73
87
20
73
87
21
71
86
23
70
86
22
71
86
21
70
81
22
71
80
24
68
79
19
55
69
14
45
63
19
60
75
22
70
83
20
73
82
21
73
80
21
73
80
22
72
80
23
70
79
22
71
79
19
74
80
18
75
81
23
73
83
24
75
81
22
75
77
24
77
76
27
79
81
27
81
83
29
85
82
30
92
81
31
96
85
36
104
89
59
125
104
89
157
127
121
178
119
186
232
150
202
243
150
204
235
143
210
211
137
196
182
114
192
170
101
186
169
97
183
162
92
175
154
84
174
151
79
171
148
76
170
146
75
169
144
74
168
140
69
167
138
66
167
137
65
168
139
60
169
137
59
166
134
57
164
131
55
157
129
48
157
129
50
158
129
51
162
129
52
160
123
47
154
118
42
157
122
46
161
125
51
163
127
53
156
126
61
99
71
33
63
35
20
64
36
23
65
38
20
68
39
18
71
40
20
70
39
19
69
38
17
67
38
21
65
36
22
63
36
22
62
37
24
59
37
24
64
39
22
71
41
26
58
24
18
46
8
16
44
8
19
44
10
18
46
10
20
44
8
18
44
10
19
44
11
20
44
11
20
45
11
20
45
10
20
45
10
20
44
11
20
43
11
20
42
10
19
40
10
20
37
11
20
35
12
20
37
11
20
120
72
77
116
70
75
116
69
74
115
69
73
113
70
74
113
67
72
115
67
73
112
65
72
108
62
70
106
62
69
104
61
68
101
58
62
100
57
61
99
56
60
96
52
57
94
48
56
96
45
54
134
67
79
155
77
89
152
67
83
149
64
81
147
61
74
144
58
69
146
57
69
138
54
71
131
55
76
121
55
74
100
49
65
83
49
63
67
58
65
57
61
67
54
63
71
51
64
74
47
63
75
44
63
75
41
60
71
40
78
79
44
103
98
69
126
124
104
122
97
189
180
118
202
180
105
205
178
100
192
170
109
92
87
55
50
67
64
33
72
83
25
75
83
25
77
85
22
77
86
24
76
87
25
75
85
22
77
83
21
78
83
24
77
84
26
76
86
25
75
85
26
76
86
25
76
87
21
74
88
21
74
87
22
75
85
22
73
88
23
72
89
23
73
87
23
73
85
22
73
87
23
72
88
23
73
89
22
71
88
22
71
86
22
71
86
22
71
86
23
71
83
23
71
81
23
71
81
23
71
81
21
71
80
21
71
80
22
69
79
23
68
79
22
60
73
13
53
65
20
62
73
24
71
81
20
72
81
22
72
81
23
71
81
23
71
81
22
72
81
19
73
81
18
73
81
20
73
80
22
74
80
23
74
77
22
72
74
22
71
73
21
71
71
24
74
73
26
79
75
30
88
82
30
94
84
31
99
86
44
115
99
80
157
126
102
162
116
176
218
152
203
228
154
200
197
127
192
174
105
191
168
100
186
167
97
179
158
90
175
150
82
175
151
77
174
151
76
172
149
75
171
145
72
168
138
66
167
137
65
168
138
64
169
141
59
170
139
57
166
135
56
166
133
57
163
133
56
161
129
52
162
130
53
162
128
51
158
122
46
154
117
45
160
124
46
163
129
50
162
130
57
143
114
60
78
49
21
63
35
19
65
37
19
65
37
17
66
37
17
68
38
18
69
39
18
70
40
19
70
40
22
66
37
20
64
38
20
61
37
19
57
38
20
64
40
20
67
37
24
51
15
14
47
6
17
44
6
17
42
8
17
44
9
19
43
7
17
45
9
19
46
10
20
44
11
20
44
11
20
43
10
19
45
11
21
44
11
22
43
12
23
40
14
23
40
12
21
40
10
20
40
10
20
40
10
20
119
76
86
119
76
87
117
74
85
114
71
80
117
73
80
118
72
80
116
67
77
112
66
74
110
65
72
107
62
69
106
61
68
107
60
66
105
58
64
104
57
63
98
51
58
94
49
56
96
45
53
130
63
75
154
78
91
152
67
82
150
64
80
147
61
76
142
60
70
127
61
67
101
66
70
84
80
86
65
77
87
46
72
80
37
78
84
33
79
83
27
70
76
25
66
73
27
66
77
25
70
84
30
72
87
29
74
86
32
77
87
34
77
81
37
72
72
146
141
102
200
180
105
199
178
105
168
145
90
155
133
79
171
152
94
88
76
49
47
62
57
30
74
81
26
75
86
23
76
87
25
75
89
25
73
86
23
74
85
22
76
86
25
75
86
24
73
87
23
73
87
24
73
88
23
73
87
22
73
87
22
72
86
21
72
83
22
71
85
24
70
86
23
70
86
23
70
85
23
70
86
23
71
86
23
70
84
22
70
82
22
71
83
22
71
83
23
72
83
23
72
83
23
71
81
24
72
82
23
71
81
19
73
81
19
73
80
20
71
80
21
69
79
20
67
77
21
66
77
18
61
73
21
66
77
21
72
81
22
72
81
22
72
81
22
71
81
22
71
81
20
71
80
20
71
80
20
72
82
21
73
80
23
74
78
24
74
78
25
75
78
25
75
77
24
74
75
26
74
74
21
73
70
25
83
77
28
91
82
28
98
86
38
111
97
80
149
129
94
152
116
176
192
144
188
179
123
187
171
102
188
168
98
185
162
94
178
157
88
175
150
82
174
150
76
175
151
77
173
148
74
171
142
69
168
137
63
169
138
63
170
139
63
169
141
59
170
140
58
167
136
54
167
134
54
166
134
58
166
134
58
164
130
55
160
125
51
157
121
50
158
121
48
161
126
45
163
129
50
164
133
65
127
98
52
67
38
16
66
37
21
68
39
21
68
39
19
68
39
19
68
40
19
70
42
20
71
43
20
70
42
21
67
40
19
63
37
16
61
36
15
60
38
17
68
41
22
66
32
22
50
11
14
49
8
20
47
9
20
44
10
19
44
9
18
44
8
18
45
9
19
45
9
19
43
10
19
44
11
20
42
9
18
44
10
20
44
10
21
41
10
21
38
11
20
37
10
19
38
10
19
38
11
20
38
11
20
105
68
79
108
69
80
111
72
83
111
74
84
113
74
83
115
74
84
115
72
82
113
70
78
111
67
74
111
65
73
111
64
72
115
65
71
111
61
67
106
56
62
102
53
59
97
52
57
98
48
53
129
63
73
156
78
92
149
70
82
147
66
77
138
66
78
112
66
76
94
103
100
76
115
112
41
89
94
33
80
89
34
78
91
33
75
92
30
76
89
29
76
85
32
74
84
33
72
83
26
65
78
23
63
74
28
66
76
32
69
79
34
70
79
41
70
77
136
127
99
168
146
87
193
172
103
150
129
80
155
134
86
171
149
86
102
80
45
81
75
56
34
67
74
26
74
87
24
73
87
23
70
86
23
70
85
23
72
86
22
73
87
24
71
86
23
71
88
23
71
89
23
72
89
23
72
89
23
70
86
23
71
85
23
72
83
23
71
84
23
71
85
23
70
86
22
70
88
21
70
86
21
71
83
20
71
78
21
71
77
23
72
80
23
71
80
23
71
80
23
72
81
23
71
81
23
71
81
22
70
80
20
71
80
21
71
80
21
69
78
21
69
79
20
70
79
19
69
78
20
69
78
22
70
80
20
69
79
20
71
80
20
72
80
21
71
80
21
71
80
22
71
80
21
70
80
19
71
83
20
72
80
22
72
78
23
74
78
23
74
78
24
75
78
23
74
76
27
77
78
28
80
78
40
97
92
35
95
88
30
90
87
31
94
88
40
106
91
82
148
122
106
140
109
170
166
118
182
171
99
185
167
95
184
160
92
185
158
91
179
156
87
177
153
79
174
148
74
172
142
70
170
138
65
169
137
60
170
138
59
169
138
57
167
138
57
168
137
55
166
135
51
166
134
49
166
135
53
170
137
55
167
134
52
163
128
48
159
123
48
159
122
50
161
125
47
163
130
52
160
129
67
103
74
38
65
36
21
68
37
22
69
38
21
69
39
19
68
39
19
66
38
18
69
42
20
70
43
20
70
43
19
68
41
17
66
41
16
62
38
13
64
38
16
70
40
21
62
25
17
49
7
13
49
8
19
47
9
20
44
10
19
45
10
19
45
9
19
45
9
19
43
8
18
43
10
19
44
11
20
43
10
19
45
11
21
43
9
21
40
9
20
39
12
21
37
11
20
38
12
21
37
11
20
35
9
18
100
64
74
96
62
70
95
63
69
95
63
70
96
63
71
99
63
73
101
63
73
104
65
74
105
64
74
108
63
75
113
66
80
114
67
78
111
64
75
112
65
75
109
61
74
102
56
70
102
51
63
129
64
79
154
80
96
153
68
82
143
66
76
104
77
83
89
124
125
59
111
110
26
84
90
30
78
92
30
80
89
29
79
88
28
76
89
27
75
88
28
74
86
30
74
86
29
73
85
27
67
81
21
56
70
17
41
57
22
41
56
27
45
61
28
45
63
68
64
56
133
116
81
181
161
97
177
155
90
128
104
61
146
125
79
97
73
39
97
81
62
33
64
66
25
73
87
24
73
87
23
71
86
24
71
85
24
72
85
22
71
84
22
70
84
23
71
85
23
71
85
23
71
85
23
71
85
23
71
84
24
71
83
23
72
80
20
73
80
20
71
81
23
71
85
22
71
87
20
71
83
20
70
81
21
71
79
18
71
77
21
71
80
20
69
79
20
70
79
21
70
81
20
69
80
21
68
80
21
67
79
21
68
78
21
68
77
21
68
77
21
68
78
20
68
79
19
68
78
19
68
79
19
69
80
18
68
79
19
69
78
20
70
78
21
70
80
20
68
78
20
66
75
16
63
70
22
70
79
20
71
79
23
71
80
24
72
80
23
73
79
23
74
79
24
74
79
24
76
78
25
77
78
28
87
82
58
126
117
44
107
102
34
89
88
38
93
90
41
106
95
89
147
126
123
139
102
180
167
108
181
161
95
183
159
94
186
156
90
178
155
82
175
150
75
171
144
70
169
139
66
168
136
63
168
136
62
169
136
61
168
135
58
168
135
57
169
136
55
166
135
52
166
135
49
166
134
49
169
137
53
166
133
50
165
131
49
161
125
47
161
125
49
162
128
52
165
133
59
149
119
65
80
52
26
65
37
20
69
37
21
70
39
21
70
39
20
69
39
19
67
38
16
70
41
19
71
42
19
69
42
18
67
41
18
66
39
18
64
38
19
62
37
15
67
34
20
55
14
13
50
7
16
50
7
19
47
8
19
45
11
20
44
10
18
45
10
18
45
9
19
45
8
19
45
9
19
45
10
20
45
10
20
44
11
20
43
10
21
41
10
20
38
12
21
37
11
20
38
12
21
37
11
20
36
10
19
109
72
77
106
69
75
103
67
74
102
67
74
98
66
71
95
64
68
93
63
65
91
60
65
92
58
66
94
55
66
96
54
68
98
55
68
96
53
66
100
56
69
101
54
69
99
55
70
100
54
66
127
67
82
154
81
93
149
68
81
106
80
85
86
129
129
49
105
106
30
83
88
30
80
90
26
79
90
27
80
86
29
79
84
28
76
87
26
75
88
27
76
88
30
72
86
25
61
77
18
47
66
19
43
61
22
40
58
24
37
57
24
36
57
31
42
52
60
53
38
93
73
45
136
117
68
157
135
79
100
74
40
94
71
39
96
74
48
74
70
58
30
66
67
22
72
83
23
72
84
22
72
83
23
72
83
24
72
82
24
72
82
23
72
81
23
72
78
23
72
78
23
72
78
23
72
77
23
72
75
22
73
76
22
73
77
20
72
80
21
70
81
23
69
80
23
70
79
21
72
80
22
73
81
26
74
83
16
62
73
19
66
79
20
66
79
20
67
79
19
66
79
18
66
78
19
67
79
19
68
80
20
67
78
20
67
77
20
67
77
19
67
78
18
66
78
17
65
77
19
67
79
19
69
80
17
69
80
19
69
78
18
67
74
19
67
77
21
68
77
21
67
74
17
61
67
20
62
71
21
68
77
20
68
78
21
70
79
21
71
78
21
71
78
22
72
79
20
73
78
24
74
78
22
80
78
32
101
92
66
141
130
47
109
102
33
86
83
34
91
86
50
112
100
91
137
111
150
143
101
176
161
103
178
157
92
180
154
86
176
150
80
173
147
75
170
141
71
167
137
67
165
133
63
167
134
63
167
134
61
166
132
58
168
133
57
168
133
54
168
136
54
170
138
53
166
134
51
164
132
49
163
130
49
164
130
50
163
127
49
164
127
50
162
130
53
167
136
67
125
96
51
68
41
20
67
39
20
69
38
20
70
39
21
70
39
21
70
39
20
69
38
17
71
40
19
71
40
19
68
41
18
67
40
20
63
36
18
62
35
20
64
37
20
64
28
21
49
7
13
49
6
18
49
6
18
49
9
20
46
9
19
46
11
18
46
12
18
45
9
19
44
8
19
46
8
19
45
9
19
45
10
20
43
10
19
42
9
20
40
10
20
37
11
20
37
11
20
38
12
21
38
12
21
38
12
21
132
117
94
122
103
87
116
92
85
112
82
82
112
75
80
110
72
79
106
67
77
101
65
70
99
64
67
101
61
68
100
55
65
95
53
65
92
50
62
90
47
60
88
45
59
82
46
58
86
44
55
118
61
75
149
86
95
109
83
88
86
129
129
42
101
106
32
80
88
33
79
88
30
78
87
28
77
86
31
76
83
31
74
80
32
72
84
29
70
86
29
67
84
25
54
74
20
41
64
20
42
64
23
42
63
23
39
61
27
39
61
30
37
58
65
64
46
157
143
101
170
147
106
102
79
41
99
76
40
96
73
47
88
67
44
79
71
60
32
60
60
23
69
74
22
72
80
22
72
80
22
72
80
22
72
79
23
73
79
22
73
79
22
72
78
23
72
77
23
72
76
23
72
76
23
72
76
23
72
77
23
72
79
22
71
82
23
72
83
21
72
80
32
92
93
47
113
110
53
125
125
56
123
126
41
96
102
21
68
79
20
66
79
19
65
78
20
66
79
20
67
79
20
67
79
18
68
79
17
69
80
19
69
79
19
68
79
19
69
80
19
69
80
19
67
79
18
66
78
18
66
78
17
67
78
15
67
78
16
66
75
18
67
74
19
64
72
21
66
74
21
66
75
21
66
75
16
55
65
22
64
74
19
66
76
19
68
77
20
70
77
21
71
78
21
71
78
19
72
79
23
71
78
24
75
78
20
83
80
46
120
109
67
142
131
42
104
97
38
88
87
34
88
87
65
123
108
99
130
104
162
153
108
175
153
91
177
152
81
174
145
80
169
141
72
167
137
69
165
134
66
162
129
60
162
129
58
163
130
58
164
130
56
165
130
54
164
128
49
166
133
51
171
139
54
167
135
51
163
131
49
160
127
46
163
130
50
165
128
50
166
129
53
164
132
55
163
133
72
98
71
34
63
36
18
69
40
20
69
38
20
70
39
21
70
39
21
70
39
20
68
37
16
68
37
17
69
38
18
68
40
18
67
39
19
64
36
18
63
34
20
66
38
23
61
25
19
49
7
15
47
5
16
49
7
16
51
10
19
50
11
19
49
12
19
48
12
19
44
9
18
43
9
19
45
7
18
44
8
18
45
9
19
43
10
19
41
8
19
39
10
20
37
11
20
37
11
20
37
11
20
38
12
21
38
12
21
178
208
120
171
196
117
163
180
115
154
164
108
149
147
102
140
131
99
132
114
96
123
99
90
117
87
83
112
77
77
109
69
72
103
63
73
98
56
68
95
53
65
93
51
64
87
48
61
88
43
55
112
67
76
109
89
94
90
128
130
47
101
107
34
81
87
32
80
89
25
76
84
25
78
84
32
85
90
41
94
97
46
98
99
46
95
101
42
84
98
19
47
68
18
35
60
14
34
58
17
33
58
21
34
60
25
35
60
28
38
60
34
39
53
119
111
75
157
137
80
174
147
98
114
91
55
94
71
46
89
69
46
67
61
41
40
62
60
28
68
79
22
71
80
22
73
77
22
73
77
22
73
77
22
72
76
22
73
76
21
71
75
21
72
76
23
72
80
23
71
81
23
71
81
22
72
81
21
72
79
26
70
77
21
73
76
44
110
106
54
131
124
56
140
132
55
136
131
44
115
116
20
81
86
17
71
78
18
68
78
18
68
79
17
67
79
17
68
79
17
68
79
17
68
79
18
68
79
18
67
78
16
67
79
15
67
79
15
66
78
15
66
78
17
65
77
16
64
76
16
64
76
16
66
78
16
68
79
18
67
76
18
66
73
15
59
65
20
63
71
20
66
75
21
67
78
19
62
70
20
58
69
23
65
76
20
68
77
20
70
77
20
70
76
19
69
76
18
71
81
21
69
79
24
71
78
22
77
79
26
92
89
60
143
135
64
142
136
38
96
94
39
85
87
36
90
87
81
136
118
113
129
94
167
154
95
177
154
77
174
147
78
172
143
71
168
139
67
167
135
63
164
131
60
162
129
57
162
129
56
163
129
55
164
129
53
160
125
46
165
132
50
168
136
51
168
136
52
163
131
48
161
128
47
163
129
49
165
129
50
165
128
52
167
135
59
143
114
60
76
49
19
64
37
20
69
39
19
69
38
20
70
39
21
70
39
21
71
40
21
69
38
19
69
38
19
70
39
20
70
41
20
68
40
19
66
37
20
64
35
21
69
38
20
55
19
11
49
9
12
46
6
14
48
6
14
52
11
19
49
8
17
48
8
16
50
13
20
44
9
19
44
12
21
45
7
18
43
7
18
45
9
19
43
10
20
41
9
20
39
10
20
37
11
20
37
11
20
37
11
20
38
12
21
38
12
21
177
234
100
181
235
107
182
233
112
181
230
115
179
226
120
178
214
119
176
203
118
172
190
119
168
177
118
158
162
114
150
146
109
138
127
97
125
108
85
117
93
80
108
79
76
102
66
70
96
57
59
86
73
75
91
126
126
54
113
109
31
83
83
29
81
80
41
99
95
56
120
117
61
133
131
56
130
128
45
108
109
31
85
89
25
71
78
17
51
68
18
39
63
19
36
62
17
37
62
20
35
62
21
34
59
24
35
57
26
38
57
33
38
53
100
90
69
149
133
86
146
124
77
123
107
75
95
81
50
82
66
45
41
57
54
23
69
77
19
71
78
21
71
78
21
72
79
22
72
79
23
72
79
23
70
78
23
68
77
23
68
76
23
68
76
22
69
80
22
69
80
20
72
82
22
71
80
21
71
74
29
88
88
53
130
124
52
140
133
49
140
132
51
133
128
29
99
98
20
74
80
19
67
76
16
67
75
17
67
75
18
66
76
16
69
77
17
71
78
18
68
80
17
65
80
17
64
80
16
64
79
15
62
81
16
63
80
15
63
77
15
63
75
15
65
75
15
63
74
17
65
76
16
64
74
18
66
76
20
66
76
21
65
76
19
62
69
20
58
67
22
67
75
20
68
76
17
66
70
15
57
63
20
61
66
20
65
68
17
68
68
19
67
68
19
68
69
17
72
76
16
69
75
19
74
79
20
81
84
22
90
89
49
133
126
67
154
146
64
139
133
31
88
85
32
88
87
50
105
104
91
136
120
139
142
97
173
152
83
175
147
76
175
146
73
173
143
70
168
136
62
166
131
58
166
131
59
165
132
56
165
135
55
165
130
51
165
128
48
166
129
48
169
134
50
168
137
51
165
134
49
164
132
49
165
131
54
164
129
53
163
131
54
169
140
68
121
90
54
68
36
14
70
38
19
71
38
21
69
38
20
69
38
20
70
39
21
70
39
21
69
38
20
67
38
18
67
39
17
68
40
19
66
37
16
68
36
18
70
37
22
70
36
27
54
16
12
51
10
13
50
6
14
52
7
16
53
11
19
52
12
20
50
13
20
50
13
20
47
9
19
47
8
19
45
7
22
45
7
22
44
6
21
43
7
20
43
10
21
38
11
20
36
10
19
39
8
19
40
8
19
40
10
20
40
10
20
176
233
103
181
236
106
183
236
107
185
239
110
184
241
111
182
236
106
183
235
105
180
233
105
181
231
109
183
228
117
184
225
123
183
215
121
179
206
121
172
194
120
163
181
116
152
159
111
125
123
100
83
119
113
73
135
131
32
86
84
50
111
105
58
136
125
65
141
134
57
127
124
36
101
103
20
83
88
21
76
83
26
67
78
21
48
64
19
40
62
20
38
64
20
37
63
19
39
64
20
37
63
22
38
62
24
37
59
25
38
58
29
38
56
39
38
38
109
93
65
128
103
65
102
74
44
93
72
45
85
77
58
34
61
62
22
70
79
22
69
76
19
68
76
19
68
76
20
68
77
20
68
76
20
66
76
22
66
76
22
66
77
22
66
76
19
67
77
19
67
76
19
70
78
19
73
79
40
100
99
58
137
131
55
145
136
52
141
135
44
123
120
23
86
88
18
71
77
18
64
76
17
63
75
17
66
78
20
65
77
18
63
74
14
65
74
15
66
74
17
65
76
17
64
77
15
63
76
16
64
76
17
63
80
16
62
78
16
62
75
16
63
72
15
62
72
14
62
72
16
64
74
15
62
72
17
63
73
18
63
74
19
63
74
18
62
68
15
54
62
19
63
71
16
64
72
15
64
71
19
63
70
16
56
62
21
64
69
18
67
69
18
68
70
18
67
69
19
67
73
19
67
75
19
74
79
45
109
110
55
132
127
60
149
140
66
161
151
69
160
150
57
124
120
30
86
85
30
87
85
68
126
114
98
125
96
159
148
92
172
145
76
171
141
74
171
139
70
167
133
64
165
129
59
165
130
57
166
134
57
168
139
57
167
134
52
166
132
50
165
131
48
168
135
50
168
138
51
169
138
53
167
135
52
166
132
53
166
132
53
165
133
59
161
131
68
96
65
36
64
32
12
69
37
17
70
37
18
69
38
20
69
38
20
70
39
21
70
39
21
69
38
20
68
38
18
66
38
16
67
39
18
66
37
16
68
36
18
74
41
26
64
29
23
50
11
11
51
9
16
50
6
16
51
6
16
50
8
17
49
10
18
46
11
17
45
10
16
45
8
17
45
7
18
45
7
21
45
7
21
45
7
21
44
7
20
43
8
20
38
10
20
36
10
19
40
8
19
40
8
19
40
10
20
40
10
20
170
234
95
175
237
101
179
238
106
183
239
112
186
240
115
186
240
111
182
239
104
181
238
105
178
238
105
179
237
103
178
238
102
180
237
102
180
234
105
179
230
109
178
227
109
168
215
125
98
142
105
84
148
131
53
122
114
62
127
120
65
142
132
59
135
125
43
107
106
23
83
87
21
78
87
21
75
86
24
69
83
16
49
67
20
40
63
20
37
63
21
37
63
22
38
64
19
39
64
18
37
62
19
37
60
21
37
58
28
38
55
60
55
48
89
80
53
94
76
47
113
87
54
101
79
57
78
73
58
46
63
58
27
69
74
20
68
79
23
66
75
20
66
78
20
66
78
21
67
79
21
67
79
22
67
79
23
67
79
23
67
79
22
66
78
17
66
74
21
68
76
20
70
77
39
101
101
60
138
131
55
143
134
57
140
133
44
114
113
18
75
79
20
69
76
17
64
72
15
56
68
17
61
71
16
63
73
23
63
75
16
58
69
14
61
71
15
63
73
16
63
71
17
64
70
17
64
71
17
64
71
17
63
76
17
63
75
16
63
71
16
62
69
14
58
67
15
62
70
14
63
70
16
63
72
18
62
73
16
62
72
15
62
72
16
62
68
14
57
64
18
59
69
15
61
71
13
63
73
17
63
72
14
52
63
18
54
63
22
66
71
16
72
73
18
74
75
17
63
70
21
66
74
20
70
77
26
86
88
57
134
129
66
157
148
67
165
154
68
165
154
71
152
145
39
99
95
30
85
81
37
94
88
86
133
118
123
128
89
169
146
84
169
138
70
169
136
67
167
132
62
166
129
58
166
132
56
168
136
56
168
139
56
166
135
52
167
135
51
166
135
49
167
136
48
165
135
48
166
136
51
166
134
51
167
134
51
167
133
51
166
133
63
141
109
58
75
42
21
66
33
16
68
35
16
69
36
17
70
39
21
70
39
21
70
39
21
70
39
21
69
38
20
67
37
17
64
36
14
66
38
16
63
34
14
69
37
19
71
37
22
56
18
16
50
9
14
51
7
17
52
6
19
50
6
18
47
6
17
45
7
17
43
9
15
43
8
15
43
7
16
44
6
17
45
7
18
45
7
18
45
7
19
45
8
20
44
8
20
38
9
19
37
10
19
41
9
20
41
9
20
40
10
20
40
10
20
149
219
89
155
224
90
159
226
88
163
228
93
168
231
101
172
235
102
173
235
98
174
234
96
172
235
96
172
234
95
172
235
95
173
233
98
173
232
98
175
233
95
173
229
96
137
193
104
80
145
127
63
137
127
64
138
129
67
144
134
47
120
112
26
89
85
24
78
84
25
76
85
24
76
87
23
70
84
18
52
71
17
41
64
21
37
63
22
37
63
22
38
64
21
38
64
19
39
64
18
39
62
19
38
61
23
38
58
30
37
48
152
137
98
180
160
100
148
126
75
107
81
45
65
60
42
35
66
60
24
68
74
20
70
80
20
66
78
22
67
76
21
65
79
21
67
81
22
67
81
22
67
80
22
68
80
23
68
80
23
68
80
22
67
79
24
67
75
23
68
75
35
92
94
61
139
134
54
143
133
59
139
133
43
106
105
20
73
79
18
68
76
19
67
75
19
60
70
16
54
63
19
63
68
18
65
69
17
57
65
17
59
70
17
64
75
17
64
74
17
63
70
16
63
69
17
64
70
17
64
71
16
62
73
16
62
71
18
63
69
14
57
63
16
60
68
17
63
70
15
64
70
17
64
72
19
62
74
17
63
73
16
63
73
16
63
70
16
60
68
15
54
65
19
63
74
15
64
75
21
70
80
21
60
72
9
40
52
18
55
64
37
94
95
46
112
110
22
73
79
17
62
69
22
68
75
22
74
79
29
95
94
64
148
141
68
162
152
68
165
155
67
158
149
65
135
129
31
87
82
31
83
80
61
118
110
90
124
101
150
138
85
168
139
68
168
138
66
167
133
60
165
131
55
165
131
54
166
134
53
168
138
55
167
137
53
167
136
51
166
136
49
165
135
47
166
136
49
167
137
51
167
135
52
166
134
50
166
134
50
163
131
65
115
83
41
67
33
17
69
36
19
69
36
18
70
38
18
69
39
21
68
38
20
66
36
18
69
39
20
68
38
19
64
36
15
63
36
14
65
39
16
65
36
15
70
38
21
65
31
19
50
10
12
49
6
14
51
6
19
51
6
20
49
6
18
47
6
17
45
8
18
44
10
17
44
9
16
43
8
17
44
7
17
46
8
18
46
7
19
45
7
18
45
8
20
45
9
21
40
10
19
39
10
18
41
10
19
40
9
19
39
10
22
39
11
23
126
206
84
127
206
76
131
209
75
139
215
84
146
219
92
154
225
94
154
224
92
155
224
89
156
223
87
161
224
85
165
227
86
165
227
94
167
226
95
171
227
88
167
220
103
91
149
90
79
150
140
68
150
142
59
140
131
37
105
101
26
82
84
27
78
83
30
73
86
28
72
84
25
71
81
20
60
72
14
44
64
19
39
63
21
38
62
20
38
63
20
39
64
19
38
63
19
38
63
20
39
58
21
37
60
27
35
55
31
36
44
144
132
87
157
134
78
116
93
51
112
85
48
74
72
49
25
68
69
20
69
77
21
69
79
19
67
77
19
67
77
18
66
77
18
66
80
18
66
80
19
67
81
18
68
79
20
68
78
21
67
78
18
67
76
21
67
74
23
75
79
60
132
129
54
141
133
56
140
132
35
103
100
20
73
77
19
68
78
18
65
76
17
63
73
16
55
66
18
61
68
17
66
66
17
65
66
22
66
72
17
62
71
16
65
78
16
64
75
15
62
69
16
63
71
17
63
74
17
63
76
15
64
73
14
63
70
18
62
68
15
55
63
18
63
72
16
66
73
17
65
73
15
65
73
18
62
73
17
62
73
16
64
74
16
63
73
17
61
72
12
53
65
21
60
73
13
61
73
25
77
86
23
68
76
16
49
61
17
46
58
33
90
91
56
136
130
31
94
93
17
65
70
19
62
69
20
70
75
18
77
79
43
113
110
64
155
146
60
163
151
66
159
150
65
148
140
44
109
103
30
83
79
30
89
83
80
133
117
111
120
79
160
142
77
163
138
67
166
133
62
167
136
57
166
133
54
168
135
55
168
136
54
167
136
53
166
135
52
164
132
49
163
132
49
166
136
50
167
137
51
167
135
50
166
134
51
166
136
58
150
120
60
84
53
24
65
34
15
69
39
19
69
39
18
68
38
18
67
38
20
65
36
18
64
35
17
66
38
19
65
39
17
62
37
15
61
38
15
61
37
14
63
37
14
69
37
22
60
23
18
52
7
13
52
6
16
52
5
20
52
6
21
49
7
17
46
6
15
45
9
16
44
8
17
44
8
18
46
10
20
46
10
20
47
7
17
45
7
18
44
8
20
43
9
22
42
10
20
40
10
18
37
10
16
40
10
19
42
13
25
41
17
33
44
25
43
98
189
76
98
188
68
105
194
72
117
202
86
124
205
91
130
209
93
133
210
92
134
210
88
134
210
81
140
212
80
144
214
84
139
215
81
145
214
80
153
214
89
126
180
94
79
148
115
71
149
139
63
138
129
30
96
94
24
80
84
28
77
85
28
75
85
28
73
87
21
71
83
22
70
81
17
48
65
17
38
61
20
39
63
18
39
62
18
38
63
21
38
64
20
37
63
18
35
61
21
34
55
22
33
57
24
34
53
28
37
48
76
65
41
92
70
33
83
66
39
86
75
58
52
61
54
27
66
72
22
64
76
22
67
78
20
68
78
18
68
77
18
68
78
19
67
81
19
67
81
19
67
81
18
69
80
19
68
78
21
68
78
19
68
77
19
69
75
49
118
116
55
142
134
53
142
133
33
104
101
17
72
76
16
65
72
15
64
73
15
61
71
15
59
68
15
56
64
19
64
70
16
66
70
29
78
82
21
66
72
17
62
71
15
64
78
16
64
74
15
62
69
15
62
71
16
63
74
17
63
76
15
64
73
17
62
70
13
56
63
16
61
67
17
69
75
23
83
86
24
77
82
17
68
75
15
65
74
16
62
72
15
64
73
15
63
73
17
60
72
15
55
67
18
57
70
14
61
74
21
71
80
31
79
87
18
58
67
16
40
53
19
64
69
54
130
126
46
122
118
22
75
78
18
56
64
19
65
71
19
71
75
19
81
81
52
132
126
60
150
142
51
131
126
56
141
132
60
136
126
28
82
75
29
78
76
45
107
97
87
125
101
145
132
82
162
128
64
166
130
58
170
137
60
169
136
57
171
138
58
166
134
52
163
130
47
165
132
49
164
131
48
166
133
50
166
135
49
168
136
51
168
135
51
167
135
52
164
133
62
124
93
45
69
36
14
63
34
15
66
39
18
68
41
20
65
38
17
67
38
20
66
37
19
65
36
18
64
35
16
64
36
15
64
37
16
63
37
15
63
37
15
65
38
16
68
35
21
56
17
15
52
7
16
52
6
17
52
6
18
52
7
19
49
6
16
46
6
15
44
8
16
45
9
18
42
6
16
44
8
18
44
8
18
45
9
18
43
8
18
42
10
21
42
11
23
40
10
23
38
13
25
38
18
30
46
24
40
53
32
51
53
35
55
50
34
56
85
182
80
82
179
72
87
182
76
97
189
86
100
190
85
105
193
85
107
193
83
108
193
82
108
192
72
111
192
68
116
194
76
116
199
79
123
197
73
122
189
89
77
142
101
77
150
135
66
138
132
30
92
89
27
81
89
27
77
86
27
74
86
25
74
86
25
73
88
20
73
85
21
68
81
16
43
63
18
37
61
19
37
61
17
38
61
17
37
61
17
34
60
15
31
57
15
31
57
20
35
55
18
34
56
27
52
66
39
58
68
72
65
54
99
82
59
89
81
63
53
64
59
30
63
67
20
67
76
20
67
79
22
66
77
20
67
77
18
68
77
17
69
79
18
66
80
17
65
79
17
65
79
17
69
79
17
68
77
19
67
77
18
69
77
34
96
96
55
141
133
54
143
134
41
112
109
19
73
77
18
66
74
15
63
73
15
63
71
17
62
70
15
57
64
18
63
68
18
66
70
38
86
93
28
78
85
18
65
70
17
62
72
14
63
77
15
63
73
15
62
69
15
62
70
16
63
74
16
63
75
16
65
74
18
61
70
13
55
62
18
67
72
18
82
84
50
128
125
43
108
109
21
74
81
18
75
81
19
73
80
16
64
74
15
62
72
16
60
71
17
58
70
15
54
67
15
61
74
15
64
74
28
79
86
16
64
70
17
40
54
19
49
60
42
109
107
54
137
130
27
87
88
22
61
69
19
56
65
19
63
70
19
71
75
24
92
90
59
138
134
45
115
113
30
102
97
61
136
127
46
103
99
29
74
76
30
81
83
78
128
114
113
113
75
154
123
60
161
133
59
163
135
58
166
133
54
166
133
53
161
128
47
162
127
45
167
131
49
167
131
49
167
132
50
167
135
50
167
134
50
167
132
48
167
133
52
155
122
60
99
66
33
66
32
17
66
37
18
67
39
18
68
40
19
67
39
18
69
40
22
67
38
20
64
35
17
63
34
15
64
35
14
65
37
16
64
37
16
64
37
17
69
40
20
65
31
19
52
12
13
52
6
18
52
6
17
52
6
17
51
6
16
49
6
16
47
7
16
44
8
15
46
10
19
43
7
17
44
8
18
44
8
18
43
10
18
40
8
17
40
11
21
42
14
26
48
22
36
52
32
49
55
40
59
57
43
66
55
41
66
47
34
59
44
31
58
83
175
101
81
174
93
83
175
90
88
179
91
91
180
87
93
183
82
94
185
76
94
182
76
93
180
72
92
177
65
96
180
70
94
182
76
100
178
74
78
148
82
75
151
128
70
142
133
35
95
94
29
81
85
28
77
86
27
75
85
25
75
85
21
74
85
20
72
86
20
72
86
23
65
81
18
42
64
18
36
61
16
33
58
15
32
57
16
33
58
18
33
60
20
36
62
21
37
63
19
37
59
16
37
57
23
59
71
26
60
70
20
36
47
31
39
47
33
56
64
25
65
71
20
67
73
17
68
77
17
68
79
19
67
77
19
67
77
17
68
77
18
68
78
18
66
80
17
65
79
15
63
77
14
65
77
18
64
74
20
67
76
17
74
79
56
128
126
53
144
136
46
126
121
19
75
79
19
67
76
16
62
73
17
62
74
16
62
73
17
61
70
17
57
65
20
65
69
29
81
85
49
104
110
16
67
76
16
65
72
15
62
72
14
62
73
15
63
73
14
63
71
15
63
71
17
63
73
15
62
74
16
64
73
16
61
69
18
63
71
20
75
79
36
108
107
58
150
142
45
119
117
23
84
88
45
115
117
33
92
97
18
65
75
14
62
72
16
60
71
17
58
70
13
52
65
17
60
72
15
61
72
26
78
85
19
68
75
16
48
60
16
42
56
20
72
76
53
128
125
37
105
104
19
65
71
18
54
63
19
60
67
17
63
68
16
73
75
39
107
103
48
115
111
19
80
81
40
104
100
62
127
123
23
76
77
27
75
79
61
116
108
83
117
86
148
130
76
159
135
57
162
135
59
166
133
56
164
131
52
162
130
48
165
131
47
168
132
48
170
135
51
169
135
50
169
135
49
168
134
50
167
133
46
168
136
56
140
108
53
79
44
20
69
33
19
72
39
21
69
38
18
69
38
18
69
38
18
68
38
18
65
37
18
62
36
16
62
35
16
64
34
15
66
38
18
65
37
16
64
36
15
73
42
22
63
27
17
50
9
14
50
5
18
49
5
18
48
6
17
48
5
15
48
6
14
46
7
17
44
8
20
46
8
18
45
7
16
44
8
18
42
8
19
41
10
23
44
16
31
50
27
44
59
38
56
64
44
61
60
44
64
52
39
61
47
34
59
45
31
58
41
31
57
41
33
58
71
151
138
71
154
131
74
158
123
80
164
120
84
167
114
86
170
106
92
177
102
91
177
92
90
176
86
90
175
82
89
175
79
85
174
76
85
162
78
74
146
108
74
152
135
41
108
101
28
82
83
28
78
83
26
75
85
27
74
85
24
72
79
21
70
76
20
70
79
26
69
81
26
55
72
17
36
58
18
33
59
21
36
62
21
36
62
20
37
63
19
37
62
19
38
63
19
39
64
18
38
60
16
40
59
24
65
75
20
58
69
16
38
57
17
38
59
23
60
77
19
67
78
19
68
75
18
67
77
18
68
79
19
69
79
19
69
78
18
68
77
15
65
75
15
63
77
16
64
77
16
64
77
14
63
74
19
64
74
23
70
78
35
99
98
55
143
137
53
139
134
25
90
91
18
66
74
17
64
74
15
62
72
16
63
73
16
61
72
15
58
67
19
64
70
22
72
73
56
120
123
26
86
91
18
65
75
16
60
71
17
62
72
17
64
74
16
65
75
16
68
75
21
71
79
17
64
73
15
63
73
18
63
72
14
65
71
39
99
102
26
91
92
54
136
131
60
158
149
43
127
122
40
116
115
58
143
140
26
90
94
19
65
75
14
62
72
15
61
71
17
58
70
13
51
64
18
58
70
16
61
72
21
72
80
26
75
83
19
56
67
12
40
54
13
51
61
39
101
103
47
111
112
17
67
71
18
58
65
18
55
63
18
62
68
16
67
70
17
74
72
49
112
109
17
73
77
18
76
76
49
113
109
40
97
95
24
75
76
35
92
87
77
130
102
126
118
75
161
134
61
165
131
56
167
135
57
164
132
51
167
135
51
172
139
52
173
139
52
175
141
53
173
139
52
171
137
52
167
133
50
166
134
48
167
136
64
120
90
42
71
35
15
70
33
18
71
38
19
69
38
18
69
38
18
69
38
18
67
38
17
64
36
17
60
34
16
61
35
18
63
34
16
66
37
18
63
35
14
64
35
14
72
41
22
57
20
15
51
8
17
51
7
20
50
8
20
48
8
19
44
5
13
46
7
11
47
7
16
47
6
20
45
7
18
45
10
21
44
12
25
48
18
34
58
30
52
65
40
63
63
42
67
60
42
64
55
38
57
49
34
55
44
30
53
43
29
54
42
29
55
41
30
55
41
32
56
48
124
137
51
128
139
54
131
140
56
133
139
55
134
132
55
135
125
61
141
124
64
144
119
69
151
116
75
157
110
77
160
103
81
162
102
70
139
88
77
151
130
66
136
130
27
86
85
29
79
83
27
78
85
23
74
85
25
71
84
28
70
79
30
68
76
24
61
72
19
45
60
20
37
56
19
36
57
17
36
61
18
38
63
19
38
63
18
37
62
16
35
61
17
38
62
18
39
63
17
38
60
21
50
67
20
66
75
17
55
65
16
39
54
19
38
56
17
51
65
20
67
79
19
67
79
18
67
78
19
69
78
19
67
77
18
66
76
17
65
75
17
65
75
16
64
75
16
64
76
15
63
75
17
65
75
18
67
74
19
71
75
53
127
122
53
143
136
39
110
109
19
72
78
19
66
74
17
64
72
17
64
72
16
63
72
17
60
71
17
58
68
20
71
75
47
111
107
49
117
118
18
75
82
18
66
76
16
63
73
17
66
75
19
72
80
19
78
83
42
101
107
25
78
87
15
63
71
15
64
70
19
66
74
35
97
98
60
139
136
31
107
105
64
154
147
64
165
155
55
147
139
63
154
148
56
144
140
23
86
91
18
64
75
14
62
72
15
60
71
16
58
70
14
52
65
17
54
68
16
60
71
15
66
75
27
79
86
19
58
69
13
39
54
15
39
54
16
64
71
27
80
85
17
63
68
19
59
65
16
46
56
19
58
65
17
65
69
19
67
67
35
92
91
18
72
76
16
67
70
23
81
79
54
112
110
19
69
70
21
75
73
67
126
107
98
113
80
155
135
67
165
132
53
166
135
53
168
137
52
173
142
54
173
139
50
175
141
52
175
141
52
176
142
53
172
137
54
166
133
49
165
134
53
157
127
64
93
64
27
67
33
17
69
35
19
72
40
20
70
39
19
69
38
18
68
38
18
64
35
18
64
35
19
63
35
21
64
35
21
63
34
16
64
35
16
64
36
14
66
37
16
67
35
22
52
13
14
51
9
18
49
6
18
49
8
19
46
7
18
42
6
13
44
8
14
46
8
19
48
8
24
47
14
30
51
23
40
57
32
51
59
36
58
61
39
67
56
36
64
48
32
58
45
29
52
47
30
49
46
31
52
43
29
52
41
28
53
41
29
55
40
31
56
40
34
57
30
95
109
32
96
111
35
99
114
38
103
119
40
107
125
39
111
128
39
114
131
38
115
129
41
118
127
45
122
124
45
123
119
55
125
114
61
127
101
74
151
132
45
110
107
30
81
84
30
77
83
22
75
82
22
75
82
25
70
80
27
64
76
22
51
66
19
40
63
21
38
62
21
38
62
19
38
62
19
38
63
19
38
64
19
38
63
18
34
60
14
30
56
19
35
62
19
36
62
17
40
61
27
61
77
19
68
76
21
61
72
12
37
54
21
37
58
15
38
58
15
56
73
16
63
78
17
66
77
16
66
75
16
64
74
15
63
73
15
63
73
15
63
73
15
63
73
15
63
73
14
62
72
17
67
75
20
69
74
26
85
84
58
139
132
52
132
128
21
80
84
17
68
74
15
64
71
17
64
71
16
63
70
15
62
69
18
58
69
23
64
74
34
91
92
60
139
131
30
99
99
19
72
80
18
67
76
18
70
79
18
79
84
34
102
104
53
131
130
41
111
115
13
70
79
16
66
73
19
68
72
18
70
75
51
129
126
53
141
135
47
128
123
70
163
155
71
169
160
72
168
159
66
160
153
55
137
135
20
79
85
16
63
73
12
57
68
16
60
71
15
57
69
16
56
68
15
50
64
16
59
70
16
65
75
28
82
88
17
59
68
17
42
57
19
34
52
16
51
62
16
61
68
18
61
68
17
59
65
19
47
57
13
44
53
15
57
63
17
62
64
14
67
67
14
65
70
17
63
67
15
66
67
40
93
92
35
78
81
21
68
70
45
105
94
76
113
90
146
130
66
166
136
54
169
139
55
174
143
55
174
143
53
169
136
46
173
139
49
175
141
51
172
138
49
169
133
52
165
133
48
167
138
59
137
108
53
74
45
15
65
32
20
68
36
19
73
42
21
71
40
20
68
37
17
65
34
15
61
32
17
61
32
20
65
34
23
64
33
21
61
32
14
62
34
14
63
35
14
70
41
20
61
28
19
50
11
17
51
9
19
49
7
19
48
7
18
45
7
18
43
7
18
44
11
23
49
17
33
55
25
44
60
33
54
60
37
59
56
36
60
51
33
59
48
32
59
45
31
56
43
30
52
43
30
49
46
29
49
45
30
51
42
28
51
41
28
53
40
30
55
40
32
56
38
32
55
41
94
108
38
93
107
35
93
105
32
90
103
34
92
108
31
92
111
29
94
113
29
96
115
31
97
116
34
100
118
34
101
117
40
101
112
64
130
119
68
148
131
32
92
89
27
80
79
26
77
78
28
72
78
29
68
75
21
54
64
15
42
58
17
39
59
21
38
64
21
38
64
22
39
65
21
39
64
19
39
63
19
38
62
19
37
61
17
30
57
20
33
60
22
34
60
16
35
57
21
53
68
23
64
76
20
67
77
21
65
76
18
47
63
19
36
56
22
34
56
15
38
58
16
52
67
21
63
74
18
65
73
16
64
73
15
63
73
19
65
75
17
63
73
16
61
72
18
60
72
18
64
74
19
68
76
21
70
72
44
114
106
59
142
135
39
106
108
18
71
79
15
62
72
17
61
72
16
63
71
16
62
70
14
62
67
18
57
65
22
74
77
54
136
129
57
141
134
21
85
89
20
77
84
19
77
82
29
94
95
50
133
132
56
150
146
56
140
139
22
85
89
17
70
76
14
65
72
20
69
76
24
82
84
60
143
139
46
126
124
58
143
139
69
166
155
76
172
162
72
169
158
62
163
150
47
124
119
17
76
80
19
64
76
13
52
64
13
59
68
15
59
69
17
58
69
13
48
60
14
59
69
15
63
74
33
84
92
13
61
66
17
49
59
15
33
47
11
42
50
16
59
65
17
60
70
15
58
70
23
51
60
23
40
50
15
47
58
16
59
66
14
61
60
15
62
62
14
62
62
14
61
66
17
64
69
40
83
89
19
63
68
25
83
79
67
122
109
125
117
66
166
140
59
166
140
56
169
142
55
169
140
51
168
137
48
169
138
49
169
135
47
167
132
45
166
131
49
164
133
48
165
136
68
112
83
41
67
35
13
66
34
18
67
37
24
71
40
23
70
39
21
70
39
20
66
35
17
62
34
15
62
33
16
65
33
19
65
32
18
60
31
16
58
35
18
66
39
17
75
41
23
57
19
14
49
7
15
49
6
17
47
7
13
44
7
16
41
10
23
50
22
40
57
31
52
58
34
56
57
37
59
56
35
60
50
31
57
47
29
55
43
28
53
41
28
53
42
30
53
42
30
52
42
30
50
46
32
55
44
30
54
43
29
54
42
28
55
41
28
55
42
29
56
40
28
55
73
140
111
67
132
112
58
121
111
51
112
110
45
106
110
39
101
110
34
97
111
32
94
108
30
90
105
28
88
106
27
87
107
24
83
102
65
129
128
63
142
131
25
84
84
25
79
79
26
73
77
30
66
74
21
46
58
19
39
55
21
38
58
23
38
62
21
38
64
21
38
64
22
39
65
21
39
64
19
38
62
19
37
61
14
31
56
16
32
56
19
36
59
18
34
56
14
41
57
24
63
76
21
67
77
19
67
77
19
66
76
21
59
72
13
37
55
18
32
53
15
32
54
18
36
58
18
42
59
20
54
66
16
61
72
18
62
73
19
62
73
18
61
73
18
61
73
19
61
73
19
64
75
21
68
75
27
77
79
58
137
129
51
133
126
19
79
84
17
66
75
16
62
72
17
61
72
15
61
70
14
61
68
15
62
68
22
68
74
44
115
111
59
157
146
55
145
136
23
93
95
21
92
94
41
120
116
62
153
145
61
164
155
59
160
151
48
124
123
20
74
80
17
67
74
15
64
71
18
67
74
41
103
104
62
144
140
34
111
111
63
151
147
68
167
156
69
171
159
68
169
158
61
159
147
35
104
101
15
71
76
17
60
73
12
49
65
15
57
71
15
59
72
17
58
71
12
45
57
17
57
67
15
62
72
18
66
75
15
63
68
17
53
62
11
33
45
10
37
46
16
54
62
16
58
67
15
58
67
20
55
61
44
56
65
19
37
48
16
57
62
16
60
62
14
59
61
15
61
63
15
60
65
17
59
66
22
60
69
16
52
60
18
66
65
56
115
103
104
109
69
162
138
63
165
140
55
165
138
52
167
137
51
168
136
49
167
135
48
165
132
45
166
131
46
163
130
47
166
136
54
153
123
63
88
57
24
66
34
15
66
35
18
67
37
22
68
38
21
67
36
18
68
37
19
67
36
18
61
33
14
61
32
14
65
33
18
66
33
20
61
31
17
58
33
16
70
42
21
69
34
19
51
13
11
49
9
19
50
11
24
49
16
28
47
17
31
52
26
43
67
42
63
62
40
65
52
31
58
47
28
55
44
27
52
44
29
53
43
31
54
39
29
52
41
29
53
42
30
52
41
29
50
41
29
49
44
32
54
42
30
53
42
30
54
41
28
54
41
28
54
42
29
55
41
28
54
81
168
82
81
167
87
80
164
93
77
160
95
74
154
97
68
146
101
63
138
107
58
128
109
51
118
108
44
109
109
35
99
105
31
92
96
65
130
125
60
139
129
25
83
84
28
75
79
27
68
75
22
51
63
23
39
57
22
36
55
24
39
62
21
38
63
21
38
64
21
38
64
21
38
64
21
38
64
19
36
61
16
32
57
16
30
56
19
37
59
18
35
55
16
30
49
17
46
58
20
66
76
18
69
78
19
68
77
20
66
77
18
65
75
21
54
69
13
37
55
17
34
56
21
30
55
19
32
53
12
36
52
9
39
55
12
42
57
13
41
57
14
43
59
14
45
61
12
46
60
15
49
63
19
54
65
44
100
103
58
142
137
42
120
115
15
73
78
17
65
75
15
64
74
16
64
73
15
62
70
15
62
70
16
62
68
27
86
86
67
152
145
67
166
154
64
161
150
49
135
131
63
151
147
68
164
155
66
169
157
69
166
157
66
156
149
31
96
97
19
69
76
16
64
71
17
64
72
19
65
73
47
117
115
58
138
134
28
103
103
62
153
149
67
159
153
56
146
140
60
154
147
56
145
138
23
84
84
17
67
74
18
59
73
14
49
63
17
56
69
13
59
69
18
59
70
11
40
51
18
49
61
15
58
67
16
59
69
15
60
66
16
56
63
9
36
47
10
33
45
18
48
58
14
55
61
13
54
61
17
58
61
44
56
63
53
56
65
13
47
53
15
55
62
15
56
64
15
57
64
15
58
65
19
57
66
16
46
57
12
37
49
22
60
62
39
96
90
75
105
79
157
138
69
165
139
51
165
136
51
164
132
50
168
133
50
166
131
47
160
127
43
158
126
41
164
132
48
166
137
58
132
102
50
73
41
17
66
34
16
68
37
19
68
38
21
68
38
20
68
37
19
68
37
19
68
37
19
62
34
15
61
31
14
64
32
17
66
34
21
63
32
19
63
35
15
73
45
25
61
30
23
55
23
32
61
31
50
64
34
55
63
38
58
62
39
60
58
36
57
59
38
60
54
33
57
46
29
53
41
29
53
39
29
50
39
30
50
41
30
50
42
30
50
45
31
53
43
30
50
43
30
49
42
30
48
40
29
50
41
29
52
42
30
54
41
29
54
42
30
54
42
30
54
42
30
54
82
169
72
82
170
72
81
172
74
77
170
73
80
170
80
81
171
85
78
168
87
77
164
90
77
161
95
74
156
101
69
148
102
61
129
100
66
133
117
60
139
127
24
82
81
30
71
77
24
62
70
23
52
65
20
36
54
23
39
58
19
39
60
15
39
62
19
39
63
21
39
63
21
38
64
21
37
62
18
32
58
18
32
57
21
36
60
22
38
58
19
32
50
20
31
49
17
45
57
18
68
77
17
70
79
19
68
78
20
66
77
18
67
77
21
63
75
18
54
68
13
37
55
19
34
56
19
35
55
15
36
53
13
35
53
14
35
54
15
34
53
17
34
54
16
33
54
15
35
55
19
39
58
19
51
61
59
127
127
57
141
139
27
94
93
17
68
76
17
62
73
16
63
73
16
62
73
15
63
71
18
65
72
17
66
71
57
131
127
69
168
156
68
173
160
70
176
162
70
172
164
71
169
162
73
171
161
72
171
160
70
165
156
55
139
133
19
81
82
15
64
70
15
63
70
18
63
71
16
60
68
51
124
121
43
120
117
29
103
103
57
149
145
55
139
136
21
92
94
51
133
131
45
126
121
17
72
74
17
64
72
18
58
71
14
49
60
15
51
61
13
60
65
17
59
66
11
38
48
14
39
53
15
55
65
16
57
65
14
57
64
15
57
63
11
40
50
10
30
44
14
42
53
17
56
62
16
57
61
14
56
61
29
49
53
69
68
76
14
38
45
15
54
62
14
55
63
15
56
64
15
56
63
16
49
59
12
35
49
12
30
45
17
52
56
22
73
72
61
105
88
147
132
69
171
145
55
170
141
56
166
134
51
169
133
51
165
130
47
157
125
41
159
128
44
164
133
49
158
128
54
102
72
29
67
35
18
67
35
19
69
38
20
68
39
19
69
38
20
69
38
20
69
38
20
68
37
19
64
35
17
62
32
15
64
32
17
65
33
22
66
34
20
67
37
16
72
44
27
62
37
40
71
45
63
65
41
66
59
36
63
54
32
57
53
35
58
52
34
57
48
31
52
49
34
51
43
29
48
42
29
48
44
32
51
43
31
50
43
31
50
43
31
50
45
31
52
44
30
50
43
30
49
42
31
50
39
31
52
39
30
53
40
30
54
40
29
52
42
30
52
42
30
53
43
30
53
81
173
62
80
172
62
79
171
64
79
170
65
81
170
69
79
172
72
74
171
72
73
171
69
76
171
72
78
168
78
82
166
84
79
158
89
64
133
109
64
144
134
26
87
81
24
65
66
26
70
74
19
53
63
20
36
52
24
40
57
19
38
58
17
38
60
17
40
61
20
39
61
22
37
60
20
33
58
16
32
57
17
37
58
19
37
56
19
36
55
18
31
53
20
33
56
14
45
63
18
67
78
18
67
79
19
68
80
18
66
79
16
62
75
14
62
73
16
63
73
17
59
69
12
44
59
15
34
54
17
33
53
18
33
54
18
33
54
19
33
54
20
33
54
18
33
54
20
35
60
20
40
60
31
76
82
61
143
137
54
135
132
20
77
83
17
67
76
14
62
72
16
63
73
16
62
73
16
65
72
20
66
73
28
86
87
68
158
148
73
172
160
74
178
165
72
178
166
71
176
166
73
172
164
71
166
158
67
166
156
59
160
153
36
114
112
20
73
79
15
62
67
15
64
67
16
57
63
12
53
59
49
119
116
30
99
98
35
103
104
56
140
139
26
98
99
19
79
85
44
113
115
33
97
100
15
68
73
15
62
70
17
58
67
14
49
61
12
45
58
12
56
65
16
57
66
21
42
50
20
33
50
15
52
64
15
58
62
16
57
63
15
55
62
14
41
52
11
30
46
9
38
49
15
54
61
14
57
62
14
56
65
21
50
57
78
77
82
21
31
37
14
49
56
15
55
61
14
53
61
13
45
54
11
34
46
15
30
46
14
28
45
15
40
52
15
61
64
55
105
92
126
121
71
172
147
56
173
144
57
169
139
51
166
132
48
164
131
47
161
129
45
162
131
46
165
134
55
145
115
52
81
51
20
65
33
19
67
36
18
69
38
20
69
38
20
67
36
18
65
34
16
68
37
19
67
36
18
67
35
20
67
35
20
66
34
19
67
34
21
66
33
16
70
41
18
65
42
32
52
31
43
52
32
51
50
30
53
48
28
55
48
25
51
45
28
51
55
36
57
50
32
51
46
31
50
45
31
49
42
28
47
44
32
51
43
31
51
42
31
50
43
31
50
46
32
50
45
32
51
43
29
51
41
30
52
39
30
54
39
29
53
39
28
52
39
28
50
41
29
51
44
30
53
45
30
53
93
172
83
87
168
76
84
168
73
82
166
70
84
166
73
84
170
74
79
170
69
77
168
68
79
169
71
81
170
75
80
169
75
80
164
79
62
133
95
68
147
133
44
107
104
26
68
69
31
73
77
21
56
66
18
38
52
23
40
56
23
40
60
22
38
62
21
35
59
20
36
59
19
36
58
14
34
56
12
39
59
15
45
61
22
50
63
16
40
59
16
36
60
20
36
62
10
40
62
19
65
78
19
66
79
18
67
79
18
67
79
19
64
78
18
57
71
20
65
75
16
65
74
16
61
72
18
53
67
12
40
56
15
33
53
16
34
54
16
34
54
16
34
53
18
34
54
19
35
60
18
44
62
48
108
109
55
147
138
45
121
119
19
73
80
17
65
75
16
63
73
16
63
73
16
63
73
16
68
75
18
66
73
58
128
125
69
169
156
76
175
164
78
178
168
72
177
167
68
171
164
61
153
148
41
128
122
56
152
144
53
148
142
21
85
89
19
65
73
18
63
69
19
61
65
37
57
65
29
59
68
38
96
99
20
78
82
39
96
100
37
103
105
17
71
79
17
66
75
24
77
84
19
69
78
14
61
72
15
60
71
14
57
69
14
50
62
8
38
52
12
53
63
15
56
64
37
55
60
35
42
53
14
48
59
15
56
63
16
57
63
15
55
62
15
42
53
13
29
46
8
34
47
14
51
59
14
54
60
15
56
65
19
51
57
76
72
78
49
45
54
11
36
46
16
45
54
13
41
52
8
33
44
10
31
44
14
30
46
15
29
46
12
32
44
17
54
62
46
96
87
100
105
63
170
144
61
174
143
55
172
141
52
170
137
51
165
132
46
164
132
46
164
134
48
166
135
62
120
90
40
68
37
15
66
36
19
68
37
19
69
38
20
69
38
20
68
37
19
67
36
18
69
38
20
70
39
21
70
38
21
70
39
21
70
39
21
69
38
21
69
38
18
74
47
25
61
38
34
46
31
45
45
30
48
46
29
51
47
29
52
48
25
51
46
28
51
55
37
57
50
32
52
48
31
51
46
30
50
44
29
49
43
30
51
41
29
50
41
29
50
42
30
50
47
34
52
45
32
52
41
29
51
41
30
52
39
29
53
40
29
53
40
28
52
39
27
49
40
28
50
42
30
52
42
30
52
131
175
138
124
173
128
114
169
114
104
165
102
99
166
96
96
167
89
87
164
75
85
167
73
84
170
73
84
174
71
81
175
69
83
170
76
65
138
84
70
149
128
64
136
128
23
77
74
31
75
79
26
60
71
19
40
54
18
36
52
18
33
54
20
32
57
22
31
56
20
36
59
15
40
60
17
48
65
19
56
71
22
61
73
19
57
65
17
49
62
15
37
56
22
36
60
14
40
61
21
64
78
21
66
79
18
66
78
16
67
78
17
64
77
16
53
68
23
59
73
22
65
76
15
62
72
16
63
73
19
60
72
19
53
67
14
43
59
13
39
56
13
35
53
14
37
56
17
39
62
17
53
67
63
131
130
59
146
138
32
102
102
20
72
80
18
62
73
17
61
72
16
63
73
16
64
73
18
70
77
27
82
85
71
153
146
70
173
160
74
175
165
73
175
166
68
169
162
63
151
151
26
98
102
18
88
91
48
128
127
44
122
122
18
72
79
16
63
71
17
64
70
22
54
59
70
74
84
28
51
62
17
63
74
17
63
72
19
65
72
18
67
72
18
62
73
15
62
72
15
61
72
17
58
72
15
57
73
14
57
73
13
56
72
16
52
65
9
35
50
14
50
62
17
56
64
48
58
61
58
57
63
14
41
54
16
55
63
15
56
62
15
55
62
16
44
55
14
28
45
11
32
47
14
47
56
15
52
59
14
50
61
19
53
58
61
60
65
78
69
79
14
28
41
12
30
44
12
29
44
11
28
42
10
30
43
10
29
44
14
29
45
9
31
40
17
48
60
33
80
79
82
97
65
165
137
63
168
136
49
172
140
51
172
138
51
166
133
46
165
133
46
166
136
49
157
126
60
95
63
28
65
33
20
67
37
20
69
38
20
69
38
20
68
37
19
68
37
19
67
36
18
68
37
19
70
39
20
70
39
19
70
39
19
70
39
19
68
39
18
67
41
16
72
46
25
56
34
36
46
30
48
45
30
51
48
29
49
49
28
49
48
25
51
48
29
52
52
36
56
50
29
50
48
30
52
47
29
51
45
28
50
42
29
51
41
29
51
41
29
51
43
31
53
44
31
50
41
29
48
42
30
51
40
30
52
40
29
53
41
29
53
40
28
52
40
26
50
39
27
49
38
28
49
38
29
50
147
172
173
147
172
170
146
172
166
149
174
164
147
176
159
141
177
150
131
173
138
125
173
128
113
170
114
103
166
100
92
162
88
89
164
83
80
150
86
63
137
105
71
148
132
56
126
116
31
88
86
29
71
79
22
57
69
18
46
62
22
40
61
22
40
62
18
42
60
20
48
66
23
57
75
24
63
79
22
66
78
20
62
73
19
53
65
15
44
57
16
36
54
20
33
54
16
37
56
22
62
75
22
66
78
17
67
77
16
68
78
18
67
80
19
58
72
18
52
66
21
61
73
17
64
74
17
65
75
16
62
73
14
62
72
16
61
72
19
59
72
20
57
70
21
58
72
22
61
75
30
84
90
63
146
142
58
141
136
23
85
88
18
68
76
18
61
71
16
60
70
17
60
70
17
65
73
20
68
76
33
97
97
70
163
154
73
174
163
75
177
168
69
174
166
68
159
157
39
109
113
19
77
85
17
75
81
45
112
114
33
98
101
19
70
78
15
63
71
15
61
70
34
52
56
84
84
88
27
54
61
17
60
71
17
59
70
17
59
69
17
60
69
15
58
70
15
60
70
15
58
70
16
56
71
15
55
72
14
57
72
12
57
71
17
53
63
10
34
47
13
48
58
17
55
61
53
56
60
71
62
69
16
35
48
17
52
65
14
56
64
15
54
63
17
46
58
13
29
46
10
31
46
13
40
52
11
36
48
9
31
45
13
40
49
44
43
50
99
85
91
21
25
36
13
29
46
13
28
46
12
26
43
11
27
43
10
28
43
15
27
42
12
30
39
16
43
55
21
67
68
65
91
70
156
129
62
167
132
46
166
135
47
171
137
49
167
134
46
165
135
45
167
139
55
138
108
52
74
41
16
65
33
20
68
36
20
70
39
21
69
38
20
66
36
18
68
37
19
66
35
17
68
37
19
70
39
21
69
39
20
68
38
20
69
39
20
67
38
17
70
42
20
69
45
31
49
31
38
47
29
50
48
29
51
49
29
50
47
27
48
45
26
48
48
31
52
51
35
54
47
29
49
47
30
52
45
30
53
43
28
53
41
29
52
42
30
52
42
30
53
43
31
53
43
31
51
42
30
51
42
31
52
41
30
53
40
28
55
40
27
53
42
27
52
42
27
49
40
27
52
35
25
51
35
28
51
112
147
161
120
150
166
132
155
173
147
165
183
155
170
182
157
173
180
157
172
175
156
171
174
151
173
171
147
172
162
135
166
148
121
161
129
104
151
115
80
129
106
73
135
123
73
147
137
67
138
131
43
102
102
21
71
78
27
67
78
33
64
78
28
64
76
25
68
76
23
70
78
21
66
79
23
66
80
21
64
75
17
57
69
24
56
71
14
39
56
17
34
54
19
33
54
16
37
56
19
57
70
22
66
77
19
68
77
15
70
78
15
69
80
22
63
76
11
42
57
16
51
65
19
62
73
15
62
72
17
62
72
15
62
72
15
62
72
16
63
73
18
62
73
19
66
76
21
72
81
48
116
118
57
150
144
54
134
130
19
77
81
17
67
74
18
62
71
13
55
65
17
58
68
16
64
71
20
63
72
31
96
97
69
161
154
74
170
161
71
169
161
66
162
157
50
123
126
20
74
82
19
68
77
17
70
78
36
96
101
21
77
84
16
65
74
13
61
71
18
57
67
58
62
65
83
81
84
19
57
60
16
59
69
16
58
70
15
57
69
15
57
69
16
58
70
16
58
70
16
58
70
16
58
71
15
57
72
15
58
70
14
58
69
17
52
61
10
33
46
11
46
55
17
54
60
58
59
63
84
72
80
15
32
44
17
49
64
14
53
63
10
45
57
15
42
57
11
28
44
12
31
46
12
30
45
14
29
45
15
28
44
13
32
45
31
32
42
107
91
93
30
27
35
13
27
46
12
27
46
11
26
47
11
27
47
10
27
45
15
26
44
13
26
39
12
41
51
15
60
61
55
91
76
144
119
59
164
129
45
166
135
46
170
137
48
168
135
48
168
139
50
166
138
62
112
82
36
68
33
14
67
34
17
68
35
19
67
35
18
69
38
20
67
37
19
69
39
21
69
38
20
69
38
20
69
38
20
68
38
20
66
36
18
67
37
19
65
35
15
70
42
24
62
40
34
48
32
44
47
29
50
48
29
51
46
28
50
42
25
47
42
27
46
47
32
51
48
33
52
43
29
48
43
30
50
43
29
52
43
30
54
42
30
53
42
30
52
41
29
51
41
29
51
42
30
52
42
30
52
40
28
50
40
29
53
39
28
55
39
26
51
40
26
48
40
26
45
40
26
51
35
24
53
34
27
52
40
107
124
49
110
129
66
119
140
83
132
152
99
146
161
113
150
166
125
151
169
133
153
174
144
161
182
150
165
183
152
166
180
149
159
173
132
147
153
124
145
147
119
143
146
94
130
134
73
124
125
63
113
114
31
75
81
33
69
79
34
69
79
29
70
78
31
71
75
23
70
73
19
70
76
19
65
74
17
60
71
24
64
76
19
48
64
17
38
57
21
35
56
20
33
55
13
35
53
14
51
64
23
66
77
19
67
77
17
70
78
16
69
78
20
65
75
20
53
66
12
38
54
17
47
63
20
60
72
18
61
72
17
63
73
16
63
73
16
63
73
17
64
74
20
69
79
22
77
84
60
135
135
58
155
147
45
121
118
19
75
79
17
67
74
17
62
70
12
53
62
15
59
68
16
62
70
16
53
64
29
89
92
68
155
149
69
165
155
70
160
151
56
126
125
15
63
71
17
64
74
17
63
73
16
62
72
19
67
76
16
63
73
13
61
71
14
60
70
22
55
63
94
88
90
72
69
72
17
60
67
15
57
69
15
57
69
15
57
69
15
57
69
16
58
70
16
58
70
15
57
69
15
57
70
15
57
70
15
57
68
14
56
66
16
50
59
8
31
43
10
44
53
16
52
58
60
59
63
91
76
84
16
29
41
17
43
59
13
46
58
7
35
49
11
31
48
14
23
42
13
29
45
11
31
46
13
31
46
15
29
44
16
31
45
24
26
37
112
94
96
51
41
49
16
26
44
13
26
44
13
26
49
11
27
50
11
27
47
13
26
46
6
29
40
15
49
58
15
55
59
51
89
76
130
111
55
167
132
51
171
139
49
172
138
49
173
140
51
174
145
59
157
127
63
90
58
24
68
33
16
67
34
16
67
33
18
66
33
16
68
36
19
69
38
20
69
38
20
70
39
21
69
38
20
67
36
18
65
34
16
63
32
14
62
31
13
64
34
15
67
39
27
56
34
38
48
32
50
45
29
51
45
29
50
43
28
49
40
26
46
42
29
47
44
32
50
45
32
50
42
30
48
45
32
52
41
28
51
41
29
53
42
30
53
42
30
52
41
29
51
41
29
51
42
30
52
42
30
52
39
27
49
40
29
52
40
29
53
40
28
49
39
25
44
40
26
44
38
25
48
35
25
51
34
27
51
21
83
104
20
86
105
21
89
108
24
93
112
31
99
119
37
101
121
47
106
128
60
112
133
82
124
145
100
136
158
113
143
165
122
145
166
126
149
168
133
155
170
144
157
173
146
160
175
142
157
170
127
141
153
122
118
126
102
78
87
82
55
66
76
51
62
62
53
66
49
86
87
43
111
106
47
109
109
22
71
80
24
62
75
16
38
56
19
35
55
21
33
55
20
34
55
12
35
54
10
45
59
21
63
74
17
64
74
15
65
74
18
67
76
21
69
77
21
61
70
14
45
58
11
35
53
13
40
57
16
53
66
17
60
71
15
61
71
15
62
72
17
66
76
18
72
80
27
86
92
66
149
147
55
157
147
34
108
106
18
71
77
18
68
75
17
63
71
13
52
62
17
61
70
16
59
68
14
46
59
23
77
82
58
140
136
61
152
142
53
128
122
22
68
73
15
52
61
16
61
71
15
62
72
14
60
70
15
59
70
15
60
70
14
60
70
19
59
71
29
52
61
119
103
106
55
58
60
14
61
72
14
57
70
15
57
69
15
57
69
15
57
69
15
57
69
15
57
69
15
57
69
14
57
69
14
56
68
15
56
66
15
54
63
17
49
59
9
30
44
8
41
50
18
53
59
63
60
63
98
81
88
17
28
39
15
37
53
8
36
50
10
31
47
14
28
47
11
23
41
10
28
44
8
31
45
9
31
45
16
28
44
18
30
45
20
26
36
105
86
87
74
59
66
21
28
45
14
26
43
12
25
43
10
28
45
14
29
45
9
24
39
12
39
50
17
52
63
15
56
61
44
85
72
124
110
58
169
133
55
173
140
49
174
140
50
171
138
48
175
145
62
137
106
53
75
41
17
69
34
19
69
36
16
67
33
17
67
32
16
67
34
17
70
38
21
70
39
21
69
38
20
69
38
20
67
35
18
66
33
16
63
30
13
61
29
12
66
35
18
64
36
30
53
31
44
46
30
52
44
29
51
44
29
50
41
27
48
38
25
45
42
31
48
43
32
49
42
32
49
42
31
49
45
33
53
42
30
52
41
30
54
41
30
53
42
30
52
42
30
52
42
30
52
42
30
52
42
30
52
38
26
48
39
28
50
40
29
50
40
28
46
39
26
42
40
26
42
38
25
46
35
26
50
35
29
51
36
84
102
26
79
96
20
77
95
18
77
95
21
80
98
22
83
101
21
84
104
22
88
109
25
89
113
27
91
118
35
97
126
43
103
123
56
112
133
67
118
143
78
122
147
96
129
154
114
139
163
129
141
161
162
137
154
167
97
114
149
63
78
139
58
75
106
63
73
80
127
125
51
145
133
42
119
115
19
73
81
19
60
72
15
35
54
19
34
55
21
35
56
18
34
55
12
35
53
11
39
55
19
60
72
17
66
75
16
63
74
16
62
77
19
65
77
16
63
72
18
57
69
11
40
56
13
35
54
12
36
54
12
44
59
13
53
65
13
58
69
19
63
74
25
72
82
42
107
110
65
155
150
57
155
148
25
94
96
18
73
80
16
66
75
18
60
67
13
50
59
17
62
68
18
56
65
14
45
60
21
66
77
36
98
102
46
113
111
21
77
77
15
48
58
15
49
63
13
59
70
14
61
71
16
63
73
17
62
73
15
61
69
14
61
70
19
58
71
57
60
60
125
104
108
37
53
55
14
62
66
15
57
69
15
57
69
15
59
70
15
59
70
15
57
72
15
57
72
15
57
72
14
57
69
14
56
67
16
56
65
16
53
62
17
45
52
9
28
39
9
38
48
16
51
58
73
63
65
105
83
85
17
26
39
11
30
49
9
31
48
11
29
47
12
25
45
9
22
41
12
28
49
10
29
51
9
30
53
16
28
47
16
28
46
20
25
40
100
80
79
92
75
77
18
27
43
12
28
45
14
24
46
11
28
43
11
25
38
10
22
39
11
37
49
14
52
59
12
55
59
39
81
73
114
105
57
165
135
50
173
139
47
172
140
49
172
142
49
167
137
62
104
71
34
69
34
15
71
36
17
71
36
17
69
35
16
67
34
15
66
34
15
70
38
21
69
37
20
68
36
18
66
33
16
68
33
16
68
32
12
63
29
16
60
31
12
62
36
21
58
34
39
52
30
49
47
29
50
43
28
52
39
30
53
38
27
51
40
27
51
41
29
49
43
30
50
43
30
50
44
31
50
42
30
47
42
30
51
41
30
54
41
30
54
42
30
54
42
30
54
42
30
54
41
29
50
39
27
48
38
26
47
39
26
47
40
27
45
41
26
45
40
26
44
36
25
42
36
26
44
37
28
46
35
28
45
124
138
158
110
129
147
91
115
133
71
99
118
56
89
108
42
82
101
30
78
97
23
77
95
20
76
96
18
77
99
19
79
104
21
84
107
23
88
111
25
90
115
24
91
116
28
92
117
36
92
115
55
86
106
123
104
119
164
89
106
152
58
73
146
58
75
98
73
77
72
143
135
56
145
134
43
111
109
20
71
80
21
58
71
16
33
53
20
34
55
17
35
55
16
36
55
18
33
54
13
35
53
18
56
69
17
64
74
15
62
74
15
61
77
17
63
76
17
64
74
17
62
73
17
54
67
11
39
55
13
35
54
13
33
53
11
36
54
8
38
54
15
46
62
19
61
72
57
129
130
60
157
150
56
152
145
22
88
91
17
69
77
16
64
74
16
58
67
13
52
61
15
60
67
15
50
61
9
43
57
18
62
73
15
67
75
14
68
71
19
66
70
10
40
52
13
49
63
15
61
71
15
62
72
17
62
73
18
62
74
15
61
69
14
60
68
21
56
68
85
78
78
120
101
104
26
50
51
14
60
64
15
57
68
15
57
69
15
59
70
15
59
70
15
57
70
15
57
70
15
57
70
13
57
68
12
57
65
15
57
64
15
53
61
18
43
50
10
26
38
9
34
45
19
49
58
81
70
73
107
85
87
18
27
40
11
29
45
9
30
42
10
28
41
10
26
40
9
22
42
13
27
49
12
29
50
10
29
51
13
28
45
14
29
46
21
26
41
100
80
76
108
88
88
21
28
39
15
30
42
21
25
38
42
38
49
17
26
37
13
27
44
9
33
46
15
52
60
13
55
60
34
78
74
104
105
61
165
135
52
174
137
47
173
141
50
176
147
60
153
123
58
82
48
17
68
33
14
70
35
16
71
36
17
69
35
15
66
33
14
64
32
14
68
37
20
68
37
20
66
33
16
65
32
15
69
33
16
70
34
13
65
31
16
63
34
17
61
36
27
54
31
42
51
28
52
48
29
51
44
28
53
39
29
53
40
28
52
42
29
53
43
30
50
44
31
51
42
29
49
43
30
49
41
29
47
42
30
51
41
30
54
41
30
54
42
30
54
42
30
54
42
30
53
42
29
49
40
27
47
40
27
47
41
26
46
43
26
45
40
26
44
35
26
43
35
25
42
35
24
41
33
24
41
34
25
42
136
137
155
141
144
163
138
145
164
134
143
162
128
140
159
124
141
160
112
133
152
99
127
143
83
114
131
62
97
116
42
82
102
30
75
96
22
74
95
19
75
97
17
75
97
18
74
95
17
74
90
24
60
72
107
84
97
163
86
102
154
62
74
139
64
76
87
99
97
64
147
138
59
143
134
36
103
100
20
72
80
22
56
70
17
35
55
21
34
56
15
35
54
11
35
53
18
32
53
16
33
53
14
48
62
17
62
73
17
63
74
16
62
77
16
62
75
16
63
73
16
63
73
17
62
72
18
55
68
11
39
55
16
34
54
16
33
53
14
33
53
18
40
59
21
62
73
63
146
144
61
161
153
55
145
141
20
83
87
18
66
76
15
63
73
14
56
66
15
55
65
14
59
68
14
45
58
10
42
57
16
58
70
16
62
72
16
63
69
16
59
64
9
35
49
15
49
63
15
61
71
16
61
71
17
61
72
17
60
73
15
61
70
16
61
68
25
52
61
104
89
90
110
93
95
26
54
54
15
57
62
16
56
67
16
56
68
15
57
69
15
57
68
15
58
66
14
57
65
13
56
64
13
56
64
14
56
64
15
54
62
15
51
59
23
42
50
18
27
40
13
31
44
21
47
57
88
75
78
105
86
86
19
28
40
14
31
48
13
31
45
12
28
43
12
28
42
10
23
44
13
25
47
12
26
45
12
27
45
17
29
46
17
30
45
25
27
41
105
84
78
118
96
94
31
28
35
28
28
35
79
65
65
108
91
95
24
26
35
12
28
45
8
29
46
16
50
60
14
54
61
27
71
73
89
102
64
166
138
60
174
139
51
171
142
51
174
146
69
123
94
44
69
35
10
68
33
14
69
34
15
70
35
16
69
35
15
67
35
15
66
34
16
67
36
18
68
36
19
65
33
15
66
33
16
70
34
17
69
34
13
65
33
16
63
35
21
55
31
30
50
28
46
49
28
56
48
28
53
45
27
53
40
29
53
41
28
53
44
30
54
43
30
50
43
30
50
43
30
50
44
31
50
43
31
48
42
30
51
40
29
53
41
30
54
42
30
54
42
30
54
42
30
53
43
28
47
40
25
44
41
26
45
41
26
45
41
26
45
39
26
44
34
25
41
33
23
40
34
23
40
39
29
46
37
27
44
138
142
160
139
143
162
137
139
159
134
136
156
132
134
152
134
138
158
141
147
167
145
154
173
146
157
177
139
154
175
127
145
166
116
134
155
98
121
142
77
108
127
53
89
108
41
77
98
28
67
86
26
55
68
99
77
88
160
86
99
154
68
78
131
64
74
85
116
112
61
147
139
58
147
138
27
93
91
18
72
80
21
57
70
17
39
57
19
33
54
17
35
54
14
35
54
14
33
53
19
34
55
13
42
58
19
61
73
17
63
74
16
62
76
16
62
75
16
63
73
17
62
73
16
62
72
17
60
71
20
57
70
16
42
59
12
33
52
15
36
55
20
44
62
34
81
89
65
154
150
62
162
154
53
136
133
19
79
84
19
65
75
16
63
72
13
55
65
15
57
68
13
58
68
13
40
55
11
40
54
16
57
69
16
60
71
19
60
68
16
53
61
8
34
47
15
51
64
13
57
68
12
57
67
15
58
69
15
57
70
13
57
68
14
58
65
30
51
60
123
101
103
100
85
87
24
54
55
16
55
61
15
55
66
15
54
67
13
53
66
13
54
66
14
54
63
14
54
63
13
54
61
14
54
61
14
49
59
12
45
54
8
39
47
40
49
58
30
35
49
17
33
47
24
45
57
96
82
84
107
88
88
19
27
41
14
32
51
14
30
50
13
28
47
14
28
47
9
22
43
12
24
44
16
30
47
16
31
46
18
27
44
20
29
45
31
26
39
116
91
85
125
98
95
51
37
39
104
84
87
132
104
101
122
97
95
32
30
37
14
30
47
7
26
43
15
47
60
15
54
62
24
67
69
76
95
66
167
140
66
173
141
51
173
146
55
162
134
65
94
64
26
66
33
15
69
34
15
70
35
16
70
35
16
69
35
16
69
36
17
69
37
18
68
36
18
66
34
16
68
34
17
68
34
17
70
34
17
69
34
14
66
35
15
65
37
26
54
30
36
48
28
49
46
26
54
47
27
54
45
27
53
41
28
53
42
27
52
43
28
53
43
29
50
44
30
51
42
29
49
45
31
50
46
34
52
42
29
51
41
29
53
42
30
54
42
30
54
41
29
53
41
29
51
44
27
46
42
25
44
42
26
44
41
25
44
37
26
44
34
23
41
31
19
37
29
17
35
41
29
47
50
38
56
39
28
46
150
150
171
158
157
178
158
157
179
157
156
177
151
153
172
142
146
166
134
139
161
131
133
156
126
128
151
126
131
153
131
138
159
140
145
164
139
146
166
139
149
169
133
146
166
128
139
159
112
130
149
103
114
131
131
106
122
161
90
103
151
67
77
128
62
75
85
129
127
63
153
143
57
143
137
24
84
86
21
69
82
20
57
70
17
41
54
18
34
52
16
35
54
14
35
54
15
35
54
17
33
54
16
36
55
18
56
69
15
62
72
16
63
73
16
63
73
16
63
73
16
62
72
16
61
72
17
62
72
17
62
72
18
59
71
14
50
63
12
40
56
21
47
63
47
101
103
68
158
151
63
162
155
49
129
126
19
78
82
16
64
72
16
62
71
12
54
63
16
57
67
16
57
67
11
37
50
9
40
49
16
58
70
14
59
71
16
58
67
13
46
56
9
32
45
12
48
62
13
55
67
13
56
67
14
57
68
16
57
70
15
57
70
15
57
65
43
53
59
132
106
104
82
73
76
22
51
60
15
47
56
11
40
52
9
38
52
11
38
55
12
38
57
13
39
59
13
39
56
11
38
51
11
39
49
12
33
46
10
30
45
13
31
42
62
61
69
32
35
47
14
32
46
26
42
53
106
89
87
110
86
87
22
26
44
13
30
47
14
28
46
15
27
44
17
27
44
12
23
39
16
25
42
18
30
45
16
32
44
19
31
44
24
27
40
68
50
56
134
100
102
141
106
104
131
101
97
140
106
103
144
107
102
133
101
96
40
34
41
17
30
46
12
27
44
13
45
58
15
55
62
20
63
62
64
91
73
161
136
68
173
144
46
174
146
62
144
115
57
75
42
16
66
32
18
69
34
15
69
34
15
70
35
16
71
36
17
71
36
17
72
37
18
72
37
18
70
35
16
70
35
16
70
35
16
69
34
15
68
33
16
67
39
17
62
38
31
49
28
41
44
30
47
43
28
48
43
27
50
44
26
52
47
24
52
49
24
53
47
26
53
42
28
51
44
31
52
40
27
46
45
31
49
47
32
53
44
30
52
43
29
52
41
30
54
40
31
53
42
28
50
40
27
47
42
26
45
40
26
45
38
26
44
38
23
42
36
26
45
36
26
45
33
23
42
33
20
42
49
36
58
51
37
60
37
23
46
150
151
173
152
152
174
158
158
180
165
165
186
165
170
189
157
162
182
152
157
179
149
152
175
144
147
170
133
138
160
119
124
146
106
108
129
101
105
125
112
118
139
125
132
154
134
136
160
134
141
164
143
145
166
164
136
154
171
104
115
151
67
77
121
66
75
81
139
132
63
153
143
57
139
135
23
80
84
21
69
81
20
57
70
17
44
57
18
34
52
19
32
54
13
35
53
11
36
53
17
35
54
13
35
53
15
50
64
17
61
72
17
64
74
16
63
73
16
63
73
16
63
73
16
63
73
16
63
73
16
63
73
16
63
73
17
61
72
19
60
72
17
57
68
58
123
121
65
160
152
62
161
153
44
118
117
19
75
80
15
64
71
16
61
69
11
51
61
17
58
67
16
55
66
8
34
48
10
38
49
17
56
69
14
58
70
19
55
66
14
41
52
13
30
45
13
47
61
15
55
68
11
44
59
12
45
60
14
54
68
14
56
67
18
56
64
62
61
65
137
110
109
71
63
66
21
45
56
9
35
48
12
32
44
13
31
45
13
30
46
13
29
47
12
27
52
12
28
50
13
30
48
12
30
45
14
28
44
14
30
45
20
27
38
81
76
82
30
31
45
15
30
46
28
39
48
114
93
91
110
85
85
23
28
44
13
30
46
14
29
45
17
27
44
20
26
43
15
23
38
20
28
41
24
29
40
25
28
37
35
30
37
88
68
72
138
105
109
149
108
108
152
109
106
152
109
106
147
109
104
165
132
124
186
160
152
50
46
49
22
29
46
14
28
45
13
44
57
15
54
62
18
61
62
55
92
76
154
130
65
172
145
51
174
146
74
118
87
43
67
34
12
68
35
19
69
33
15
69
34
15
70
35
16
71
36
17
71
36
17
71
36
17
70
35
16
68
33
14
66
31
12
66
31
12
68
33
14
66
31
14
67
39
23
57
36
35
46
28
44
43
29
48
43
29
48
42
28
48
47
25
51
51
24
53
50
24
53
47
26
53
42
28
51
43
30
51
39
26
45
45
33
51
46
33
53
43
31
52
41
30
52
40
30
52
41
30
51
40
27
47
40
25
45
39
27
45
34
26
43
35
25
42
40
27
46
44
32
52
47
35
55
44
32
52
38
25
45
45
32
53
42
29
49
34
21
41
139
145
166
144
150
172
155
160
182
163
169
190
160
167
185
157
163
182
148
153
175
135
140
162
125
131
153
121
127
149
124
129
151
133
135
155
143
144
166
145
147
170
144
147
170
140
141
165
133
134
160
129
124
147
149
116
135
164
101
111
151
68
78
112
70
74
81
147
137
66
154
144
52
132
128
20
78
81
21
68
81
20
58
70
19
48
60
15
36
52
16
32
53
14
32
52
11
35
53
14
35
54
12
36
54
13
42
58
19
59
72
16
63
73
16
63
73
16
63
73
16
63
73
16
63
73
16
63
73
16
63
73
17
63
73
16
63
73
18
67
76
23
75
82
65
141
137
63
164
154
62
159
152
36
105
106
19
72
78
14
63
70
17
59
69
12
50
61
17
59
68
16
52
63
7
33
47
11
37
48
17
54
67
12
55
68
16
43
57
12
32
46
14
31
46
14
41
58
13
42
60
11
30
52
10
31
52
12
41
58
18
48
60
23
50
60
83
73
75
136
109
109
59
52
57
15
35
49
10
29
45
10
31
46
12
31
47
12
31
49
12
30
51
12
29
54
11
29
53
12
30
49
11
30
45
16
29
46
16
33
46
23
26
34
92
81
85
28
27
43
16
29
45
34
36
45
124
97
97
110
84
83
24
28
43
15
29
44
15
29
44
20
27
43
23
26
42
21
24
39
26
28
41
32
27
36
66
49
55
122
92
94
148
107
106
154
108
107
156
111
109
153
112
105
167
129
121
195
165
155
208
183
170
194
170
159
44
40
43
20
28
43
15
27
44
11
41
54
15
53
61
14
58
61
49
96
79
147
123
61
172
148
58
163
133
75
91
58
26
67
33
16
68
35
18
70
35
16
72
37
18
70
35
16
70
35
16
70
35
16
70
35
16
70
35
16
70
35
16
69
34
15
69
34
15
68
33
14
68
33
17
67
40
30
52
32
39
46
28
48
46
26
50
46
26
47
45
26
45
47
25
51
49
24
53
47
25
53
42
26
51
41
27
50
43
29
50
39
26
44
45
33
50
43
33
52
40
31
51
40
31
52
40
31
51
43
30
50
39
26
44
41
25
43
42
27
46
41
30
47
42
28
47
41
27
46
40
28
48
41
29
49
44
32
52
39
26
44
40
27
45
37
24
42
36
23
41
76
121
141
101
138
160
120
147
171
133
154
179
127
148
170
119
135
157
113
125
145
114
124
142
126
133
152
144
146
168
160
159
183
163
165
184
161
162
180
160
159
178
159
157
177
157
155
178
155
154
177
144
144
162
160
134
149
169
105
116
151
66
78
104
78
80
77
150
140
66
153
144
50
127
123
19
78
83
21
68
79
19
59
71
20
53
64
12
38
53
13
33
52
14
29
50
14
33
53
14
35
54
14
35
54
10
37
53
19
56
69
17
61
72
15
63
73
15
63
73
16
63
73
15
63
73
15
63
73
15
63
73
15
63
71
16
63
74
17
67
76
23
79
83
70
154
147
64
166
154
62
155
147
28
94
95
18
70
75
14
63
69
16
60
68
13
51
62
17
59
68
15
49
59
9
32
44
11
34
47
17
51
65
11
47
61
11
31
46
9
25
41
12
30
48
11
33
53
11
31
54
12
28
54
12
27
54
11
28
50
15
32
49
19
32
44
106
85
87
135
106
105
46
42
47
15
32
47
13
30
48
13
30
51
13
30
52
14
30
53
13
30
54
12
29
53
10
27
49
12
29
47
15
31
46
17
29
48
18
30
47
42
34
39
107
88
91
27
27
41
18
30
45
40
38
43
130
101
100
110
84
88
28
28
44
17
27
46
17
29
46
26
29
43
34
27
39
38
25
34
52
36
40
106
75
78
143
108
109
149
109
107
158
110
105
162
113
108
169
130
121
192
158
146
211
175
163
210
178
165
207
182
168
189
165
157
40
34
39
19
26
42
11
25
43
9
39
51
14
54
61
13
58
61
47
97
83
136
113
58
174
148
67
137
108
62
72
38
14
69
34
17
70
36
17
72
37
19
72
37
18
70
35
16
70
35
16
70
35
16
70
35
16
71
36
17
69
34
16
70
34
16
70
35
16
69
34
15
71
36
19
64
38
33
47
29
43
47
29
52
49
26
52
49
25
52
49
25
48
49
25
50
49
25
52
48
25
52
42
23
48
40
26
46
43
31
50
38
26
44
45
33
51
42
31
49
41
30
49
40
30
49
41
29
48
42
29
47
42
29
47
44
30
48
44
30
48
40
29
46
40
27
45
40
27
46
41
28
48
40
27
47
42
29
49
38
25
43
38
25
43
37
24
42
35
22
40
25
92
116
29
94
117
36
99
119
45
107
128
48
107
131
51
103
125
69
114
133
100
133
152
123
148
168
137
154
176
148
158
182
156
161
185
157
161
182
161
164
182
162
165
181
162
165
184
160
161
181
149
148
163
160
141
153
171
107
120
148
69
80
99
88
88
77
152
143
67
155
146
48
121
119
18
77
84
20
68
78
19
60
71
21
56
68
11
40
54
12
33
51
14
29
50
17
33
54
16
34
54
15
34
54
10
35
53
14
46
61
18
59
71
14
63
73
15
63
73
17
62
73
16
63
73
16
63
73
16
63
73
15
63
70
17
62
74
18
71
79
32
94
95
68
157
151
63
165
154
57
147
140
20
84
85
17
68
72
14
62
68
15
59
66
12
50
61
17
57
66
13
45
53
11
31
42
10
32
45
17
45
61
12
38
54
12
28
43
12
25
43
11
30
49
9
30
52
10
31
52
11
28
55
11
28
54
13
29
51
18
32
51
24
29
40
117
92
94
132
103
101
35
33
40
14
31
46
11
28
46
13
30
51
13
30
51
14
31
51
13
30
51
11
29
50
13
29
47
15
29
45
15
30
43
17
27
46
24
28
46
74
57
60
115
89
93
30
27
39
25
30
44
53
41
44
140
109
106
105
80
84
30
31
42
27
32
47
32
29
42
56
40
47
106
83
85
129
107
103
150
126
120
163
128
122
173
137
129
170
131
122
196
153
145
205
157
150
203
155
148
203
153
147
203
149
145
204
154
148
200
160
151
172
145
142
31
28
36
19
29
46
10
26
46
9
37
49
13
54
59
12
56
60
43
94
82
125
108
60
170
140
73
106
76
40
70
35
14
72
37
19
69
34
14
69
34
15
71
36
17
70
35
16
71
36
17
72
37
18
71
36
17
71
36
17
70
34
17
70
34
17
70
35
16
69
34
14
74
40
25
57
32
35
47
30
49
48
30
53
50
27
53
49
25
54
49
25
50
47
26
49
45
26
48
42
24
46
42
25
47
40
27
45
41
28
46
33
22
39
40
28
45
39
26
44
37
24
42
39
26
44
41
28
46
43
30
48
44
31
49
41
28
46
39
26
44
38
25
43
40
27
45
40
27
46
40
27
47
38
26
46
38
26
46
37
24
43
39
26
44
36
23
41
35
22
40
17
69
93
18
71
96
18
73
98
21
78
105
22
81
109
23
85
110
24
90
111
34
94
120
48
102
130
62
110
137
80
123
150
99
133
160
115
144
168
133
156
176
144
164
181
147
164
182
149
156
179
146
145
164
156
139
153
171
107
121
146
71
83
96
97
95
80
157
148
69
157
148
44
115
113
19
75
83
19
69
78
19
63
73
16
53
64
15
46
59
12
34
52
15
30
51
19
33
54
17
35
55
13
35
54
10
36
53
10
37
54
18
55
68
16
63
73
16
63
73
16
62
72
16
63
73
16
63
73
16
63
72
15
62
69
16
64
75
17
71
80
41
107
107
66
159
153
62
164
155
52
142
136
19
80
84
16
65
72
14
61
70
15
58
67
12
49
60
17
56
64
12
43
50
13
32
41
11
31
45
16
37
56
12
32
50
12
27
43
12
25
43
12
30
50
9
31
52
10
31
51
11
29
53
11
28
53
14
30
51
18
32
51
30
30
38
125
98
100
128
100
99
28
30
39
13
30
45
12
28
43
13
30
47
14
30
48
14
31
48
14
31
48
11
28
46
14
30
46
17
31
44
18
31
42
21
29
43
30
26
39
109
84
86
110
83
86
35
29
40
33
31
42
70
53
52
156
126
119
105
78
77
44
30
33
66
46
50
89
62
62
141
106
104
157
121
115
209
180
170
218
191
179
194
164
154
169
139
127
193
152
143
204
155
149
193
136
135
187
123
126
182
107
114
182
102
110
183
108
115
187
120
123
155
114
117
27
26
35
14
27
44
11
25
46
8
36
48
13
53
59
13
53
58
40
93
83
112
105
65
151
121
73
80
48
24
68
33
14
72
37
17
68
33
14
69
34
15
71
36
17
69
34
15
70
35
16
71
36
17
72
37
18
71
36
17
70
34
17
70
34
17
69
34
15
72
37
18
70
39
31
55
32
45
48
31
55
48
31
53
48
28
52
48
25
53
48
25
49
45
26
46
40
24
44
39
23
43
40
26
45
41
26
45
38
24
42
30
18
36
34
22
40
38
25
43
39
26
44
40
27
45
41
28
46
41
28
46
40
27
45
40
27
45
39
26
44
38
25
43
39
26
44
39
26
45
38
25
45
36
24
44
37
27
46
36
24
43
38
25
43
37
24
42
36
23
41
70
102
121
53
89
110
35
77
99
23
70
93
19
68
91
17
68
90
19
71
91
20
75
98
20
77
101
20
78
103
23
81
107
26
86
110
35
92
114
50
104
125
67
115
134
86
124
143
96
121
146
106
118
142
128
117
133
161
103
117
142
72
83
91
107
102
77
157
146
69
155
147
42
110
109
19
75
83
18
70
78
18
64
74
15
55
65
17
51
64
11
35
53
15
30
51
16
28
50
16
34
54
11
35
53
11
36
53
12
34
53
12
45
59
15
60
71
13
61
71
15
61
71
14
61
71
14
61
71
13
60
70
16
62
70
16
65
76
19
73
81
48
118
117
64
160
154
60
163
155
49
139
135
20
78
84
16
64
74
15
60
70
16
57
69
11
48
58
17
56
63
10
41
47
14
32
41
12
31
45
13
29
49
13
27
47
15
28
44
12
25
42
12
30
50
10
31
53
10
31
50
11
29
52
11
29
52
13
29
49
18
31
49
39
35
39
133
105
106
123
95
96
26
29
40
15
32
46
15
29
43
12
29
44
13
30
45
13
30
45
13
31
45
14
30
46
16
31
45
18
31
41
18
31
40
23
30
39
46
33
40
138
105
109
103
72
76
42
30
41
44
33
42
103
76
74
182
144
138
138
99
96
137
99
100
148
103
105
136
95
92
154
118
109
196
164
151
219
190
178
178
151
141
192
163
154
209
177
169
197
159
153
174
130
129
141
90
95
132
60
72
153
55
75
169
62
84
171
71
91
176
84
97
133
81
89
23
25
34
11
26
44
11
25
46
8
34
47
14
53
59
10
48
53
34
90
82
95
99
65
118
88
55
67
33
19
70
35
17
70
35
15
69
34
15
70
35
16
70
35
16
68
33
14
70
35
16
71
36
17
71
36
17
70
35
16
69
33
16
69
33
16
70
35
16
77
43
24
65
36
33
51
28
50
48
31
60
49
32
54
49
30
51
48
26
52
46
24
46
44
24
43
43
24
43
42
24
43
44
27
46
39
24
43
36
22
41
39
26
44
45
32
50
46
33
51
44
31
49
41
28
46
40
27
45
40
27
45
40
27
45
40
27
45
40
27
45
39
26
44
38
25
43
35
23
41
33
21
41
32
22
41
34
25
44
35
24
42
37
24
42
37
24
42
37
24
42
159
166
187
140
152
172
121
140
157
101
124
140
81
109
126
62
92
109
46
78
96
31
68
85
21
63
82
15
60
81
14
61
84
15
67
90
16
70
93
17
73
97
20
78
100
22
81
99
25
78
97
33
73
93
84
83
99
148
98
110
133
75
83
89
118
114
74
159
149
68
156
147
40
109
107
20
77
82
18
71
79
17
67
76
16
57
69
20
52
67
10
36
53
15
33
52
14
25
47
17
33
53
11
34
53
12
36
53
14
35
54
11
34
52
17
52
66
15
59
70
15
61
71
16
60
71
15
59
70
15
59
70
15
61
71
16
66
72
20
73
76
48
117
114
61
159
153
57
161
153
47
133
131
18
72
79
15
64
72
15
60
70
15
57
67
10
49
56
16
54
62
10
37
49
12
31
45
14
30
45
14
29
48
14
30
46
16
27
44
12
24
45
10
30
52
9
31
55
11
30
54
12
30
51
12
29
45
12
30
43
18
31
44
55
45
48
138
107
103
117
91
89
23
29
41
15
32
43
15
30
41
11
31
43
14
30
44
16
28
45
19
28
46
20
28
47
17
30
48
23
29
48
29
28
47
35
30
42
93
68
72
156
113
113
113
76
73
115
89
84
132
102
97
160
118
115
200
156
150
161
116
111
160
115
111
141
95
91
155
111
103
179
145
133
218
191
177
175
156
137
160
139
121
208
181
166
198
169
158
131
103
104
58
34
36
43
10
18
92
40
53
118
41
61
137
46
69
153
52
76
167
64
86
121
61
73
21
25
32
11
27
45
11
26
47
9
32
46
15
53
60
11
45
55
32
86
79
67
82
61
82
55
35
62
32
12
68
35
16
69
36
17
71
36
17
71
36
16
71
36
16
70
35
15
68
35
15
69
34
15
71
35
16
68
35
16
67
34
14
69
33
15
72
37
15
73
42
26
56
33
37
52
29
52
46
29
56
47
31
52
48
31
50
47
28
49
45
23
44
43
23
43
43
24
44
42
23
43
43
24
43
46
27
46
48
32
51
48
36
53
46
35
52
43
30
48
40
27
45
40
27
45
40
27
45
41
28
46
41
28
46
41
28
46
41
26
47
40
27
47
39
26
46
34
24
44
30
22
44
30
22
43
32
24
43
33
24
42
40
29
46
36
25
42
36
24
41
168
169
188
167
170
188
163
167
185
159
163
182
154
158
178
145
152
172
134
143
163
117
132
154
100
118
140
83
104
125
62
86
108
42
73
94
30
65
87
20
62
84
16
61
84
14
60
84
14
57
81
14
52
75
68
64
83
149
94
110
130
80
88
94
136
131
76
164
153
71
160
150
39
108
105
19
77
81
18
71
79
17
69
77
18
61
72
17
55
68
11
42
57
15
34
53
16
24
47
18
30
52
13
32
51
9
34
52
11
36
53
12
33
52
14
43
59
18
58
71
16
60
71
16
60
71
15
59
70
15
59
70
16
60
71
16
66
72
20
70
74
52
120
117
60
158
151
57
159
150
48
130
127
18
68
76
15
62
70
15
58
67
14
55
65
11
48
56
17
53
61
9
34
47
12
30
47
13
30
48
13
30
51
13
30
46
15
27
43
12
25
43
11
30
50
10
30
53
13
29
52
14
29
49
13
29
44
15
30
43
16
31
43
67
55
60
141
108
107
114
88
87
24
26
39
17
30
42
17
29
41
13
30
47
16
29
48
20
26
47
23
26
46
23
27
43
25
28
43
31
28
43
52
33
47
100
76
81
145
108
109
163
116
112
188
145
139
210
169
162
164
119
113
175
127
122
201
160
152
165
124
115
167
126
117
141
101
93
171
133
122
216
185
172
181
156
142
204
184
168
165
144
133
170
147
141
83
63
60
36
16
20
34
15
21
30
12
19
29
9
17
40
5
15
87
30
44
132
43
66
161
60
82
107
49
60
21
24
29
12
26
43
11
26
47
8
31
46
15
52
59
13
45
57
28
80
77
52
76
64
62
35
21
64
34
14
67
35
15
68
35
16
70
35
16
71
36
17
71
36
17
70
35
16
69
35
16
70
36
17
71
36
17
68
35
16
69
35
15
69
32
13
76
42
22
68
39
31
51
31
41
48
28
50
46
30
53
47
30
51
48
30
50
47
28
48
44
24
44
42
20
41
44
22
43
47
25
46
48
26
47
47
26
47
44
26
46
41
27
45
40
27
45
40
27
45
40
27
45
40
27
45
40
27
45
41
28
46
41
28
46
41
28
46
41
26
47
40
27
47
38
25
45
34
23
43
31
22
43
32
23
43
34
25
43
35
26
44
40
30
47
35
24
41
36
24
41
153
158
178
158
163
183
160
165
185
156
162
181
157
162
180
160
163
184
161
163
185
162
164
187
160
164
186
157
162
183
147
152
171
129
139
160
113
128
148
95
115
135
78
100
121
60
83
106
39
70
90
27
58
78
70
60
81
150
93
113
116
89
92
91
150
142
74
164
152
70
159
150
35
107
104
20
78
82
19
71
79
18
70
78
18
63
74
15
55
67
15
48
62
14
34
53
18
29
51
14
28
49
16
32
52
11
32
51
10
36
53
14
34
53
12
35
53
16
51
65
16
60
71
15
59
70
15
59
70
15
59
70
15
59
70
15
64
70
19
69
73
51
119
115
58
154
146
59
158
148
47
124
121
17
63
70
16
61
67
15
57
64
14
52
61
12
46
54
18
52
61
9
31
45
11
27
47
11
28
53
12
28
53
12
29
46
13
26
40
11
26
41
12
30
46
11
29
49
14
29
47
17
29
47
16
29
45
19
30
46
20
29
45
70
58
66
118
90
94
87
67
69
28
28
41
21
30
43
24
28
43
18
30
44
23
31
43
28
28
40
32
28
38
43
34
40
76
56
59
113
84
86
147
106
108
161
117
116
166
118
113
169
123
113
213
178
164
208
168
156
171
126
116
192
152
140
204
170
155
184
150
134
220
186
170
171
139
125
213
182
169
186
158
145
203
179
164
206
183
174
99
81
79
44
24
34
35
13
31
34
20
29
44
32
40
30
13
25
27
13
23
30
12
20
71
25
38
139
51
76
158
60
81
101
47
55
24
25
30
15
25
42
10
25
46
7
31
45
13
51
58
12
45
54
22
71
69
45
75
66
59
35
22
64
33
14
68
35
16
68
35
16
70
35
16
71
35
19
71
35
19
70
34
18
70
34
17
69
34
15
67
35
16
67
32
14
69
33
14
71
34
14
76
44
26
62
34
37
48
29
49
47
29
51
45
29
50
49
31
51
50
30
50
45
26
46
43
25
44
46
28
47
45
27
46
44
26
45
41
22
42
39
22
41
39
23
42
41
26
45
40
26
45
40
27
45
40
27
45
41
28
46
41
28
46
41
28
46
41
28
46
41
28
46
41
26
47
39
26
46
40
27
47
37
26
46
33
23
43
32
23
41
34
25
41
34
26
42
39
28
45
35
24
41
36
23
41
132
131
158
130
131
157
129
132
157
127
132
155
133
137
158
143
148
170
156
159
183
164
164
188
164
163
185
162
164
182
159
164
179
156
161
180
157
163
182
155
160
181
150
154
177
138
143
167
122
130
151
105
114
133
111
100
122
146
105
122
95
106
102
80
161
149
73
167
154
68
160
149
38
109
106
19
76
81
19
69
78
17
69
77
17
65
75
16
57
68
17
50
64
10
34
51
15
33
53
12
29
50
15
31
51
16
34
53
10
32
51
12
32
52
12
31
52
7
38
54
14
54
67
16
59
71
15
59
71
15
59
70
15
59
70
16
64
71
19
67
72
50
118
115
60
155
145
58
154
144
49
122
119
15
59
66
17
60
67
16
57
64
15
52
61
13
46
55
18
51
60
10
29
44
13
28
49
12
29
57
12
29
55
12
30
47
13
27
40
12
26
40
12
29
44
12
28
45
17
29
45
18
30
45
20
30
45
21
31
46
26
29
47
39
27
38
71
51
52
62
47
47
34
31
42
30
31
43
35
26
41
41
31
38
59
43
47
86
62
64
117
88
89
139
105
104
154
115
113
163
117
112
166
118
111
173
123
114
174
126
115
184
146
131
227
198
180
198
161
145
175
134
119
211
179
161
227
198
179
227
198
178
229
199
180
222
193
176
195
169
155
198
173
158
204
180
167
108
89
85
37
14
27
38
17
44
36
16
46
49
36
47
136
126
136
112
103
112
43
33
42
27
14
24
28
10
17
61
17
29
128
63
73
102
63
60
30
26
30
13
26
41
11
26
45
7
30
44
12
49
57
12
46
51
17
64
60
46
79
70
58
35
21
65
34
14
68
36
16
69
36
17
70
36
17
69
33
19
69
33
18
69
33
17
69
32
16
68
33
14
67
36
16
67
33
14
69
33
13
72
37
15
73
42
28
56
30
42
47
30
54
46
29
51
44
28
47
48
28
49
50
28
49
47
28
48
47
31
50
42
28
47
38
24
42
38
25
43
40
27
45
40
28
45
40
28
45
40
28
46
41
28
46
41
28
46
41
28
46
41
28
46
41
28
46
41
28
46
40
28
46
41
28
46
39
24
45
37
24
44
39
27
47
38
26
46
37
25
45
37
25
43
36
25
42
34
24
42
36
25
43
36
25
42
35
22
40
106
108
137
106
109
135
108
112
134
113
116
136
116
118
138
128
130
151
146
149
171
157
157
180
160
158
180
160
159
180
158
158
177
151
153
174
154
156
177
158
159
180
158
160
181
150
156
176
146
151
171
144
145
166
148
132
156
135
118
129
86
134
127
77
166
154
71
167
152
68
162
150
38
105
105
25
73
82
22
69
79
19
70
79
18
66
76
18
63
71
14
52
62
13
43
57
11
34
52
14
32
53
11
30
45
13
31
46
12
29
49
12
31
55
9
30
52
9
33
55
11
40
59
16
52
68
16
57
71
16
58
72
15
60
70
16
64
73
19
67
73
45
116
113
58
154
143
55
152
141
48
121
117
13
55
63
16
58
68
16
55
66
16
53
65
11
46
58
16
49
57
12
28
42
12
28
49
11
29
53
12
28
48
15
30
46
17
26
43
16
26
42
14
29
44
14
30
43
17
30
45
19
31
44
20
31
40
25
33
43
34
30
44
101
77
84
146
114
112
121
93
89
130
110
108
114
90
90
128
97
99
141
105
102
153
114
111
157
111
110
164
115
115
167
118
114
168
120
116
170
124
119
176
134
126
188
149
138
202
167
155
222
194
180
226
202
184
205
175
159
197
166
151
224
200
183
226
203
187
228
204
182
229
202
182
219
191
175
178
153
138
208
180
170
102
78
76
43
16
30
43
19
54
41
19
66
41
18
59
38
22
39
152
141
149
152
143
149
119
112
120
35
19
31
64
33
41
122
62
74
123
59
69
109
79
58
34
28
32
13
25
40
10
26
41
7
31
43
14
50
58
11
46
53
14
55
56
44
79
73
60
35
24
66
33
14
68
35
16
69
36
17
69
36
17
69
33
18
69
33
17
70
35
16
70
34
15
69
34
14
66
36
15
65
35
13
67
32
9
72
39
18
62
33
28
52
30
48
46
29
51
42
24
46
44
26
48
52
31
54
53
31
54
47
29
51
40
25
46
38
26
44
38
26
44
38
27
44
40
28
45
40
27
45
40
27
45
40
27
45
41
28
46
41
28
46
41
28
46
41
28
46
40
28
46
40
28
46
39
27
45
40
28
45
39
24
45
36
23
43
37
24
44
35
24
44
35
24
44
37
25
45
37
25
45
36
23
43
36
24
44
35
23
43
34
22
42
68
86
118
80
97
127
90
106
133
102
117
142
114
125
149
126
133
158
142
146
170
154
155
177
152
151
172
153
153
172
158
158
176
156
157
178
150
151
172
150
151
172
147
148
169
140
146
165
141
146
166
139
137
159
134
128
148
94
117
117
81
160
148
76
167
156
70
157
145
71
160
150
42
109
107
26
70
80
24
69
80
18
68
77
17
66
75
17
63
71
16
57
65
17
50
63
10
36
53
13
33
52
13
32
46
10
28
42
13
29
46
12
30
49
10
31
48
9
32
49
11
33
51
11
40
57
15
54
67
17
57
70
15
59
70
16
63
72
18
65
72
42
114
110
53
152
140
53
150
139
48
119
116
12
49
59
18
57
67
15
55
65
16
53
64
12
45
56
15
48
55
13
29
42
14
29
47
16
28
49
16
28
45
18
30
43
19
26
42
18
25
43
19
30
44
22
31
43
23
28
40
29
29
40
47
38
47
77
62
68
108
82
84
141
102
102
159
116
109
169
132
121
214
178
168
162
122
113
164
119
112
165
118
111
166
120
113
153
109
102
151
105
98
172
121
115
185
143
134
222
189
176
226
197
183
229
201
187
229
203
188
228
205
189
227
206
189
229
204
188
228
203
187
226
205
188
227
204
189
227
204
183
228
202
183
199
173
158
204
179
166
109
87
82
49
20
34
49
22
59
47
21
80
50
26
95
54
34
91
38
24
44
193
183
191
193
187
191
154
149
154
60
48
55
87
40
50
166
70
90
156
77
85
128
99
71
34
32
33
12
25
40
10
26
41
6
31
43
14
50
58
12
46
53
13
51
53
43
77
72
59
37
25
66
34
15
68
35
16
69
36
17
69
36
17
69
33
17
69
34
16
70
35
16
70
35
15
68
35
14
66
36
14
66
33
12
66
33
11
71
41
27
53
28
32
47
26
45
46
28
50
45
27
49
48
29
51
50
29
52
49
27
50
44
26
48
40
26
46
39
26
45
39
26
44
40
27
45
41
28
46
40
27
45
38
25
43
40
27
45
41
28
46
41
28
46
41
28
46
41
28
46
40
27
45
40
27
45
40
27
45
41
28
46
39
26
46
37
24
44
35
23
43
34
23
43
34
24
43
36
24
44
36
23
43
33
21
41
35
23
43
34
22
42
33
21
41
21
76
105
29
78
107
41
83
109
61
96
122
90
118
142
118
138
162
130
141
165
136
145
169
137
146
170
135
140
163
144
146
168
152
152
173
147
147
169
138
138
159
130
130
151
124
130
149
135
139
159
125
133
152
93
116
126
83
143
136
73
164
154
74
166
156
57
139
127
66
155
145
52
127
124
15
60
70
24
66
77
19
67
77
18
67
76
18
65
73
16
59
67
19
53
65
15
43
59
12
35
52
13
34
46
14
31
43
12
27
43
12
30
43
11
32
44
9
32
44
9
33
47
10
34
50
9
37
51
13
48
60
16
55
67
17
57
68
20
61
69
41
109
107
51
149
138
52
149
138
49
120
117
11
44
56
16
53
64
14
55
65
17
52
64
14
46
56
16
48
53
17
32
44
18
32
48
19
31
48
22
30
44
26
31
41
28
26
39
30
25
36
52
42
47
83
65
67
108
84
84
126
98
97
145
111
110
152
117
114
156
117
114
164
116
112
165
121
112
180
146
133
213
177
165
169
126
116
170
126
116
171
127
121
175
133
126
174
133
126
145
106
98
165
121
110
184
149
134
227
202
183
228
206
188
228
207
190
226
207
190
229
205
189
230
205
191
229
204
190
228
203
189
229
204
191
228
203
190
228
203
184
227
199
182
223
193
180
157
128
120
66
42
47
106
87
109
65
42
90
64
37
107
58
33
111
57
39
101
44
32
54
195
187
195
211
207
208
198
196
197
84
75
77
111
59
66
170
88
98
151
82
80
137
108
70
40
36
32
13
24
41
10
26
41
5
30
42
13
49
57
12
46
53
11
48
50
42
75
69
56
36
23
67
34
15
68
35
16
69
36
17
69
36
17
70
35
16
70
35
16
69
34
14
69
35
14
66
36
15
66
35
14
69
33
14
73
40
19
63
36
31
47
26
40
47
28
47
47
29
51
47
28
50
47
27
49
49
26
50
48
25
49
43
25
47
40
25
46
38
25
44
37
23
42
38
24
42
40
26
45
38
25
43
36
23
41
40
27
45
40
27
45
40
27
45
40
27
45
40
27
45
41
27
45
41
27
45
40
26
45
40
26
45
37
25
45
35
23
43
35
23
43
33
24
43
33
23
43
35
23
43
34
21
41
33
20
40
35
23
43
34
22
42
32
20
40
25
92
127
22
87
120
21
82
114
20
78
109
24
80
108
35
82
107
44
84
107
57
94
118
73
106
131
91
114
139
107
120
145
115
122
146
117
123
145
116
120
141
124
128
148
121
128
149
118
126
149
106
124
140
67
124
123
76
158
147
70
163
152
68
165
152
69
156
145
53
141
131
63
145
138
23
76
79
13
55
63
18
64
72
19
65
76
16
64
73
15
61
70
14
51
63
18
50
65
10
36
53
13
32
49
13
28
45
13
28
46
10
28
43
11
30
44
11
31
44
11
33
49
13
30
51
12
28
49
7
30
49
9
36
50
11
43
57
15
48
60
44
102
102
55
146
136
50
148
137
48
123
119
9
44
55
14
46
60
14
55
64
16
53
62
15
46
55
20
49
54
23
33
39
30
30
39
41
32
41
63
48
54
93
72
78
117
91
95
132
103
103
146
113
111
154
114
110
156
115
110
157
116
110
160
118
110
162
119
111
163
119
115
167
123
119
166
127
120
195
163
153
215
184
172
201
166
156
220
183
173
226
193
182
227
195
184
226
196
184
215
185
172
179
144
130
192
160
144
231
204
186
230
206
188
229
206
189
229
207
190
231
205
189
228
206
191
227
205
190
227
205
190
228
205
190
227
205
189
228
204
186
227
201
184
200
173
159
153
125
119
120
102
112
216
200
219
117
99
138
77
48
117
55
31
108
59
44
106
49
38
58
199
192
198
214
212
210
211
210
211
126
116
117
149
89
97
179
111
114
148
94
83
147
117
70
46
39
31
12
25
42
10
26
42
6
31
42
13
49
55
11
44
48
12
45
47
42
70
66
54
35
23
67
33
14
70
35
16
70
36
17
70
36
17
69
35
17
70
35
17
70
35
16
70
34
15
66
35
14
66
33
13
71
34
14
75
42
26
58
33
35
47
29
49
47
29
52
47
25
49
48
26
50
49
26
51
49
25
50
47
25
48
41
23
44
40
23
43
40
24
43
37
21
40
38
22
41
38
23
42
34
21
39
34
22
39
39
26
44
39
27
44
38
27
44
39
27
44
38
26
44
40
26
45
39
26
45
39
26
45
37
25
44
32
21
43
32
21
44
34
23
45
34
23
44
33
22
42
34
22
41
32
20
39
31
19
39
34
22
42
32
20
40
31
19
39
18
73
105
21
79
110
22
85
115
26
92
124
24
94
128
26
91
127
24
87
125
23
85
118
20
80
108
21
73
99
24
64
91
31
63
92
43
72
97
59
83
104
76
96
116
86
106
128
92
113
135
75
110
120
75
150
144
70
159
149
57
143
134
50
133
125
67
154
145
54
141
131
63
144
137
56
122
119
17
62
69
14
48
63
19
55
72
17
62
74
14
62
72
18
57
70
18
52
66
13
46
62
9
32
52
13
29
50
13
28
49
12
29
48
9
26
43
11
28
44
12
30
47
14
29
50
14
28
50
12
29
49
11
34
46
11
35
51
14
40
55
40
94
94
53
143
134
48
146
134
49
125
121
11
46
59
12
40
56
15
53
62
16
54
60
19
46
52
32
47
51
94
78
80
124
96
96
138
106
102
148
114
111
153
116
114
154
115
114
155
114
113
157
114
112
159
116
112
159
117
113
160
119
113
162
124
116
169
132
123
183
146
137
199
165
155
210
180
169
211
183
170
211
184
170
200
171
158
191
161
149
188
161
149
194
168
156
209
185
172
221
197
183
230
205
187
231
205
188
232
206
189
230
205
188
231
207
189
230
206
188
230
206
188
227
206
189
228
207
190
227
206
189
228
205
189
228
205
187
229
204
187
226
199
182
222
196
180
121
96
91
179
160
177
218
202
223
147
121
163
93
62
127
56
36
108
65
55
111
53
45
59
203
197
198
217
213
209
217
210
211
125
104
106
179
121
126
191
131
130
153
108
91
150
122
67
50
41
30
14
25
41
10
26
42
6
32
43
14
49
53
12
41
43
14
43
45
32
54
53
51
31
20
66
31
12
69
34
15
71
36
17
71
36
17
68
35
18
69
33
17
70
34
18
70
34
17
67
35
15
70
34
15
74
37
19
72
40
30
53
29
37
46
30
52
47
28
52
47
23
49
49
25
51
50
26
52
48
24
50
46
24
48
41
22
42
40
23
42
40
23
41
39
22
41
38
23
42
38
23
42
34
21
39
33
20
38
36
23
41
39
26
44
39
26
44
37
24
42
35
23
41
39
26
45
39
26
46
37
27
46
34
26
45
30
20
43
31
21
45
34
22
46
34
22
45
32
20
41
30
19
37
28
17
34
26
16
34
32
21
41
31
21
40
31
21
40
12
50
73
11
52
76
12
56
83
14
63
89
14
70
96
17
76
105
22
82
117
24
88
122
24
91
124
23
89
124
23
84
121
22
82
117
19
77
108
18
73
99
19
71
96
25
71
94
39
78
93
67
135
133
66
154
146
55
135
131
23
93
93
25
88
90
47
121
116
65
148
140
50
129
122
63
142
136
53
115
116
17
54
67
14
42
62
14
49
65
17
54
67
19
56
70
15
51
65
19
54
67
12
37
54
13
30
53
12
29
52
14
31
51
13
30
48
10
27
44
11
27
44
15
28
47
18
30
49
15
29
47
12
33
46
13
32
51
14
36
52
33
82
84
54
141
133
48
144
133
50
129
124
11
49
60
12
37
54
19
51
62
19
55
62
22
46
50
43
45
47
143
111
112
157
113
111
160
118
114
160
118
114
161
117
114
164
117
114
165
117
113
164
118
114
160
116
112
141
102
98
148
113
106
165
135
124
178
152
140
186
160
147
186
163
149
192
170
155
202
180
164
210
187
171
220
194
179
211
184
170
186
159
147
191
165
153
214
190
176
203
181
166
224
206
186
228
207
188
230
207
189
231
207
189
230
207
189
230
207
189
230
207
189
228
207
189
228
207
190
228
205
189
228
205
189
228
205
187
228
203
185
225
198
181
212
185
171
78
50
53
131
111
136
143
126
158
71
44
91
64
39
102
55
39
102
74
67
112
73
71
77
208
206
203
219
216
209
221
204
205
154
116
118
193
139
139
201
155
144
153
118
95
159
132
74
57
46
32
15
25
38
11
25
41
6
33
41
15
51
52
16
37
41
16
39
43
18
38
38
54
32
21
65
30
11
67
32
13
70
35
16
70
35
16
68
35
16
70
35
15
70
34
15
70
34
15
69
36
14
74
36
15
74
39
24
65
37
35
50
29
44
46
30
53
50
27
51
47
23
49
49
25
51
49
25
51
47
24
50
46
24
48
40
21
42
39
22
41
39
23
41
38
23
42
36
22
41
37
23
41
34
21
39
35
22
40
37
24
42
39
26
44
39
26
44
35
22
40
36
23
41
39
26
46
36
24
44
33
24
43
32
24
42
31
22
43
31
22
43
33
21
43
32
20
42
30
18
38
27
16
34
28
17
34
33
23
41
39
30
49
37
28
47
33
24
43
14
46
72
14
46
71
13
46
69
12
46
66
12
47
66
12
49
70
12
52
75
14
56
80
16
64
89
17
71
100
21
76
109
23
85
116
24
88
120
25
92
123
27
94
126
26
87
113
45
114
118
64
151
142
57
140
135
26
92
96
21
80
87
21
78
85
21
83
83
46
114
111
65
142
136
46
126
118
61
137
129
48
110
108
14
53
62
13
40
56
13
38
55
12
40
56
13
42
58
12
38
51
13
33
51
13
30
54
11
29
54
14
30
52
13
30
50
12
29
47
14
28
45
15
25
42
16
24
42
15
27
43
16
31
45
14
33
51
15
35
52
25
68
72
54
139
131
48
143
132
52
134
127
17
56
67
14
34
53
20
46
59
19
53
61
22
49
54
48
50
53
180
149
148
193
151
146
192
147
143
191
142
139
193
139
138
196
140
137
198
144
138
177
129
124
179
136
132
199
164
159
216
186
178
216
191
179
214
193
179
211
187
175
208
185
173
170
148
136
217
196
182
223
201
185
224
201
185
204
178
164
223
195
183
212
186
173
192
168
155
229
206
191
230
206
188
230
206
188
228
207
188
229
207
189
229
208
189
229
208
189
229
208
189
228
207
190
229
206
190
228
205
189
229
204
189
227
204
186
226
201
184
224
197
180
196
170
156
80
53
61
71
47
84
68
47
97
47
25
75
56
37
97
56
47
101
95
109
134
138
156
154
212
218
210
218
216
205
215
189
190
192
143
144
203
155
148
205
170
151
155
123
96
164
134
74
62
50
33
11
25
34
11
26
39
6
34
40
15
50
51
20
35
40
22
39
45
22
38
40
57
33
23
67
31
13
69
34
15
70
35
16
70
35
16
68
36
15
69
34
14
68
33
13
68
33
13
69
34
11
74
35
12
76
43
30
56
31
37
47
27
49
46
29
55
51
27
50
50
26
52
49
25
51
49
25
51
47
24
50
46
24
48
40
21
42
39
22
41
39
23
42
39
24
43
37
23
42
37
24
42
37
24
42
39
26
44
39
26
44
40
27
45
41
26
45
39
24
43
40
25
44
39
26
45
36
25
45
33
25
43
32
25
43
32
23
42
31
22
41
32
20
40
30
18
39
29
17
37
30
18
37
38
27
44
43
34
52
42
34
53
33
26
44
31
23
42
14
45
74
14
46
71
13
46
65
13
46
65
14
46
67
13
46
67
12
47
67
12
48
66
12
50
67
13
51
68
13
51
70
13
53
80
13
58
85
14
66
91
20
77
100
30
97
109
61
146
142
61
152
142
33
107
106
24
81
88
18
72
80
18
71
79
22
73
79
21
79
82
35
100
101
58
129
126
46
121
115
53
124
120
49
104
105
14
49
61
17
37
57
14
34
54
14
34
54
14
29
49
12
28
49
13
31
52
12
31
51
13
31
51
11
31
51
13
30
50
17
30
48
18
30
46
16
27
43
15
25
41
16
25
44
15
29
48
14
34
50
20
54
62
51
134
125
48
141
130
48
138
130
24
67
73
16
34
49
21
41
54
20
52
61
25
47
52
53
51
54
201
167
163
214
165
160
209
155
149
202
139
138
200
129
134
196
125
131
190
126
130
179
127
130
157
120
121
136
110
110
115
92
92
87
68
65
70
52
47
62
41
40
52
30
32
59
39
36
86
66
62
115
94
89
126
102
98
163
134
129
213
183
174
225
197
184
223
198
179
204
182
161
230
206
188
229
206
188
228
207
188
229
207
189
229
206
188
229
206
188
229
206
188
229
206
190
228
205
189
229
205
189
228
205
188
226
205
188
226
202
186
225
198
183
180
154
143
157
137
140
68
60
90
73
83
126
71
85
121
62
68
118
65
68
113
166
193
201
188
216
208
212
219
209
223
215
203
203
168
161
202
156
148
206
168
155
210
180
161
153
125
93
163
135
69
64
55
34
8
27
33
9
25
40
9
32
44
17
45
52
28
35
34
21
37
40
20
36
40
56
33
21
67
32
13
70
35
16
70
35
16
70
35
16
68
36
14
70
34
13
68
31
10
71
33
14
74
33
12
74
39
15
71
40
32
49
27
42
46
27
48
48
29
50
49
29
49
48
28
49
48
27
50
48
25
51
47
25
49
45
26
46
38
21
41
37
22
41
39
25
44
38
25
43
37
24
42
40
26
45
40
27
45
41
28
46
41
28
46
41
28
46
40
27
45
39
27
45
39
27
45
37
27
43
35
26
43
33
24
42
33
24
43
33
22
42
32
21
40
32
20
38
31
20
37
35
23
40
36
25
42
36
26
43
35
26
46
33
25
45
31
22
41
30
22
39
11
44
70
11
44
68
12
46
66
13
46
66
13
45
66
11
44
65
11
46
66
11
45
64
12
45
64
12
45
64
12
45
64
15
46
62
13
47
62
13
51
65
12
56
69
54
124
126
65
153
142
62
152
139
24
101
97
21
77
84
19
71
80
17
69
78
17
71
77
16
72
78
17
74
80
22
82
85
42
107
105
47
116
113
46
108
107
42
94
98
17
46
61
18
34
53
16
32
51
14
30
51
11
28
48
15
34
53
13
33
52
13
31
51
12
30
50
12
29
49
13
29
46
15
30
45
19
30
46
20
30
47
20
25
45
17
26
45
14
28
45
14
38
51
52
128
125
48
141
131
44
139
126
31
80
81
16
35
49
16
35
49
22
50
60
28
46
53
52
42
50
183
128
132
198
124
128
193
111
118
186
97
110
170
85
99
147
74
86
113
56
63
60
23
27
46
22
25
44
23
27
42
19
31
39
16
32
37
15
30
36
16
31
36
15
34
37
16
30
38
17
25
45
20
27
53
22
25
58
23
23
110
83
77
184
156
146
202
177
161
228
205
185
229
206
188
229
207
189
229
208
189
230
208
190
230
207
189
229
206
188
229
206
188
229
206
190
228
205
189
228
205
189
228
206
190
228
206
189
228
204
188
226
199
185
210
185
172
208
192
189
74
77
95
127
161
189
109
161
194
109
143
188
72
75
115
109
119
124
201
213
207
215
217
207
219
199
189
203
164
154
211
170
158
215
181
165
214
185
166
151
125
91
159
131
66
61
51
33
13
26
43
10
21
40
8
34
45
18
43
47
35
34
28
22
38
39
23
37
40
55
31
20
66
32
12
69
34
15
70
35
16
70
35
16
68
35
12
70
34
12
72
35
13
70
32
12
75
33
14
73
41
23
59
32
32
46
27
44
46
27
48
48
29
50
48
29
50
47
28
48
47
28
50
49
27
52
48
26
50
48
25
47
40
20
42
40
22
42
38
24
43
39
26
44
39
26
44
39
26
44
42
29
47
42
29
47
41
28
46
41
28
46
40
27
45
39
27
44
38
27
44
34
25
41
34
26
42
34
25
43
32
23
42
33
21
42
33
21
41
37
26
43
39
28
45
34
26
42
31
24
40
30
24
40
33
24
44
33
24
44
31
22
40
29
20
37
10
45
68
10
46
68
11
46
68
11
46
67
13
45
66
12
45
66
12
47
67
12
45
66
12
44
65
13
46
66
13
46
67
13
47
66
13
47
66
14
48
67
13
52
68
57
128
125
66
154
142
62
154
142
30
106
103
20
75
82
19
70
79
17
68
77
16
70
79
17
70
79
17
69
78
18
70
78
17
72
77
19
78
81
36
96
97
41
103
103
29
72
77
15
39
52
16
36
50
17
35
54
15
33
53
12
29
49
14
33
52
14
33
53
14
30
51
13
30
50
12
31
47
12
31
45
19
32
48
22
30
48
22
27
46
21
29
46
19
31
47
17
35
49
51
112
113
48
136
128
43
137
124
36
91
91
15
36
49
14
32
46
22
45
57
29
48
58
51
34
48
163
82
97
183
76
96
169
61
83
147
48
70
136
55
75
101
45
57
55
20
27
51
29
35
56
40
47
58
39
54
49
25
56
44
17
62
41
15
62
41
18
61
42
17
64
44
18
61
39
15
45
41
19
33
90
66
74
62
34
37
59
28
27
135
111
105
221
194
184
228
205
190
230
207
189
229
206
188
229
208
189
230
208
190
231
208
190
230
207
189
229
206
188
229
206
189
228
205
189
228
205
189
229
206
190
227
206
189
228
204
189
227
200
186
223
199
181
224
206
195
119
110
114
95
118
136
110
152
178
104
131
162
62
56
81
138
128
131
216
215
210
220
212
203
210
180
170
204
167
154
216
181
165
218
188
168
215
188
167
151
121
86
164
129
60
90
74
38
19
25
29
14
21
36
12
35
47
20
40
44
42
34
27
21
38
37
25
35
38
58
31
19
64
30
11
66
31
12
69
34
15
69
34
15
69
34
12
70
34
12
72
34
13
73
32
12
75
33
15
67
37
28
51
29
39
46
28
49
47
27
51
48
28
52
48
29
52
47
30
49
47
29
50
47
27
51
48
26
51
48
25
50
46
26
50
45
27
50
41
27
47
39
26
44
39
26
44
41
28
46
43
30
48
41
28
46
40
27
45
40
27
45
40
27
45
39
27
44
36
25
42
33
24
39
34
26
42
33
24
42
33
24
43
37
25
45
38
26
46
37
26
43
34
23
40
32
22
39
30
22
38
31
23
39
33
24
43
32
23
41
31
22
38
29
21
36
16
52
71
13
49
69
12
48
70
13
47
70
13
45
67
12
45
67
12
47
67
12
47
68
12
47
69
12
49
70
13
49
70
10
49
69
11
48
69
13
48
70
13
51
70
44
109
109
63
149
141
62
154
145
39
116
115
22
76
83
17
67
76
17
67
76
17
68
78
18
68
78
18
68
79
18
69
78
16
68
75
18
68
75
19
67
75
19
73
75
41
87
90
49
89
93
44
78
84
30
62
73
17
49
62
13
44
58
10
40
54
13
35
52
18
34
53
19
35
55
19
34
51
20
33
49
18
31
47
18
32
47
21
31
46
20
33
47
19
34
49
20
36
51
49
98
100
52
133
127
47
136
129
43
101
103
15
38
50
15
34
48
18
39
52
26
49
60
46
31
46
151
57
80
175
54
81
159
52
79
126
48
68
66
17
30
45
16
25
49
27
35
83
70
76
181
176
180
182
173
191
73
57
99
53
29
94
46
21
92
42
22
89
41
18
90
42
17
84
45
19
67
41
17
42
142
120
128
165
142
145
111
86
88
67
39
36
157
133
125
228
203
190
228
205
187
229
207
188
229
208
189
230
207
189
229
206
188
229
206
188
229
206
188
229
206
189
228
205
189
228
205
190
229
206
190
228
206
189
228
205
189
228
203
187
225
203
183
221
206
189
201
188
187
80
75
88
84
89
104
65
69
81
120
111
116
208
202
201
218
213
207
213
196
188
207
174
163
218
185
169
219
188
170
219
191
171
214
189
167
147
120
82
169
133
53
154
128
66
93
80
48
21
24
29
12
39
49
22
38
44
49
33
28
20
38
35
29
35
36
59
30
18
63
29
10
65
30
12
68
33
14
68
33
14
70
34
12
70
34
12
71
32
12
73
32
11
75
33
18
62
34
33
48
30
45
46
28
52
47
27
52
48
28
54
48
28
53
47
28
49
46
27
50
46
26
51
46
26
51
45
27
51
45
28
51
44
28
51
43
29
48
39
26
44
39
26
44
41
28
46
42
29
47
38
25
43
39
26
44
41
28
46
39
26
44
37
25
43
33
22
40
32
22
38
35
26
42
36
26
45
35
25
45
35
23
45
33
21
41
34
22
40
34
22
39
34
20
39
33
20
39
34
22
40
34
24
43
32
23
40
30
23
38
28
21
36
96
115
135
74
97
116
52
78
97
31
60
82
20
52
76
14
50
72
13
53
73
13
54
74
14
51
73
13
51
72
14
50
73
12
49
71
12
51
72
12
52
73
11
53
70
18
71
78
61
139
136
60
148
140
47
128
122
21
78
82
15
68
75
16
66
75
17
67
76
17
67
76
15
65
74
16
66
75
16
66
75
17
66
75
16
65
75
15
65
70
16
64
67
16
59
64
31
68
74
42
88
93
51
99
104
55
105
109
56
104
109
53
88
96
27
49
61
23
34
52
24
33
51
26
31
51
28
31
50
27
33
49
24
34
47
22
33
48
22
35
52
21
38
54
39
81
84
54
133
128
48
136
131
45
111
112
12
39
50
16
33
48
15
35
48
22
44
57
42
28
45
144
50
74
150
50
73
97
28
47
49
12
22
37
19
26
50
35
45
62
45
55
146
137
141
223
220
224
213
210
229
98
88
134
80
52
127
69
42
117
48
29
112
48
27
116
54
32
113
59
35
102
53
27
75
103
85
91
180
162
165
192
170
169
185
161
154
88
61
51
201
175
164
229
206
188
229
206
188
230
207
189
229
206
188
228
205
187
228
205
187
229
206
188
231
206
188
229
206
192
229
206
192
228
207
188
229
206
190
229
206
189
227
204
186
223
204
184
218
204
188
222
212
203
206
199
198
173
169
167
186
178
176
215
208
205
218
214
209
195
184
179
166
144
135
219
190
177
217
191
173
217
194
173
216
194
173
214
192
171
144
118
80
171
133
52
173
134
53
136
108
62
39
31
22
18
40
45
29
35
35
52
34
26
23
41
37
36
33
29
59
29
17
62
28
10
66
30
13
66
31
12
69
34
14
69
34
12
70
34
12
70
31
11
76
32
13
73
35
24
56
32
38
48
29
50
47
26
53
47
26
53
48
28
55
49
28
55
49
25
52
47
25
51
45
25
51
45
27
51
46
28
50
46
27
49
46
26
48
42
27
46
38
25
43
38
25
43
40
27
45
40
27
45
39
26
44
39
26
44
39
27
44
35
23
40
36
24
43
37
25
47
41
28
47
41
28
46
37
24
44
33
20
41
34
21
43
34
21
43
35
22
42
35
22
42
35
22
42
35
22
42
35
22
42
34
23
45
31
23
40
30
23
37
28
21
37
166
170
192
156
165
185
142
155
176
122
138
159
103
122
145
84
107
129
61
90
110
40
74
95
25
62
82
15
54
74
13
52
72
13
49
71
14
51
73
15
53
74
14
53
72
11
54
65
45
105
107
63
144
138
56
136
130
21
83
84
15
67
73
15
64
73
16
64
74
16
64
74
15
63
73
15
63
73
15
63
73
15
63
73
16
64
74
15
63
71
15
63
69
17
62
69
19
62
70
20
57
66
16
53
62
16
53
62
15
54
62
12
48
55
20
41
51
27
38
50
29
39
52
34
38
52
40
37
52
36
37
50
36
38
49
32
36
48
31
36
51
30
36
50
36
63
63
65
131
123
51
135
127
52
120
118
13
45
54
15
32
46
15
31
46
19
37
50
38
28
47
116
50
71
78
22
37
43
14
25
36
18
26
68
58
63
146
135
142
105
92
99
95
83
94
180
171
195
157
147
182
77
57
121
107
72
148
99
66
136
50
30
110
49
27
115
51
30
113
60
38
116
65
40
102
80
63
74
213
200
200
194
181
179
217
197
188
213
189
175
169
146
132
228
205
187
229
206
188
229
206
188
229
206
188
229
206
188
229
206
188
229
206
188
229
204
186
230
204
192
229
206
192
229
206
188
228
205
190
228
205
188
227
204
186
225
205
184
221
204
185
222
207
194
224
212
204
220
210
203
223
212
205
217
204
196
189
176
167
197
178
166
220
199
186
220
197
183
220
197
179
218
194
174
217
193
173
217
193
173
145
118
75
172
136
51
171
134
57
114
84
42
53
32
22
31
36
33
42
30
25
49
34
24
21
42
39
39
30
24
62
30
16
61
28
10
64
29
12
65
30
10
66
31
11
69
33
11
71
34
13
71
32
11
76
36
17
69
35
28
51
28
41
47
27
49
48
25
50
48
25
51
48
25
51
48
25
51
47
26
50
45
26
50
43
27
50
43
28
50
45
29
50
44
28
49
44
27
48
41
26
46
38
25
43
37
24
42
40
27
45
40
27
45
40
27
45
37
24
42
36
23
41
39
26
44
43
30
49
45
32
52
42
29
47
39
26
44
35
22
42
36
22
43
35
22
41
35
22
42
35
21
45
35
21
45
35
22
42
37
24
44
36
23
43
34
22
44
31
22
39
30
23
36
27
20
37
163
167
183
165
169
187
165
169
189
166
168
189
161
164
187
149
157
183
134
145
173
115
128
156
100
118
143
83
102
126
61
84
106
41
72
94
26
60
82
18
54
75
12
50
68
13
48
62
18
60
69
61
130
128
56
138
131
22
91
88
18
68
73
16
63
70
16
63
73
16
63
73
16
63
73
16
63
73
15
63
73
15
63
73
15
63
73
16
63
73
16
63
73
17
63
73
18
63
73
17
63
69
18
64
70
19
64
71
20
63
70
25
62
68
32
61
65
43
60
65
50
56
57
99
90
87
121
105
102
109
97
92
77
67
67
51
42
46
49
42
49
48
43
49
131
134
130
70
122
111
55
136
123
57
126
122
20
54
62
17
34
48
19
30
46
19
29
44
27
32
48
43
15
31
35
14
29
33
18
30
67
51
60
159
147
154
170
163
166
110
100
102
52
35
57
77
59
113
72
53
119
57
36
114
57
30
104
36
14
72
40
19
90
54
33
114
48
30
107
65
46
124
74
50
115
78
59
74
220
212
210
223
219
216
220
208
198
228
208
192
231
208
191
230
207
189
231
208
190
230
207
189
230
207
189
230
207
189
229
206
188
229
206
188
230
204
186
230
204
191
230
204
191
229
205
188
229
206
190
229
206
189
227
204
186
226
205
182
225
205
182
222
203
185
216
198
183
189
169
158
189
172
159
195
178
164
213
193
178
219
199
180
218
199
182
218
195
181
221
193
178
219
192
173
219
191
172
218
190
171
148
118
75
175
139
57
161
124
62
87
54
22
66
30
20
42
25
14
58
32
21
47
33
24
19
42
40
44
28
21
61
29
14
62
28
10
65
29
12
66
31
12
66
31
11
68
33
11
71
34
12
73
34
14
76
39
21
58
30
28
46
25
45
46
26
49
48
24
48
49
24
49
49
24
49
48
24
48
42
24
46
42
26
47
41
28
48
41
30
49
41
31
50
41
29
49
40
27
47
39
26
45
38
25
43
40
27
45
39
26
44
37
24
42
33
20
38
32
19
37
41
28
48
45
30
53
42
28
48
40
27
44
40
27
44
36
23
41
36
23
42
36
23
44
36
22
44
35
22
43
35
21
43
35
21
42
34
21
41
35
22
42
35
22
42
34
22
44
33
22
40
31
23
37
27
19
36
145
151
170
144
150
170
148
152
174
149
153
175
145
150
174
143
147
173
144
149
176
143
148
176
142
151
176
138
146
170
132
144
166
118
135
159
103
121
145
88
106
131
69
88
112
49
72
93
31
59
78
36
90
93
58
137
130
34
108
104
17
68
74
17
63
69
16
64
73
16
63
73
17
63
73
17
62
73
15
63
73
15
63
73
15
63
73
15
63
74
16
63
74
15
62
73
16
61
73
16
62
69
19
64
70
19
63
69
21
62
69
28
62
71
39
64
68
69
73
70
177
166
152
220
200
184
225
198
184
223
202
186
220
198
187
193
172
163
119
102
95
130
116
109
201
192
182
81
118
105
60
137
124
60
128
124
29
70
73
21
32
47
19
30
44
21
28
44
25
28
43
47
27
43
37
15
31
41
21
37
140
125
133
182
175
176
212
210
207
151
142
142
48
27
51
64
43
106
55
36
112
52
35
118
42
26
98
34
17
69
34
14
73
54
36
107
53
38
108
74
61
127
82
66
117
86
69
83
224
216
214
223
225
220
228
222
209
228
212
193
229
211
191
230
210
191
232
208
191
232
207
190
231
207
190
228
207
190
229
206
189
229
206
189
230
205
189
230
203
191
229
203
190
229
203
188
229
204
189
228
204
187
226
204
185
227
203
182
228
204
182
222
202
181
224
199
183
226
198
183
224
200
183
220
200
180
220
200
179
220
200
178
219
199
179
220
195
181
220
194
178
218
192
173
219
191
174
215
190
170
146
117
77
178
144
68
144
106
58
75
35
18
73
33
19
61
30
11
67
32
18
39
29
23
22
41
37
49
29
17
59
29
14
63
28
11
66
31
13
67
32
12
66
31
12
66
31
11
71
33
12
77
38
16
76
43
30
52
27
35
47
25
48
47
26
52
48
25
49
49
27
49
49
28
49
44
25
45
39
25
42
39
27
44
41
29
46
44
29
49
45
28
51
42
27
48
40
26
46
38
26
44
38
26
44
37
24
43
34
20
40
32
18
39
36
23
42
44
30
48
48
32
52
43
26
49
41
25
46
40
26
45
40
27
45
38
26
45
33
23
42
33
23
43
35
22
46
35
21
43
35
23
39
35
22
38
34
21
40
34
21
39
34
21
39
34
22
42
33
22
39
32
22
38
29
20
37
129
136
161
137
144
169
141
147
172
140
144
172
138
144
172
141
145
172
145
148
174
144
149
175
141
149
173
141
149
171
142
153
173
145
154
177
147
155
180
142
150
177
131
138
166
116
123
152
99
109
138
78
101
118
54
112
112
47
123
119
17
70
75
16
62
66
15
63
72
15
63
73
15
61
71
15
62
72
16
63
73
16
63
73
16
63
73
15
63
73
16
63
73
16
63
73
18
62
73
17
62
70
20
64
70
21
61
68
25
62
70
33
63
72
49
62
65
165
154
146
221
201
185
227
201
184
228
201
184
226
203
185
227
202
182
226
203
184
223
202
187
215
196
181
218
200
186
117
130
119
68
137
125
59
131
124
40
86
87
21
33
45
20
30
43
20
29
46
25
27
41
54
33
47
40
16
27
44
26
36
172
159
164
220
215
214
221
220
215
185
175
175
49
29
44
59
40
95
57
40
115
50
36
113
45
33
99
31
19
72
41
40
86
66
66
126
54
49
113
84
84
131
132
141
163
135
139
141
223
225
216
226
229
221
229
225
210
227
214
194
228
212
191
228
210
190
233
208
191
234
207
190
229
207
190
225
207
189
228
206
189
230
205
190
230
204
191
230
204
191
229
203
190
229
203
190
229
204
189
228
205
187
227
205
185
229
204
183
228
200
182
227
199
182
227
198
182
228
197
181
226
198
180
223
199
179
221
200
179
219
199
178
219
196
177
222
194
179
221
193
176
219
191
174
217
190
175
216
189
170
147
119
81
175
144
76
113
77
38
68
29
16
71
33
17
68
33
11
66
31
18
32
31
28
27
33
28
55
33
16
61
29
14
64
30
13
68
33
14
66
31
12
66
31
12
66
30
11
71
31
12
79
42
20
65
37
33
49
26
44
48
25
51
47
26
54
44
27
50
44
29
49
43
29
47
40
27
44
39
27
45
37
28
46
38
28
48
43
27
50
47
26
51
43
26
47
38
24
42
37
23
41
36
23
41
38
23
43
49
33
55
43
29
52
46
31
52
49
33
53
46
29
49
40
23
44
39
25
45
38
25
45
36
24
44
35
24
43
32
24
42
31
24
42
35
22
44
35
22
41
34
23
37
35
22
37
35
22
39
34
21
38
34
21
38
34
21
39
32
21
38
32
23
39
26
18
35
112
119
150
114
121
152
117
122
154
120
124
156
124
127
159
137
142
172
143
148
177
143
148
176
147
154
180
151
158
183
151
161
183
151
163
184
150
161
184
147
157
181
144
149
175
143
140
171
134
134
166
120
128
153
83
101
116
57
119
118
25
81
80
14
55
61
15
53
65
17
59
71
14
60
70
13
61
71
15
62
72
16
63
73
16
63
73
15
63
73
15
63
73
16
63
73
17
62
73
16
62
69
20
63
70
23
61
69
28
62
70
39
65
70
82
83
80
208
191
180
192
168
155
199
171
159
219
189
178
229
203
190
228
202
184
228
204
185
227
205
186
225
205
185
225
201
185
163
155
146
78
134
122
58
134
122
46
100
96
17
35
46
19
30
46
22
27
47
20
31
41
41
19
29
76
24
38
64
22
32
145
132
134
226
217
218
222
219
217
218
211
208
88
78
77
56
38
77
73
59
126
51
53
115
71
94
142
67
101
138
73
111
148
89
122
169
89
108
154
141
161
184
191
223
226
203
227
217
226
232
222
230
229
222
229
223
209
226
213
193
229
211
191
229
209
190
233
208
191
233
208
190
227
208
190
224
208
189
228
206
189
231
205
190
230
204
191
230
204
191
229
203
190
229
203
190
228
205
189
227
204
187
228
205
185
229
204
183
230
199
181
231
197
181
226
197
182
223
198
182
222
199
181
219
201
181
218
201
181
218
199
177
219
196
177
221
193
179
220
190
174
219
192
174
215
191
175
217
189
171
152
124
93
157
127
75
81
46
18
65
30
13
66
30
13
66
30
11
56
32
20
30
32
28
39
28
23
60
33
12
63
31
11
66
32
14
68
33
14
66
31
12
66
31
12
67
29
11
73
35
14
76
43
26
53
30
35
48
27
47
47
26
53
45
25
52
40
25
47
41
28
47
40
27
44
40
28
45
41
29
48
38
30
50
40
29
52
43
29
52
44
26
50
41
23
45
37
21
40
40
22
41
44
27
46
50
33
54
62
46
69
57
41
64
45
30
52
46
31
50
40
26
45
36
22
43
35
23
43
33
23
42
32
22
42
33
23
43
33
22
41
32
20
40
34
22
39
34
22
38
34
22
37
35
23
38
35
22
39
35
22
39
35
22
39
35
21
39
34
21
39
32
23
40
25
20
36
119
126
162
120
126
161
115
121
156
121
125
161
130
133
168
139
144
177
140
146
177
141
147
176
144
150
178
146
153
180
148
158
181
151
160
181
151
158
180
146
151
176
140
143
169
134
136
164
131
133
164
118
121
150
105
105
128
71
89
99
54
94
94
12
51
58
12
37
54
17
49
64
17
58
70
14
60
71
17
61
72
16
61
72
16
61
72
14
61
71
14
61
71
13
61
71
15
60
70
14
61
68
20
62
69
25
60
69
31
60
68
45
60
64
129
121
112
218
196
182
179
145
135
164
123
118
153
114
108
166
135
127
205
178
166
228
202
188
225
202
187
225
204
184
225
203
182
200
181
173
82
121
110
59
136
120
52
114
106
15
39
49
18
30
47
18
27
47
24
32
43
76
33
47
159
60
85
159
59
81
108
41
57
175
156
162
225
221
221
222
220
213
185
177
169
52
37
57
68
52
108
87
97
155
121
165
208
110
173
197
114
173
205
116
166
205
101
126
165
123
135
153
178
201
200
211
231
222
224
232
226
232
228
224
225
219
205
227
213
193
233
210
192
231
209
190
232
206
189
231
206
189
228
207
189
227
208
191
229
207
190
229
206
190
229
205
191
230
204
191
229
203
190
229
204
190
227
206
189
228
205
187
229
205
185
228
203
182
226
199
180
226
198
181
224
197
181
222
199
183
221
200
183
218
201
183
217
202
182
219
200
178
221
197
179
222
194
180
217
190
173
219
192
174
219
190
176
216
189
170
148
123
96
122
94
54
68
34
16
62
29
10
67
28
13
63
31
13
46
31
20
30
31
28
53
28
23
64
32
8
67
34
11
69
34
15
70
35
16
67
32
13
67
31
12
68
30
10
79
42
19
69
38
26
46
28
37
47
29
47
45
27
50
44
26
46
41
25
46
41
26
46
42
25
44
44
26
44
42
27
44
41
29
47
42
28
47
44
27
49
43
29
51
48
30
51
51
31
51
50
31
50
48
29
49
47
29
50
45
28
51
47
29
53
51
36
58
44
30
49
37
24
43
32
21
40
32
23
42
31
25
43
31
23
41
32
22
41
34
22
42
34
20
40
32
22
34
31
22
35
33
21
37
33
23
39
35
22
39
35
22
39
35
22
39
36
21
39
34
21
39
30
22
38
24
20
35
121
128
160
120
126
158
121
127
160
128
132
165
137
140
173
136
141
174
129
138
169
133
138
170
134
138
170
131
136
167
134
140
170
137
147
173
139
146
173
141
147
175
138
142
170
129
132
158
127
129
155
123
124
151
118
114
138
124
111
127
82
86
92
39
63
69
14
34
50
12
36
53
15
47
63
17
56
70
17
61
72
14
61
71
15
59
70
16
59
71
16
60
71
15
60
70
16
60
69
18
62
69
17
61
68
24
60
68
32
54
64
44
46
50
165
149
138
223
198
181
180
142
132
173
129
123
173
128
122
160
116
110
147
107
98
157
129
117
209
186
171
228
204
188
227
206
186
221
201
186
112
128
117
64
138
120
56
126
119
19
45
60
20
30
49
18
29
42
27
29
41
67
29
44
171
71
90
189
68
91
182
75
98
147
68
86
180
147
151
226
214
210
221
219
214
163
154
155
59
40
66
76
79
113
106
141
174
104
160
188
105
156
184
101
135
162
96
103
129
77
70
85
178
179
178
225
229
223
231
230
225
233
224
216
226
214
198
228
211
191
232
210
193
232
208
190
230
207
189
228
208
189
229
209
190
229
209
190
229
208
189
228
207
188
230
204
191
230
203
192
229
203
191
229
203
191
228
206
188
228
204
187
228
203
185
229
200
184
225
199
181
222
199
181
221
196
179
217
189
174
216
184
171
222
196
181
219
197
181
217
198
180
220
197
179
221
194
176
218
190
173
216
192
174
219
189
173
217
190
173
139
115
95
89
57
36
67
31
14
67
31
14
66
28
12
58
31
19
38
25
18
38
27
20
60
31
19
66
29
13
67
32
13
68
35
14
70
35
16
70
33
15
70
32
16
70
32
11
79
44
24
56
31
28
42
26
42
47
29
48
44
26
46
44
26
46
40
27
46
39
27
47
40
26
46
41
25
46
41
23
44
41
23
44
45
26
48
53
32
55
54
36
59
51
32
55
49
27
51
41
24
44
37
22
41
38
24
43
40
28
46
41
28
47
55
38
58
42
27
46
33
22
39
30
20
38
31
22
40
32
23
40
33
22
40
33
20
38
33
20
38
35
23
38
32
20
37
32
21
37
33
22
39
33
22
39
34
21
38
35
22
39
35
22
39
35
21
38
32
22
38
28
24
38
23
18
32
94
100
132
101
107
139
112
118
150
115
121
153
120
125
157
117
124
155
118
127
158
130
137
168
135
141
173
129
136
168
125
134
165
128
137
166
130
137
166
137
143
172
136
142
171
134
141
169
132
138
162
134
138
159
140
137
153
149
130
141
131
111
118
67
70
75
22
37
49
14
33
47
13
36
53
13
42
59
16
52
66
14
57
69
13
58
69
16
57
72
17
57
73
17
57
71
17
57
69
20
56
66
19
52
61
22
43
55
31
40
53
45
42
48
189
171
160
227
202
185
187
156
144
178
142
133
163
120
113
145
100
94
168
123
115
168
128
118
155
118
107
186
153
142
229
200
185
223
198
183
160
158
147
78
132
117
62
131
123
25
62
71
20
32
48
21
28
40
29
28
41
49
29
42
167
94
105
197
103
114
201
94
111
199
87
109
192
88
109
199
136
145
229
208
206
226
220
216
191
180
180
100
91
95
67
68
84
80
88
107
77
86
105
71
67
83
102
92
97
192
188
186
227
226
220
229
229
219
227
224
213
227
214
202
227
211
193
229
210
190
232
210
192
233
208
190
230
208
189
227
207
188
227
206
188
229
206
189
229
206
189
229
206
189
230
204
191
230
203
192
231
204
193
230
204
192
227
204
186
227
203
185
227
201
184
227
199
183
224
200
182
222
200
181
222
197
180
198
164
151
169
128
118
211
179
166
219
191
177
217
196
179
220
196
179
221
194
175
218
190
173
215
192
174
219
189
173
218
190
174
128
104
88
72
38
18
66
31
13
65
28
12
66
25
11
54
24
12
41
21
11
59
28
21
63
26
14
64
29
13
67
32
13
68
33
13
69
34
14
69
32
13
69
32
13
71
37
12
69
42
27
42
24
30
41
28
47
45
30
49
40
26
44
42
27
46
39
27
46
40
27
47
37
22
43
39
21
43
42
24
46
50
31
53
52
32
55
54
34
56
48
29
51
44
26
47
42
24
46
38
22
42
36
22
41
35
22
40
38
27
44
40
27
45
46
32
50
37
23
41
33
21
38
30
19
36
32
22
38
32
22
38
33
20
38
34
21
38
35
22
39
36
24
38
32
21
38
33
22
39
32
21
38
32
21
38
33
20
37
34
21
38
35
22
39
35
21
38
32
22
38
27
23
37
25
19
33
99
105
137
115
121
152
120
126
158
118
124
156
115
121
153
115
121
153
120
126
158
126
131
163
129
135
167
127
135
166
122
131
162
119
128
158
125
132
162
132
138
169
135
141
173
133
142
172
134
140
162
152
155
169
172
172
181
168
165
165
150
139
138
123
116
121
65
65
72
23
30
42
19
33
49
15
34
52
10
35
52
11
43
58
13
46
61
15
46
62
17
47
62
15
45
58
10
40
52
11
34
47
17
34
46
25
33
47
36
38
52
46
39
46
199
180
169
223
199
182
188
166
152
224
201
187
200
174
162
206
175
165
174
134
124
146
102
94
171
124
116
168
123
116
158
126
115
226
200
182
201
191
177
85
121
106
64
135
123
46
91
95
22
33
46
28
29
41
32
26
41
43
30
44
156
112
114
208
151
145
211
141
140
209
126
130
206
117
124
200
112
123
190
133
137
217
195
190
227
219
213
223
216
213
185
180
179
165
159
159
170
160
160
194
187
183
224
218
209
229
223
212
222
214
203
223
215
200
223
214
196
226
213
193
228
211
188
232
209
188
234
207
191
232
206
189
230
207
189
227
208
188
227
206
189
229
206
191
228
205
190
228
205
190
229
203
191
229
202
191
230
203
192
230
203
191
229
203
186
229
202
185
228
201
184
226
200
183
223
200
182
220
200
181
221
196
179
178
141
131
170
123
115
188
152
140
221
190
177
220
195
180
220
194
177
219
193
174
217
191
173
217
192
174
217
189
173
215
188
171
117
93
78
72
37
18
65
29
12
64
27
12
63
27
12
59
28
12
57
29
12
65
26
14
63
28
14
62
31
12
69
33
14
70
33
11
71
33
12
67
30
11
66
30
10
75
41
20
60
33
31
40
23
37
37
24
42
45
32
50
42
29
47
42
29
47
41
28
47
39
24
45
41
23
45
48
29
51
49
31
53
50
31
53
46
26
48
48
27
49
45
26
46
40
23
42
38
23
42
38
23
42
37
24
42
36
23
41
38
27
44
38
25
43
40
28
45
34
22
39
33
20
37
32
21
36
32
21
36
32
21
36
34
22
38
35
23
38
35
23
36
35
23
35
32
21
37
33
22
39
33
22
39
33
21
38
33
20
37
33
20
37
34
21
38
35
21
38
31
22
37
26
21
35
25
19
33
137
143
175
139
145
177
128
134
166
121
128
160
119
126
158
123
129
161
123
129
161
123
127
159
124
128
161
123
128
160
126
132
164
117
125
157
120
126
158
131
137
169
135
140
173
131
137
169
131
134
157
163
162
174
183
181
188
178
176
176
171
164
162
160
148
154
142
134
141
85
83
91
21
30
45
15
31
48
12
30
50
10
33
51
13
33
50
13
32
47
14
34
46
15
35
44
13
33
41
16
30
44
21
30
45
26
32
47
35
38
51
50
42
48
202
181
171
214
189
172
197
175
161
228
205
191
228
204
190
225
201
187
190
159
147
137
98
89
171
125
118
169
124
118
148
112
104
212
189
169
217
202
184
125
134
120
69
136
122
57
113
111
23
37
45
30
32
43
29
30
43
44
34
48
120
96
93
218
185
171
222
181
166
223
172
159
221
163
155
217
155
153
213
152
152
207
162
159
198
170
166
205
187
181
212
205
197
219
217
207
221
217
210
216
211
202
206
198
187
191
180
166
205
187
172
227
207
191
227
211
190
229
211
189
232
211
188
231
208
187
233
206
190
231
207
189
230
208
189
227
207
188
228
205
189
230
204
191
230
204
191
230
204
191
229
203
190
229
203
190
230
203
191
230
203
191
229
203
186
229
203
186
228
201
184
224
200
182
222
200
182
219
199
180
218
190
174
153
113
103
168
122
113
193
158
147
220
191
177
221
193
178
219
192
176
218
191
173
215
191
172
216
191
173
215
188
171
212
186
169
110
84
69
71
36
17
66
30
13
65
29
12
64
27
12
67
29
12
69
28
11
68
27
11
66
29
13
68
30
12
72
34
13
72
33
10
72
33
12
68
32
12
71
35
14
70
39
24
47
26
34
35
23
38
34
22
37
47
30
49
45
28
48
43
26
45
42
25
46
43
26
48
47
29
51
48
29
51
42
24
46
39
21
43
38
19
41
43
22
44
43
23
43
39
23
42
35
22
40
35
21
40
34
21
39
37
24
42
35
23
41
34
20
39
36
26
43
32
21
38
33
20
37
32
20
35
34
21
36
34
22
37
35
22
38
35
23
38
33
22
35
32
22
34
30
21
37
32
22
39
33
22
39
33
21
38
32
20
37
32
20
37
34
22
38
35
22
39
31
21
37
26
21
35
25
19
33
140
146
178
137
143
175
132
138
170
133
140
171
125
134
165
125
132
163
124
129
161
116
120
152
117
121
154
121
125
158
126
131
163
125
131
165
126
132
166
130
136
170
130
136
168
128
135
163
130
134
158
157
155
168
170
168
170
161
157
156
153
146
146
148
138
139
140
130
135
136
130
135
93
91
96
31
35
44
17
31
48
11
32
46
12
34
48
12
33
46
14
35
46
16
37
45
14
35
41
15
31
42
20
30
48
25
31
47
32
36
47
48
45
48
193
174
164
226
201
183
179
154
137
218
193
178
230
204
189
228
202
187
209
174
165
136
97
91
170
123
118
173
124
119
150
109
102
213
189
174
219
202
182
176
171
155
76
128
112
67
126
118
29
50
52
31
33
43
30
32
44
43
34
44
71
54
57
213
188
181
225
199
180
227
196
177
227
193
180
227
190
179
227
187
177
223
185
174
223
190
180
217
189
178
209
188
175
205
189
175
205
189
176
207
189
175
220
198
184
230
208
191
232
208
190
232
207
190
230
208
190
231
210
191
231
210
191
231
208
190
231
208
190
229
208
191
229
208
191
228
207
190
230
206
191
230
204
191
230
204
191
230
204
191
230
204
189
230
204
189
230
204
188
230
204
187
231
204
187
230
203
186
228
201
184
226
200
183
220
199
180
220
196
178
190
156
142
164
122
112
174
135
125
219
184
172
221
189
176
220
191
175
218
191
174
217
191
174
217
190
173
217
190
173
211
189
171
203
180
162
80
47
33
73
35
17
67
31
13
65
30
11
67
28
11
68
29
12
69
30
13
68
30
11
67
31
9
69
33
11
70
34
12
73
34
9
73
33
13
71
32
14
77
38
17
63
32
23
45
24
41
39
23
38
33
21
34
39
21
40
43
24
44
48
28
48
47
25
47
45
24
46
42
24
46
40
22
44
39
22
42
39
22
42
40
23
42
41
24
44
41
24
44
38
24
43
35
23
41
34
21
40
34
21
40
34
21
40
34
21
40
33
20
38
37
24
42
34
21
39
33
21
38
29
17
34
32
19
36
35
21
38
36
21
39
32
23
39
31
21
37
26
22
36
25
23
37
28
23
38
32
22
39
32
21
38
29
20
37
29
21
37
29
22
38
29
21
37
28
19
36
27
17
34
28
17
34
132
138
170
122
128
160
125
131
163
134
141
173
127
135
167
127
132
164
127
131
164
122
125
158
121
124
157
126
129
162
123
127
160
123
128
163
125
131
165
123
129
163
118
124
157
119
125
157
120
125
154
139
139
160
150
147
159
145
140
150
139
131
138
128
117
123
123
109
109
127
115
115
125
116
116
109
102
103
55
53
60
19
29
40
15
33
47
11
31
46
12
31
46
12
31
46
9
29
44
13
30
42
18
30
47
23
31
46
30
36
46
42
40
48
163
147
143
226
203
189
227
201
186
191
166
151
208
182
168
228
202
187
218
185
176
141
104
97
166
121
116
171
123
119
151
110
104
221
193
179
220
201
181
210
194
179
89
118
101
73
131
118
43
75
74
30
34
46
34
32
43
41
31
40
55
39
45
182
161
156
227
203
185
232
203
187
231
206
191
231
205
190
232
204
190
229
204
189
229
203
189
232
208
192
230
208
192
229
209
193
228
209
194
227
207
191
229
209
191
231
209
191
235
208
191
234
206
190
232
206
189
229
208
189
229
208
189
231
208
190
230
208
190
229
208
191
229
208
191
228
207
190
229
206
191
229
204
191
229
204
191
229
204
191
230
203
191
230
204
190
230
204
186
230
204
185
229
202
185
229
202
185
228
201
184
228
202
185
222
199
181
220
197
179
206
177
161
193
162
149
219
189
175
222
194
179
221
194
179
219
192
175
216
190
173
216
190
173
218
191
174
218
190
174
212
188
170
182
157
141
72
34
18
72
34
16
68
32
13
67
32
13
69
30
13
69
30
13
69
30
13
68
30
12
67
31
11
68
32
12
70
34
14
71
33
12
73
33
14
73
34
17
74
41
23
50
28
25
40
23
41
38
20
37
37
23
38
39
25
43
42
26
45
43
26
46
40
20
41
41
21
41
39
21
41
39
23
43
40
23
42
40
23
41
40
23
41
40
23
42
39
23
41
37
23
41
35
23
40
34
22
39
34
21
39
33
20
38
33
20
38
31
18
36
35
23
41
34
21
39
33
22
39
30
18
35
33
20
37
35
21
38
35
20
38
31
21
37
30
20
36
26
21
35
25
22
37
26
20
36
30
22
38
31
22
39
29
20
37
28
20
36
26
19
35
25
16
33
26
17
34
27
16
33
28
17
34
134
140
172
127
133
165
129
135
167
134
140
172
126
132
164
118
123
155
118
121
154
121
123
156
124
126
159
127
128
162
123
125
158
117
122
156
127
133
167
125
131
165
120
125
159
121
127
163
117
124
159
119
121
151
117
113
137
108
101
120
106
97
112
105
94
105
106
97
104
114
104
109
119
108
112
122
112
114
119
114
116
95
91
97
44
46
54
18
31
43
14
31
44
12
30
45
11
32
47
12
32
43
16
31
46
21
32
46
27
34
44
39
37
50
86
75
78
208
186
179
227
201
186
229
203
188
212
187
172
189
163
149
220
188
179
149
113
105
159
116
111
170
123
119
152
111
104
217
188
175
224
200
182
224
199
183
147
143
127
80
133
115
59
103
99
28
36
48
37
32
42
41
31
38
56
40
48
135
116
112
227
202
189
232
203
190
232
206
193
233
208
193
234
206
192
233
207
192
232
206
189
233
210
191
231
210
190
230
211
191
233
211
194
229
210
190
226
211
188
229
211
190
233
208
191
233
207
190
230
207
189
229
208
189
229
208
189
230
207
189
230
207
189
229
208
191
229
208
191
229
208
191
229
207
191
228
205
191
228
205
191
227
204
190
230
203
193
230
204
190
229
204
184
229
204
182
229
202
185
228
201
184
227
200
183
227
201
184
223
198
180
220
197
179
218
195
177
220
194
178
222
196
181
220
194
179
219
194
179
217
194
176
217
191
174
217
190
173
217
190
173
218
190
174
212
186
169
141
116
102
74
35
19
70
32
15
67
31
12
67
32
13
68
29
12
69
30
13
69
30
13
68
30
13
66
31
12
67
32
13
68
33
14
66
29
12
70
29
12
74
36
19
63
35
21
43
25
29
35
21
41
40
24
42
40
27
44
40
28
46
41
28
46
39
25
43
38
20
39
39
21
40
39
23
40
38
23
40
40
23
41
40
23
41
40
23
41
42
25
43
39
23
41
35
22
39
34
22
39
34
22
38
34
21
38
33
20
36
31
19
35
26
15
32
33
22
39
33
22
39
32
21
38
30
18
35
33
20
37
35
21
38
35
21
38
31
22
37
30
20
36
25
21
35
25
19
35
26
19
35
28
21
37
29
20
37
27
18
35
24
16
33
24
17
33
26
18
35
28
19
36
28
17
34
28
17
34
122
127
159
122
128
160
124
130
162
130
135
168
133
138
170
126
131
163
124
129
162
131
134
167
129
132
165
128
131
164
126
129
162
120
126
159
123
129
162
123
129
162
117
122
157
113
119
156
107
114
150
115
120
151
128
127
153
123
116
138
109
98
116
94
83
96
82
76
90
81
74
88
84
76
88
90
83
92
100
94
97
108
100
105
102
98
103
69
71
77
23
37
46
9
35
45
11
34
46
15
33
47
17
33
48
22
31
47
24
29
42
30
31
47
43
37
48
96
80
79
202
180
171
224
201
189
228
204
187
230
203
184
226
196
180
166
130
119
150
107
102
169
121
118
167
120
115
170
136
126
219
190
177
225
198
182
195
182
165
86
119
102
75
120
113
32
49
57
36
33
44
39
33
40
53
36
45
80
61
59
214
192
182
229
204
191
233
208
193
234
209
192
235
209
193
234
211
194
232
210
191
230
212
191
228
211
190
231
210
191
234
208
191
229
209
188
229
211
189
232
211
190
233
209
190
231
208
189
229
208
189
229
210
190
228
207
188
230
207
189
230
207
189
229
207
190
229
207
191
230
207
191
229
207
191
229
206
191
229
206
191
229
206
191
230
204
192
230
204
191
228
204
184
228
205
180
229
202
183
227
200
182
226
199
182
226
200
183
221
197
179
220
198
179
220
199
180
222
199
179
223
197
180
221
194
178
219
194
175
217
194
173
217
192
173
217
191
173
215
189
172
214
188
171
205
177
160
87
57
45
73
35
18
68
30
13
65
30
11
64
30
11
66
29
11
67
29
12
68
31
13
67
31
13
66
31
12
65
30
12
68
33
14
67
30
16
72
30
12
73
36
20
48
25
20
35
20
33
39
26
45
41
27
46
39
26
45
39
27
45
39
27
45
38
26
43
39
22
38
38
20
37
37
20
36
37
21
36
40
22
37
42
23
39
43
25
41
42
25
41
36
22
37
35
22
38
35
22
39
34
22
39
33
21
36
33
21
34
32
19
35
26
17
35
31
22
40
31
21
39
32
21
38
34
22
38
35
22
38
34
20
37
35
22
39
32
22
38
31
20
37
27
19
34
27
18
34
28
19
35
28
19
35
26
16
33
22
14
29
22
15
30
26
20
34
28
20
37
30
21
38
30
19
36
30
19
36
121
120
154
119
118
152
117
116
150
128
126
161
134
134
168
130
136
167
127
139
169
134
144
174
135
142
173
133
140
171
134
141
173
132
138
170
127
133
165
125
131
163
119
125
159
115
121
156
113
119
151
118
125
154
133
134
158
137
130
151
131
119
136
119
108
121
107
96
111
97
86
100
90
79
92
82
72
82
79
70
75
77
71
75
77
72
76
77
79
83
60
93
96
43
103
101
20
63
67
11
42
53
13
43
53
19
42
53
20
31
45
27
31
48
31
34
46
43
39
48
71
60
61
172
156
150
219
199
187
226
203
183
227
199
180
195
162
148
141
100
92
162
114
111
172
123
119
168
124
119
154
114
107
164
130
118
186
163
150
164
159
148
95
116
106
66
81
82
43
40
48
44
36
44
67
44
53
66
42
42
185
162
155
227
203
189
229
206
188
229
209
190
228
210
191
227
211
190
228
209
190
227
213
192
227
211
190
233
208
191
233
208
191
229
210
191
231
211
192
235
210
190
235
209
189
231
207
189
229
208
190
227
209
189
228
207
188
229
208
189
230
207
189
228
205
189
229
206
190
229
206
190
229
206
190
229
206
190
229
206
190
229
206
190
230
205
190
230
204
190
226
204
184
227
205
179
229
202
181
227
200
181
225
198
181
226
200
183
220
199
180
219
199
180
221
198
180
221
199
176
224
197
180
222
194
177
219
194
172
219
194
172
217
192
172
218
193
175
216
189
173
213
186
169
158
130
116
71
35
18
69
32
14
67
30
12
64
29
10
62
28
9
65
28
10
67
30
12
68
31
13
67
31
13
66
31
12
66
31
12
69
34
15
68
31
14
76
36
16
70
37
24
41
23
27
37
26
43
39
27
44
40
26
45
39
24
44
41
25
44
41
25
44
39
24
41
40
23
37
40
22
36
37
19
33
37
19
32
38
21
30
39
22
33
36
20
32
36
21
34
35
22
39
35
22
40
35
22
40
33
21
42
32
21
37
32
22
34
30
20
36
25
18
36
29
21
39
31
22
41
32
22
38
34
22
36
34
22
37
33
20
37
33
22
39
33
22
39
28
17
34
28
17
34
28
17
34
28
17
34
28
17
34
29
18
34
25
15
31
27
20
35
29
24
38
28
20
36
28
19
36
30
19
36
30
19
36
110
114
146
106
110
142
106
110
142
119
122
154
133
136
169
138
145
177
139
151
181
139
149
180
134
143
173
129
138
169
128
137
168
132
138
170
131
137
169
134
140
172
130
136
168
122
127
159
120
126
155
123
129
155
130
132
155
123
118
139
124
113
132
122
110
125
114
100
113
111
97
107
116
102
108
114
101
105
105
92
99
97
87
92
89
81
86
77
73
79
52
97
95
44
132
122
34
99
96
19
61
67
17
62
67
17
53
61
14
34
47
22
31
46
23
35
46
28
36
47
39
38
50
49
42
49
127
116
112
206
189
181
221
200
185
221
195
181
182
150
137
137
100
89
149
109
103
168
124
119
171
124
119
174
127
118
163
128
116
223
199
188
192
178
167
115
109
104
56
41
42
56
41
43
105
83
86
85
62
62
133
113
105
226
204
189
227
206
187
229
207
189
229
210
190
229
211
191
230
208
189
229
209
190
230
210
191
233
209
191
232
209
191
230
212
192
232
210
192
235
208
189
235
209
189
232
208
190
230
208
190
227
208
189
229
208
189
229
208
189
230
207
189
229
206
190
229
206
190
229
206
190
229
206
190
229
206
190
229
206
190
229
206
190
230
205
190
230
204
191
226
203
183
228
206
180
228
201
180
227
200
181
227
200
182
227
201
184
222
200
181
219
199
180
221
198
180
220
198
177
224
197
181
223
195
179
218
192
172
218
192
171
217
192
172
214
190
172
209
186
169
199
175
158
87
59
45
70
34
18
67
29
12
65
28
10
64
29
10
62
28
9
65
28
10
66
29
11
67
30
12
67
31
12
67
32
13
66
31
12
69
34
15
69
33
13
76
40
22
60
32
26
41
26
37
39
28
45
39
27
44
39
25
43
41
24
44
43
24
44
41
22
41
39
21
39
39
21
36
39
21
35
38
20
34
38
20
34
38
20
34
37
21
36
35
21
38
34
22
38
35
22
39
35
22
40
35
22
42
32
22
42
31
22
38
30
22
34
29
21
37
25
17
36
29
20
39
33
22
41
33
22
39
33
21
35
33
21
36
33
20
37
32
21
38
33
22
39
26
15
32
27
16
33
31
20
37
34
23
40
39
28
45
33
22
39
29
17
34
31
22
39
30
23
39
28
20
36
27
18
35
28
18
35
29
18
35
113
123
153
112
121
152
106
116
146
114
123
154
127
135
167
142
150
181
157
164
196
161
167
199
156
162
194
149
154
186
141
147
179
130
136
167
125
131
163
129
135
167
136
142
173
138
143
173
133
139
166
125
131
155
121
123
146
109
104
126
108
97
116
108
97
113
107
94
104
109
97
102
117
106
105
122
110
109
120
104
111
109
96
103
104
93
99
100
93
100
61
95
97
45
135
124
38
115
108
18
64
65
15
64
67
18
58
66
13
37
51
17
32
46
19
33
47
25
33
49
28
34
52
33
36
52
41
37
46
73
64
65
175
160
149
215
196
181
223
197
179
205
175
157
174
142
133
145
109
102
157
116
110
153
114
104
194
168
151
228
203
185
224
204
185
215
197
186
159
139
132
79
59
55
82
58
59
160
134
135
81
57
50
207
187
172
230
207
189
232
206
189
231
208
190
231
210
191
234
208
191
233
207
190
232
208
190
231
209
190
231
210
191
230
212
192
234
210
192
235
208
189
233
207
188
232
208
189
230
209
191
228
209
189
229
208
189
228
207
188
229
206
188
228
205
189
228
205
189
229
206
190
228
205
189
228
205
189
228
205
189
228
205
189
229
204
189
229
203
189
225
203
183
227
205
178
227
200
179
227
200
180
229
202
184
224
201
183
221
199
181
223
196
179
219
198
179
218
197
177
223
194
181
222
193
181
217
191
172
218
190
169
216
191
171
213
190
171
210
186
169
130
106
92
73
36
21
74
33
18
69
29
12
66
28
11
66
30
11
65
29
11
67
30
12
67
30
12
67
30
12
67
30
12
65
30
11
64
29
10
67
32
13
69
34
11
69
37
20
50
27
28
40
27
43
39
28
45
40
27
45
40
26
45
41
25
46
41
25
44
40
24
42
38
22
39
39
21
35
39
21
35
38
20
34
39
21
35
37
20
35
34
21
37
32
22
38
32
22
39
34
21
40
34
21
41
35
21
43
34
21
43
33
22
38
32
21
34
30
18
35
25
15
34
30
20
39
33
21
41
33
21
38
32
20
34
32
20
35
32
19
36
29
18
35
29
18
35
29
18
35
31
20
37
36
25
42
41
30
47
38
27
44
30
18
35
29
17
36
32
22
39
29
21
38
27
19
36
26
17
34
28
17
34
26
15
32
118
124
156
116
122
154
115
121
153
120
126
157
135
143
172
152
159
189
153
161
190
155
160
190
148
153
183
148
152
182
151
156
185
141
148
176
141
147
176
139
144
175
140
144
175
136
140
170
123
128
157
130
130
154
151
147
162
138
132
145
121
115
127
105
99
111
98
90
97
97
89
95
108
100
104
119
110
113
123
110
112
118
103
107
112
101
106
107
99
105
72
91
93
50
135
123
39
126
118
19
68
69
16
64
69
16
60
68
15
41
57
16
30
46
19
30
46
20
31
46
23
31
48
27
33
50
33
34
45
41
38
45
46
40
40
115
103
98
201
180
171
223
197
184
226
197
182
228
200
184
208
183
166
201
178
158
227
204
186
227
205
189
226
208
188
226
202
183
224
200
183
206
184
171
156
135
124
198
171
162
141
116
107
163
139
128
231
206
191
230
207
189
228
209
190
230
212
192
230
210
191
229
208
190
230
209
190
230
208
189
234
208
191
234
208
191
235
208
191
235
207
190
232
206
189
229
207
189
228
209
189
231
207
191
230
207
191
228
206
189
228
207
190
228
207
190
228
207
190
228
207
190
228
206
190
228
205
191
228
205
189
228
205
188
228
202
185
228
202
185
226
200
182
226
200
181
226
197
180
225
198
181
224
199
181
219
201
181
221
199
180
224
197
179
220
196
177
219
194
177
223
195
180
220
191
174
219
190
172
218
190
171
216
192
175
215
189
175
170
142
131
73
35
22
71
32
15
71
33
14
68
30
12
67
31
12
64
31
11
62
29
9
66
32
13
65
31
11
63
30
10
62
30
10
62
29
10
64
28
10
64
30
11
70
36
13
61
33
24
42
24
34
39
26
42
40
27
45
40
28
45
40
29
46
40
28
46
40
27
46
40
25
42
38
22
36
37
22
34
36
21
33
36
22
34
36
23
34
37
21
36
34
23
36
31
21
35
32
20
35
34
20
37
34
21
39
34
22
39
35
20
38
34
20
37
31
19
35
27
17
33
25
17
31
30
21
36
33
22
40
32
21
37
31
19
33
33
21
37
29
19
35
27
16
35
29
17
36
33
21
41
33
21
41
30
21
39
30
21
36
24
16
30
25
16
30
28
17
34
30
19
37
31
20
37
28
18
36
26
17
34
27
18
35
24
14
31
119
125
157
112
118
150
119
125
157
131
138
169
143
150
179
148
155
184
145
152
181
138
144
173
131
136
165
130
135
164
146
151
180
154
159
188
142
146
176
123
125
157
112
113
148
106
107
143
104
106
138
128
126
147
162
159
165
161
157
158
152
146
150
143
136
141
130
122
131
115
106
116
105
95
105
102
93
101
105
93
99
107
92
100
107
96
105
107
99
107
77
86
90
53
131
121
41
132
123
21
78
77
15
63
68
17
62
70
18
47
62
14
29
45
20
28
46
21
30
46
21
30
47
22
30
46
24
27
40
32
32
42
33
36
41
43
41
43
62
52
49
152
135
128
214
193
179
222
201
185
225
203
183
226
204
184
226
203
187
221
198
181
179
158
135
227
203
180
227
202
183
226
203
187
226
204
189
228
202
189
223
197
184
155
131
119
218
196
179
228
208
189
229
210
190
231
212
193
226
213
191
227
211
191
230
209
190
232
207
190
235
208
191
234
207
190
234
207
190
231
206
188
229
206
188
229
208
189
228
209
189
231
207
191
230
207
191
230
207
191
229
208
191
228
207
190
228
207
190
228
207
190
228
206
190
228
205
190
228
205
189
228
205
187
230
203
186
226
201
184
228
200
184
226
200
183
223
197
181
221
198
181
218
199
180
218
198
180
221
196
179
224
196
179
223
193
178
221
192
178
221
193
178
219
190
173
219
190
172
216
190
172
212
186
170
189
163
149
78
48
37
71
35
18
71
32
15
68
32
13
69
32
14
66
30
12
64
29
10
63
29
10
59
29
9
60
30
10
60
30
10
60
31
10
61
29
9
65
28
10
66
30
12
66
33
17
50
25
24
40
22
37
40
26
41
40
27
45
40
27
45
40
29
46
40
28
46
40
27
46
40
25
42
38
22
36
36
22
35
34
22
34
35
23
35
35
23
35
36
22
38
34
23
38
33
21
36
31
17
33
32
18
35
33
20
37
33
22
38
33
21
34
33
21
33
31
21
32
27
19
30
25
17
30
30
21
35
32
21
38
32
20
37
34
23
37
32
21
37
30
21
37
31
20
39
34
22
42
31
19
39
29
17
37
25
16
34
24
16
31
25
17
28
25
16
29
27
16
33
28
17
34
29
18
35
27
17
34
25
16
33
27
18
35
25
16
33
143
149
181
135
141
173
135
141
173
139
146
177
137
144
173
127
134
163
120
127
156
118
124
153
121
126
155
116
121
150
122
127
156
111
118
147
96
102
133
95
101
134
99
103
138
102
106
143
109
112
145
121
120
143
145
140
152
140
133
139
133
123
126
132
121
122
133
120
122
135
122
124
135
122
125
128
116
119
124
113
118
119
106
114
108
98
106
99
95
101
83
87
93
55
121
115
45
133
125
27
88
86
15
63
68
16
64
71
18
59
71
11
36
51
19
28
47
20
30
47
18
30
46
21
30
45
19
24
39
26
29
43
25
34
45
30
35
45
37
36
45
43
37
43
86
75
72
175
160
151
222
201
187
224
203
185
226
203
187
201
176
157
193
166
136
209
183
160
220
189
170
228
199
183
226
203
187
229
203
188
229
203
188
230
204
189
230
202
187
234
205
189
233
207
190
232
209
191
227
212
191
229
211
191
231
207
190
234
206
190
235
206
190
235
207
190
232
206
189
229
207
189
228
208
189
229
208
189
229
208
189
231
206
191
230
207
191
231
208
192
230
209
192
230
207
191
229
206
190
229
206
190
228
205
189
228
205
188
228
205
187
227
205
185
228
202
184
228
200
184
226
198
182
225
198
182
221
196
182
223
195
182
229
190
181
217
174
165
224
191
178
225
194
181
225
195
181
224
195
181
220
191
176
218
191
173
218
191
172
216
189
173
207
181
164
107
82
68
72
37
19
69
33
14
67
29
12
65
29
12
63
32
14
61
30
12
62
29
12
62
29
12
63
29
12
63
28
12
62
28
11
62
28
11
64
28
9
64
28
10
65
35
15
59
32
23
46
23
32
42
25
43
42
25
42
40
25
44
40
26
45
41
28
46
40
28
46
40
27
46
40
26
43
37
21
35
34
22
36
33
22
36
32
21
35
32
22
36
34
21
38
34
23
40
34
21
39
34
18
36
33
19
36
33
20
37
33
21
38
31
22
34
30
22
32
28
21
31
25
17
28
22
14
27
25
16
30
29
18
35
29
17
34
31
19
35
33
22
39
32
22
41
33
22
41
32
20
40
29
17
37
30
18
37
25
17
33
24
16
30
24
17
26
26
17
28
27
16
33
29
18
35
29
18
35
28
17
34
29
18
35
28
17
34
26
15
32
145
151
181
144
150
181
141
147
178
143
149
179
143
150
178
136
143
172
134
141
169
132
137
166
126
131
160
111
116
145
104
109
139
99
104
135
94
97
130
96
99
134
102
106
140
107
115
147
112
120
152
111
115
143
111
111
136
111
109
128
105
101
110
102
96
97
106
94
100
108
95
101
112
99
105
114
102
107
117
107
108
123
112
115
124
116
118
125
120
124
120
117
124
55
114
109
44
133
125
34
104
100
17
67
72
16
65
72
14
62
72
13
49
61
14
30
47
14
30
46
15
30
45
15
28
42
17
25
41
21
25
42
20
30
46
24
31
47
30
32
48
34
34
48
41
38
48
52
40
44
124
106
100
179
159
149
187
167
152
153
130
107
169
142
103
132
102
78
154
115
98
156
121
108
224
196
181
227
204
187
229
206
189
228
206
189
233
207
191
235
208
191
234
207
190
232
206
189
233
208
191
234
208
191
235
208
191
235
207
191
236
206
190
233
206
189
231
205
188
228
207
188
228
209
189
228
208
188
228
207
188
231
206
191
230
207
191
231
208
192
230
208
191
228
204
189
227
204
188
228
204
189
228
205
189
228
205
187
228
206
185
227
205
184
227
202
183
229
198
182
223
197
181
227
191
178
225
174
170
210
144
145
188
110
114
173
111
110
226
186
177
226
195
183
223
195
182
221
191
178
218
190
175
217
190
173
216
190
172
214
186
169
137
112
96
73
39
21
69
33
13
65
31
10
65
28
11
62
28
13
61
29
13
62
29
13
64
28
13
64
27
13
59
28
12
61
29
13
60
29
12
61
29
11
64
30
10
66
30
12
67
34
18
53
28
28
44
24
38
42
25
45
42
25
42
40
25
44
41
26
44
40
26
44
40
26
44
39
26
44
40
25
42
37
21
36
34
22
37
33
22
37
31
22
37
31
23
38
33
21
38
33
22
39
34
21
39
36
20
38
35
21
38
35
22
38
34
22
38
29
21
37
27
21
36
25
18
33
22
14
29
22
14
27
24
15
30
27
16
32
29
17
34
32
20
38
34
22
41
32
21
41
29
17
37
30
17
37
29
17
37
29
18
37
27
18
34
25
17
30
24
17
25
25
17
27
26
16
32
28
18
35
29
18
35
29
18
35
28
17
34
27
16
33
25
14
31
140
148
171
135
141
165
142
146
171
148
152
176
147
155
178
144
151
175
138
145
171
122
128
156
110
114
143
103
106
138
93
94
128
85
88
121
86
89
122
97
100
133
106
111
143
111
117
149
112
118
150
113
119
151
103
109
141
95
100
129
78
80
104
74
72
92
76
73
91
81
75
93
88
81
98
92
84
98
97
87
96
102
91
98
111
99
103
123
112
116
132
123
128
59
106
99
46
132
123
38
116
112
16
69
75
15
66
75
14
62
73
15
58
67
9
33
49
13
30
48
12
30
47
12
28
45
15
25
41
18
25
39
16
29
45
19
29
45
23
28
43
27
31
43
31
35
41
41
35
48
77
59
74
97
78
87
123
103
79
210
195
137
218
201
129
179
151
98
165
120
106
170
124
115
159
126
111
223
195
181
228
203
188
229
207
190
232
208
191
234
208
191
235
208
191
235
206
190
235
207
192
235
207
193
235
206
192
236
207
193
234
207
190
232
206
189
232
205
188
231
206
189
230
207
189
229
208
189
229
208
189
230
207
191
230
207
191
231
208
192
230
206
191
229
203
190
229
203
190
230
204
191
228
205
189
227
206
187
227
206
184
228
206
183
225
203
182
222
200
181
225
188
177
203
135
135
177
80
92
185
68
86
186
82
93
220
162
158
224
191
178
225
194
181
221
192
178
216
191
175
215
192
174
214
191
173
215
190
171
172
142
117
94
60
36
71
34
16
67
29
14
64
27
13
60
26
11
58
26
10
60
27
15
62
28
16
64
28
14
64
28
13
60
28
15
60
28
14
61
29
12
61
29
11
63
30
8
67
30
13
61
30
25
44
26
36
42
25
39
42
25
41
42
25
42
42
25
44
43
26
43
42
25
41
44
26
40
41
25
39
38
23
40
37
22
42
33
23
39
34
21
38
35
22
39
33
23
39
35
23
37
35
22
38
34
21
39
35
22
39
35
22
38
34
22
38
32
19
36
29
18
35
26
18
34
24
16
30
20
13
26
23
13
28
26
16
32
27
17
34
29
19
37
31
20
38
30
19
37
29
17
35
29
16
35
30
18
35
30
19
36
29
19
36
27
18
35
26
18
33
25
17
27
25
18
26
23
15
28
27
19
33
27
19
34
28
18
35
28
17
34
26
15
32
25
14
31
140
147
170
138
143
168
144
147
172
143
146
170
134
139
163
131
135
161
128
133
160
127
132
161
124
128
158
116
119
150
100
100
134
88
91
124
88
92
124
96
99
132
107
112
144
112
118
150
116
122
154
117
123
155
111
117
154
104
109
148
87
94
128
74
82
113
74
83
110
76
83
110
74
79
104
69
72
95
77
76
94
83
79
96
95
86
101
105
96
110
110
107
117
64
95
96
51
130
123
41
126
120
16
74
78
17
69
77
18
65
76
18
63
71
13
46
58
12
33
49
12
30
48
12
29
45
14
27
42
12
23
35
13
27
42
18
29
44
21
29
43
21
29
41
24
33
41
34
32
48
77
64
81
100
84
88
168
152
114
229
221
153
237
227
150
209
183
118
146
106
84
172
124
115
169
124
114
163
128
118
224
193
180
229
203
188
229
206
189
232
207
189
233
206
190
234
205
189
234
206
192
234
206
192
235
206
192
236
207
193
234
208
191
233
207
190
231
205
188
230
206
188
230
207
189
229
208
189
229
208
189
230
207
191
230
207
191
230
207
191
229
205
190
229
203
190
229
203
190
230
204
191
228
205
189
227
206
187
227
205
184
227
205
182
226
201
182
222
197
180
194
148
140
190
115
119
205
122
130
203
94
109
200
107
115
226
178
170
220
195
179
221
197
181
218
195
179
219
194
176
216
190
173
215
189
167
193
165
140
125
91
64
77
42
20
68
31
14
65
28
14
63
27
13
59
26
12
60
29
14
61
29
16
61
28
16
61
28
13
62
29
13
62
29
16
59
27
12
59
27
10
59
27
9
62
30
10
65
31
18
52
26
27
38
22
34
38
23
38
39
25
41
41
25
43
41
25
43
41
25
42
40
24
40
42
24
38
39
22
35
37
21
37
37
22
41
34
23
38
35
22
37
35
22
37
34
23
37
36
23
39
35
22
39
35
22
40
35
22
40
34
21
38
33
20
37
28
15
33
27
16
33
26
16
32
24
15
30
24
16
29
26
18
32
28
20
35
28
19
36
29
20
38
27
18
35
27
16
33
28
17
34
29
18
35
29
18
35
29
19
36
28
19
36
28
19
38
28
19
36
26
18
33
26
18
31
24
16
29
28
20
34
27
19
34
27
17
34
28
17
34
26
15
32
25
14
31
143
149
173
139
142
167
136
138
163
135
135
161
127
129
154
127
128
155
125
126
154
118
121
150
112
116
145
106
109
141
99
100
134
100
105
137
103
108
140
107
112
144
112
117
149
108
114
146
106
112
144
101
107
139
109
115
147
112
119
151
104
114
144
97
109
137
95
106
139
94
103
136
87
94
126
84
89
121
84
89
121
86
92
120
89
97
122
90
97
118
90
95
111
56
81
87
52
130
122
39
131
122
18
81
83
17
70
78
18
65
76
16
64
72
14
56
65
9
34
49
11
29
47
12
29
45
13
29
44
11
26
37
11
26
41
16
30
44
17
29
41
18
29
41
22
31
44
31
30
44
74
63
70
134
114
93
166
144
93
226
214
142
225
213
141
196
171
108
136
98
79
170
121
114
174
121
115
170
122
115
164
127
117
223
194
180
228
204
187
229
206
188
232
206
189
232
205
188
233
205
191
233
205
191
234
205
191
235
206
192
232
207
190
232
207
190
231
206
189
230
206
189
230
207
189
229
208
189
229
208
189
229
207
190
229
206
190
228
205
189
229
205
190
230
204
191
229
203
190
230
204
191
229
205
189
227
206
187
226
204
183
225
203
180
227
200
181
223
198
181
208
159
151
204
122
128
206
121
130
204
112
122
210
142
142
205
170
159
217
196
179
219
195
180
218
195
179
217
192
172
217
189
172
207
178
154
145
115
80
113
78
53
68
31
8
66
29
12
64
27
13
62
27
15
59
26
14
59
29
15
59
29
16
58
28
14
57
26
11
61
29
13
62
28
16
59
26
12
59
26
9
59
26
10
62
30
13
61
31
21
43
25
30
37
25
39
34
21
38
36
23
40
36
23
41
37
23
41
36
22
39
36
22
37
38
21
34
38
21
32
38
20
35
39
23
40
34
23
36
36
22
35
36
21
34
34
23
35
37
24
41
34
21
40
35
22
42
35
22
41
34
21
39
33
20
38
27
14
32
28
15
33
28
17
34
30
19
34
30
22
35
28
21
35
27
20
35
27
19
35
28
20
37
26
18
33
26
18
33
28
18
34
28
17
34
27
17
34
26
17
34
26
18
34
26
18
32
26
18
32
26
17
32
26
18
31
24
16
28
28
20
34
28
19
35
27
16
33
28
17
34
25
14
31
25
14
31
116
120
144
109
112
137
107
108
134
113
113
139
116
114
141
117
116
144
114
112
141
97
99
128
85
88
116
75
77
107
74
75
106
84
89
119
90
95
126
97
103
134
99
104
136
96
102
134
93
99
131
90
96
128
94
102
132
102
111
141
100
107
137
97
102
134
91
98
133
91
98
132
88
94
128
90
95
129
96
101
136
102
110
141
95
105
133
69
81
105
52
61
82
36
61
72
48
127
120
37
134
123
21
87
87
18
71
77
18
67
74
19
68
74
18
65
72
14
45
56
10
29
44
11
30
44
12
29
43
12
26
41
12
24
41
14
27
42
14
27
41
16
29
44
22
29
45
30
31
44
71
64
63
153
131
94
174
144
83
172
152
83
165
145
85
130
101
51
114
73
54
165
118
112
170
119
113
172
122
115
170
125
116
159
125
114
218
192
177
228
204
188
228
204
187
230
204
188
232
205
190
232
206
191
232
205
191
232
206
191
230
207
190
230
207
190
230
207
191
230
207
190
230
207
190
230
207
190
230
208
190
228
205
190
228
205
190
229
204
190
228
204
190
228
205
190
228
205
190
229
205
190
228
206
189
227
205
187
226
204
184
226
202
181
226
198
181
224
200
182
227
194
180
226
175
168
216
160
157
200
152
146
180
146
135
218
190
177
219
195
178
219
194
178
218
192
176
216
190
170
215
187
170
156
125
93
155
120
77
82
44
22
67
29
9
65
29
12
61
26
12
60
27
16
60
26
15
60
27
15
59
27
16
58
28
15
58
27
14
60
29
15
60
26
13
59
23
10
59
25
9
60
27
11
61
29
15
54
27
23
37
23
33
37
25
43
33
20
38
34
21
39
34
21
42
34
21
40
34
22
38
34
21
36
38
20
33
39
21
32
37
22
35
34
23
37
33
23
36
34
22
35
34
21
35
36
24
38
37
24
43
34
21
40
36
23
43
34
21
41
33
20
39
31
18
37
30
17
35
36
22
40
37
24
41
33
22
37
30
21
36
30
22
38
28
21
37
26
18
35
27
19
35
26
19
31
27
19
31
27
19
29
26
17
30
24
16
31
24
16
31
25
17
31
25
18
27
25
18
27
26
18
28
25
18
29
24
16
29
28
20
34
29
20
36
27
16
33
27
15
32
25
13
31
26
14
31
93
94
122
93
94
122
102
103
131
105
105
133
105
104
132
112
111
140
111
109
138
96
97
125
83
84
112
78
79
107
74
76
104
71
76
105
72
78
107
72
78
108
83
88
119
87
92
123
84
89
120
84
90
120
76
83
112
74
81
110
73
80
109
74
80
109
80
85
117
92
97
129
94
100
131
91
97
128
90
97
124
75
83
108
57
68
90
55
65
89
62
70
94
54
74
91
45
120
115
39
135
124
27
93
92
18
71
75
18
69
73
18
69
73
17
67
71
19
57
66
10
36
47
10
31
43
11
28
44
13
27
45
10
23
40
15
30
45
12
27
42
16
31
46
20
28
42
25
30
44
71
64
67
128
111
75
193
166
99
190
162
80
181
153
85
128
93
52
115
77
56
159
118
110
166
118
111
168
119
111
171
121
114
169
122
114
155
116
107
214
183
170
229
204
189
225
206
188
226
207
190
227
208
191
228
208
191
229
208
191
230
207
191
230
207
191
230
207
191
230
207
191
230
207
191
229
206
190
228
205
189
228
205
191
228
205
191
230
204
191
230
204
191
228
206
189
228
206
190
228
206
190
227
205
188
228
205
187
228
203
185
228
203
183
228
200
183
222
199
181
223
196
179
186
144
132
158
112
104
167
130
119
217
187
173
220
195
180
220
195
176
218
193
175
217
191
172
217
190
172
174
145
121
168
135
81
122
86
48
69
32
13
65
30
11
61
28
11
57
26
10
60
27
14
60
26
14
62
26
14
61
27
15
60
28
15
61
29
16
60
30
16
60
27
12
60
23
9
60
25
10
59
27
11
60
29
20
48
25
32
34
22
41
34
22
44
35
22
40
34
21
39
34
20
42
34
22
42
32
23
39
34
22
36
36
21
33
36
22
33
36
23
36
34
21
36
34
22
38
33
22
38
33
22
38
39
28
44
37
24
43
35
22
41
35
22
42
32
19
39
31
18
36
35
22
39
40
28
44
41
27
43
34
21
38
31
20
36
29
21
36
29
20
37
28
19
36
26
17
34
26
17
33
26
18
31
27
19
29
26
20
26
26
19
29
25
17
30
24
16
29
25
17
30
25
18
27
25
18
26
26
19
27
26
18
28
25
17
30
28
20
35
29
20
37
27
16
33
26
13
31
26
13
31
27
14
32
113
113
143
124
124
154
127
126
156
126
126
155
123
123
151
124
124
152
122
122
150
112
113
141
106
107
135
94
95
123
80
82
110
73
78
104
66
70
98
65
69
98
67
71
101
69
74
103
73
78
107
74
79
108
67
71
100
61
65
95
62
67
96
68
73
102
80
85
114
87
92
121
81
86
115
66
72
99
57
65
86
58
67
88
68
79
101
75
86
111
81
88
114
73
87
107
46
111
111
41
133
124
30
100
97
18
70
74
19
69
73
18
69
73
17
67
71
18
62
68
14
50
59
7
32
45
13
30
45
13
30
45
11
28
42
8
26
40
11
29
43
13
29
44
15
29
40
20
30
42
56
39
53
91
47
54
134
100
68
157
125
75
124
104
59
98
80
59
142
111
97
163
117
108
165
118
112
166
118
110
171
118
112
173
119
114
174
123
116
158
113
105
192
162
149
227
204
188
227
205
188
228
205
189
230
206
190
230
206
190
230
207
191
230
207
191
230
207
191
230
207
191
229
206
190
229
206
190
229
206
190
228
205
191
227
204
190
230
204
191
230
204
191
228
205
189
228
205
189
228
205
189
228
204
187
229
204
185
229
203
183
229
202
181
229
201
182
223
201
179
224
200
179
221
189
172
214
178
167
220
188
175
222
195
180
220
196
180
218
195
174
218
193
174
218
191
171
193
163
142
164
131
73
160
124
67
86
49
21
63
30
9
63
31
11
59
29
11
58
28
12
60
27
15
60
26
14
61
26
14
61
27
14
61
27
13
61
29
15
61
29
14
58
26
11
59
23
9
58
25
10
58
28
13
54
26
23
42
23
39
36
23
49
34
21
43
35
22
39
35
22
38
35
22
42
34
21
41
33
22
38
35
21
36
37
21
34
36
23
34
36
23
36
35
22
37
33
22
38
32
21
38
34
23
39
34
23
39
35
22
40
35
22
40
35
22
40
34
21
40
35
22
40
38
25
42
37
25
41
32
21
36
30
20
36
28
19
35
28
20
35
27
18
35
27
18
35
27
18
35
27
18
34
25
17
30
25
17
27
25
18
25
26
19
29
26
18
31
25
17
30
25
17
30
24
16
28
25
17
28
25
17
29
24
16
28
23
15
28
26
18
33
28
19
36
27
15
33
28
15
33
27
14
32
27
14
32
119
118
149
130
128
160
130
129
161
131
130
161
128
129
157
123
124
152
116
117
145
115
116
144
120
121
149
114
115
143
101
102
130
94
97
122
90
92
119
83
85
114
82
84
113
81
86
111
78
83
108
72
76
101
69
73
100
70
74
102
79
83
111
79
83
112
71
75
101
58
62
88
57
62
88
65
71
96
72
79
103
78
87
113
82
92
120
90
101
129
95
102
130
94
104
127
50
106
110
44
133
125
34
107
103
19
70
74
19
69
74
19
70
74
17
67
71
15
65
69
17
61
69
10
38
52
12
29
44
11
30
42
13
30
44
10
24
40
15
27
43
13
27
42
14
30
40
18
31
42
47
22
48
110
34
72
110
46
64
89
60
57
127
170
161
105
142
129
155
123
115
165
117
107
166
117
112
165
118
110
168
117
110
168
118
111
168
120
113
171
125
116
162
120
110
160
125
114
209
178
165
230
200
186
228
202
187
228
205
189
227
204
189
228
205
189
228
205
190
229
206
190
229
206
190
228
205
189
228
205
189
228
205
191
227
204
190
230
204
191
230
204
191
229
204
189
229
204
189
229
204
188
229
204
186
229
204
184
229
203
181
229
203
180
228
202
180
226
204
181
224
204
180
223
199
178
225
196
182
223
196
181
222
196
181
217
195
178
216
195
172
218
193
172
206
178
158
149
117
66
186
148
75
132
92
47
69
30
8
66
30
11
65
31
12
62
30
12
60
28
13
59
26
14
59
25
13
60
25
13
61
25
11
62
28
13
61
28
13
59
27
12
57
26
10
59
24
9
59
26
11
58
29
17
49
25
26
35
20
36
32
21
39
34
22
40
33
21
36
35
23
37
36
23
42
34
21
41
33
22
38
36
22
36
39
21
34
39
23
34
36
23
36
33
23
37
33
22
39
33
21
39
33
22
39
33
22
39
34
21
38
35
22
39
39
26
43
37
24
42
34
21
39
34
21
39
33
20
37
29
22
36
29
23
37
28
21
36
27
19
34
25
16
33
25
16
33
26
17
34
25
17
33
24
16
29
25
17
26
25
18
25
26
18
29
26
18
31
25
17
30
24
16
29
25
17
30
26
18
32
25
17
30
22
14
27
21
13
26
22
14
29
25
16
33
29
17
34
29
16
34
28
15
33
27
14
32
113
108
140
126
122
154
133
128
160
136
134
165
130
131
160
122
123
152
117
118
147
111
112
141
113
114
142
117
118
146
107
108
136
97
98
126
98
99
127
100
101
129
97
99
126
100
101
128
99
101
127
95
97
123
93
94
122
82
84
111
68
71
97
56
61
86
58
62
88
67
71
98
77
81
108
86
90
118
84
91
119
83
90
118
82
89
118
88
99
126
103
110
138
105
115
140
59
102
109
46
132
124
36
113
108
18
70
74
19
70
74
19
70
74
18
69
73
18
69
73
16
67
71
16
53
61
12
31
46
12
29
46
15
30
46
12
26
43
12
27
44
15
29
44
19
30
42
18
32
47
40
27
43
93
45
64
95
70
69
90
98
86
139
218
207
101
180
168
153
125
119
165
119
111
165
117
113
166
117
110
166
117
110
165
118
110
166
119
112
167
118
113
171
120
116
171
120
116
158
115
108
162
126
117
198
167
156
225
196
184
229
202
190
226
202
189
226
203
190
227
205
190
228
206
190
227
206
189
226
205
188
227
206
188
226
205
187
229
204
188
230
204
188
230
203
190
229
203
189
229
203
188
228
202
185
228
202
183
227
201
181
228
202
180
227
203
181
224
203
181
223
202
181
219
200
180
221
198
182
221
198
180
220
196
177
217
194
174
216
194
173
212
188
166
148
119
82
172
139
62
167
128
63
94
52
24
68
29
9
68
31
12
67
31
13
62
28
11
61
29
14
59
28
14
59
26
13
59
25
12
61
26
12
63
27
13
63
28
13
61
27
12
56
26
13
58
25
6
60
29
9
55
28
22
43
25
33
35
22
41
34
21
38
34
22
38
34
23
39
34
21
38
34
21
38
35
21
39
37
22
40
39
21
39
39
21
37
38
22
36
35
22
35
34
23
35
33
21
38
33
21
39
34
21
39
34
21
39
37
23
41
39
24
43
36
23
41
33
20
38
34
21
38
34
21
38
34
21
38
30
22
36
29
23
36
28
22
36
25
19
32
24
15
33
25
16
33
25
16
32
24
16
30
25
17
28
26
18
29
26
18
28
26
18
29
26
18
30
24
16
29
24
16
30
29
17
34
29
18
35
28
18
34
25
15
32
26
15
32
29
18
36
31
20
39
30
19
36
28
16
33
25
15
31
24
15
29
115
110
139
123
119
148
130
125
154
134
131
160
130
131
158
124
125
153
121
122
150
118
119
147
119
120
148
119
120
148
108
109
137
99
100
128
98
99
127
99
100
128
102
103
130
104
106
131
98
100
125
85
87
112
71
72
95
60
62
85
62
66
93
71
76
105
83
87
114
88
92
119
86
90
117
86
92
119
83
93
120
81
91
118
83
93
120
93
104
129
104
111
140
109
118
144
67
101
110
50
133
126
40
118
112
19
68
73
18
69
73
19
70
74
19
70
74
19
70
74
18
68
72
20
64
69
15
47
58
10
31
47
10
28
44
13
29
45
10
24
41
16
28
45
17
30
43
16
31
45
25
32
39
75
83
69
105
135
104
91
141
109
140
236
217
89
194
177
140
126
115
162
118
109
165
116
111
164
118
110
164
118
110
165
118
110
165
117
111
165
115
110
167
117
113
169
117
113
170
118
114
172
122
118
162
115
110
156
114
108
180
148
140
209
179
170
225
197
186
227
201
188
226
201
186
227
203
188
227
205
188
227
204
186
227
203
185
228
203
186
229
202
186
230
201
189
229
201
187
229
201
185
229
201
183
228
201
182
227
199
180
228
200
182
226
202
181
222
201
181
223
202
183
219
200
182
218
199
182
216
196
177
217
196
175
218
194
171
214
190
169
156
133
112
165
129
63
179
147
62
134
101
48
70
31
13
65
30
11
66
30
11
65
30
12
61
29
11
61
30
14
60
29
13
59
27
12
59
26
11
61
26
12
63
27
13
62
26
12
61
26
11
57
25
11
59
26
8
63
34
18
52
26
28
42
23
37
36
22
40
34
22
34
33
22
36
33
22
38
34
21
38
33
20
37
37
23
40
37
23
40
38
22
40
38
22
39
37
22
37
35
22
37
32
21
35
31
19
36
32
19
37
35
22
40
37
24
42
36
22
40
34
21
39
32
20
38
31
20
37
32
21
37
33
22
38
33
22
38
30
23
36
29
23
35
27
21
33
25
19
31
24
16
32
25
17
32
25
17
31
24
16
28
26
18
29
26
18
29
26
18
29
26
18
29
26
18
30
24
16
30
26
17
33
28
17
34
27
16
33
26
16
33
28
19
35
34
23
40
35
24
41
31
20
37
27
16
33
26
15
32
23
15
29
22
15
28
120
116
141
124
120
146
126
122
148
131
128
154
129
131
156
128
130
155
125
127
152
124
126
153
125
126
154
122
123
151
115
116
144
109
110
138
108
109
137
109
110
138
102
103
130
86
88
111
67
69
91
63
65
88
74
75
98
87
88
112
95
98
125
99
104
133
99
103
130
100
104
131
97
101
128
90
94
121
88
91
118
93
96
123
98
101
128
98
103
130
96
102
131
95
102
129
64
91
103
51
131
125
40
117
112
17
63
69
18
69
73
18
69
73
18
69
73
18
69
73
17
68
71
18
67
71
18
62
69
9
41
54
9
29
44
13
30
46
12
28
44
12
27
43
12
28
41
15
34
44
19
40
38
87
119
87
94
143
95
90
151
113
137
242
223
79
200
180
131
125
112
159
120
108
164
118
110
161
120
110
163
120
110
164
119
110
165
118
111
163
114
109
164
114
110
167
117
112
167
116
112
167
117
112
167
118
113
170
123
117
165
120
115
153
111
105
156
118
111
174
140
131
200
168
156
223
192
179
228
200
185
226
198
182
225
198
182
226
200
183
225
199
182
226
198
184
228
200
184
227
199
181
228
202
181
226
201
179
223
197
178
224
198
182
223
199
181
220
199
180
221
200
183
219
200
183
218
196
179
218
194
177
217
193
173
216
192
170
166
157
139
82
91
72
151
128
68
169
136
67
94
62
26
64
28
13
66
30
13
64
29
10
61
29
10
60
30
12
59
30
13
60
30
12
60
29
11
60
28
11
62
27
12
63
27
13
62
26
12
61
25
11
59
25
10
63
30
13
58
31
21
43
22
31
40
20
36
36
20
35
33
23
32
33
22
36
33
22
38
34
21
38
33
20
37
33
20
37
34
21
38
33
21
38
33
21
37
32
20
37
32
20
36
32
19
36
34
22
39
36
23
41
37
24
42
33
21
38
33
21
39
33
22
39
32
22
39
31
22
38
30
22
37
30
22
37
31
23
38
28
20
32
28
20
31
26
18
29
24
16
28
25
17
30
27
19
31
27
19
29
25
18
28
25
17
28
26
18
29
25
17
28
25
17
28
25
17
28
25
17
31
27
19
34
28
17
34
27
17
34
30
21
38
32
23
40
32
24
39
26
18
33
25
17
32
25
16
32
24
15
31
22
15
29
19
13
25
126
122
145
124
119
142
125
121
144
129
127
151
131
133
157
129
131
154
130
132
156
129
131
157
126
127
155
120
120
148
114
114
142
108
109
136
97
98
125
83
84
111
65
66
92
64
66
88
73
75
97
81
83
106
88
89
115
92
93
120
93
96
122
96
100
126
94
98
125
96
99
126
97
101
128
94
97
124
94
95
121
99
100
127
99
100
126
93
97
124
92
96
126
91
98
125
68
90
105
51
127
122
42
119
114
16
60
66
16
66
71
18
69
73
18
68
73
16
67
72
15
67
71
16
68
72
17
64
71
16
57
67
10
38
50
9
30
45
14
29
46
12
23
41
13
29
42
13
33
44
17
39
36
80
113
77
94
145
92
89
162
125
119
243
225
62
192
171
131
127
113
160
120
107
166
120
110
173
137
125
180
142
131
163
120
111
165
118
111
164
116
110
163
114
109
164
115
110
164
114
110
164
115
110
163
115
110
164
116
111
167
115
113
165
116
112
167
120
115
166
119
114
158
112
104
149
107
98
160
124
114
179
148
135
200
171
156
218
190
175
226
199
184
222
197
182
222
199
182
221
199
180
224
202
179
222
203
178
219
200
179
218
198
180
220
197
179
220
199
180
220
199
182
217
197
181
215
195
177
215
193
174
212
192
172
191
175
159
84
107
97
67
119
108
87
95
70
127
102
62
67
37
13
60
34
12
62
32
13
62
30
10
60
29
10
58
29
11
59
30
12
61
30
11
61
30
11
62
29
11
62
27
11
62
26
11
62
26
11
62
27
12
63
27
10
65
32
19
51
28
23
40
23
33
39
20
34
37
20
33
32
22
35
33
22
38
33
22
38
34
21
38
33
20
37
33
20
37
33
21
38
31
21
37
29
20
36
30
18
35
32
20
37
38
25
42
37
24
42
34
21
39
33
20
38
35
22
40
33
22
39
31
22
39
31
22
39
29
22
38
27
21
36
27
21
35
28
22
36
25
17
29
24
17
27
26
18
28
25
17
28
25
17
28
27
20
29
28
21
28
26
18
26
24
17
27
25
17
28
25
17
28
25
17
29
25
17
29
25
17
31
27
19
34
27
17
34
31
22
38
30
22
37
27
19
34
24
16
29
25
17
30
25
17
30
26
17
33
23
14
31
20
14
27
20
14
26
127
121
144
127
120
144
136
132
157
143
144
168
144
145
168
142
146
168
143
148
170
142
144
168
137
136
162
120
117
144
100
97
123
78
77
103
69
69
94
71
71
96
72
73
97
80
82
105
81
83
107
76
78
103
71
72
100
72
73
101
77
78
106
89
90
118
93
94
122
95
96
124
96
97
125
99
100
128
97
98
126
97
98
126
98
99
127
97
101
127
98
103
131
94
103
130
77
94
112
51
123
117
41
124
115
15
60
65
18
66
71
17
68
71
17
67
72
16
64
75
15
64
73
17
66
73
15
63
71
16
61
70
15
52
65
8
33
49
15
32
49
13
28
43
11
26
38
14
31
45
17
38
41
68
97
69
91
139
87
72
159
119
65
210
185
51
167
145
140
125
109
163
120
106
165
123
112
208
177
159
225
193
178
175
137
126
165
118
110
165
115
108
165
115
109
164
114
110
164
113
112
163
113
112
162
112
111
162
113
111
163
113
110
164
114
110
165
115
112
167
115
111
165
113
109
167
117
112
166
117
112
161
116
110
155
111
105
151
112
104
154
118
110
170
135
127
195
167
157
209
185
173
221
190
179
219
194
178
214
196
174
218
195
173
217
194
173
216
194
173
217
194
174
216
194
173
216
193
170
217
188
170
198
182
169
89
89
83
52
93
91
52
121
114
56
113
103
54
73
57
57
38
21
62
34
13
61
34
9
59
31
10
61
30
11
61
30
12
62
29
12
62
29
10
62
29
10
62
29
10
62
29
10
62
29
10
62
29
10
62
29
9
68
31
13
66
33
26
44
23
28
36
24
36
35
22
36
34
21
35
34
20
35
34
21
37
34
21
38
34
21
38
33
21
38
33
22
39
30
19
36
29
18
35
31
20
37
33
19
38
34
22
39
34
23
40
32
21
38
32
21
38
32
21
38
33
22
39
33
22
39
32
21
38
28
19
36
29
20
37
27
20
36
25
18
34
25
17
33
24
17
30
24
16
29
25
17
30
25
17
30
25
17
29
25
17
28
26
19
27
25
18
25
24
17
25
25
18
26
26
18
29
25
17
30
26
18
33
27
19
34
29
21
36
29
21
36
26
18
32
24
16
28
24
16
26
24
17
25
25
17
27
25
16
28
25
15
30
24
15
30
20
14
28
19
14
28
123
115
139
123
114
139
127
122
147
136
137
161
141
143
166
139
143
166
134
140
162
128
130
154
111
109
135
92
89
115
83
80
107
90
90
116
109
109
134
110
110
135
102
102
127
101
103
126
99
101
125
93
95
120
86
87
115
83
84
112
87
88
116
94
95
123
97
98
126
97
98
126
93
94
122
94
95
123
98
99
127
95
96
124
98
99
127
99
103
129
101
106
135
99
107
134
88
102
120
50
117
113
41
123
114
14
62
67
16
64
69
17
68
70
16
66
71
16
64
73
15
64
72
16
65
72
15
63
71
15
62
70
19
59
71
15
49
62
8
33
47
10
29
44
10
25
36
14
31
43
15
35
42
56
82
61
92
137
88
65
136
89
55
172
138
66
127
105
149
123
110
166
121
111
173
133
122
225
196
178
227
199
182
214
181
168
167
122
113
167
115
108
167
115
110
168
115
112
165
113
112
164
113
112
163
113
112
163
114
112
163
114
110
164
115
111
164
115
111
163
114
110
161
112
107
162
114
108
164
115
110
163
114
109
163
115
109
162
115
109
163
116
110
164
114
111
153
108
103
142
104
97
130
98
91
136
117
108
156
141
129
176
157
144
190
168
154
199
177
162
204
181
167
204
184
169
198
179
166
180
158
151
103
98
94
34
58
62
22
60
61
35
93
85
42
116
106
51
107
98
44
53
42
64
33
16
65
31
10
60
31
10
61
30
11
61
30
12
62
29
12
62
29
10
62
29
10
62
29
10
62
29
10
62
29
10
62
29
10
63
30
10
72
39
22
57
29
26
38
22
30
34
23
36
34
22
36
34
22
36
33
21
35
34
21
37
34
21
38
34
21
38
31
18
35
26
15
32
25
14
31
29
18
35
33
22
39
34
22
39
33
22
39
28
19
36
31
20
37
31
20
37
30
19
36
32
21
38
32
21
38
30
20
37
28
19
36
30
20
37
28
18
35
27
18
35
27
17
34
26
18
33
26
18
33
26
18
33
26
18
32
26
18
31
26
18
30
26
18
28
25
18
26
25
18
25
25
18
26
24
16
27
25
17
30
28
20
35
30
22
37
29
21
36
25
17
32
24
16
30
25
17
29
26
17
27
26
16
26
26
15
27
25
14
28
25
14
30
24
15
30
23
16
30
19
15
29
123
114
138
125
115
140
122
116
142
124
122
147
128
125
150
118
117
141
98
99
122
83
81
107
85
81
108
99
96
123
116
115
141
125
125
151
128
128
154
125
125
151
124
125
149
120
122
145
116
118
142
111
113
138
105
106
134
98
99
127
97
98
126
100
101
129
102
103
131
100
101
129
97
98
126
99
100
128
100
101
129
97
98
126
99
100
128
99
103
129
99
103
132
99
104
132
93
103
123
51
111
109
45
126
117
17
67
71
20
68
72
18
69
69
17
67
71
15
64
71
16
63
71
16
63
71
15
64
71
15
64
71
15
63
73
17
61
71
13
46
57
8
30
44
13
28
39
9
27
37
13
32
43
37
62
49
91
132
86
87
135
86
69
118
82
87
101
76
154
122
109
167
122
117
187
149
138
227
200
181
228
204
186
228
200
185
198
159
147
168
118
111
164
115
109
163
113
109
166
113
113
165
114
113
165
114
113
164
114
112
161
113
109
162
113
109
162
113
109
160
113
108
157
112
106
158
111
105
160
112
107
158
112
106
158
112
106
159
113
107
160
113
107
161
111
107
159
111
107
152
110
104
104
77
73
41
31
34
38
34
37
42
33
40
43
32
36
48
38
39
57
46
47
63
53
54
47
41
44
36
36
39
32
52
55
21
57
63
18
56
61
15
61
59
33
95
93
39
114
106
44
98
88
44
43
32
59
32
12
60
31
10
61
30
11
61
30
12
62
29
12
62
29
10
62
29
10
62
29
10
62
29
10
63
30
11
62
29
10
66
33
14
72
41
26
48
27
30
34
22
36
34
24
37
34
22
36
33
21
35
33
21
35
34
21
37
34
21
38
32
19
36
29
16
33
24
13
30
26
15
32
33
22
39
32
20
38
32
21
39
32
22
39
28
18
35
30
20
37
31
20
37
30
19
36
33
22
39
32
21
38
31
20
37
28
19
36
30
20
37
30
19
36
29
17
34
28
17
34
27
18
35
27
18
35
27
18
35
26
17
33
26
18
33
27
19
33
25
17
29
25
17
26
25
18
25
25
18
26
25
17
28
28
20
34
27
19
34
28
20
35
24
16
31
23
15
30
25
17
31
26
18
30
26
17
29
26
15
28
26
14
29
24
12
29
24
12
28
23
14
30
22
16
30
19
15
29
131
122
148
132
124
150
121
117
142
102
101
126
86
81
107
70
66
92
77
75
100
93
90
116
99
96
123
97
95
122
103
101
128
106
105
131
110
109
134
108
108
131
112
113
136
115
117
140
112
114
137
102
104
128
95
97
124
96
97
125
99
100
128
101
102
130
102
105
132
104
106
134
105
107
134
104
106
135
101
104
135
99
102
133
100
103
134
100
105
132
99
103
131
97
101
128
96
102
124
49
104
104
43
127
118
18
73
75
34
80
83
19
70
69
16
67
70
15
64
70
17
63
72
16
63
72
16
63
72
15
64
72
16
61
72
16
64
73
16
60
69
11
43
55
13
32
42
12
28
39
11
29
41
19
41
39
83
123
81
90
137
84
96
136
90
96
103
74
156
122
109
167
122
117
197
161
149
229
203
185
228
205
186
227
204
187
228
197
181
179
137
125
167
119
112
163
115
110
166
114
111
165
113
111
165
114
112
164
114
112
158
111
106
157
110
104
157
112
104
156
112
105
153
111
104
155
111
105
156
112
105
157
112
105
157
111
103
157
110
103
157
109
103
154
109
103
153
108
102
143
107
101
70
50
50
32
27
40
28
27
40
28
28
43
29
28
42
29
29
42
28
29
41
25
27
40
23
28
42
19
29
39
13
30
39
14
39
48
17
50
58
13
55
60
16
62
66
32
100
92
38
117
106
40
82
72
51
36
21
60
30
12
62
30
10
61
30
11
61
30
11
62
29
10
62
29
10
62
29
10
62
29
10
65
30
14
64
31
9
68
36
15
57
30
22
41
25
32
32
23
37
31
22
35
33
22
36
34
22
37
34
22
38
34
22
39
34
21
39
34
22
38
35
22
38
27
15
33
32
20
38
36
24
42
33
20
38
32
20
38
30
19
36
27
17
34
30
19
36
31
19
37
32
20
37
31
21
38
30
21
38
29
21
37
28
19
36
32
19
37
33
18
37
31
18
36
28
17
34
27
18
35
27
18
35
26
18
33
25
17
32
25
17
32
27
19
33
26
18
31
25
18
30
25
17
27
25
18
27
24
17
25
25
17
29
24
16
29
25
17
30
24
16
30
24
17
31
26
19
33
26
19
32
27
18
33
27
15
32
25
13
31
24
13
31
21
12
29
22
13
29
22
14
29
19
13
28
121
116
141
103
101
125
75
77
100
64
67
90
64
61
88
73
71
98
83
83
109
91
89
115
85
82
109
86
84
111
95
92
119
98
93
124
101
98
126
101
99
125
100
101
125
102
104
129
105
107
132
102
104
129
98
99
126
98
99
127
99
100
128
99
100
128
97
100
128
99
103
130
100
104
131
99
104
132
100
107
137
99
106
136
99
105
135
101
107
135
104
109
134
103
108
131
101
105
127
53
103
106
45
129
121
17
75
75
24
68
72
34
83
82
15
67
69
16
63
70
17
63
72
16
63
73
16
63
73
16
63
73
17
60
72
14
63
73
15
63
73
16
56
67
10
39
49
14
29
44
11
25
40
18
30
39
74
104
72
90
134
81
99
137
88
100
104
78
160
121
110
169
124
116
205
171
159
230
203
188
229
204
189
227
206
189
228
203
185
216
182
167
170
124
116
167
116
112
166
116
109
163
112
108
164
113
110
164
114
110
158
111
105
157
111
103
156
112
101
156
112
103
156
110
104
156
110
104
156
111
104
156
112
103
155
111
102
155
110
101
155
109
101
152
108
100
147
106
98
131
100
97
42
32
37
21
26
38
21
26
38
20
27
38
20
27
38
20
29
40
17
27
37
14
27
37
13
26
37
13
25
37
11
22
34
11
26
36
10
33
43
14
45
54
16
55
62
16
69
69
33
109
104
41
111
98
41
64
53
56
32
19
61
30
12
57
32
10
58
31
11
61
30
10
61
30
10
61
30
10
61
29
11
63
27
14
68
33
11
68
38
20
45
23
25
40
26
37
32
23
37
32
22
35
33
21
35
33
20
37
34
21
39
35
22
40
35
22
40
35
23
38
33
21
36
28
15
33
34
21
39
34
21
39
34
21
39
32
19
37
30
18
36
29
19
36
33
17
36
33
17
36
33
18
37
32
20
37
29
20
37
27
21
37
29
20
37
32
18
36
32
17
36
30
17
35
28
17
34
27
18
35
27
18
35
25
17
32
25
17
30
25
17
30
25
17
30
25
17
30
26
18
31
25
17
29
24
17
26
25
18
25
24
17
27
26
18
29
26
18
29
26
18
29
25
18
31
26
19
33
26
18
34
28
18
36
27
15
35
24
14
33
22
13
32
20
13
30
20
11
27
21
11
28
20
13
29
81
82
105
75
76
100
88
89
112
98
99
123
101
98
125
98
96
123
94
94
120
88
89
114
87
88
113
93
92
118
95
93
120
97
92
124
99
96
128
102
98
131
102
102
132
103
104
131
102
104
131
96
97
124
91
93
120
89
90
118
93
94
122
92
93
121
89
90
118
91
92
120
96
97
125
100
101
129
100
102
130
101
104
132
100
103
130
99
101
127
104
105
129
103
105
127
98
101
122
53
95
100
49
129
122
17
75
76
15
61
64
34
79
80
17
66
70
16
62
69
17
62
72
16
63
73
16
63
73
16
63
73
17
63
73
15
64
73
15
63
72
16
61
71
14
56
63
9
37
48
13
30
46
18
26
40
59
82
61
90
132
82
103
132
88
114
101
81
164
121
112
169
127
118
215
183
170
229
203
189
229
204
190
228
204
190
226
204
188
228
201
185
203
166
154
170
121
112
166
116
108
163
113
107
165
114
109
164
114
109
158
111
105
157
111
103
155
111
100
157
110
102
157
107
103
157
107
102
157
107
103
155
109
101
155
111
102
154
110
101
153
110
100
149
108
98
144
104
97
118
87
86
32
20
30
20
23
36
20
25
37
19
25
36
15
24
36
16
28
40
12
26
38
11
27
38
11
25
36
11
24
35
11
21
34
11
22
34
11
26
39
5
29
40
12
44
54
16
54
62
21
78
79
32
117
105
43
103
91
43
45
34
59
31
18
58
30
10
59
30
10
61
30
10
61
30
10
60
29
9
60
28
10
60
25
9
66
34
15
59
32
24
41
21
31
42
27
44
35
22
40
33
20
36
33
21
35
33
20
37
34
21
39
35
22
40
34
21
39
32
19
35
34
22
36
28
15
33
35
22
40
35
22
40
33
21
38
32
21
38
32
20
37
32
20
38
35
18
37
34
17
36
33
18
36
32
18
36
30
19
36
28
21
37
29
20
37
32
19
37
30
18
35
28
17
34
29
18
35
28
18
35
26
18
34
25
17
31
23
15
28
23
15
27
24
16
28
24
16
28
25
17
28
25
18
27
24
16
26
25
17
27
26
18
29
25
17
28
26
18
29
26
18
29
25
17
29
26
18
31
25
17
31
27
17
34
28
16
36
24
14
33
22
13
32
21
14
31
20
11
28
19
11
27
17
15
29
96
97
120
108
107
131
111
108
132
109
105
131
104
101
128
101
100
126
102
102
128
96
100
124
95
100
124
97
98
124
98
96
123
98
94
121
99
96
125
103
100
131
107
106
138
106
107
136
102
103
131
99
100
128
96
97
125
97
98
126
98
99
127
95
96
124
96
96
124
97
97
125
99
99
127
99
99
126
101
101
125
100
100
124
92
92
116
89
87
111
95
94
118
96
98
119
89
91
111
52
90
96
49
126
120
18
76
76
16
63
66
18
59
61
28
75
79
17
63
70
16
62
71
16
63
73
16
63
73
16
63
73
16
63
73
16
63
73
16
63
73
15
63
72
18
63
70
17
51
62
12
33
48
17
26
43
32
52
41
92
128
83
97
113
76
139
112
98
167
120
112
171
131
121
223
193
180
227
204
190
228
204
191
229
203
190
228
203
190
226
202
188
228
198
182
201
162
148
168
119
109
167
117
108
165
115
108
164
114
110
160
113
107
157
111
103
155
111
100
156
110
102
157
109
103
157
109
103
157
109
104
157
110
102
155
110
101
151
109
100
149
110
99
147
108
96
145
103
97
107
68
72
49
23
39
24
22
36
13
27
36
7
28
34
12
24
37
13
25
39
13
27
40
12
26
39
13
23
35
11
23
35
10
23
35
10
22
33
11
22
36
10
25
39
8
26
40
9
42
48
13
55
57
24
95
87
36
116
104
38
87
70
50
34
22
63
28
10
60
30
9
61
30
10
61
30
10
60
29
9
59
26
8
59
26
8
61
31
14
49
24
24
38
21
36
38
24
46
40
25
46
39
24
41
36
24
39
35
22
39
34
21
39
34
21
39
34
21
38
33
21
36
32
20
34
29
16
34
36
23
41
36
23
41
33
21
38
31
20
37
32
20
37
33
20
38
33
18
37
31
18
36
28
17
35
27
17
34
30
16
34
26
17
34
28
18
35
30
19
36
29
19
36
27
16
33
28
17
34
27
17
34
25
16
33
23
15
29
20
12
25
22
14
25
24
17
27
26
18
28
25
18
27
25
18
25
25
17
27
24
16
29
25
17
29
26
18
29
26
18
29
26
18
29
26
17
28
26
17
29
24
14
28
26
15
32
28
16
36
23
13
32
21
12
31
20
13
30
19
11
27
18
11
27
15
15
28
111
107
128
113
109
132
114
108
133
106
100
128
97
92
120
90
86
113
94
96
120
97
101
124
98
101
126
100
102
125
99
101
123
98
99
116
97
97
119
99
98
126
101
101
132
101
102
130
99
100
127
99
100
128
100
101
128
105
106
133
108
110
137
107
108
135
103
100
131
100
98
128
99
96
127
100
99
127
101
103
124
99
100
121
98
96
119
96
94
116
89
90
111
77
78
98
66
68
88
44
78
84
51
125
119
18
75
77
17
62
70
11
45
52
31
75
75
18
67
67
16
62
71
15
63
74
16
63
71
16
64
70
15
63
69
14
61
68
16
63
71
15
63
69
14
63
61
18
60
61
16
51
54
12
36
42
16
33
29
89
105
81
111
94
78
160
116
111
167
118
113
176
136
125
229
201
185
230
206
191
231
207
192
230
206
191
230
205
190
230
204
189
228
201
186
226
195
181
193
154
141
167
120
111
166
116
110
163
115
110
163
114
111
160
113
107
156
111
102
157
112
102
157
110
103
157
110
102
157
110
103
156
112
103
153
110
102
151
110
103
150
110
103
147
107
99
143
105
96
91
59
56
77
33
48
58
22
41
31
17
34
14
25
38
9
27
38
11
25
38
12
25
39
13
26
40
11
25
39
12
23
38
13
21
38
14
22
39
10
19
36
9
20
36
11
24
40
7
27
37
12
43
48
15
60
60
32
106
97
42
109
98
43
54
47
57
33
18
58
28
8
60
29
9
61
30
10
61
30
10
62
28
9
61
31
13
53
29
19
41
21
27
37
22
40
41
26
46
41
28
47
36
22
40
34
21
39
34
21
39
35
22
40
34
21
39
33
20
38
32
21
38
33
22
38
29
18
34
36
25
41
35
23
40
32
21
38
33
20
38
32
19
37
32
19
37
31
19
36
29
18
35
28
20
36
27
20
36
31
20
35
27
16
31
27
17
32
29
19
35
29
18
35
27
16
33
27
16
33
25
16
32
23
15
30
21
13
28
21
13
28
24
16
29
25
18
29
25
17
27
26
19
28
26
18
28
26
18
29
26
18
29
25
19
28
25
18
26
24
17
26
26
17
27
25
16
30
27
15
31
26
13
29
26
12
29
24
15
31
23
14
30
22
13
29
23
13
30
21
12
29
19
12
28
17
13
28
113
108
128
111
107
129
114
109
134
112
107
135
104
100
127
96
93
119
98
100
123
102
105
128
106
108
133
106
108
131
103
105
126
99
100
118
95
96
117
98
98
124
98
98
126
95
97
122
91
93
118
87
89
114
91
93
118
99
101
126
102
104
129
103
105
130
104
101
129
103
100
128
107
104
132
111
110
136
111
112
133
109
109
130
101
98
120
82
79
101
69
67
89
69
67
89
82
81
102
53
80
88
52
122
118
16
71
75
15
61
70
11
42
52
24
62
63
32
81
80
16
64
72
15
63
73
16
63
71
16
63
70
16
63
70
14
61
68
16
63
70
16
64
69
16
64
65
15
63
64
14
59
60
13
53
56
14
35
37
46
49
41
140
109
105
164
114
112
168
121
116
183
149
135
229
204
186
229
206
190
230
207
191
230
207
191
230
206
190
231
206
191
230
203
189
227
200
185
227
196
180
189
151
138
165
118
110
164
115
109
163
114
110
163
115
109
157
112
105
158
112
104
158
111
103
157
110
102
157
110
102
155
112
103
153
110
102
151
110
104
151
110
105
151
107
106
141
106
97
89
84
65
85
89
70
70
50
48
70
31
46
49
19
39
25
19
33
14
24
34
9
24
35
7
28
39
10
24
39
13
20
38
13
21
38
13
22
39
13
22
39
7
20
36
6
19
35
9
25
36
7
31
38
13
48
51
17
77
73
37
113
103
46
96
82
44
40
25
60
31
13
61
30
11
61
30
11
61
30
11
61
29
8
57
29
14
43
22
21
39
22
35
42
27
45
38
24
42
36
23
40
34
22
39
35
22
40
35
22
40
35
22
40
34
21
39
32
19
37
32
21
38
33
22
39
32
19
36
34
22
39
35
22
39
33
20
37
33
20
38
33
20
38
33
20
38
31
19
36
28
18
35
27
19
36
27
21
37
29
19
34
26
15
31
28
17
33
30
19
36
28
17
34
27
16
33
27
16
33
25
16
32
23
15
30
23
15
30
23
15
30
26
18
32
24
16
29
25
17
28
26
19
28
26
18
29
26
18
29
26
18
29
25
18
28
25
17
27
23
15
25
25
16
26
25
15
31
27
15
31
28
14
31
26
13
29
24
14
30
24
14
30
24
14
30
25
15
31
21
12
29
19
12
28
17
13
28
117
115
134
112
110
132
113
110
134
107
106
133
106
106
132
109
107
133
111
115
137
110
113
136
110
112
136
106
108
131
99
101
122
102
105
125
96
98
119
96
98
122
99
101
125
99
101
124
98
100
123
95
97
120
94
96
119
104
106
129
108
110
134
108
110
133
110
108
130
111
109
131
114
112
134
113
113
134
105
107
127
89
89
110
77
74
96
73
70
93
80
77
99
89
87
109
95
94
115
62
83
92
54
120
117
15
69
73
17
63
72
12
44
55
11
37
45
41
89
91
22
72
77
15
62
69
15
63
73
15
63
74
16
63
74
16
63
71
15
63
68
14
62
66
14
63
67
14
63
68
14
64
68
16
62
69
19
51
60
26
35
39
110
83
85
160
116
113
167
123
117
195
162
148
227
204
185
229
206
190
231
208
192
231
208
192
231
208
192
231
208
192
230
206
190
229
204
189
227
203
183
225
197
179
190
152
140
168
120
112
165
115
109
163
114
109
162
114
109
160
113
106
157
110
102
157
110
102
158
111
103
154
110
101
152
109
101
150
110
103
149
109
103
150
108
107
138
106
98
86
99
70
83
122
79
85
117
80
76
85
64
71
42
44
71
30
46
51
20
36
26
18
33
14
23
36
13
23
40
14
22
39
13
20
38
14
20
38
12
22
39
8
24
39
7
20
35
8
22
34
10
26
36
9
34
41
13
55
56
27
95
89
37
113
99
33
63
49
54
32
17
59
30
13
59
30
13
58
29
12
59
31
12
51
26
18
40
22
29
35
22
37
37
24
39
33
21
36
32
21
36
33
22
38
34
21
39
33
20
38
33
20
38
32
19
37
31
18
36
31
20
37
32
21
38
29
16
33
34
21
38
35
22
39
34
21
38
34
21
39
33
20
38
30
17
35
28
17
34
27
18
35
27
21
37
28
23
38
30
19
36
27
16
33
29
18
35
29
18
35
28
17
34
27
16
33
27
16
33
26
18
33
26
18
33
23
15
30
23
15
30
24
16
30
25
17
30
25
17
28
26
18
28
26
18
29
26
18
29
26
18
29
25
17
29
25
15
28
24
14
26
24
13
26
25
12
29
27
14
31
28
15
32
28
15
32
27
15
31
26
14
31
26
14
31
26
15
31
21
12
28
20
12
29
18
14
29
110
109
128
107
105
127
112
110
134
107
107
134
103
106
131
105
105
130
106
110
132
106
109
132
103
105
129
97
99
121
90
93
113
99
101
123
98
100
122
94
96
118
98
99
121
100
102
124
96
98
120
85
86
108
83
85
106
91
94
115
98
100
122
102
105
126
110
110
128
112
111
129
100
99
118
81
81
101
71
73
94
78
78
99
91
87
110
95
91
114
95
91
114
99
95
118
99
96
118
64
82
93
54
116
114
15
67
72
15
61
70
12
45
56
12
31
43
21
65
68
40
96
98
16
63
69
13
61
70
15
62
74
16
62
75
16
63
72
15
63
68
14
63
66
15
64
71
15
63
71
16
61
69
17
61
71
19
61
72
26
53
60
42
36
39
129
100
93
166
122
116
208
171
158
227
205
185
227
204
188
229
206
190
231
208
192
230
209
192
230
209
192
228
206
190
226
204
187
226
204
183
226
203
182
226
196
179
191
152
139
166
117
108
164
114
109
162
114
110
160
113
107
157
110
102
156
109
101
156
110
102
153
110
101
152
109
102
151
110
103
149
109
103
147
110
102
134
103
95
77
80
56
82
111
70
84
122
76
78
122
77
86
110
76
74
72
60
70
35
46
68
31
50
51
18
40
27
17
38
15
23
38
11
25
38
12
22
37
11
22
39
7
25
39
10
22
38
8
20
33
10
20
32
9
25
35
11
39
46
15
65
67
33
109
100
42
93
79
45
34
21
59
30
14
58
29
12
59
30
13
59
33
20
47
25
25
38
22
34
32
21
35
33
21
35
33
21
36
32
21
35
33
21
38
34
21
39
33
20
38
32
19
37
32
19
37
33
20
38
31
21
37
32
21
38
31
18
34
36
23
39
37
24
40
34
20
38
33
20
38
32
19
37
30
18
35
29
19
36
28
20
36
27
21
36
27
22
37
32
21
39
30
18
37
29
17
36
28
17
35
28
18
34
28
17
34
27
17
33
25
16
31
25
17
31
23
15
30
23
15
30
25
17
30
25
17
30
25
17
28
26
18
28
26
18
29
26
18
29
26
18
29
26
17
29
26
15
29
26
15
30
25
13
28
26
12
29
27
14
31
28
15
32
27
15
32
27
14
31
26
14
30
27
14
31
26
14
31
21
12
29
20
12
29
18
14
29
93
91
112
105
103
125
122
122
145
124
124
149
123
125
150
112
113
139
105
107
132
103
106
128
101
104
125
95
97
118
95
97
118
101
105
125
100
102
123
97
97
119
101
100
122
104
102
126
105
103
126
103
101
122
97
99
119
98
103
123
99
104
124
103
108
127
98
100
117
82
81
101
79
76
99
86
83
109
92
91
114
96
93
118
98
94
119
100
95
119
102
98
121
103
100
122
96
94
116
65
81
95
53
113
113
14
67
69
15
60
65
11
47
55
13
31
45
8
40
49
34
91
91
30
85
86
16
64
68
14
61
66
15
63
72
15
64
71
13
62
68
14
62
67
16
63
66
14
65
66
13
62
64
16
59
63
17
60
67
24
60
70
35
54
63
62
52
52
149
113
112
212
180
165
228
205
182
229
206
190
230
208
191
230
209
192
230
209
192
230
209
192
228
207
190
227
206
189
225
207
187
227
206
186
225
201
183
224
195
178
190
149
137
168
116
108
166
115
106
161
114
105
160
110
103
159
109
102
157
110
102
155
109
104
155
109
104
154
109
104
152
109
103
147
108
100
132
95
88
125
97
89
111
92
81
67
71
43
79
104
62
84
122
74
78
122
76
80
107
74
71
65
51
73
33
41
74
28
48
57
18
38
33
19
32
16
24
35
10
24
37
9
26
38
12
22
37
12
23
36
10
19
33
11
20
36
9
25
40
10
45
52
25
91
83
40
110
97
35
52
48
54
26
16
58
29
10
60
32
11
55
34
21
41
21
28
35
20
39
32
21
37
34
21
38
33
20
37
32
19
36
34
21
38
34
21
39
33
20
38
33
20
38
32
19
37
32
20
36
31
21
37
31
22
37
30
20
31
34
23
35
36
25
39
32
21
37
31
21
36
30
19
35
31
20
36
31
22
37
30
22
37
29
21
36
30
22
37
28
17
34
27
16
33
29
18
35
29
19
35
29
21
35
26
18
30
25
17
28
25
17
28
26
18
29
24
16
27
24
16
27
27
19
30
26
18
29
25
17
28
26
18
29
26
18
29
26
18
29
26
18
29
25
16
30
24
14
30
23
12
31
23
12
31
26
13
30
27
14
31
27
14
31
26
14
30
25
14
28
25
14
28
26
15
29
25
14
31
24
14
31
19
12
28
18
13
28
89
87
108
99
98
119
108
108
131
114
114
139
118
117
144
115
114
140
110
109
136
105
105
128
103
104
125
103
104
125
100
100
122
99
102
123
98
99
120
96
95
117
99
97
119
101
99
122
105
103
124
108
106
126
105
106
125
101
104
122
89
91
109
70
73
90
68
70
86
87
87
106
101
98
122
106
103
128
102
99
124
101
98
122
101
97
122
102
101
123
107
106
128
103
101
123
89
88
110
62
79
93
52
109
110
14
66
68
15
62
66
13
52
59
11
33
46
7
33
44
15
60
64
45
103
104
19
72
74
17
63
68
16
63
71
16
63
70
16
63
68
15
62
66
14
59
62
16
62
64
16
61
64
17
60
60
19
63
66
21
61
70
26
61
70
39
60
62
89
76
75
212
191
180
227
202
184
228
204
188
229
206
190
230
208
192
229
208
191
229
208
191
229
208
191
228
207
190
227
206
188
228
205
188
227
203
186
226
201
184
225
195
179
191
150
138
166
118
108
163
115
106
163
113
106
160
110
103
157
110
102
156
108
103
156
108
104
155
109
104
153
109
103
145
109
100
129
93
86
132
96
91
141
105
99
103
73
60
80
65
38
72
79
45
83
107
66
81
124
77
76
123
79
81
104
72
69
61
51
80
30
46
83
21
53
68
19
50
47
18
40
30
16
33
17
23
34
10
26
34
9
26
35
5
21
32
6
24
37
5
29
44
13
62
64
37
107
98
45
78
76
52
22
29
57
25
18
62
32
19
48
29
23
39
22
29
35
21
37
32
21
36
33
21
38
33
21
38
33
21
37
33
21
38
34
21
39
33
20
38
33
20
38
33
20
38
32
19
36
31
21
37
30
22
36
28
19
29
32
22
34
34
23
37
32
22
37
32
21
37
30
19
35
31
20
36
31
22
37
30
22
37
29
21
36
27
19
34
25
16
33
26
17
34
27
18
35
27
19
34
25
17
30
27
19
30
26
19
28
26
18
28
26
18
29
24
16
27
24
16
27
27
19
30
27
19
30
26
18
29
26
18
29
26
18
29
26
18
29
26
18
29
25
17
30
23
15
30
23
14
31
23
14
32
26
14
31
26
13
30
26
13
30
25
13
29
24
14
29
25
14
30
25
15
30
26
15
32
25
15
32
19
12
28
17
13
28
95
93
114
101
100
121
100
100
123
101
100
125
106
103
130
109
106
133
105
102
129
101
96
120
96
92
115
93
93
115
94
97
118
102
104
125
104
105
126
101
98
121
102
99
122
107
105
127
109
108
128
102
101
119
80
80
97
62
63
78
57
58
73
60
61
76
73
74
91
97
97
116
106
102
126
104
100
126
96
92
117
99
96
121
102
101
125
102
106
127
100
104
124
99
99
121
101
98
121
69
87
101
50
105
106
15
65
68
15
63
67
15
56
62
8
36
47
11
30
44
14
43
53
27
79
81
39
101
100
15
67
69
17
63
70
17
63
69
16
63
68
14
61
64
11
53
56
18
58
63
18
59
63
16
61
63
15
64
67
15
63
69
24
63
69
33
61
70
51
60
65
157
147
140
225
199
187
227
201
186
230
205
190
229
206
190
229
207
191
229
208
191
229
208
191
228
207
190
228
205
189
228
205
189
227
204
188
225
203
186
225
201
183
227
196
180
189
150
138
164
119
109
164
115
108
161
111
104
157
111
102
155
109
104
155
109
104
155
109
104
153
109
103
148
108
101
125
92
84
135
102
95
140
104
99
133
98
86
92
62
42
98
74
53
122
99
83
89
93
66
86
118
76
82
123
74
84
121
75
77
98
68
71
49
46
86
24
50
91
21
54
85
20
51
67
20
44
51
21
40
28
17
32
17
23
34
10
22
33
10
23
40
14
42
49
27
95
85
48
90
86
71
25
47
60
18
27
56
27
28
41
24
30
38
24
33
35
23
35
33
23
35
33
22
38
33
22
38
33
22
38
33
22
38
34
21
39
33
20
38
33
20
38
32
19
36
30
18
35
31
21
37
30
22
36
26
18
28
30
22
34
31
23
36
32
22
38
32
21
37
30
19
35
30
19
35
28
19
34
26
18
33
26
18
33
27
19
34
29
20
37
29
21
37
28
20
36
25
17
32
26
18
29
26
19
28
26
19
27
26
18
28
25
17
28
24
16
27
24
16
27
26
18
29
26
18
29
26
18
29
26
18
29
26
18
29
26
18
29
26
18
29
25
17
30
24
17
30
23
16
30
23
15
31
25
14
30
25
14
30
25
14
30
24
13
30
23
14
31
26
17
33
26
17
34
27
16
33
23
14
31
19
11
27
18
13
28
102
102
123
103
103
124
103
104
126
104
104
127
106
105
129
104
102
126
96
94
118
90
87
112
94
91
115
95
95
117
93
96
117
98
99
120
106
107
128
112
111
131
114
114
133
104
104
123
78
77
96
66
65
83
69
67
83
75
73
89
77
75
90
74
72
88
74
73
91
83
81
101
97
94
116
91
87
110
85
80
105
98
95
119
106
104
127
105
105
127
105
105
127
108
108
130
112
114
135
77
97
110
48
102
103
15
62
67
14
62
67
15
59
64
10
42
51
12
30
44
12
31
45
12
56
61
36
103
100
29
88
88
15
62
67
17
61
67
15
62
66
14
60
64
14
56
61
13
48
55
18
58
63
16
61
66
35
93
95
41
106
104
20
70
70
34
64
75
44
66
75
63
73
68
187
168
157
224
200
184
229
203
187
229
206
189
229
207
190
227
206
189
227
206
189
229
208
191
229
206
190
228
206
190
228
206
191
227
206
190
228
205
187
227
200
183
226
192
178
191
152
140
166
118
109
163
111
104
160
111
102
160
109
105
157
107
103
157
109
104
156
109
103
150
107
101
124
88
82
140
102
96
143
102
95
144
104
94
111
78
63
90
59
39
133
96
88
134
105
93
103
92
72
83
99
63
87
122
71
78
124
74
84
114
76
77
79
60
76
35
45
94
28
50
121
37
70
135
55
89
112
51
79
70
31
52
28
19
32
14
18
32
12
27
36
21
70
64
52
92
90
73
25
51
84
22
48
56
14
33
40
20
34
37
22
33
36
23
35
34
23
35
33
23
36
34
23
37
33
22
37
34
21
38
34
21
39
33
20
38
33
20
37
31
20
36
30
19
35
30
21
35
29
21
34
26
18
28
30
22
34
32
22
36
32
22
37
30
20
36
27
18
33
27
17
33
24
16
31
24
16
31
29
21
35
30
22
36
28
21
35
27
20
33
26
19
33
25
17
30
25
17
28
26
18
28
26
19
27
25
17
26
25
16
27
24
14
27
24
14
28
25
17
29
25
17
28
26
18
28
25
18
27
25
17
27
25
17
30
25
17
29
25
18
29
24
17
28
25
18
32
25
17
32
24
13
29
24
14
30
22
14
29
22
13
29
24
14
31
29
20
37
26
18
34
21
13
29
20
13
29
19
13
29
18
14
29
92
91
112
91
91
112
93
93
114
100
100
121
104
104
125
96
96
117
87
87
108
89
90
113
99
100
124
105
107
128
108
109
129
113
113
130
111
111
128
105
105
122
91
92
109
75
78
97
71
72
92
85
83
104
95
92
113
96
92
113
89
85
107
86
82
104
90
87
109
91
87
110
85
81
104
78
75
97
77
73
96
92
88
111
99
95
118
97
93
116
93
89
112
93
92
113
94
96
117
63
86
98
42
93
95
14
60
65
14
60
65
15
59
64
12
48
56
9
32
45
11
28
43
10
45
53
16
71
72
43
107
106
21
78
79
16
64
68
29
78
81
20
70
73
15
56
62
10
40
50
17
52
61
17
61
67
33
96
95
50
130
122
44
113
107
25
73
73
33
65
73
45
69
69
84
81
72
205
188
174
227
200
186
228
203
185
228
207
189
229
208
191
229
208
191
230
209
192
228
207
190
228
207
190
228
207
190
228
207
189
228
205
187
229
202
185
228
197
182
224
192
177
189
153
140
164
117
107
164
114
105
163
112
107
160
110
105
157
110
104
156
110
103
149
107
100
121
83
80
145
106
99
147
106
95
147
105
94
135
100
87
92
61
41
114
82
67
140
102
90
140
104
94
125
99
86
92
91
66
86
111
72
86
125
76
84
120
73
96
116
79
97
87
70
137
61
85
152
56
93
155
50
91
146
52
90
119
53
83
79
33
59
31
19
34
13
44
45
49
79
81
69
23
47
87
19
48
78
20
49
47
15
34
38
22
35
34
24
35
34
24
35
32
24
34
34
24
36
34
23
37
34
21
38
33
22
38
32
20
37
31
20
36
29
20
35
28
20
35
26
18
31
26
18
29
25
17
28
30
21
34
33
22
38
33
22
38
29
19
35
24
16
31
24
17
31
25
18
33
28
21
35
28
21
32
27
19
30
27
19
30
27
19
30
26
18
29
25
17
28
25
17
28
26
18
29
26
18
29
26
17
26
27
17
27
24
13
28
24
13
29
25
17
30
25
17
29
25
18
27
25
18
25
24
17
27
25
16
32
25
17
30
25
17
28
24
16
28
26
18
32
25
17
32
23
13
29
22
14
29
19
14
28
19
13
28
25
14
31
26
17
34
21
15
30
18
14
28
18
15
29
18
15
29
17
15
29
101
99
121
98
96
118
95
93
115
94
92
114
95
93
115
99
97
119
103
101
123
104
106
126
109
112
131
121
121
140
123
120
139
107
107
119
82
81
94
70
69
85
74
74
93
82
84
105
85
86
107
96
94
116
101
98
122
99
95
120
98
94
119
95
91
116
101
98
122
99
96
121
92
89
113
83
80
104
81
79
101
88
85
108
88
85
108
85
82
104
76
73
95
73
72
93
72
74
95
53
77
89
35
83
86
14
59
64
15
59
64
15
60
65
15
54
61
8
35
46
11
29
43
10
33
45
17
58
64
27
88
87
44
114
110
19
73
75
19
73
75
36
103
100
19
69
72
14
46
56
12
41
52
17
55
63
19
78
79
46
127
119
50
135
124
42
108
99
26
69
70
35
70
72
52
67
69
113
105
100
216
193
185
227
202
184
225
205
184
227
206
189
229
208
191
229
208
191
229
207
191
229
207
191
229
206
190
228
206
189
229
204
187
229
203
186
228
200
183
224
199
182
220
195
178
194
160
146
163
119
108
160
113
107
158
111
105
157
109
104
156
108
102
153
109
102
123
84
82
144
103
97
152
109
99
148
106
98
142
105
94
102
71
54
93
64
48
142
102
91
147
101
94
146
104
98
129
99
91
108
92
74
87
104
66
127
159
107
140
181
121
149
177
131
129
132
107
118
64
73
146
61
87
152
57
93
148
51
91
145
53
91
111
47
74
44
23
35
65
47
59
87
40
59
72
13
37
86
15
48
75
17
47
45
14
33
34
23
34
31
25
32
32
24
34
34
24
36
34
23
37
33
21
37
33
22
38
32
21
37
32
21
37
28
19
34
26
18
31
26
19
30
27
19
28
24
16
27
30
21
34
34
23
39
31
20
36
28
18
34
27
19
34
29
22
36
29
23
37
27
21
34
25
19
30
25
19
29
24
16
27
25
17
28
26
18
29
24
16
27
26
18
29
26
18
29
26
18
29
26
17
25
27
17
26
24
13
28
24
13
29
25
17
30
25
17
28
24
17
26
25
18
26
24
17
27
24
15
31
26
18
31
26
18
29
24
16
28
25
17
31
25
17
32
24
13
29
21
14
29
19
13
27
19
12
27
24
14
31
21
13
29
18
13
28
18
15
29
18
16
30
18
16
30
18
16
30
108
104
127
105
102
124
103
100
122
105
101
124
112
108
131
118
114
137
120
116
139
120
118
138
114
113
131
102
102
118
80
81
95
73
71
90
77
75
94
80
77
96
82
81
100
84
86
108
84
85
106
93
91
113
94
91
114
96
93
116
96
92
115
92
89
112
101
99
120
101
99
119
97
95
116
94
93
114
96
94
116
87
85
107
82
80
102
79
76
98
73
69
92
70
69
91
69
70
91
56
78
91
30
75
79
14
59
64
16
58
64
15
59
64
18
58
64
11
41
51
10
31
44
10
30
43
12
43
53
15
65
68
41
111
107
42
113
109
15
80
78
37
113
107
39
115
109
16
63
67
9
38
48
13
45
55
16
64
69
34
102
98
52
136
125
60
136
128
40
102
97
28
74
74
41
70
75
56
67
70
142
132
125
221
202
182
225
205
183
226
205
188
228
207
190
228
207
190
227
205
189
227
204
188
228
205
189
228
205
188
230
204
187
230
204
187
203
178
161
224
199
181
223
198
181
223
195
179
207
171
157
170
127
120
161
115
109
158
110
105
156
107
102
154
108
102
126
85
83
146
103
98
154
109
100
148
106
100
144
105
97
130
97
80
81
53
36
132
95
83
147
106
97
147
110
102
121
84
79
143
107
98
128
104
88
117
118
88
146
171
126
146
185
130
143
184
128
137
162
120
114
85
74
143
58
85
155
53
96
150
52
88
141
58
89
110
49
72
149
88
110
128
63
84
74
22
40
79
9
41
91
17
55
67
15
43
40
18
31
31
27
32
32
24
34
34
24
35
33
21
35
31
20
36
30
21
36
30
21
36
30
21
37
29
20
34
27
19
30
26
18
27
24
17
25
22
14
25
26
17
30
29
18
33
31
20
36
32
22
38
31
23
38
31
24
38
27
22
36
26
21
34
25
21
32
25
21
30
25
17
28
24
16
27
24
16
27
24
16
27
26
18
29
26
18
29
25
17
28
25
16
25
26
16
26
24
13
28
24
13
29
25
17
30
25
17
29
25
17
26
24
17
25
24
17
27
23
15
31
25
17
30
25
17
28
24
16
28
25
17
30
25
17
32
24
13
29
23
16
30
20
14
28
18
12
27
21
12
29
19
12
28
17
13
28
16
14
28
17
15
29
17
16
30
17
16
30
98
94
117
97
94
115
93
90
111
92
89
109
99
96
114
100
97
116
98
95
113
91
88
104
77
74
89
64
64
79
71
73
89
86
84
107
85
82
104
86
83
104
89
86
107
82
79
102
71
68
91
72
69
92
89
85
107
97
93
116
100
98
120
94
94
115
94
92
112
93
93
113
93
93
114
89
89
112
94
95
117
92
93
115
83
83
105
80
76
99
80
76
99
74
75
96
68
74
93
56
75
87
26
65
69
13
61
63
15
58
63
13
58
63
16
58
64
13
47
56
11
32
45
14
30
46
9
33
46
15
54
62
21
79
79
51
128
122
44
128
119
40
127
118
51
145
134
45
119
115
15
56
63
10
41
52
18
55
64
20
70
74
49
123
119
53
140
128
57
138
126
36
93
89
35
71
75
46
68
75
58
65
62
171
162
145
221
201
183
227
203
184
228
204
185
227
205
189
229
205
191
230
204
191
229
203
190
229
203
189
228
204
188
228
203
186
207
181
163
204
178
161
227
199
184
224
197
181
224
194
179
219
187
171
179
143
129
159
116
106
159
112
105
156
109
104
130
87
83
151
105
102
154
107
102
151
108
100
149
107
98
145
106
94
97
66
46
118
86
69
147
109
97
159
123
118
157
127
116
192
159
147
150
113
102
141
108
98
114
105
85
134
160
117
142
185
127
142
186
128
145
171
126
116
103
87
139
62
86
149
56
90
145
56
91
119
50
73
174
110
128
129
69
86
74
21
41
73
12
39
90
14
56
84
17
53
53
15
36
35
24
32
31
25
38
33
22
37
33
22
37
31
18
35
31
17
35
31
19
36
31
19
36
26
19
32
25
19
30
26
18
30
27
19
31
24
14
29
25
15
30
29
18
34
32
22
38
32
23
39
29
20
37
29
21
37
29
22
37
28
21
35
25
18
32
25
18
31
25
17
28
26
18
29
25
17
28
25
17
28
26
18
29
26
18
29
26
18
29
25
18
27
25
17
26
24
14
26
24
13
28
24
16
28
25
17
26
26
16
28
25
15
29
26
15
26
25
15
27
25
17
28
26
18
33
23
15
31
25
16
32
25
16
33
25
15
31
24
15
30
20
14
28
18
14
28
20
11
28
19
10
27
20
12
28
17
12
28
16
14
28
18
16
30
17
16
30
110
107
128
108
105
125
107
104
123
103
100
118
91
88
105
73
70
87
58
55
71
60
57
73
68
65
82
76
74
92
80
81
100
91
89
113
82
79
102
82
79
100
76
73
95
67
63
86
62
58
81
62
58
80
80
76
99
93
88
111
99
97
119
96
97
118
94
91
112
90
88
110
96
95
118
103
103
127
107
109
131
105
105
129
99
99
123
90
86
110
87
83
106
79
79
101
74
76
97
59
68
84
21
51
59
17
58
62
14
58
61
14
57
63
15
57
63
16
53
61
13
39
51
12
30
46
9
30
44
10
42
53
14
62
66
30
97
93
48
144
131
50
150
137
54
153
141
55
149
139
48
116
114
14
54
62
14
42
54
23
63
70
23
86
85
54
135
124
55
143
129
60
134
125
33
82
82
38
71
75
46
75
69
75
77
68
196
177
166
224
199
185
230
204
186
227
205
188
228
205
191
229
204
191
229
203
190
229
203
190
227
205
188
228
203
186
227
201
182
183
157
139
227
200
183
225
198
181
224
197
180
225
197
179
225
194
178
202
167
154
171
131
122
160
115
108
139
96
90
150
106
101
156
108
103
156
108
101
156
108
100
149
104
95
112
77
65
103
69
65
148
111
102
190
162
151
162
139
125
212
185
171
191
161
148
151
114
105
144
108
98
117
104
79
130
149
107
153
183
131
143
186
124
148
177
129
119
110
91
133
61
81
150
57
91
119
42
72
94
41
57
75
26
42
59
25
40
52
18
37
82
17
55
91
14
55
78
18
48
42
14
31
34
23
39
33
22
38
32
20
37
33
19
37
32
19
37
32
19
37
30
18
35
24
17
30
23
17
29
28
20
33
30
22
35
30
19
35
31
20
36
32
21
37
31
21
37
30
21
38
26
17
33
29
20
36
26
18
32
25
17
30
25
17
30
25
17
30
27
19
30
26
18
29
26
18
29
26
18
29
26
18
29
26
18
29
26
18
29
25
18
27
24
17
26
24
14
26
24
13
27
24
16
28
24
17
25
25
15
27
25
14
29
26
14
26
25
15
26
24
16
27
24
15
31
25
16
33
25
16
33
25
16
33
24
14
29
24
13
28
20
14
27
18
15
28
21
12
29
19
10
27
20
11
28
18
12
28
17
14
28
18
16
30
17
16
30
106
103
123
99
96
114
100
97
114
89
87
103
72
69
86
66
63
80
64
61
78
78
73
93
91
87
108
96
94
116
98
98
121
101
101
127
91
90
114
81
79
102
62
59
81
64
60
83
70
66
89
74
70
93
83
79
102
95
90
113
97
94
116
90
90
111
97
93
116
98
93
118
100
97
122
110
108
134
109
110
135
109
108
134
115
112
139
102
101
124
90
88
110
92
89
112
83
80
103
81
80
99
54
63
77
25
54
62
16
56
61
15
55
62
16
54
61
16
56
63
14
50
59
9
34
47
11
29
45
8
30
44
15
52
60
15
67
70
39
122
114
54
153
140
62
158
147
63
158
148
63
150
142
46
113
110
12
54
58
14
47
55
19
66
69
31
94
88
57
138
126
61
144
132
56
123
116
29
78
75
39
76
73
64
85
83
97
94
91
208
192
182
225
200
184
227
205
185
226
204
189
228
204
190
228
203
190
228
204
190
227
206
189
228
204
187
228
203
183
213
187
168
201
174
156
226
199
180
228
201
182
225
200
180
223
199
180
223
197
181
218
191
176
202
175
158
201
168
155
152
111
103
159
112
105
157
111
103
155
110
101
150
106
97
100
82
74
58
60
66
163
142
131
214
187
171
171
150
134
212
189
173
212
187
171
190
160
147
149
109
99
144
107
93
124
101
82
122
133
95
144
178
123
142
181
123
145
174
125
113
115
88
127
63
78
138
55
88
111
37
66
79
26
46
36
31
39
27
42
48
45
25
46
79
21
55
91
14
53
67
16
45
40
20
39
34
22
38
33
20
37
32
19
36
33
20
38
32
21
38
29
19
36
27
20
34
28
22
34
29
21
34
30
22
35
32
21
37
31
20
36
31
20
36
31
21
37
27
19
33
26
18
32
28
20
34
26
18
30
25
17
28
26
18
29
25
17
29
25
17
28
25
17
28
25
17
28
25
17
28
26
18
29
26
18
29
26
18
29
25
18
27
23
16
25
24
14
26
24
13
27
25
17
29
25
18
26
26
16
28
27
15
30
27
15
27
25
15
26
24
16
27
26
16
32
27
16
33
24
13
30
24
13
30
23
13
26
23
13
26
18
13
24
17
15
26
21
14
30
20
13
29
19
12
28
18
13
28
17
14
29
18
16
30
17
16
30
83
80
99
75
72
89
70
68
83
74
71
87
84
80
98
86
82
100
78
74
92
83
78
100
99
94
118
109
107
131
109
109
134
106
106
133
96
96
122
91
90
114
78
76
99
83
79
102
92
88
111
92
88
111
90
86
109
97
94
116
98
96
118
91
91
112
99
94
118
101
95
121
105
100
128
107
104
132
105
104
132
107
105
133
106
103
130
98
97
121
92
92
113
95
92
114
88
82
105
90
81
104
84
83
102
37
54
65
21
56
62
18
55
62
18
55
62
15
58
64
14
55
62
15
45
56
11
29
45
12
29
45
9
36
47
20
59
66
20
77
78
48
133
125
60
156
145
65
164
153
65
166
154
58
154
142
38
106
100
16
50
56
18
52
58
22
70
70
33
98
91
61
140
129
64
139
129
48
106
99
31
74
72
36
72
74
61
85
82
120
117
108
216
195
180
226
202
182
226
205
187
227
205
190
227
204
190
227
204
190
227
206
189
227
205
187
228
204
184
228
202
182
187
161
142
220
194
174
228
201
181
226
203
183
221
200
180
220
200
182
218
200
181
216
198
176
219
195
176
178
148
133
186
149
138
188
152
141
168
131
121
126
93
81
81
101
91
48
104
105
145
139
129
214
185
166
176
151
137
215
189
174
215
189
174
210
184
169
175
145
131
148
109
99
143
104
96
130
104
87
114
128
96
141
180
129
136
184
120
143
177
123
113
107
85
133
61
85
145
54
90
128
55
85
51
32
46
17
49
52
24
42
52
46
27
48
87
16
54
87
15
53
48
16
39
35
21
37
33
20
36
33
19
36
31
20
37
30
19
36
29
19
36
29
21
35
27
20
33
29
21
35
30
22
36
31
20
36
29
18
35
29
18
34
30
20
35
27
19
32
27
19
31
27
19
32
26
18
28
25
17
27
27
20
29
24
17
26
24
16
27
26
18
29
24
16
27
24
16
27
25
17
28
26
18
29
26
18
29
25
18
28
23
16
26
24
13
26
24
13
27
25
17
28
26
17
26
26
16
28
26
15
30
26
14
26
25
15
26
25
16
27
25
15
30
25
14
31
24
13
30
24
13
30
24
15
26
24
15
26
18
13
23
17
14
25
19
13
29
19
13
28
19
12
28
18
13
28
17
15
28
18
16
29
17
16
29
78
74
93
76
73
88
88
84
100
92
87
108
91
85
106
92
86
108
89
83
106
91
86
112
97
93
120
101
99
125
102
102
128
102
105
133
103
105
132
99
100
125
98
97
122
103
100
127
108
106
131
103
101
123
99
98
120
98
99
120
98
97
119
99
97
119
97
95
116
101
99
122
105
101
128
98
94
125
103
100
131
108
105
134
107
104
129
103
100
125
96
94
118
91
87
110
97
87
112
101
89
115
102
92
112
89
80
96
38
38
52
31
51
58
18
55
61
17
55
65
16
54
65
17
50
62
14
39
54
10
29
46
12
28
45
15
43
55
17
64
70
22
87
87
56
141
135
62
162
152
64
168
156
62
163
151
61
150
139
38
97
96
12
47
55
19
58
66
19
69
73
32
98
94
59
135
126
58
135
122
35
92
86
28
69
68
36
71
68
68
85
81
148
139
132
222
202
185
224
204
179
227
206
188
227
204
190
227
204
189
227
205
189
228
206
189
226
205
186
227
202
183
224
197
180
188
161
145
227
200
183
227
199
183
226
200
183
225
199
182
222
199
181
221
200
181
221
198
180
221
197
179
202
177
159
219
188
176
212
181
167
160
137
107
154
153
111
61
105
94
138
138
143
211
186
168
208
181
167
216
188
174
217
191
176
212
187
169
210
183
164
168
133
121
148
103
97
142
103
93
124
101
83
119
134
96
143
179
129
138
182
123
147
171
127
118
97
87
137
58
88
140
54
88
87
41
65
21
37
53
16
50
62
24
39
51
68
20
49
90
15
55
75
17
46
43
16
34
32
21
34
34
20
36
33
20
38
32
19
37
31
18
36
32
18
36
30
17
35
28
18
35
28
20
37
27
18
37
29
20
39
27
18
37
25
17
33
24
16
29
25
17
30
26
18
31
25
17
30
25
17
29
25
18
30
25
17
29
25
17
29
24
17
29
25
17
29
25
17
30
25
17
29
25
17
29
25
17
29
24
15
30
23
14
31
21
12
29
22
12
29
26
14
27
25
13
27
24
11
27
26
13
30
26
13
29
26
13
29
26
13
29
25
13
28
25
14
28
25
14
29
23
15
29
23
15
28
21
13
26
18
12
24
17
13
24
16
14
26
16
14
27
17
15
29
17
15
28
17
15
27
16
14
26
16
14
26
100
93
119
96
89
111
101
94
116
102
96
120
96
92
115
93
89
113
95
91
116
96
91
120
102
98
127
104
103
130
100
102
129
101
106
133
101
105
131
104
105
131
99
100
124
100
101
126
102
104
127
98
100
121
96
97
118
91
91
112
93
91
113
88
85
107
91
89
110
99
97
120
102
99
126
102
97
128
106
102
134
109
106
134
110
108
131
104
101
126
98
96
120
96
92
115
101
90
115
106
97
119
117
91
111
161
109
136
154
103
131
71
46
66
35
50
61
23
53
64
14
56
65
17
53
65
16
52
64
14
41
56
13
30
50
8
29
47
17
52
65
18
71
78
29
95
96
63
147
142
70
163
156
67
165
156
59
162
151
59
146
140
29
80
86
14
43
58
26
58
71
20
69
74
30
96
93
54
134
123
52
128
118
29
78
77
33
67
72
42
71
74
69
84
79
169
159
145
222
202
185
228
202
187
230
203
188
229
203
187
227
204
189
228
205
189
227
204
186
228
203
184
230
203
186
211
185
168
200
174
158
228
200
184
227
200
183
228
201
185
227
200
183
225
198
181
223
197
180
221
198
180
222
200
179
217
195
175
200
178
155
173
157
119
203
181
124
124
111
84
146
136
133
214
189
180
219
193
178
218
192
177
218
192
177
218
192
174
216
189
170
208
175
162
158
120
112
147
107
104
142
102
97
125
100
86
123
138
106
145
179
127
136
182
125
145
165
130
114
75
77
139
57
87
115
52
85
29
20
43
12
43
55
14
50
58
36
29
50
80
16
56
90
14
52
58
12
39
31
18
35
31
18
35
32
19
37
33
19
38
32
19
37
34
18
36
31
17
35
26
17
34
24
19
34
25
16
35
28
19
38
30
21
40
27
18
37
25
16
35
24
15
34
24
15
34
25
16
35
25
16
35
26
17
36
24
15
34
23
14
33
24
15
34
25
16
35
25
16
33
24
16
29
23
15
29
23
15
29
24
14
30
24
13
30
22
11
28
24
13
30
27
14
30
26
13
30
25
12
31
27
14
33
27
14
32
26
13
32
26
13
31
26
12
30
25
14
31
25
14
30
22
14
30
22
14
32
20
13
32
17
11
29
16
13
28
16
14
27
16
14
28
17
14
30
17
15
29
17
15
28
15
13
26
15
13
26
106
104
135
102
101
127
101
101
128
102
101
130
102
101
127
100
100
126
100
99
127
102
99
129
104
101
132
102
102
132
98
100
129
100
106
133
100
105
131
105
107
132
104
105
129
102
101
128
97
96
120
88
89
110
80
79
101
75
73
95
68
65
88
68
64
87
82
82
103
88
88
111
92
90
116
101
97
128
104
101
132
106
103
132
107
105
129
103
99
124
98
94
119
101
95
119
108
95
120
119
88
112
200
140
167
219
141
171
195
114
149
133
68
100
87
47
74
45
40
61
28
50
65
19
53
65
18
56
67
16
50
63
12
42
60
9
32
53
7
37
55
15
58
71
17
69
75
31
99
99
64
147
143
65
158
153
63
159
155
62
154
151
57
129
133
17
60
73
16
45
62
23
59
73
18
68
74
28
85
85
53
123
119
48
110
109
23
66
72
32
65
75
56
73
80
72
74
74
190
176
168
224
200
187
229
203
184
227
204
185
227
203
188
229
204
188
229
205
187
230
205
186
230
203
186
228
202
185
199
173
156
208
185
167
227
203
185
227
201
184
228
201
184
228
201
184
226
199
182
224
198
181
224
198
180
223
200
183
186
170
145
221
207
165
190
166
111
149
114
79
133
104
90
212
184
170
216
195
178
218
194
178
219
193
178
219
192
174
217
190
171
212
183
168
195
164
154
147
111
108
145
106
104
138
105
99
121
101
89
130
147
110
139
184
128
139
179
128
136
148
118
120
64
75
138
56
90
69
30
57
13
26
40
12
43
56
22
41
60
61
19
55
90
13
55
75
14
50
41
13
37
33
18
38
33
18
37
33
18
37
32
17
36
31
18
36
30
18
35
29
19
36
28
18
35
25
16
35
28
19
38
28
19
38
24
15
34
25
16
35
25
16
35
25
16
35
24
15
35
24
15
36
25
16
36
23
14
34
24
14
35
25
16
36
25
16
36
24
16
34
23
15
30
23
15
30
23
15
30
25
14
31
25
14
31
24
12
30
24
12
30
27
14
33
27
14
34
26
13
35
27
13
36
27
13
36
27
13
35
26
13
35
26
13
34
26
13
34
24
12
32
21
12
31
19
14
31
18
14
30
16
13
29
17
14
29
16
14
28
17
14
30
17
14
32
17
15
31
17
15
29
17
15
29
16
14
28
107
106
137
101
100
129
97
97
126
100
100
129
100
101
128
102
103
131
104
105
134
101
99
128
101
98
127
98
96
125
98
98
126
101
105
130
104
107
132
108
110
134
115
115
139
112
109
134
92
89
113
78
75
98
68
65
88
64
61
85
66
62
86
67
64
87
76
74
97
86
84
108
90
87
112
92
88
117
95
91
121
103
99
128
109
106
132
106
101
129
104
98
125
114
109
133
126
113
138
151
106
131
218
147
174
222
144
172
205
125
157
165
80
117
132
59
96
124
66
100
78
43
71
39
45
62
23
53
66
16
56
68
15
55
70
16
41
61
12
30
51
13
41
55
18
58
66
17
72
76
29
94
95
57
138
139
62
148
150
57
150
150
55
143
144
44
108
114
8
43
59
14
41
59
17
59
70
21
64
71
19
73
76
45
103
104
37
87
91
25
64
71
39
61
71
50
64
72
84
79
79
203
187
175
224
201
181
226
202
182
230
202
188
229
203
187
229
204
187
230
204
187
230
203
184
228
201
182
229
202
184
193
168
150
216
191
173
228
201
183
229
201
184
228
201
185
227
199
183
227
197
179
224
198
183
195
173
162
166
144
127
161
136
106
172
140
99
129
88
55
122
87
66
189
167
150
218
195
177
220
195
178
221
195
178
219
193
173
217
191
170
214
187
172
213
185
174
177
146
136
144
107
100
141
104
99
139
103
98
115
98
83
136
157
117
137
180
127
140
177
129
117
110
90
132
59
84
106
51
77
24
17
35
9
29
45
13
44
59
37
28
51
86
13
57
87
14
57
61
9
43
37
17
38
32
18
36
31
16
35
32
18
36
30
19
36
26
15
33
29
17
35
28
16
34
27
16
34
30
19
37
29
18
36
25
15
33
26
17
33
27
17
33
25
16
32
23
14
30
24
14
31
26
16
33
29
19
36
28
18
35
27
17
34
26
16
33
26
16
33
25
16
32
25
15
32
24
14
31
26
14
31
26
13
31
26
13
30
25
12
30
26
12
33
26
12
35
27
13
37
27
13
37
27
13
37
27
13
37
27
13
37
27
13
37
26
14
37
23
12
35
21
13
34
18
15
29
18
15
28
17
15
28
17
15
30
16
15
30
21
15
32
21
15
33
18
15
31
17
14
29
17
14
30
13
11
27
113
110
139
106
103
132
102
99
128
104
102
131
99
100
128
97
97
125
98
99
127
101
99
126
109
105
132
107
103
130
105
101
128
104
106
129
111
112
136
115
116
140
109
110
133
89
87
110
68
66
89
75
73
97
87
84
109
90
86
111
83
79
104
82
78
103
84
80
105
90
86
111
90
86
111
83
78
105
84
79
109
101
96
126
107
102
132
109
102
133
109
101
130
115
108
132
128
114
138
163
116
139
217
149
174
223
146
173
215
136
168
173
86
122
166
72
114
148
55
98
158
69
111
123
57
91
71
40
66
39
44
64
23
50
66
19
51
69
19
48
64
12
35
47
16
46
54
16
59
66
16
66
74
18
83
88
50
123
127
56
142
142
49
143
141
53
135
133
25
72
80
10
32
50
16
45
60
18
56
68
16
59
69
15
62
71
26
71
78
23
62
69
27
59
67
36
61
70
50
64
69
102
96
90
214
193
178
230
200
184
228
200
186
228
201
186
228
203
188
230
204
187
229
203
182
228
202
180
228
201
182
227
202
182
195
170
151
224
199
179
228
202
183
227
201
184
226
201
182
225
197
178
218
192
181
217
188
192
169
128
137
186
135
142
150
105
81
120
77
54
160
131
116
216
193
177
219
193
175
220
194
176
222
196
178
218
193
173
217
192
171
216
190
174
213
187
174
204
176
161
151
118
106
145
107
99
142
102
98
132
104
97
99
101
80
139
176
129
135
179
124
145
163
128
107
69
73
133
59
88
65
30
52
13
20
34
5
29
40
26
34
52
74
14
55
90
12
57
78
14
51
40
13
35
30
19
36
32
18
37
32
19
37
32
19
37
30
16
35
27
16
33
25
16
33
28
15
33
31
18
36
30
17
35
29
17
34
28
17
34
25
14
31
24
13
30
24
13
30
26
15
32
30
19
36
29
18
35
28
17
34
28
17
34
26
15
32
26
15
32
25
14
31
25
14
31
26
15
32
27
14
34
27
14
34
27
14
33
27
14
32
26
12
35
27
13
36
27
13
36
27
13
36
26
14
36
26
14
36
26
14
36
27
13
37
26
14
38
23
13
37
22
15
37
17
14
30
16
14
26
15
13
26
15
13
30
18
16
32
25
16
33
22
13
29
16
12
26
13
11
25
13
10
26
11
10
26
116
113
142
111
108
137
111
108
137
110
107
136
105
103
131
102
100
129
111
109
137
111
108
136
112
108
135
120
116
143
125
121
148
119
118
142
100
100
123
83
83
107
78
77
101
85
83
108
84
82
108
93
91
117
101
98
124
99
95
122
93
88
116
94
90
117
99
95
123
98
94
122
92
88
115
82
77
105
81
76
106
94
87
118
100
91
122
98
89
119
93
85
112
95
83
108
105
85
109
167
115
139
219
147
177
223
146
177
222
145
175
178
94
128
175
85
125
161
73
115
135
48
86
167
67
110
164
64
109
125
56
92
71
42
69
38
45
67
24
52
66
21
51
61
15
42
51
16
50
60
14
60
69
16
64
73
16
69
77
28
92
95
40
120
118
49
129
128
51
106
113
10
37
53
12
29
50
13
45
62
14
57
70
14
59
72
14
58
69
19
58
68
24
58
69
29
60
70
37
62
69
52
63
64
120
108
101
215
193
180
225
199
184
226
199
185
228
201
187
229
202
186
228
201
181
229
202
180
228
201
182
225
202
181
215
194
173
225
203
182
227
206
184
219
201
176
217
198
172
224
199
181
220
194
185
191
155
160
195
146
161
142
83
99
136
71
79
111
62
60
194
165
151
217
194
174
219
193
179
220
194
180
221
195
181
220
194
177
217
191
173
217
191
174
215
189
173
212
186
169
184
155
142
145
108
100
142
101
98
137
100
100
101
83
79
114
139
105
137
181
129
136
177
126
121
128
102
127
59
81
111
49
79
27
14
31
10
19
35
14
25
43
63
14
51
90
12
57
88
14
54
63
16
45
37
14
35
33
19
37
35
18
37
29
13
32
27
14
32
26
15
32
25
15
33
26
13
31
31
18
36
34
21
39
32
20
38
27
15
35
24
12
32
26
15
35
27
16
34
28
17
34
30
19
36
29
18
35
28
17
34
29
18
35
28
17
34
26
15
32
25
14
31
25
14
31
26
15
32
26
13
35
27
13
35
27
13
34
27
14
33
27
13
36
27
13
36
27
13
36
27
13
36
26
14
36
26
14
36
27
15
37
27
14
38
26
14
38
23
12
36
21
14
37
16
13
31
14
12
26
12
9
24
12
9
28
16
14
31
22
13
30
19
10
27
16
13
28
14
12
28
13
11
28
13
12
30
112
109
138
107
104
133
107
104
133
111
108
137
114
109
139
115
111
140
121
116
146
119
115
142
121
117
144
122
118
145
109
105
131
87
85
109
74
72
96
72
70
94
80
78
103
87
84
112
89
86
113
99
96
124
101
96
125
98
93
123
96
91
121
98
93
123
105
100
130
105
100
130
100
95
125
94
89
119
93
86
117
94
85
116
94
82
114
89
80
108
82
73
98
89
73
98
97
70
95
189
130
156
223
146
182
224
146
179
221
147
175
204
127
159
163
75
115
176
81
125
165
74
117
139
49
90
171
64
112
175
64
113
163
65
108
131
57
96
82
44
74
45
39
56
31
50
62
21
45
58
16
51
64
16
58
68
16
62
68
14
63
69
16
67
72
20
75
81
31
79
88
9
43
57
10
29
48
7
31
47
13
52
63
17
60
69
17
59
71
16
58
71
21
56
69
25
55
68
29
59
70
39
61
70
51
57
56
145
133
122
204
180
165
224
197
182
226
198
184
229
201
185
228
201
180
228
202
180
228
201
183
214
192
172
173
152
132
219
198
177
193
174
152
205
196
162
206
194
161
184
164
146
197
167
171
193
147
165
173
115
138
135
56
85
128
51
75
149
102
109
217
189
181
217
194
179
220
193
181
221
194
182
221
194
183
221
194
181
217
191
174
216
190
173
214
188
169
210
186
168
206
178
165
154
118
110
146
104
100
143
103
100
109
89
92
142
155
143
130
168
125
136
180
122
145
170
127
105
79
79
132
60
90
75
37
59
18
18
37
14
16
39
58
12
48
87
13
57
90
13
55
81
17
52
48
10
36
32
18
36
33
19
38
32
17
36
30
17
35
26
14
32
24
14
31
25
12
30
30
17
35
32
19
37
30
17
37
28
16
39
30
18
40
30
18
40
28
17
36
29
18
35
30
19
36
30
19
36
29
18
35
28
17
34
26
15
32
25
14
31
25
14
31
26
15
32
26
15
32
27
15
32
27
15
32
27
15
30
26
13
28
27
13
36
27
13
36
26
12
35
27
13
36
26
14
36
27
15
37
27
15
37
27
14
38
26
14
38
23
13
37
20
12
35
17
13
33
17
14
29
14
11
27
11
9
28
15
13
30
20
11
29
19
10
26
15
12
27
12
11
28
12
11
29
12
12
32
103
99
125
102
98
124
100
96
122
102
98
126
110
105
136
113
109
137
115
111
136
112
108
134
100
96
123
82
78
105
72
68
95
80
77
99
86
83
107
85
82
108
89
86
115
89
86
115
82
79
107
80
77
105
78
74
102
80
73
104
80
73
104
89
83
114
101
96
126
102
98
128
100
98
127
98
97
127
101
98
130
94
89
120
90
82
111
86
80
105
87
75
102
93
75
102
105
69
95
208
145
171
222
148
179
224
146
178
223
148
177
222
145
177
175
100
133
172
80
123
179
80
129
173
79
128
159
69
112
169
67
107
177
64
107
177
61
111
167
66
112
145
64
102
117
54
88
87
43
72
46
32
52
27
50
62
17
58
66
17
57
70
15
57
72
14
58
70
17
58
70
15
47
62
7
29
48
9
26
45
7
32
48
18
51
64
16
57
69
15
58
70
17
57
69
19
57
70
24
57
69
30
60
68
41
59
64
117
115
104
130
118
86
168
146
108
185
157
130
203
177
155
216
190
169
227
197
178
224
197
180
207
188
165
217
206
181
180
166
141
204
196
164
239
235
188
213
202
155
175
151
115
188
153
148
206
147
166
183
106
138
129
48
78
145
69
95
153
105
114
217
188
179
218
194
178
220
194
181
220
194
182
221
195
182
221
195
180
217
190
174
218
191
174
214
192
173
211
190
172
210
183
170
180
147
139
145
104
101
143
103
98
109
90
89
178
188
192
120
145
130
140
177
128
137
178
126
126
133
105
128
58
83
126
53
85
57
27
50
17
18
38
41
14
45
75
20
59
89
16
59
88
13
54
65
13
45
33
18
35
31
21
37
30
16
36
27
14
34
28
15
34
26
13
31
24
11
31
24
11
31
27
14
35
30
18
41
32
19
44
31
19
40
30
17
36
29
18
35
29
18
35
28
18
35
28
18
35
29
16
33
27
15
32
26
13
30
25
13
29
26
15
30
27
16
31
27
16
31
28
15
32
28
15
32
28
15
31
26
14
30
25
14
34
24
13
33
24
13
33
25
14
35
26
14
36
27
15
37
27
15
37
27
14
38
24
14
38
21
13
36
18
14
35
18
15
34
17
14
32
15
12
30
12
10
30
17
13
33
19
11
29
16
10
25
14
12
28
11
10
28
12
11
30
13
12
31
103
98
128
103
98
129
101
96
127
96
91
122
96
91
121
92
88
113
80
77
99
74
70
95
64
60
87
68
65
91
81
77
103
90
86
109
82
78
103
83
80
108
87
84
114
79
76
105
68
65
93
70
67
93
74
70
97
83
78
108
87
82
112
89
83
114
91
86
116
93
89
118
96
94
123
98
96
126
102
98
129
103
98
127
98
91
118
93
84
109
98
81
109
103
81
107
137
96
119
219
152
179
224
149
179
225
149
179
224
147
177
224
147
178
218
141
174
158
73
112
179
83
130
175
80
130
195
106
150
165
82
116
171
66
106
181
62
113
181
61
113
176
63
110
176
63
113
173
62
112
147
66
107
79
44
70
33
48
61
21
56
68
15
57
71
15
55
68
14
57
68
16
53
66
12
39
56
10
27
47
12
25
46
8
34
51
14
53
65
14
58
69
14
59
70
15
58
69
17
55
66
21
59
66
30
59
64
53
68
59
158
169
137
152
146
95
183
159
107
183
155
108
178
151
107
185
157
116
164
150
108
137
153
132
150
197
172
123
157
125
221
218
176
221
206
142
183
162
94
180
150
88
185
147
97
152
96
80
162
78
105
151
74
100
133
70
85
145
103
105
220
191
181
219
195
179
220
194
181
220
194
181
221
195
182
221
195
180
218
190
174
218
190
173
213
192
173
210
190
171
210
183
169
200
167
158
146
107
103
140
104
99
113
100
100
181
195
203
162
185
183
126
158
122
133
178
130
142
165
126
111
72
76
142
54
87
110
56
89
30
50
66
32
77
92
35
61
78
68
20
57
93
12
58
82
15
53
49
11
37
34
19
37
27
14
35
26
12
34
29
16
35
28
15
33
27
14
34
27
14
34
31
18
38
32
20
42
28
18
41
27
16
36
29
17
34
28
16
34
28
16
34
26
17
34
26
17
34
28
16
33
26
15
31
25
14
30
25
14
31
26
15
31
26
15
31
26
15
31
26
14
31
26
14
32
27
15
32
25
14
32
22
13
32
20
12
31
20
12
31
22
13
33
26
14
36
27
15
37
27
15
37
27
14
38
24
15
39
21
13
36
17
14
35
18
15
33
17
14
32
15
12
30
13
10
28
17
12
31
18
11
29
15
11
27
13
12
29
11
10
28
13
12
30
13
12
30
111
106
135
107
103
131
111
106
135
107
102
131
86
82
110
67
63
88
58
55
76
68
64
89
82
78
105
88
84
111
93
89
116
97
95
118
85
83
108
71
70
100
72
71
102
72
69
98
72
69
98
80
77
104
88
86
113
95
92
121
95
92
121
98
95
124
98
95
124
98
94
123
102
97
127
112
106
136
116
111
139
114
107
133
111
102
126
106
96
120
113
93
121
113
84
109
181
127
149
224
151
180
225
151
180
224
149
179
225
147
177
224
148
177
225
147
179
202
124
159
163
76
117
178
83
130
179
84
131
209
125
162
170
89
120
165
68
112
177
68
117
179
64
111
178
64
110
180
62
111
173
60
109
156
65
106
97
46
74
34
47
58
18
53
62
15
54
66
14
55
67
13
56
67
13
54
66
11
38
55
11
25
46
10
25
46
9
38
54
14
53
66
14
60
70
14
58
69
15
57
68
16
57
65
21
58
66
27
63
57
105
131
105
163
181
143
130
125
97
180
162
137
180
156
128
175
149
122
141
132
103
143
207
180
115
222
199
94
184
156
124
131
94
178
147
95
181
146
90
158
121
68
159
120
68
127
78
50
137
71
83
150
99
105
209
171
166
215
184
174
219
194
180
218
196
180
219
196
182
219
196
182
218
195
181
219
194
179
219
192
175
217
190
173
213
192
173
210
189
170
211
184
169
203
170
160
147
109
103
140
108
105
128
127
128
180
201
210
179
202
207
127
152
138
133
175
136
137
177
127
117
119
98
136
60
83
103
57
88
61
131
140
68
168
177
31
101
113
44
37
66
85
17
62
88
12
55
71
12
47
33
14
34
27
16
37
27
14
36
28
15
34
28
16
34
29
18
35
31
20
37
31
19
37
29
19
37
26
17
35
26
16
34
28
17
36
28
16
36
26
14
35
23
13
34
24
14
34
26
15
33
27
15
34
26
14
33
26
14
34
26
14
37
26
14
37
26
14
37
26
14
35
25
13
33
23
11
30
24
13
32
19
13
31
19
13
31
19
13
31
21
13
33
25
13
35
22
10
32
25
13
35
27
14
38
23
14
38
21
13
36
18
15
35
18
16
32
17
15
30
13
10
26
13
10
26
19
13
30
19
11
30
14
11
29
12
11
29
13
12
30
13
12
30
13
12
30
95
92
114
91
87
110
86
82
105
77
73
97
75
71
97
78
74
98
75
72
93
83
79
104
102
98
125
108
105
132
108
105
132
109
107
132
102
100
127
84
83
113
74
73
104
73
70
100
74
72
100
82
79
106
87
86
113
92
92
120
97
97
125
99
98
127
98
94
124
97
93
122
96
89
120
96
90
119
106
99
126
111
103
127
114
104
126
116
109
131
125
107
133
127
90
114
216
149
173
225
148
178
223
149
179
223
148
178
224
147
177
226
147
176
224
146
177
222
146
179
178
102
136
175
79
125
183
80
130
186
96
138
216
137
170
180
100
136
167
62
109
186
62
111
182
63
109
176
65
109
177
63
110
176
60
106
166
61
104
120
55
88
56
39
59
27
47
63
18
51
65
13
54
66
14
54
66
17
50
64
12
35
54
11
27
48
9
28
48
11
43
58
15
58
70
14
56
68
15
56
67
16
55
65
18
58
68
21
61
61
37
68
58
143
174
133
162
186
135
151
157
120
209
196
172
222
197
181
212
200
182
135
161
142
71
142
140
60
125
124
89
88
71
144
107
73
133
98
73
130
95
69
126
93
67
165
135
118
202
170
161
218
190
179
217
195
177
217
195
177
218
195
179
219
196
180
219
196
182
219
196
182
218
195
181
219
194
179
219
192
175
217
190
173
214
192
173
210
190
169
210
184
168
190
158
147
147
109
103
134
107
105
153
159
161
175
201
211
177
202
212
170
192
190
113
147
117
133
178
123
140
157
123
114
62
72
94
59
86
55
132
144
66
164
180
28
86
108
36
41
70
80
16
61
92
10
56
85
13
54
48
12
39
30
15
37
29
16
37
30
17
36
30
16
35
28
17
34
28
17
33
28
18
34
27
18
34
26
18
33
26
17
34
27
18
37
28
16
37
25
14
36
23
14
35
23
14
35
24
15
34
25
16
34
23
14
32
24
14
35
26
13
38
26
13
39
26
13
39
25
14
36
21
11
31
18
9
28
20
11
31
18
14
31
18
14
31
18
14
31
21
14
33
22
10
32
22
10
32
25
13
35
25
13
37
21
12
36
19
12
34
16
14
34
17
15
29
16
14
28
13
11
25
13
10
24
18
11
26
18
11
29
13
11
30
11
11
29
13
12
30
13
12
30
13
12
30
79
74
94
74
68
90
77
72
97
87
80
107
93
85
111
92
87
112
88
85
109
90
86
114
101
98
127
108
107
135
108
109
137
109
107
135
106
103
131
100
97
126
91
88
117
80
77
106
75
72
101
80
77
106
85
84
112
88
87
115
91
88
117
93
88
118
97
88
122
101
94
125
105
99
128
105
101
127
116
111
134
131
126
149
141
133
157
143
137
157
138
121
141
169
120
145
222
148
178
224
148
179
223
148
179
224
147
179
225
148
180
226
147
179
225
146
178
224
144
176
219
140
172
165
82
117
179
81
126
182
81
130
206
116
157
220
139
175
190
109
142
165
61
101
183
64
110
184
65
112
181
62
110
174
63
110
176
61
109
171
61
108
148
63
102
99
47
76
49
36
57
27
45
61
19
53
66
15
53
63
14
49
64
9
36
56
9
24
48
7
24
47
12
43
61
15
53
69
15
57
67
15
55
67
14
54
63
21
60
65
26
61
65
82
109
84
159
192
144
168
196
142
153
159
122
207
190
170
221
198
181
218
197
184
198
183
175
185
171
163
180
156
144
129
97
77
165
138
120
219
192
172
218
192
172
220
194
175
219
194
177
219
196
180
218
197
180
219
197
180
220
196
180
221
195
180
219
196
180
219
196
180
219
198
181
218
193
178
219
191
177
217
190
175
213
189
174
210
189
171
210
185
169
164
132
122
148
110
104
119
99
101
172
187
191
175
203
212
178
201
212
179
199
207
134
161
150
136
175
127
137
175
126
107
98
82
110
63
88
55
86
106
29
98
117
20
65
86
39
29
58
81
16
59
91
12
59
93
9
58
69
12
51
40
11
36
28
18
35
30
17
35
31
15
34
27
18
35
27
18
35
27
18
35
28
18
35
29
18
35
28
19
36
28
19
36
26
17
37
24
16
37
22
14
35
22
14
34
26
17
34
26
17
33
26
15
32
25
14
31
26
13
34
27
13
35
27
13
37
27
13
34
25
12
30
20
10
27
18
11
28
20
14
31
18
13
30
16
12
29
17
11
29
23
11
33
26
13
36
27
13
36
23
14
37
19
14
35
18
14
32
17
14
31
17
14
27
16
13
27
13
11
26
15
11
26
18
12
26
16
12
27
13
10
27
11
9
27
13
12
30
13
12
30
13
12
30
78
73
94
85
80
103
89
83
110
93
87
115
97
92
119
98
95
121
97
97
122
101
98
126
102
99
128
102
102
130
99
100
128
104
102
131
103
100
129
103
100
129
98
95
124
83
81
109
72
70
98
69
67
96
71
70
98
72
72
100
77
73
103
79
74
104
91
81
115
107
100
132
123
117
145
129
125
151
136
131
154
144
136
160
148
137
162
153
140
162
142
113
135
206
147
174
222
147
177
223
148
179
224
148
179
226
148
181
224
147
179
225
148
180
226
148
180
225
146
178
222
145
176
211
132
164
162
73
111
181
84
127
186
87
130
214
127
165
221
141
175
201
124
155
157
66
101
181
65
111
185
61
111
181
62
115
183
62
116
181
61
110
174
62
105
165
63
106
147
66
103
105
49
79
64
38
60
35
40
56
23
52
63
21
51
65
16
36
55
9
27
47
8
28
47
16
44
60
16
54
63
13
56
68
15
58
68
16
57
63
19
58
60
27
60
54
129
158
125
160
194
142
166
195
145
147
159
123
197
185
164
218
199
182
220
196
180
218
197
180
218
197
181
200
173
162
196
172
156
220
199
178
218
197
175
221
198
177
220
198
180
221
199
183
220
198
182
221
198
182
219
196
180
220
196
180
219
196
180
219
196
180
218
197
180
217
192
177
218
190
176
216
189
175
213
189
174
210
188
170
200
172
160
147
112
106
139
109
106
128
125
129
184
201
209
177
203
215
178
201
215
178
200
213
173
197
199
116
147
121
135
176
127
130
153
121
120
63
83
114
54
90
62
43
76
21
34
57
28
28
52
61
20
55
88
15
59
95
10
59
86
13
58
53
11
41
31
15
34
25
16
33
27
16
33
27
18
35
28
18
35
28
18
35
28
18
35
29
18
35
29
19
36
28
19
36
26
17
37
25
16
37
24
15
36
24
15
35
26
16
34
26
16
34
27
16
34
26
14
32
27
14
33
27
13
35
27
13
36
27
13
33
24
12
29
21
10
27
19
10
27
22
11
30
21
10
29
18
9
28
21
11
31
25
13
35
27
14
36
27
13
36
23
13
35
20
12
32
18
13
30
18
13
29
17
13
27
15
12
27
12
10
26
14
11
26
18
12
26
15
11
26
13
11
27
13
12
30
13
12
30
13
12
30
13
12
30
83
78
101
83
77
102
89
82
111
94
88
118
96
94
122
98
98
125
99
101
128
103
103
131
103
102
131
98
99
127
92
95
122
96
94
123
103
100
129
103
100
129
101
99
128
96
96
124
89
89
117
83
83
110
79
79
107
74
73
102
77
73
103
86
81
111
98
88
122
106
99
131
120
114
143
130
125
151
133
125
149
134
123
148
135
122
148
141
120
144
160
112
139
222
150
180
224
149
177
224
149
180
224
149
180
225
148
180
225
148
180
224
148
179
224
147
179
224
146
178
225
146
177
224
145
176
198
119
150
164
76
110
182
82
125
190
94
135
222
136
172
218
142
173
209
134
165
165
80
114
175
62
108
185
63
116
182
63
115
179
64
112
175
63
108
175
61
108
172
61
107
169
62
106
156
63
103
129
58
92
87
45
71
53
39
60
37
38
58
30
35
54
19
27
46
12
26
43
20
46
58
17
53
67
13
55
69
14
54
64
17
58
63
24
58
62
47
63
53
136
152
118
165
194
147
167
198
148
154
165
125
191
181
156
221
200
181
223
199
181
223
198
178
223
197
180
221
199
179
219
200
178
219
200
178
220
199
179
220
200
181
219
200
183
221
197
181
219
196
180
220
197
181
219
198
181
220
197
181
219
197
181
219
198
181
218
193
177
218
190
176
216
189
174
213
189
173
207
187
169
172
140
130
145
109
108
125
103
103
163
172
179
179
202
213
180
203
218
178
203
218
178
202
212
177
199
211
138
160
157
135
170
123
139
170
130
116
98
89
136
57
85
126
54
90
49
27
49
22
38
56
29
32
54
66
19
55
88
11
57
92
10
58
72
16
50
39
11
34
30
18
35
28
16
34
28
17
34
29
18
35
30
19
36
30
19
36
30
19
36
29
19
36
28
19
36
27
17
37
27
17
38
25
15
36
24
14
36
24
15
34
25
15
34
27
15
35
27
14
33
27
14
34
27
13
35
27
13
36
26
14
33
21
10
27
19
8
25
19
7
25
21
9
29
21
10
30
20
12
30
23
13
33
26
14
36
27
14
36
27
13
36
25
13
34
21
11
30
19
10
27
18
11
26
15
12
27
13
11
27
12
11
28
13
11
27
18
13
27
13
10
25
12
11
27
14
13
30
14
13
31
13
12
30
13
12
30
84
78
102
87
81
107
93
87
116
100
95
125
100
99
127
101
102
130
100
104
131
107
107
135
110
110
138
105
106
134
100
101
129
99
95
125
99
96
125
94
92
120
97
96
125
104
104
132
101
102
130
99
99
127
95
96
124
83
83
111
81
78
107
92
88
117
91
85
116
95
89
119
100
94
122
103
98
124
107
99
124
114
102
127
119
105
128
119
92
115
196
137
165
224
147
178
225
148
177
224
148
179
224
148
180
225
148
180
224
147
179
222
147
177
223
148
178
223
148
178
222
145
177
221
146
176
223
144
174
185
104
131
173
79
120
183
82
126
204
110
149
224
138
173
221
140
171
218
138
170
176
96
127
166
63
104
181
67
112
185
64
113
182
62
113
179
63
113
177
61
111
177
58
108
177
58
108
174
58
104
166
63
106
153
62
103
137
56
96
117
49
87
92
40
73
65
25
54
45
24
46
24
41
57
16
54
69
14
56
68
17
57
65
19
55
61
35
51
54
91
71
68
147
149
120
166
196
147
167
197
142
154
166
123
186
175
156
220
200
184
223
199
175
226
200
178
222
198
177
220
199
179
220
200
180
221
200
180
220
200
181
220
200
182
221
198
182
219
195
179
220
197
181
219
197
181
219
196
182
218
196
180
218
196
179
218
192
176
217
189
174
215
190
175
213
187
174
200
176
161
152
115
108
141
109
110
121
115
119
185
201
210
179
203
216
179
203
220
177
204
219
177
203
212
177
199
211
172
193
194
113
144
110
135
175
127
128
150
115
116
59
70
136
50
85
87
39
67
15
30
45
16
44
55
34
30
49
76
17
57
92
11
59
85
16
56
67
21
51
32
15
35
25
15
32
28
16
35
30
18
36
30
19
37
30
19
37
30
19
36
29
19
36
29
19
36
28
17
37
28
16
37
25
13
34
25
13
34
24
13
33
26
15
35
28
15
35
27
14
34
26
14
34
26
14
35
25
13
34
22
12
30
19
9
26
18
8
25
20
9
28
24
14
35
23
14
35
21
13
34
24
14
36
26
14
37
24
13
35
24
13
33
22
13
30
19
11
27
18
10
26
18
11
27
15
11
29
13
11
28
12
10
27
13
10
26
18
14
28
13
11
27
11
11
29
13
12
31
14
12
31
13
11
29
13
11
28
91
83
108
94
88
115
96
91
119
100
96
125
101
96
126
102
102
130
103
106
133
106
108
135
107
107
135
106
106
134
106
106
134
105
101
131
100
97
126
89
89
117
94
94
122
97
98
126
96
97
125
91
91
119
82
83
111
74
75
103
76
75
103
79
76
105
76
73
102
80
75
103
82
76
103
83
76
103
86
78
105
94
83
106
115
97
118
134
94
116
218
151
179
223
149
178
224
149
178
224
148
179
225
148
180
225
148
180
225
148
179
225
150
178
225
150
178
223
148
176
223
146
177
224
146
177
223
146
175
220
143
171
171
92
126
177
83
125
182
85
128
211
121
160
224
141
172
223
142
172
223
144
173
197
115
143
163
65
100
179
67
111
181
63
111
181
62
110
178
60
109
177
61
111
177
61
111
177
60
107
174
58
105
172
59
105
173
59
107
169
56
106
165
59
108
159
61
108
148
61
103
104
54
86
38
38
59
18
49
63
14
51
60
16
53
59
22
53
56
72
49
61
133
74
87
141
143
115
164
197
142
165
198
140
158
173
134
182
171
148
224
198
176
225
199
182
220
197
179
219
199
179
220
200
181
221
200
181
221
200
181
221
200
181
222
199
183
221
198
182
220
197
181
218
195
180
218
194
182
218
194
180
218
192
174
218
192
172
217
190
173
212
188
174
211
182
171
174
138
130
148
112
107
120
102
102
176
185
190
181
202
211
181
203
216
179
203
219
178
203
221
176
202
216
177
201
210
177
199
203
103
125
117
133
171
128
139
172
124
108
96
82
133
57
86
109
46
80
24
17
35
12
39
47
20
41
51
53
21
50
86
12
59
89
11
57
92
36
71
43
17
40
24
16
32
27
15
35
29
17
37
30
17
37
30
18
36
29
18
35
30
19
36
30
19
36
28
16
36
28
15
36
25
13
33
25
13
33
27
14
32
28
15
33
27
14
32
27
14
33
26
14
34
23
13
32
20
11
30
19
10
26
20
10
27
22
11
30
23
12
33
26
14
38
27
15
39
26
14
38
27
14
39
26
13
38
22
13
33
20
13
29
18
14
27
18
13
27
18
11
27
18
10
27
15
10
30
13
12
29
12
10
25
14
9
24
17
13
28
13
11
29
11
12
32
13
11
32
14
11
30
13
10
28
13
10
26
92
83
109
91
85
112
97
91
119
98
92
122
99
92
123
99
96
125
105
106
134
110
111
139
109
111
138
111
112
140
111
112
140
109
108
136
103
102
130
99
97
126
95
93
122
87
85
114
90
88
116
86
84
112
78
78
106
77
77
106
85
82
111
94
89
119
90
87
116
89
84
113
93
86
113
100
91
118
101
91
117
97
88
109
109
84
106
177
121
148
223
146
178
224
150
180
223
150
178
224
148
179
225
148
180
224
147
179
224
148
179
224
148
178
224
148
178
224
148
178
225
146
177
225
145
177
222
145
177
221
146
177
215
139
172
165
84
118
179
85
125
185
90
130
218
133
169
223
142
174
221
144
171
219
143
169
214
133
163
171
81
116
173
61
107
181
64
109
180
63
108
181
63
110
181
62
111
178
61
110
176
59
108
176
58
107
172
59
106
171
61
107
169
59
107
169
57
107
169
56
107
164
58
108
125
54
94
45
40
59
23
49
61
17
51
60
19
50
58
39
40
54
128
66
91
145
69
84
141
138
111
167
194
144
167
199
147
162
179
137
178
169
142
217
201
180
219
199
180
218
200
180
219
201
181
221
200
181
220
199
180
220
199
180
221
198
182
219
196
180
220
197
181
219
196
180
220
193
181
219
192
177
218
191
173
219
192
174
215
191
175
212
186
174
189
160
151
152
111
110
134
108
109
152
157
161
184
202
208
184
202
212
181
202
215
179
203
219
177
204
220
175
202
215
176
200
211
176
196
205
131
147
149
116
145
118
132
171
126
127
146
112
115
60
72
123
51
82
46
16
42
9
30
43
12
46
55
29
32
50
74
15
55
91
9
55
94
28
66
86
43
72
28
13
32
25
16
35
27
17
37
27
16
35
25
15
33
26
16
33
28
18
35
28
18
35
27
15
35
27
15
35
26
14
34
26
14
33
28
15
33
27
14
32
27
14
32
27
14
33
25
13
33
21
10
30
18
9
28
20
9
26
22
12
28
23
11
31
22
10
31
24
12
36
26
14
38
24
12
36
25
13
36
24
14
36
20
13
31
18
13
27
18
14
27
19
14
28
18
11
27
18
10
28
15
10
29
12
11
28
10
9
23
13
8
23
16
12
27
13
11
28
10
11
32
13
11
32
14
11
30
13
10
27
14
11
27
94
85
111
87
81
107
94
89
116
99
93
123
100
92
123
96
90
121
98
96
125
99
102
129
100
104
131
98
102
129
103
107
134
108
109
137
110
109
137
105
101
130
93
88
118
80
76
105
86
81
111
90
85
115
92
91
119
95
94
122
97
93
122
101
96
126
104
101
130
104
100
128
109
102
129
116
106
133
119
107
133
110
102
122
108
77
99
207
141
172
226
145
178
226
151
181
224
148
177
224
147
179
225
148
180
224
147
179
224
147
179
225
147
179
225
147
179
225
147
179
225
148
178
223
146
176
223
144
178
223
144
180
222
146
178
216
137
169
165
81
114
180
87
126
192
98
140
224
136
172
222
144
172
221
145
170
219
142
171
220
138
172
189
106
141
165
62
100
178
65
107
186
63
109
188
59
109
182
60
112
179
59
110
177
60
110
176
60
108
175
59
106
173
59
107
171
57
108
170
59
109
170
58
108
159
60
106
132
59
97
59
36
62
26
44
58
22
47
60
35
44
59
88
45
70
155
67
100
147
72
93
139
128
109
168
190
147
165
197
146
164
181
142
162
160
136
214
199
178
219
199
180
219
200
180
220
199
180
220
199
180
220
199
180
220
197
181
219
196
180
220
197
181
219
195
180
220
192
179
218
190
173
219
190
170
217
191
172
211
189
173
202
176
165
152
120
114
139
110
108
136
137
140
184
204
211
181
203
212
184
202
212
182
202
215
180
203
219
177
204
220
176
203
215
178
202
214
177
198
211
144
163
172
132
155
147
134
174
132
135
171
121
109
96
82
127
58
83
64
28
54
8
21
40
13
41
56
20
40
54
61
16
50
90
11
56
91
15
57
110
52
86
49
20
42
25
18
36
25
17
36
25
17
35
24
15
33
25
15
32
26
17
34
26
17
34
26
15
34
27
15
35
26
14
34
26
14
34
26
13
31
26
13
31
25
12
30
23
11
29
21
9
29
19
8
28
19
10
29
23
12
29
25
12
30
25
12
32
25
12
33
25
13
37
26
14
38
24
12
36
24
14
36
22
13
33
19
12
28
17
13
26
18
14
26
20
14
28
18
11
27
19
10
28
14
9
29
12
11
27
8
7
22
12
7
22
17
13
28
14
12
29
10
11
31
12
11
32
14
11
30
14
11
28
13
11
26
98
91
119
89
84
111
94
90
117
96
93
121
93
88
118
90
86
115
93
90
119
101
99
128
105
104
132
101
102
130
99
101
129
102
103
131
105
105
133
101
101
129
100
97
126
97
93
121
98
94
122
99
94
122
107
103
131
109
106
134
107
104
132
107
103
131
107
104
131
109
104
132
112
104
132
117
106
135
119
106
133
116
102
123
136
95
117
220
149
180
224
146
180
225
148
181
223
146
179
225
148
180
225
148
180
224
147
179
225
148
180
225
148
179
225
148
179
224
148
178
224
147
177
225
147
178
225
146
178
225
145
179
224
146
176
224
145
174
213
132
161
164
78
111
182
82
123
200
108
145
223
142
174
223
145
173
223
146
173
222
145
173
222
143
171
212
132
159
166
76
107
176
63
106
185
60
107
184
59
107
180
59
109
177
60
112
178
60
110
179
59
108
179
59
108
175
58
106
172
56
107
171
56
107
169
57
107
166
59
107
145
61
102
76
39
69
34
40
57
55
42
58
122
67
88
133
56
84
139
60
92
146
72
96
140
128
111
165
191
146
164
199
144
165
187
144
159
155
131
214
193
176
221
198
181
221
198
181
220
199
181
219
198
179
218
197
178
220
196
180
217
196
180
218
195
181
218
193
178
216
190
172
218
191
170
216
188
170
209
182
170
164
135
128
143
113
111
129
120
122
188
198
207
183
204
218
184
203
218
184
202
215
182
203
214
180
203
217
178
204
220
180
203
217
179
203
216
177
198
211
149
170
179
160
185
185
118
153
120
132
175
118
124
140
107
119
58
77
78
38
65
11
19
38
13
39
52
19
45
56
55
16
46
91
11
57
87
13
56
100
39
74
93
47
77
47
44
64
23
25
45
20
19
39
25
16
35
28
16
35
26
14
35
24
14
35
26
12
35
27
14
36
26
14
34
24
14
32
25
13
31
24
12
29
22
10
27
21
10
27
20
9
27
21
10
28
23
12
30
25
13
27
26
14
30
26
15
33
25
14
36
24
14
36
24
14
36
22
13
34
23
13
34
21
12
30
20
12
29
20
12
28
19
13
27
19
13
26
21
14
27
20
13
28
16
13
31
13
11
27
8
7
21
9
6
21
11
9
26
12
11
29
11
11
29
13
12
30
13
12
30
14
13
30
14
12
30
92
87
114
90
86
113
91
88
114
90
86
113
89
85
114
92
87
116
96
92
120
98
93
123
100
96
126
99
96
125
97
96
124
99
96
125
100
97
126
98
96
124
102
98
127
101
97
125
96
91
119
94
90
118
98
94
121
100
97
123
103
99
126
105
102
129
106
102
129
109
103
131
114
105
134
119
108
138
121
109
136
123
103
125
173
122
146
222
148
180
224
147
181
223
146
180
224
147
181
225
148
180
225
148
180
223
146
178
224
147
179
224
148
178
225
149
179
225
149
179
226
148
177
226
147
178
225
146
178
225
146
179
226
146
176
225
145
175
222
143
173
209
129
160
166
75
111
180
88
125
206
123
156
223
144
175
223
145
174
224
145
174
222
144
173
221
146
172
220
139
169
174
89
121
164
62
101
179
64
108
181
60
108
177
59
110
178
60
109
180
60
108
180
60
108
177
59
107
177
60
110
174
58
109
172
58
108
170
58
106
170
56
102
154
62
106
92
40
68
121
75
96
173
105
128
155
76
102
124
51
80
153
62
99
154
65
96
136
128
107
165
190
140
162
195
141
166
188
144
153
153
124
205
192
169
217
197
177
219
197
178
216
196
177
216
196
176
218
195
178
215
195
179
217
194
180
216
193
177
214
191
174
213
188
171
208
179
163
169
133
125
147
113
115
128
114
121
181
192
196
184
204
211
185
206
221
188
204
222
184
202
216
183
204
215
179
204
217
178
204
220
181
203
217
180
203
216
177
199
212
145
165
174
174
199
201
114
145
125
134
176
126
134
168
124
98
74
71
88
47
69
14
16
36
8
39
48
16
46
55
50
18
45
89
12
56
88
13
56
90
23
60
117
57
92
78
73
94
66
99
113
42
76
90
28
44
59
19
20
38
23
16
36
25
16
35
26
13
35
24
12
33
25
15
34
23
14
31
23
12
29
21
10
27
21
10
27
24
13
30
25
14
31
25
14
31
24
13
30
23
12
25
25
14
28
25
15
33
24
15
37
22
13
34
22
13
34
21
12
32
21
12
31
21
12
29
20
11
28
20
11
28
20
11
27
19
11
26
19
13
27
17
12
26
15
12
29
12
9
26
9
7
21
8
7
22
10
9
27
12
11
29
13
12
30
13
12
30
13
12
30
14
13
31
14
13
31
87
84
107
86
82
106
89
85
109
90
85
110
89
85
112
89
85
111
88
84
110
89
84
113
95
89
120
98
91
122
98
91
122
97
92
122
98
94
123
99
94
124
105
100
130
107
102
133
101
96
127
99
94
125
98
94
122
98
94
121
99
95
122
102
98
125
104
99
126
104
97
125
105
95
124
110
100
129
119
109
133
124
96
119
206
144
170
225
147
180
225
148
182
225
148
182
225
148
182
225
148
180
225
148
180
223
146
178
224
148
179
226
150
180
227
151
181
226
150
180
225
148
177
226
147
178
225
146
177
224
145
178
222
147
179
223
146
179
224
144
178
224
143
176
209
129
161
165
78
113
179
89
125
217
133
167
224
143
175
224
145
176
222
145
176
221
146
173
222
145
173
221
142
173
188
110
140
162
61
100
180
62
108
183
61
109
180
58
107
181
60
108
180
60
108
178
60
108
178
60
109
175
58
106
172
58
106
170
60
105
168
60
103
165
61
106
122
46
77
159
95
118
208
139
161
164
87
110
130
49
79
146
55
93
172
59
106
155
69
95
139
129
109
166
188
144
158
196
138
166
191
141
146
152
118
200
188
163
217
193
173
219
190
175
216
190
173
218
189
174
214
188
175
214
185
173
206
174
164
193
161
152
174
141
133
153
117
110
147
112
110
128
111
118
181
190
202
183
204
213
183
207
214
184
207
219
186
207
224
187
205
219
183
204
215
180
205
218
179
203
220
180
201
215
179
203
215
175
199
211
142
160
170
175
196
203
143
170
161
127
164
125
128
175
122
115
131
105
72
48
58
18
17
35
11
38
49
23
38
51
56
18
47
88
12
56
89
10
55
84
12
52
122
53
91
97
54
87
64
100
118
58
116
131
63
112
130
53
91
108
33
55
69
20
22
37
23
16
34
22
14
31
22
13
30
21
12
28
20
9
26
22
11
28
25
14
31
26
15
32
25
14
31
25
14
31
21
10
27
19
11
22
21
13
26
24
14
32
25
13
35
20
11
30
19
10
28
20
11
29
21
12
30
21
12
29
20
11
28
20
11
28
20
10
27
19
9
26
17
11
27
16
12
27
14
11
28
11
8
25
10
8
22
10
9
23
13
12
30
15
14
32
14
13
31
14
13
31
14
13
31
14
13
31
14
13
31
81
78
101
83
79
102
88
83
108
90
84
109
90
84
111
93
87
113
92
85
111
89
82
111
94
87
117
99
90
121
100
89
121
99
91
122
100
93
124
102
96
126
106
100
131
109
104
136
106
102
134
106
102
133
104
98
128
104
98
126
104
98
126
106
100
128
105
99
127
105
98
126
104
94
123
111
101
129
122
111
134
134
98
121
218
148
176
226
146
179
225
148
182
224
147
181
224
147
181
225
148
180
225
148
180
223
146
178
224
148
179
225
149
179
224
148
178
224
148
178
225
148
178
226
147
178
225
145
178
224
144
178
223
146
181
223
146
181
222
145
180
223
146
180
222
147
177
210
127
160
168
77
113
189
102
138
222
138
174
225
144
179
223
146
179
224
145
174
224
145
174
223
143
175
222
142
174
199
118
150
159
61
99
181
65
109
182
60
107
180
59
108
179
59
107
178
59
107
177
59
107
176
59
107
174
60
106
172
60
106
171
58
107
167
60
108
120
41
74
136
61
87
138
71
90
123
52
72
110
39
66
147
53
91
162
62
100
172
60
101
153
71
98
137
126
108
160
191
137
156
196
135
162
191
142
139
151
114
165
147
126
181
151
138
181
148
135
173
138
126
164
131
120
157
120
112
152
113
106
153
111
108
152
109
111
149
111
114
132
114
118
179
191
195
180
206
216
185
209
222
186
208
218
185
207
218
186
207
224
186
204
219
181
202
214
180
205
218
180
203
220
180
199
214
176
200
212
171
198
208
136
154
165
175
194
204
169
194
191
111
145
116
133
174
121
132
164
125
65
74
64
17
19
34
25
33
49
51
28
51
80
19
56
90
10
56
89
10
55
82
13
52
111
45
81
124
57
99
73
73
103
61
111
134
55
116
140
57
116
139
66
115
131
73
102
113
18
20
36
19
15
30
19
12
27
19
11
25
23
11
28
24
13
30
25
14
31
26
15
32
26
14
31
25
14
31
21
10
27
18
12
24
20
13
26
22
12
30
23
11
33
21
12
30
20
11
28
20
11
28
21
12
29
21
12
29
20
12
29
20
11
28
21
9
28
19
9
27
16
10
27
14
11
27
11
8
27
10
7
24
14
11
26
18
16
31
16
15
33
13
12
30
12
12
30
13
12
30
14
13
31
14
13
31
14
13
31
88
82
106
91
85
112
96
89
120
94
87
119
93
84
115
98
89
118
100
91
118
96
89
117
97
91
119
100
91
120
98
89
118
97
90
121
101
95
126
102
98
128
105
101
131
103
101
132
101
103
129
103
101
126
104
100
127
106
102
129
105
101
127
106
102
126
108
103
127
107
102
125
107
99
123
115
105
131
131
112
137
162
115
137
221
150
176
223
146
178
224
147
181
225
148
182
225
148
181
224
148
177
224
148
176
225
149
177
225
149
178
225
149
179
224
148
178
224
148
178
225
147
180
225
146
180
225
146
181
223
144
179
222
145
179
223
146
180
223
146
180
224
147
180
223
147
178
224
145
177
211
131
163
163
78
112
198
112
146
224
141
175
224
145
177
225
144
176
225
145
175
224
144
173
223
144
172
220
142
173
206
125
157
163
64
101
179
65
108
183
61
107
180
59
106
179
60
106
180
60
108
179
60
108
177
60
107
175
60
107
172
57
108
167
57
107
133
44
82
111
40
64
87
24
45
73
24
46
58
24
46
117
51
85
161
61
102
169
63
102
167
64
104
146
71
95
130
132
107
156
191
139
154
193
134
159
193
137
140
151
112
131
106
94
151
114
108
153
109
107
156
109
109
153
110
108
150
109
107
155
109
109
144
110
115
127
113
121
185
192
198
183
204
212
183
207
219
185
209
225
186
209
225
185
208
222
184
206
220
183
202
219
180
201
218
181
204
220
180
202
217
178
199
213
150
178
189
134
162
170
131
150
159
176
195
205
172
195
201
128
155
142
133
174
127
130
173
119
100
123
93
55
33
45
94
42
67
123
49
82
95
20
61
88
11
58
88
11
57
87
13
55
98
34
68
125
58
97
103
56
92
62
99
118
54
117
136
59
118
140
58
121
138
100
146
160
58
79
91
17
14
31
22
11
28
20
16
27
27
14
31
27
14
31
28
15
32
26
14
30
26
13
31
23
13
34
20
13
28
19
12
27
18
10
26
20
10
27
21
10
27
21
12
29
21
12
29
19
10
27
20
12
28
20
13
29
20
13
29
19
12
28
20
10
30
16
10
30
13
10
29
13
9
29
12
9
29
15
12
32
18
15
35
17
13
33
14
10
30
13
11
30
12
12
30
12
12
30
13
12
30
13
12
30
13
12
30
90
86
111
93
88
116
99
94
126
101
94
127
102
93
124
101
93
122
95
86
113
95
89
116
98
92
120
98
91
120
102
93
122
99
92
123
95
89
120
96
92
121
99
96
125
101
100
128
102
104
130
105
104
131
108
105
133
106
102
129
104
101
126
105
103
126
110
105
128
113
108
131
114
106
130
121
111
136
127
104
130
183
130
154
221
147
175
226
149
181
224
147
181
224
147
181
224
147
180
224
148
178
224
148
177
225
149
178
224
148
178
223
146
178
223
145
177
224
147
178
225
148
181
225
148
182
225
148
182
223
146
180
222
145
179
223
146
180
223
146
180
223
146
180
223
146
178
224
146
178
225
144
177
211
128
162
162
79
113
208
127
160
223
144
176
224
145
177
224
145
176
224
145
175
224
144
173
224
142
172
221
141
171
211
130
159
160
69
102
176
64
108
181
60
107
181
60
107
181
59
108
180
60
108
178
60
108
175
59
106
170
56
104
168
56
107
158
56
100
130
43
78
112
38
71
60
30
53
32
43
59
47
36
56
140
52
90
165
59
98
170
62
103
172
61
107
152
66
93
138
137
111
157
189
140
154
195
137
150
194
136
144
163
120
120
104
84
149
110
102
155
106
106
151
110
112
147
112
115
130
104
108
136
135
139
182
194
202
184
207
217
184
211
223
183
208
224
185
209
226
186
209
225
185
208
222
185
208
221
185
204
221
180
201
218
180
203
219
178
203
215
174
201
210
130
162
172
114
147
158
134
154
165
174
196
206
173
196
205
154
179
173
124
160
123
126
176
121
122
152
113
102
78
78
132
55
85
142
45
86
100
19
60
90
13
59
90
11
57
89
13
55
85
21
56
126
58
97
128
58
100
74
70
97
60
114
132
56
119
138
53
120
137
79
139
150
98
139
150
18
24
42
24
15
32
22
19
31
26
14
31
27
14
31
26
14
30
25
13
29
26
13
31
24
13
35
19
11
27
17
10
25
18
11
27
20
10
27
22
11
28
20
11
28
20
11
28
19
10
27
20
12
28
20
13
29
19
12
28
18
11
27
17
10
29
13
10
29
11
10
28
10
6
26
17
13
31
18
14
31
16
12
30
16
12
30
15
11
30
13
11
30
12
12
30
12
12
30
13
12
30
13
12
30
13
12
30
100
96
123
98
95
124
95
91
124
94
89
122
97
90
121
95
89
117
91
85
111
89
84
111
87
83
110
87
82
109
94
88
116
97
90
121
94
88
118
93
89
119
97
95
122
101
102
126
100
103
129
102
102
132
104
103
132
101
100
127
99
98
123
99
98
121
104
99
122
110
104
127
116
108
132
116
105
131
115
88
115
205
145
172
224
147
175
226
149
181
225
148
182
225
148
182
225
148
182
224
147
179
223
146
178
223
146
178
223
146
178
224
144
178
224
145
179
225
145
180
225
145
180
225
145
180
225
145
180
225
145
180
223
146
180
223
146
180
223
146
180
223
146
179
225
146
178
225
146
178
224
145
177
224
144
177
213
134
166
165
89
120
217
139
171
224
146
179
224
146
178
224
146
177
224
145
175
224
144
171
223
144
171
219
141
168
213
133
163
160
73
106
176
63
107
180
62
107
181
60
108
181
60
108
179
60
108
177
60
107
172
57
103
169
55
106
168
57
106
166
57
103
158
57
102
70
30
59
22
42
58
23
44
59
73
37
59
153
63
97
167
57
98
168
61
105
165
63
100
140
73
90
139
139
117
160
190
145
144
194
132
152
192
131
147
175
128
114
111
85
140
111
105
129
102
102
120
113
117
165
172
181
190
206
215
187
207
218
184
209
222
184
210
223
182
209
223
184
208
225
185
208
224
184
207
221
183
206
220
185
204
221
181
202
219
180
202
218
179
203
216
174
200
210
148
180
189
104
137
146
120
143
155
171
195
204
174
196
208
169
193
196
116
146
121
131
177
124
133
171
120
119
121
99
124
58
79
138
44
84
101
19
60
91
11
58
89
11
57
88
14
56
84
14
51
119
53
91
129
56
96
108
59
97
68
93
115
60
117
136
53
121
138
60
125
138
109
162
175
60
86
100
21
17
35
20
15
28
24
14
30
25
14
30
24
13
29
23
12
27
25
12
31
24
14
35
18
10
26
16
9
24
19
11
27
20
10
27
21
10
27
20
11
28
20
11
28
19
10
27
20
12
28
19
12
28
18
11
27
18
11
27
14
10
28
11
11
29
10
10
28
13
9
28
18
13
27
18
13
27
17
12
27
17
12
28
15
11
31
13
11
30
12
12
30
12
12
30
13
12
30
12
11
29
13
12
30
107
104
132
99
96
125
91
88
119
94
90
122
92
86
117
97
92
121
98
93
120
92
87
114
83
79
105
78
74
100
86
80
107
92
85
116
93
87
118
97
93
123
103
101
128
106
105
131
103
105
132
105
104
134
104
102
132
101
100
127
100
99
123
103
101
123
105
99
123
105
100
124
112
104
128
114
102
127
124
90
116
215
150
177
224
148
175
225
148
180
225
148
182
225
148
182
225
148
182
224
147
180
223
146
179
223
146
179
223
146
179
224
146
180
224
146
180
224
146
180
223
146
180
223
146
180
223
146
180
223
146
180
223
146
179
223
146
179
223
146
179
223
146
179
224
146
178
223
146
178
223
146
178
224
146
177
224
145
177
220
142
174
184
107
140
222
144
179
224
146
179
223
146
177
222
146
176
224
147
174
223
144
172
223
142
169
223
141
171
217
136
168
165
78
111
171
62
105
181
62
108
179
60
107
179
59
106
178
59
106
175
59
104
171
56
106
169
57
108
171
56
105
159
58
103
79
34
62
15
31
47
18
44
59
30
41
50
122
57
84
161
59
99
168
60
101
165
61
96
159
65
99
141
70
92
140
142
118
147
192
138
145
195
130
143
193
134
149
182
139
108
121
96
163
170
163
188
203
208
188
207
222
186
207
223
186
207
221
187
210
223
189
209
224
187
207
223
184
207
223
183
208
223
182
208
221
183
205
219
183
202
216
181
203
218
179
203
218
179
202
218
177
200
215
168
197
206
101
129
136
109
135
150
159
184
195
172
193
206
174
196
203
127
153
142
135
172
127
134
175
118
134
155
119
112
60
72
141
46
87
99
21
60
90
12
57
91
9
57
90
12
57
84
13
54
112
45
83
126
59
97
124
60
100
81
64
93
67
110
129
56
119
137
57
117
135
94
151
165
98
140
153
20
22
39
21
14
28
23
15
30
24
14
30
22
10
27
22
10
26
24
12
29
22
12
31
19
10
26
19
10
26
21
12
29
20
10
27
20
10
27
20
11
27
20
12
28
20
12
28
20
13
29
19
12
28
18
10
26
19
10
26
16
12
28
13
13
29
13
12
28
14
11
27
17
13
27
17
13
26
17
13
26
17
13
28
14
12
31
13
12
30
12
12
30
12
12
29
13
12
28
12
12
28
13
12
28
107
104
133
95
92
121
91
88
117
92
88
118
91
86
116
91
86
116
93
89
118
93
88
116
93
89
116
87
83
110
85
81
108
87
80
111
91
85
115
93
89
119
98
95
124
103
100
129
104
101
130
102
99
128
103
100
130
102
98
127
103
99
124
103
98
121
104
95
122
109
103
127
114
107
130
120
107
130
144
104
128
221
153
178
224
150
174
225
148
179
224
147
181
225
148
182
225
148
182
224
147
181
223
146
180
223
146
180
223
146
180
222
147
180
222
147
180
222
147
180
223
146
180
223
146
180
223
146
180
223
146
180
223
146
178
222
147
178
222
147
178
222
147
178
222
147
178
222
147
178
222
147
178
224
146
177
225
146
177
225
145
178
224
144
180
224
144
180
225
145
180
224
145
177
223
145
176
224
147
178
223
144
174
223
144
172
223
141
170
220
141
170
217
137
168
169
84
117
172
63
104
180
63
107
182
60
107
181
60
107
177
59
105
172
59
107
170
57
108
170
55
107
160
57
103
97
41
71
18
21
41
15
39
55
21
47
55
83
40
63
155
60
101
163
58
101
165
59
103
163
60
103
166
63
105
133
68
86
138
157
122
150
191
135
149
193
133
148
193
138
151
188
142
125
150
127
180
202
203
187
208
223
186
209
226
186
210
224
186
210
224
187
209
225
187
206
225
185
207
224
180
208
222
178
209
220
184
204
217
184
202
213
180
203
215
177
202
216
180
201
219
178
199
214
175
200
210
103
131
139
114
146
161
136
164
177
174
195
207
170
195
201
150
176
172
124
159
123
133
174
120
137
169
123
110
90
81
139
50
88
104
19
60
91
11
56
93
9
58
91
12
59
87
14
59
101
35
74
126
57
99
126
55
97
111
60
95
67
89
107
54
120
134
60
119
140
72
124
139
110
161
172
46
65
76
22
15
31
23
14
29
23
13
29
24
12
29
22
10
27
23
12
29
20
9
26
21
10
27
22
10
27
21
10
27
19
10
27
18
11
27
20
13
27
21
14
29
20
14
28
18
14
28
16
12
27
17
8
25
21
9
27
18
13
27
15
13
26
14
12
25
14
12
25
17
14
30
16
13
30
14
11
28
13
10
28
11
10
28
12
11
29
12
11
29
12
11
26
13
11
25
11
10
24
9
7
21
109
107
136
102
101
129
100
99
127
100
98
126
96
93
122
89
86
115
91
88
117
91
87
116
98
93
122
97
93
121
93
88
117
92
88
117
91
86
116
90
84
114
95
90
120
99
93
123
96
91
121
101
96
126
101
95
127
100
94
124
103
97
122
101
94
117
105
95
122
109
101
126
117
107
131
124
107
132
160
112
138
221
150
177
223
150
174
225
147
177
225
146
178
225
147
179
226
147
179
225
146
181
224
145
180
224
145
180
224
146
180
223
146
180
223
146
180
223
146
180
223
146
180
223
146
180
223
146
180
223
146
180
223
146
178
223
146
178
223
146
178
223
146
178
223
146
178
223
146
178
223
146
178
224
146
178
226
146
179
225
146
178
225
146
178
225
145
180
225
145
180
225
146
178
223
145
176
223
146
178
224
145
176
224
144
174
224
143
171
222
143
170
219
142
171
218
138
169
168
87
117
169
61
102
179
58
104
180
59
106
179
59
106
176
59
108
172
56
108
169
56
107
165
55
103
115
45
80
23
19
41
12
30
48
19
45
58
52
35
54
146
60
100
163
56
105
165
57
106
166
57
107
166
57
107
160
65
103
128
72
78
144
162
125
147
192
134
146
193
133
146
195
133
144
191
142
123
154
133
181
208
209
187
211
223
187
212
223
186
211
223
186
209
223
187
207
223
185
207
223
180
207
219
178
209
219
184
204
216
184
202
212
179
203
215
177
202
216
177
199
216
178
198
213
148
169
179
129
156
169
111
146
161
116
149
161
166
192
202
170
198
203
168
195
192
111
144
112
134
175
123
129
171
118
118
130
101
123
53
79
106
20
60
91
11
56
92
10
58
90
12
58
87
13
58
90
25
63
127
56
98
129
57
99
127
60
99
89
64
92
62
114
128
57
119
134
62
110
127
113
169
180
85
120
129
19
15
31
24
11
28
23
12
28
22
12
28
22
13
29
23
12
29
21
10
26
21
10
27
20
9
26
18
9
26
17
11
26
16
12
27
16
11
26
15
11
26
14
11
26
14
12
27
12
11
25
15
11
26
18
10
27
16
12
27
14
12
26
15
13
27
14
12
27
13
10
28
13
10
28
13
10
29
13
10
29
12
11
29
12
11
29
12
11
29
11
9
25
11
9
23
11
9
23
9
7
21
112
112
140
105
105
133
104
104
132
106
106
134
105
105
133
96
96
124
90
90
118
92
89
119
99
94
124
97
92
122
92
87
117
91
88
117
94
90
120
96
90
121
105
98
129
104
97
128
93
86
117
99
92
123
105
97
129
107
98
129
106
97
123
103
94
118
110
97
125
109
99
125
112
100
124
118
98
124
176
122
151
223
148
176
223
149
173
225
147
176
225
146
177
225
146
177
225
146
177
225
146
180
224
144
179
224
144
179
224
145
180
224
145
180
224
145
180
224
145
179
223
145
180
223
146
180
223
146
180
223
146
180
224
146
178
224
146
178
224
145
177
224
145
177
224
146
178
225
146
178
224
146
178
225
145
180
225
145
180
225
146
178
225
146
176
225
145
180
225
145
180
225
146
178
224
145
177
223
145
179
224
145
177
224
144
176
224
145
173
223
145
170
222
142
170
222
141
170
217
139
169
175
90
122
169
61
103
178
61
107
179
59
106
180
59
109
176
57
110
168
55
106
169
54
104
139
53
94
35
18
44
11
24
45
16
42
59
34
39
56
133
55
92
162
56
103
165
56
104
168
55
104
167
56
104
162
61
105
155
66
97
125
79
82
147
160
126
145
192
140
144
200
135
144
198
140
144
187
143
134
165
154
184
209
217
186
210
220
186
211
222
187
210
223
188
208
222
185
208
222
180
208
219
177
208
216
182
203
214
184
202
212
178
202
214
177
202
216
177
201
215
152
172
183
158
176
188
160
186
201
109
147
161
109
146
157
152
181
190
168
200
204
171
198
198
121
153
127
135
174
127
129
175
117
133
162
119
100
61
69
105
24
61
90
12
56
90
11
58
90
11
58
87
13
58
80
13
54
123
51
93
130
56
99
130
58
97
114
57
93
62
82
102
63
114
128
53
101
119
109
168
179
104
150
157
21
28
41
18
14
28
19
14
28
21
14
28
21
12
27
21
10
27
21
10
27
21
10
27
20
11
27
19
11
27
16
12
27
16
14
28
15
11
28
13
10
27
13
11
28
13
13
28
10
12
25
15
14
28
17
13
28
16
13
29
16
13
30
14
11
28
12
9
26
13
10
29
13
10
30
14
11
30
13
11
30
12
11
29
12
11
29
11
10
28
10
7
23
10
6
21
10
6
21
10
6
21
107
104
131
102
100
128
106
106
135
114
115
144
113
116
143
102
103
130
92
92
119
95
92
118
97
93
120
98
93
123
97
92
124
97
92
123
99
94
125
102
97
128
104
98
129
103
96
127
97
90
121
100
93
124
105
97
128
103
96
125
99
90
117
102
93
119
113
102
131
114
104
131
117
102
129
122
97
124
185
127
157
222
146
178
225
150
178
225
149
175
226
147
175
225
146
177
225
146
178
224
145
180
224
146
179
224
145
177
223
145
177
225
146
179
225
145
179
224
144
180
223
146
180
223
146
180
223
146
180
224
145
180
226
146
177
225
145
175
225
145
175
225
145
176
224
145
176
224
145
176
224
145
176
224
145
177
224
145
178
225
146
178
225
146
178
224
146
179
225
145
179
226
146
179
225
144
179
223
144
179
225
145
179
225
146
177
224
147
175
224
147
172
225
144
171
225
141
170
223
141
171
222
138
170
178
95
127
166
58
101
178
61
106
181
60
109
178
59
109
171
57
109
172
54
106
157
57
102
66
25
52
14
24
41
11
34
53
29
44
62
122
51
89
161
56
101
168
57
104
170
57
105
168
57
103
167
58
104
162
60
103
156
67
98
124
81
83
147
171
133
143
196
136
142
196
137
144
194
138
138
177
143
155
182
179
184
210
218
185
209
222
186
209
222
187
209
224
184
208
222
179
208
219
178
209
219
182
205
218
181
202
215
179
201
215
180
201
215
147
168
182
159
180
192
175
198
210
164
195
206
111
149
158
105
144
155
128
163
172
166
199
205
168
199
200
137
166
152
130
169
126
128
176
118
128
170
119
111
106
88
100
29
60
90
12
58
90
13
59
90
11
58
89
11
58
82
9
54
116
47
88
131
56
98
129
57
98
126
57
97
88
64
93
66
104
121
51
105
121
100
158
173
112
165
176
56
73
85
17
14
31
19
13
30
19
13
28
19
12
27
19
10
27
19
10
27
19
10
27
19
11
28
19
14
29
17
15
29
15
13
27
13
10
27
12
9
26
13
12
28
13
12
28
13
12
26
15
14
27
15
12
27
18
14
29
16
13
29
14
12
29
13
12
30
13
11
32
13
11
31
13
10
29
13
10
29
12
11
30
12
7
25
11
7
22
9
7
22
8
7
22
8
7
22
10
6
22
95
93
119
98
96
123
104
102
131
111
110
140
108
110
138
107
106
133
98
95
122
92
88
112
90
86
110
91
86
115
95
90
122
100
95
125
99
94
124
98
93
123
99
94
124
100
95
125
101
96
126
108
102
132
105
99
129
100
94
122
96
88
115
102
94
119
112
102
129
117
107
134
125
108
135
125
98
125
189
129
158
223
146
178
226
148
178
225
149
174
226
148
174
225
146
177
225
146
179
222
146
180
222
148
179
224
147
178
223
147
178
224
145
177
224
145
178
225
145
180
223
146
180
223
146
180
223
146
180
225
145
180
225
145
175
224
144
173
224
144
173
225
146
174
224
146
172
224
146
172
224
146
172
224
145
175
225
146
178
225
146
178
225
146
178
222
145
177
224
145
177
224
145
177
224
144
177
224
145
178
224
145
176
224
145
176
224
146
174
224
147
173
225
146
172
225
144
171
223
141
170
222
140
172
219
140
172
181
95
128
167
58
100
177
61
106
178
58
106
175
56
108
172
55
105
163
55
100
111
49
81
25
20
37
10
27
46
28
40
60
115
49
84
163
57
103
168
56
104
170
56
105
167
57
105
165
56
106
164
55
107
162
58
103
156
66
100
123
83
81
147
177
133
145
191
136
149
191
137
149
194
141
126
159
132
167
195
196
182
208
218
184
208
223
185
208
224
184
208
222
180
207
220
179
206
219
181
205
218
178
201
215
180
202
216
140
161
174
164
186
199
176
199
211
176
199
212
168
198
208
116
153
161
106
146
157
108
146
155
160
194
199
168
199
201
163
189
181
113
149
113
127
175
119
127
174
121
126
142
111
78
29
46
89
13
57
89
12
58
90
11
58
90
11
58
86
11
56
105
39
78
130
57
98
130
56
98
130
55
97
117
62
99
67
75
98
62
107
123
88
147
161
108
167
179
92
121
134
13
19
34
18
14
30
20
12
29
20
12
28
19
12
28
20
12
28
20
13
29
18
13
28
16
12
27
14
12
26
14
11
26
15
8
26
17
10
27
17
11
28
14
11
27
14
13
27
16
15
29
12
10
24
14
10
25
14
11
27
13
12
29
12
12
30
13
12
31
13
12
29
13
10
27
13
10
27
13
11
28
12
5
22
10
5
20
8
7
22
6
8
23
5
8
23
8
7
23
93
87
112
94
89
115
101
99
126
109
108
136
108
106
135
108
105
133
98
93
120
92
88
111
89
85
109
92
88
114
98
93
123
107
103
130
103
99
126
103
99
126
104
100
128
101
96
126
100
95
125
105
100
130
107
101
131
106
100
128
105
96
124
108
99
125
116
105
132
116
104
130
123
105
131
129
101
127
195
134
162
224
146
177
226
147
175
225
148
173
226
148
174
226
147
178
224
145
178
224
144
179
224
145
178
226
144
177
225
146
177
225
146
177
225
146
177
226
146
179
224
147
180
223
146
180
223
146
180
224
145
179
224
144
173
223
143
172
223
143
172
225
146
174
225
146
174
225
146
174
225
146
174
225
146
176
225
146
178
225
146
178
225
146
178
222
146
176
224
145
176
202
124
154
207
128
159
223
144
175
223
144
173
224
146
172
224
146
172
225
146
172
225
146
172
224
145
172
223
141
169
222
141
170
220
143
172
217
138
169
181
99
130
164
59
100
179
61
107
179
57
107
174
57
104
171
55
99
150
59
98
70
25
52
17
22
43
30
33
54
114
48
82
164
57
103
169
56
104
170
55
104
167
56
104
164
56
108
163
55
111
165
55
108
162
58
107
149
67
99
114
95
85
150
178
137
147
192
139
147
194
133
150
191
145
122
157
134
177
207
205
183
208
219
184
206
220
184
206
220
186
207
221
182
203
218
179
202
216
174
197
211
138
160
173
172
194
208
180
201
215
180
199
213
178
199
212
169
197
208
117
154
162
105
146
156
105
144
153
147
180
185
168
196
200
172
194
194
117
148
124
132
175
123
130
172
118
131
164
120
81
68
58
87
15
55
90
13
59
91
12
59
91
12
59
88
12
58
92
29
67
129
57
97
131
56
98
131
57
97
130
58
97
96
60
92
67
95
110
77
133
145
106
167
181
110
152
168
26
41
52
17
14
31
18
14
29
17
15
29
18
14
29
18
14
29
17
13
28
15
12
27
11
9
23
10
6
21
15
11
26
19
10
26
19
11
27
19
12
27
16
12
27
14
13
27
14
13
27
16
14
28
16
13
28
14
12
26
12
11
28
10
11
29
12
11
28
12
11
27
13
11
26
13
11
24
11
10
22
11
4
20
9
3
19
6
7
22
4
9
23
4
10
24
7
9
24
89
83
106
88
83
108
90
86
112
92
88
116
91
86
116
85
79
108
86
77
106
89
84
106
90
87
108
92
88
113
97
93
121
102
97
124
104
99
125
102
97
123
98
94
121
92
89
117
88
85
113
92
89
118
93
88
117
94
88
116
95
86
113
97
89
114
106
93
119
105
92
117
107
88
114
114
85
110
202
139
166
222
143
173
223
145
171
224
147
171
224
146
173
225
146
177
225
146
179
200
122
156
223
146
178
225
145
177
224
146
177
224
145
175
224
144
176
225
145
178
223
146
179
223
146
180
223
146
180
224
145
179
224
145
175
224
145
174
223
143
173
225
145
176
225
146
179
225
145
179
225
145
179
225
146
178
225
146
178
225
146
178
225
146
178
222
146
175
224
145
175
223
144
174
206
127
156
190
114
140
221
143
168
224
146
170
224
145
171
225
145
172
225
146
172
224
146
172
225
143
171
223
141
169
222
141
170
220
141
171
220
140
169
190
102
135
162
58
98
176
61
106
178
56
102
176
55
100
168
55
100
127
54
90
27
21
44
28
24
47
124
54
91
165
57
104
170
55
104
170
55
104
167
56
103
163
57
105
160
57
110
161
57
108
161
58
107
166
56
108
156
66
98
120
104
88
149
182
139
142
192
136
144
190
135
144
185
141
132
165
147
180
208
209
184
207
214
186
208
220
187
205
220
184
202
217
169
191
204
137
161
174
176
199
213
180
203
217
181
202
216
181
200
214
179
199
212
172
198
210
122
159
167
105
147
157
105
146
155
131
165
170
171
197
202
172
192
198
139
166
152
123
167
118
129
173
118
124
172
118
92
103
77
83
17
53
89
12
58
90
11
58
90
11
58
89
12
58
84
21
60
126
54
95
131
54
97
131
57
97
132
57
95
121
59
96
74
70
90
50
95
107
94
155
170
108
165
180
72
98
105
16
17
32
19
14
29
18
15
28
17
15
29
16
14
28
15
13
27
12
11
25
9
7
21
12
8
23
19
13
28
17
12
26
17
12
26
17
13
27
15
13
26
13
12
26
14
12
27
16
14
28
15
13
28
13
11
26
11
11
28
10
11
29
12
11
27
12
11
26
11
9
23
11
9
21
8
8
18
9
4
18
8
4
20
4
6
21
1
9
22
2
11
24
5
10
24
83
82
99
84
82
100
85
84
101
87
83
104
91
82
109
88
79
106
88
79
106
86
80
105
87
83
106
87
83
106
89
85
108
94
85
112
96
87
114
96
87
114
93
86
112
84
82
106
85
82
107
85
83
107
84
80
104
81
74
98
80
72
96
85
75
100
95
84
109
103
92
115
108
86
110
106
75
97
204
139
168
223
143
175
222
145
172
225
148
172
223
144
173
225
145
178
219
142
173
189
114
145
222
145
177
223
146
178
224
146
178
225
145
180
225
146
180
225
145
180
223
145
180
223
146
180
223
146
180
223
146
180
223
146
180
223
146
180
223
146
180
223
146
180
223
146
182
224
145
181
225
145
182
225
145
179
224
145
176
225
146
175
223
147
174
225
147
173
225
147
173
224
146
172
225
146
172
216
137
164
186
108
134
211
132
159
222
142
169
226
146
173
225
145
172
225
145
172
225
145
173
224
143
172
224
141
171
223
140
170
220
138
169
219
139
171
183
101
134
162
55
98
181
60
109
176
55
106
169
57
106
126
60
90
72
94
109
29
57
78
99
64
97
162
57
107
171
52
105
171
55
103
169
57
104
166
56
107
161
57
107
163
55
108
161
56
105
164
54
103
162
58
98
141
69
92
124
122
102
145
187
140
144
193
136
146
191
137
134
174
136
161
188
182
185
205
214
186
204
216
184
203
215
160
180
191
149
169
180
180
202
216
181
203
217
182
204
218
182
204
220
181
200
217
179
200
213
171
200
207
124
162
170
104
146
158
104
145
158
118
152
162
168
196
203
170
195
200
161
188
181
110
152
113
125
173
123
124
173
115
89
115
78
73
28
53
89
13
57
90
12
56
91
11
56
89
12
58
82
13
57
125
53
97
128
54
97
130
56
97
133
56
98
127
57
96
99
60
90
46
70
88
68
125
141
104
166
181
101
140
150
16
23
38
18
15
28
22
13
25
18
12
26
17
13
28
14
12
27
13
12
29
12
10
26
15
12
26
18
15
27
17
13
28
18
14
29
17
13
27
15
12
28
13
11
29
13
12
30
13
13
31
14
11
33
14
10
33
13
10
32
13
10
31
12
10
30
12
9
27
10
6
21
11
6
20
9
7
21
5
8
20
3
10
21
3
10
21
1
9
20
1
8
20
5
8
20
88
84
105
86
82
103
83
79
100
86
81
103
95
86
113
95
87
114
92
84
111
88
83
107
84
80
103
82
78
101
82
78
101
92
83
110
91
82
109
90
81
108
91
84
110
86
82
107
86
82
107
88
84
109
78
74
97
72
65
89
74
66
90
79
70
95
93
81
106
99
89
111
105
85
108
106
72
95
208
142
172
223
144
175
223
145
172
225
148
171
223
144
173
223
144
177
205
130
160
206
129
160
223
144
176
224
145
177
224
145
178
225
146
179
225
146
179
225
146
179
224
146
179
223
146
180
223
146
180
223
146
180
223
146
180
223
146
180
223
146
180
223
146
180
223
146
179
224
146
179
225
146
179
225
145
177
224
145
175
225
146
174
223
147
173
225
147
173
225
147
173
224
146
172
224
146
172
224
144
171
223
143
170
191
113
139
198
120
146
225
145
172
224
144
171
225
145
172
224
144
173
224
144
173
224
141
171
223
140
170
220
142
170
219
143
172
219
135
169
184
100
134
158
56
98
176
57
106
169
61
108
107
71
95
92
169
177
68
159
170
65
121
134
128
62
100
164
56
107
167
56
105
168
57
106
167
56
107
162
57
107
163
55
108
163
56
108
159
58
107
161
57
107
160
59
105
141
68
87
128
138
113
141
189
138
137
191
133
144
191
144
121
154
130
180
201
201
184
203
213
147
167
178
162
183
194
183
205
217
181
203
217
181
203
217
182
204
218
182
203
219
180
200
216
179
200
213
172
200
208
125
162
170
104
146
158
105
146
159
107
144
154
159
190
198
170
196
203
170
197
197
107
139
119
128
175
128
121
172
113
81
118
76
69
58
57
84
15
50
95
9
57
91
11
58
91
12
58
81
11
55
118
47
91
129
54
98
131
56
97
134
57
98
129
57
97
121
60
96
69
58
85
58
116
130
86
149
163
113
161
171
49
70
81
18
17
31
19
12
25
16
10
24
16
12
26
17
15
29
19
13
30
17
9
26
18
9
26
19
12
27
16
14
29
16
14
29
15
12
27
13
11
27
13
11
30
13
12
30
12
13
31
13
12
32
14
11
32
13
10
30
13
10
28
13
10
27
11
6
22
12
5
21
11
5
21
6
6
20
4
7
20
4
9
21
4
9
21
4
11
21
3
11
21
4
7
19
96
89
115
92
85
111
90
84
109
91
84
110
92
86
112
96
90
116
96
90
116
90
85
109
85
81
104
79
75
98
79
75
98
90
81
108
97
88
115
96
87
114
92
84
110
89
84
109
90
85
110
89
84
109
79
74
98
75
68
92
75
67
91
73
63
88
76
63
89
79
71
93
90
71
94
101
64
88
213
145
175
223
146
176
225
146
173
225
146
170
223
144
172
225
145
178
189
114
144
220
141
173
223
144
176
224
144
177
225
145
178
225
146
177
225
146
177
225
146
177
224
146
179
223
146
180
223
146
180
223
146
180
223
146
180
223
146
180
223
146
180
223
146
179
223
147
177
224
146
177
225
146
177
225
145
175
224
146
173
225
147
172
223
148
171
225
147
173
225
147
173
225
147
173
225
147
173
225
145
172
225
145
172
224
144
171
206
128
154
189
112
138
219
139
166
224
144
171
223
143
172
223
143
172
223
140
170
223
140
170
222
142
169
222
142
170
222
138
170
217
137
169
185
105
136
159
59
99
165
64
107
110
70
98
83
164
174
55
160
170
53
121
133
109
58
94
162
56
110
164
57
107
167
56
106
167
54
106
162
57
107
162
57
109
160
57
110
161
57
109
166
53
107
163
55
105
158
58
101
127
67
82
143
160
127
141
188
133
141
192
134
146
186
141
129
155
143
134
156
163
172
194
205
181
205
215
181
205
216
182
204
218
182
204
218
182
204
218
181
203
219
180
200
217
178
200
213
172
201
208
128
162
171
104
145
157
102
144
157
104
143
153
149
181
191
167
194
204
167
191
202
115
141
140
119
163
120
122
171
111
73
117
71
72
84
64
74
22
43
92
11
57
90
10
58
92
11
59
82
12
56
109
42
84
129
54
98
132
55
97
133
56
98
132
57
98
126
57
95
89
58
91
61
111
126
69
130
142
106
166
175
86
122
133
15
16
33
18
10
26
18
10
25
17
11
26
17
13
29
21
12
28
20
10
26
18
9
27
17
9
28
13
10
27
13
10
27
13
11
27
13
11
28
14
11
30
12
11
29
11
11
29
12
12
30
13
12
29
12
11
26
11
10
24
9
10
20
6
6
18
9
5
20
8
7
22
3
7
19
4
7
19
5
7
20
6
8
19
4
11
19
6
12
21
9
10
20
101
91
120
96
86
115
91
81
110
90
81
109
90
85
110
91
85
110
97
92
117
92
87
111
88
83
107
86
81
105
88
82
106
92
83
110
102
93
120
104
95
122
94
86
112
91
84
110
93
85
112
93
86
112
90
84
108
83
76
100
78
70
94
80
70
95
83
70
96
85
77
101
95
77
100
108
69
93
215
145
174
223
146
174
223
145
173
224
145
171
223
145
173
225
147
179
181
109
138
224
145
178
223
143
177
224
145
178
225
145
178
225
146
178
225
146
178
225
146
178
224
146
179
223
146
180
223
146
180
223
146
180
224
146
178
224
146
179
224
146
180
224
146
180
223
146
175
224
146
175
225
146
175
224
145
173
224
146
172
225
147
172
224
147
172
225
147
173
225
147
173
225
147
173
225
147
173
225
146
172
225
146
172
222
143
169
222
142
169
215
135
162
185
106
132
217
136
163
222
140
170
221
139
169
223
140
170
224
140
170
224
140
168
224
140
169
224
139
169
221
139
170
216
137
168
185
106
138
154
59
99
142
65
106
69
99
118
47
120
133
36
69
88
124
59
100
168
51
109
163
56
108
164
55
106
166
54
106
163
56
107
163
56
108
161
56
111
164
56
108
166
54
103
163
56
101
161
56
105
155
64
100
117
92
81
146
179
133
144
192
132
143
189
133
128
165
132
157
183
183
180
203
215
181
204
215
181
204
214
182
204
218
182
204
218
182
204
218
180
203
218
179
201
216
177
200
211
172
201
208
128
162
173
103
144
156
101
142
154
102
143
151
134
169
179
168
195
204
169
192
206
121
149
155
97
140
104
118
170
110
68
117
67
75
102
69
63
37
42
88
14
58
90
11
59
91
10
58
85
13
57
100
36
74
127
53
94
133
55
97
133
56
98
133
56
98
126
57
95
97
57
92
60
105
121
54
117
131
93
160
170
106
154
165
24
36
50
19
14
30
19
10
26
19
12
27
18
13
29
20
13
28
19
12
27
14
9
26
13
10
28
12
11
29
12
11
28
13
12
29
13
11
30
14
11
30
13
11
30
12
10
29
12
10
27
13
11
26
10
10
23
6
9
19
3
9
18
3
8
18
5
8
20
6
9
22
3
8
20
4
7
20
7
6
20
6
7
18
5
9
19
6
10
20
9
10
21
95
82
112
91
80
109
91
81
110
91
83
110
90
85
108
92
87
110
95
91
114
92
85
110
93
84
111
93
84
111
93
83
111
91
82
109
92
83
110
94
85
112
95
86
113
97
88
115
99
90
117
101
92
119
99
93
117
85
78
102
74
66
90
85
75
100
94
83
108
96
85
111
96
77
102
114
73
97
218
147
174
224
145
171
221
146
175
224
145
175
224
147
175
219
144
174
183
112
141
222
145
179
223
146
180
223
146
180
223
146
180
224
145
180
224
145
180
224
145
180
223
146
180
223
146
180
223
146
180
223
146
180
225
146
176
225
146
177
225
146
179
225
145
179
224
145
176
224
145
175
225
146
174
223
145
171
224
146
172
225
147
173
225
147
173
225
147
173
225
147
173
225
147
173
225
147
173
225
147
173
225
147
173
223
145
171
223
143
170
224
141
169
222
139
167
188
108
135
212
129
159
224
140
171
224
140
171
224
140
170
223
140
168
223
140
168
223
140
168
223
138
168
219
137
168
215
137
168
190
109
141
152
59
99
132
63
98
84
57
82
29
20
44
72
28
60
150
54
103
164
54
107
164
55
106
165
54
107
166
55
108
166
55
108
163
56
108
163
56
107
164
56
103
165
55
100
164
56
101
163
56
100
143
68
88
123
125
99
150
184
135
141
192
132
146
187
138
124
158
134
178
201
208
186
204
217
184
204
215
182
204
218
182
204
218
182
204
218
179
203
218
179
203
216
176
200
207
173
202
209
128
163
174
102
144
154
104
142
152
102
144
151
117
155
163
168
197
204
169
192
203
121
151
160
85
122
106
114
163
113
67
116
63
68
109
67
64
65
53
86
16
53
90
11
57
90
11
58
88
13
56
92
29
63
127
56
94
133
55
97
134
56
98
134
56
98
127
56
95
105
56
92
56
100
116
54
117
134
78
146
159
108
166
177
66
93
103
16
14
30
19
11
27
20
13
29
19
12
28
17
12
27
17
13
28
12
10
26
12
12
29
13
12
30
13
12
30
13
12
30
13
12
29
14
11
28
13
10
28
12
9
27
12
8
25
10
9
23
6
10
21
3
11
20
3
11
21
3
11
20
3
11
20
4
11
22
4
10
22
4
8
21
6
7
20
7
7
19
8
8
20
9
9
21
9
9
21
90
79
104
91
82
106
91
86
109
90
85
108
91
84
108
91
84
108
90
84
107
90
82
108
93
84
111
94
85
112
91
82
109
93
84
111
92
83
110
89
80
107
90
81
108
90
81
108
95
86
113
100
91
118
97
90
115
88
81
105
81
73
97
85
75
100
91
80
105
94
83
109
101
82
107
122
81
105
220
148
177
224
144
172
221
145
175
224
145
178
224
147
178
210
136
166
195
124
153
222
145
179
223
146
180
223
146
180
223
146
180
223
146
180
223
146
180
223
146
180
224
146
180
224
145
180
224
145
180
224
145
180
225
146
177
225
146
177
224
145
176
224
145
175
224
145
175
224
145
173
224
146
172
224
146
171
225
147
173
225
147
173
224
146
172
225
147
173
225
147
173
225
147
173
225
147
173
225
147
173
225
147
173
225
147
173
225
144
172
226
143
171
225
142
170
225
142
170
190
111
139
204
124
153
223
141
171
222
141
170
223
140
168
223
140
168
223
140
168
224
138
168
223
139
169
219
140
170
213
135
166
181
110
134
146
60
91
149
62
98
49
19
41
28
22
42
93
39
73
157
58
107
166
55
107
165
54
107
166
55
108
166
55
108
163
56
106
163
56
105
164
56
102
165
55
99
163
56
99
162
55
99
156
58
92
123
68
78
137
152
120
136
189
130
139
192
132
137
179
137
144
171
164
182
204
213
180
203
211
182
204
218
182
204
218
182
204
218
179
203
218
179
203
216
177
200
208
174
202
209
129
164
174
102
144
152
104
143
151
103
144
150
110
146
153
164
193
198
165
193
201
114
149
158
86
124
120
93
136
102
65
112
65
63
113
65
68
88
64
77
20
45
89
12
54
91
10
58
89
12
56
86
22
57
127
55
93
132
54
96
134
56
98
134
56
98
130
57
97
112
55
95
58
96
114
54
119
136
65
132
146
103
168
178
95
137
145
13
21
36
16
14
28
16
13
27
17
13
28
17
13
27
17
14
28
14
12
28
13
12
29
12
11
29
13
12
30
14
13
31
14
12
30
13
11
26
13
10
26
11
9
24
9
9
24
5
8
21
3
9
19
3
11
20
4
11
21
3
10
20
3
10
20
3
11
21
3
10
22
4
9
21
6
9
21
8
9
21
9
9
21
9
9
21
9
9
21
83
81
100
86
82
102
90
84
105
94
85
108
94
85
109
92
83
108
92
83
107
92
83
109
95
86
113
95
86
113
93
84
111
93
84
111
89
80
107
86
77
104
85
76
103
83
74
101
89
80
107
93
84
111
90
83
108
90
83
107
90
82
106
90
80
105
91
80
105
100
89
115
124
105
130
134
92
117
220
148
178
223
144
173
221
146
177
224
144
181
224
146
180
200
126
157
209
137
165
222
145
179
222
145
179
223
146
180
223
146
180
222
147
180
222
147
180
222
147
180
224
146
180
225
145
180
225
145
180
225
145
180
225
146
178
225
146
176
224
145
173
224
146
172
224
145
173
224
146
171
224
146
170
225
147
172
225
147
173
224
146
172
224
146
172
225
147
173
225
147
173
225
147
173
225
147
173
225
147
173
225
147
173
225
147
173
225
145
172
225
142
170
224
141
169
223
141
169
222
142
171
196
119
147
201
124
152
221
141
170
223
140
168
223
140
168
223
140
168
223
140
168
222
140
168
220
140
169
216
138
168
213
136
165
181
106
137
140
56
94
69
29
55
18
23
40
44
32
52
129
57
96
162
56
106
166
55
108
167
56
109
166
55
108
163
56
105
161
55
102
160
52
96
162
52
95
163
55
97
157
58
98
158
55
97
153
61
99
119
79
84
140
174
129
136
191
130
143
190
133
115
150
120
157
181
188
179
204
210
181
203
217
182
204
218
182
204
218
180
203
219
180
203
216
177
200
208
175
201
209
128
163
172
101
144
151
104
143
150
103
144
148
102
136
143
143
171
174
161
193
197
108
147
156
97
135
140
61
98
82
67
112
70
65
116
64
73
105
71
64
41
43
87
13
51
92
10
58
89
11
56
84
16
53
124
51
90
131
53
95
134
56
98
135
57
99
131
57
97
120
56
99
60
90
110
53
118
135
57
123
140
96
166
175
107
163
169
48
67
77
14
17
29
14
13
27
17
14
28
18
14
29
17
13
28
14
12
28
12
11
28
13
12
30
13
12
30
13
12
30
13
11
28
12
10
24
10
8
22
9
7
21
8
7
22
8
9
22
7
10
21
8
11
21
10
10
22
10
10
22
9
10
22
8
10
22
8
11
23
9
10
23
10
9
23
12
11
24
12
12
24
11
11
23
11
11
23
79
80
100
84
82
103
90
84
108
96
87
112
97
85
111
93
83
108
96
86
111
98
92
116
100
95
119
99
94
118
95
90
114
87
82
106
79
73
97
77
71
95
80
75
99
83
78
102
86
80
104
83
78
102
83
80
103
84
81
104
84
79
102
85
79
103
82
74
99
84
73
97
110
92
113
144
99
125
220
146
179
223
145
178
223
145
179
223
144
179
222
145
179
190
117
149
217
144
175
223
145
177
224
145
178
223
146
179
223
146
179
222
147
180
223
146
180
223
146
180
224
145
180
224
145
179
224
145
178
224
145
176
223
146
174
225
146
173
225
146
173
225
146
173
223
146
174
223
146
174
223
147
174
224
147
173
225
147
173
224
146
172
224
146
172
224
146
172
224
146
172
224
146
172
225
146
172
226
146
173
225
146
173
225
146
172
224
144
172
223
142
171
223
141
170
223
139
169
222
141
171
223
143
172
198
120
148
201
124
152
221
142
169
222
142
169
223
140
168
223
140
168
220
139
167
220
139
169
219
140
171
216
137
169
211
134
164
176
103
134
63
28
52
20
22
38
29
36
53
89
43
74
157
57
104
167
53
106
166
56
107
167
55
106
163
56
103
162
53
100
164
53
100
164
52
98
163
55
98
160
57
99
159
55
98
161
56
101
144
62
95
115
113
91
141
184
130
138
188
130
138
184
138
96
128
114
142
175
178
173
202
213
178
202
215
181
203
218
180
204
220
178
203
217
177
200
211
173
201
208
126
164
171
100
144
153
101
143
152
103
142
149
99
130
137
147
168
176
159
189
196
105
147
154
96
135
150
78
113
113
64
107
70
64
113
63
67
109
66
67
71
55
82
17
48
90
12
55
91
11
54
82
12
51
121
48
88
130
55
96
131
57
97
131
58
98
129
59
99
118
59
98
64
82
103
53
116
133
54
117
134
94
157
169
104
166
173
82
117
126
16
27
39
12
13
28
15
13
27
16
12
28
16
13
29
12
11
27
14
9
27
13
11
30
13
11
30
12
10
30
11
10
28
9
8
23
10
9
24
10
11
25
13
12
29
13
11
30
12
10
28
12
10
27
13
11
25
13
11
25
13
10
25
13
11
25
13
11
25
13
11
25
14
11
25
13
11
26
13
11
25
12
12
24
12
12
24
86
84
105
91
87
110
96
90
115
99
89
116
96
86
111
94
85
110
96
87
111
95
90
113
98
94
117
94
90
113
87
83
106
83
79
102
74
70
93
73
69
92
78
74
97
81
77
100
78
74
97
76
72
95
81
78
100
86
83
105
83
78
102
83
77
100
81
72
97
80
68
91
90
70
90
146
100
124
221
147
180
222
145
179
224
144
179
223
144
178
222
144
178
185
111
144
221
147
180
223
145
177
224
145
177
223
146
178
223
146
179
222
147
180
223
146
180
224
145
180
224
145
179
224
145
177
224
145
176
223
144
174
222
145
172
225
147
173
225
147
173
226
146
173
224
145
174
223
145
174
223
145
174
224
146
173
225
147
173
224
146
172
224
146
172
224
146
172
224
146
172
224
146
172
224
146
172
226
146
173
226
146
173
225
145
172
224
145
173
223
144
173
223
141
171
224
139
170
224
141
171
224
143
172
222
142
171
198
121
148
200
124
149
222
143
170
223
141
169
223
140
168
222
140
168
220
140
170
218
138
170
216
136
167
214
134
163
209
128
160
121
79
102
23
22
38
22
39
53
53
34
56
147
55
99
167
55
105
166
57
106
168
55
105
166
56
103
164
54
101
164
52
100
165
53
101
164
54
99
163
56
100
161
57
100
160
58
99
153
55
97
133
64
84
126
140
104
141
185
128
141
189
133
128
166
131
98
136
130
143
176
181
175
202
213
178
202
216
179
203
218
176
201
215
177
199
212
174
201
208
127
164
170
101
144
154
100
143
153
104
141
149
95
124
132
156
178
188
157
186
194
103
144
150
95
135
150
91
129
133
53
94
67
62
112
66
64
112
65
72
89
65
71
23
43
88
13
54
91
12
55
81
11
51
117
47
86
129
56
96
129
57
97
130
58
98
128
58
99
120
60
99
70
80
102
55
115
132
53
117
134
85
143
157
105
168
176
91
138
146
100
133
141
47
70
78
12
14
30
19
8
28
18
11
29
12
9
26
13
11
27
13
10
28
13
10
28
10
8
26
11
9
26
10
9
25
11
12
27
11
13
28
14
12
30
15
12
31
14
11
30
13
10
29
13
10
27
13
10
27
13
10
27
13
11
27
14
11
27
14
12
27
14
12
27
14
11
27
12
10
24
12
12
24
12
12
23
92
86
108
96
90
113
99
91
117
99
90
116
96
86
111
92
83
107
88
80
104
88
84
107
89
85
108
82
78
101
79
75
98
81
77
100
80
76
99
75
71
94
79
75
98
81
77
100
81
77
100
86
82
105
89
85
108
89
85
108
87
79
103
82
73
97
82
70
95
84
69
91
91
68
88
150
102
126
220
146
179
222
145
179
224
144
179
223
143
178
224
144
179
181
106
139
221
145
179
224
145
178
224
146
178
223
145
177
222
146
178
222
147
180
223
146
180
224
145
180
224
145
178
224
145
176
224
145
175
224
145
174
223
146
172
224
146
172
225
146
173
224
145
172
224
145
174
224
145
174
224
145
174
224
146
173
224
146
172
225
147
173
225
147
173
224
146
172
224
146
172
224
146
172
224
145
172
224
144
171
225
145
172
224
144
171
224
144
172
224
144
173
224
142
172
224
139
170
224
141
171
224
141
171
223
142
171
222
142
171
196
120
145
203
125
151
223
141
168
222
139
167
222
141
169
221
140
170
218
139
170
218
139
167
217
136
163
212
129
160
132
87
110
26
24
40
21
38
52
35
40
55
133
51
90
165
56
103
167
57
105
170
54
103
169
55
104
167
54
103
166
54
102
166
54
102
165
53
99
164
54
99
163
56
100
155
54
95
154
52
96
157
57
100
116
71
75
141
161
122
140
185
127
140
183
132
102
140
111
113
148
145
152
183
192
175
203
215
178
201
215
177
200
214
177
198
211
174
200
208
126
162
169
102
144
154
102
143
154
104
141
149
91
120
127
163
189
198
150
181
188
100
139
145
96
137
147
96
135
144
74
110
102
65
107
68
67
111
65
73
99
68
65
38
41
88
13
54
89
12
54
82
12
51
112
44
82
128
56
96
129
57
97
131
58
98
131
56
99
123
58
99
67
71
95
58
113
132
56
117
136
71
133
148
104
170
179
93
142
152
102
153
161
109
159
166
78
108
117
19
27
41
12
13
28
12
11
27
11
12
27
11
12
25
12
11
25
11
9
23
12
10
25
11
13
28
11
13
28
10
13
28
13
12
28
14
11
28
13
10
28
13
10
27
13
12
30
13
12
30
13
12
30
13
12
29
14
11
29
14
11
29
14
11
29
13
11
27
13
11
25
12
12
24
12
12
23
80
71
94
85
76
100
91
82
108
93
84
110
92
84
108
91
83
107
86
80
103
84
79
102
83
79
102
77
73
97
71
67
90
72
68
91
78
74
97
78
74
97
76
72
95
76
72
95
76
72
95
83
79
102
87
83
106
84
78
101
84
75
99
86
74
100
89
74
100
92
73
96
92
67
86
158
108
132
220
146
178
222
144
178
224
144
178
224
143
178
223
143
177
179
104
136
221
145
178
224
145
178
222
144
176
223
145
177
222
146
178
223
147
180
223
146
180
223
145
179
224
145
177
224
145
175
224
145
174
224
146
172
223
146
172
223
145
171
223
144
171
223
142
170
223
142
171
223
143
172
223
143
172
224
145
172
224
146
172
225
147
173
225
147
173
224
146
172
224
146
172
223
145
171
223
144
171
224
144
171
224
144
171
223
143
170
223
143
172
224
144
173
224
142
172
224
139
170
225
140
171
224
141
171
224
141
171
223
142
171
222
144
170
191
113
139
206
125
152
223
140
168
222
141
169
223
143
172
218
138
169
215
139
167
214
137
162
210
129
159
124
81
103
29
21
39
26
34
50
27
45
56
119
48
82
163
56
101
167
57
103
174
55
104
173
56
105
169
55
104
166
54
102
165
54
101
166
53
99
164
53
98
164
54
99
159
53
100
155
53
97
156
57
103
151
64
98
118
99
91
145
180
133
136
185
123
135
176
132
89
125
114
113
149
156
159
188
200
177
202
214
177
200
214
178
197
211
175
199
208
125
160
168
104
144
155
103
143
154
106
141
150
90
119
127
165
194
202
139
170
177
100
138
145
96
138
145
95
136
149
91
126
127
61
100
65
65
112
65
67
107
67
67
62
51
87
14
53
88
13
54
84
13
53
105
40
77
127
56
96
130
57
97
132
57
98
132
55
98
124
57
99
69
68
93
59
112
132
54
115
136
64
124
141
103
170
179
92
143
155
101
154
165
105
171
176
109
168
175
96
136
142
29
51
57
7
14
28
11
13
27
8
11
22
12
13
24
13
10
23
13
11
25
11
13
28
11
13
28
10
13
28
12
11
27
13
11
26
13
11
26
13
11
26
13
12
30
13
12
30
13
12
31
13
12
31
14
11
30
13
11
30
13
10
29
13
10
27
13
11
25
12
12
24
12
12
23
84
74
99
83
75
99
82
77
100
83
77
101
86
77
104
89
80
107
90
81
108
92
84
107
93
88
110
90
86
111
75
72
99
65
63
87
65
63
87
66
64
88
66
63
87
66
62
85
65
61
84
65
60
83
66
60
83
69
60
85
73
63
88
82
69
95
89
70
97
82
64
86
77
54
73
168
114
137
223
145
173
223
143
171
224
143
172
226
143
172
221
144
171
182
109
134
222
145
172
224
144
179
224
145
178
224
145
175
225
146
175
225
146
177
225
146
177
224
145
176
225
146
175
225
147
173
224
146
172
224
146
172
225
146
172
224
144
171
223
143
172
212
130
160
207
121
153
223
138
172
223
140
169
223
143
169
224
146
172
224
146
172
224
146
172
225
147
173
225
147
173
224
146
172
224
146
173
224
145
174
223
143
172
222
141
171
223
140
170
223
140
170
224
141
171
224
141
171
224
141
171
225
142
172
224
141
171
224
141
171
222
142
169
222
142
169
187
109
135
211
132
160
221
141
170
220
140
169
220
140
169
216
138
167
217
134
163
208
130
160
110
70
92
29
23
41
25
33
50
22
51
59
99
41
71
162
58
103
170
56
104
172
54
104
171
56
105
170
56
105
167
53
102
165
52
101
165
51
101
165
51
99
165
52
98
165
52
98
162
53
98
157
56
97
152
59
95
131
64
83
128
142
114
137
184
128
139
184
124
120
159
121
96
135
133
118
153
163
164
196
203
176
203
215
177
197
209
175
199
209
124
157
171
104
144
156
103
143
155
105
140
153
101
125
136
165
193
198
128
161
166
101
139
149
96
136
147
94
136
146
96
131
139
57
95
69
61
114
67
66
109
65
70
82
60
77
16
47
92
11
57
89
12
55
100
38
75
128
55
95
133
55
97
133
56
98
130
54
97
123
57
98
73
68
95
56
115
132
54
116
137
58
120
136
99
168
175
94
148
155
102
155
164
107
173
179
106
172
178
108
168
175
106
151
161
53
76
86
7
14
28
9
12
28
10
12
28
12
10
28
13
10
26
10
12
25
12
14
27
12
14
27
12
14
27
12
14
27
12
14
27
12
14
27
11
13
25
12
14
27
12
14
29
12
13
30
12
12
30
12
12
30
13
11
30
15
12
29
13
10
27
13
11
27
13
10
27
100
90
115
94
86
110
88
83
106
87
81
105
84
75
100
89
80
105
90
82
107
92
84
107
96
89
112
90
85
111
84
80
108
79
75
101
77
72
97
77
73
98
69
64
89
67
61
85
67
62
85
70
64
87
71
64
87
75
65
90
80
70
95
79
67
93
73
58
83
69
54
75
80
56
74
173
116
139
222
147
168
222
144
167
224
144
167
225
143
169
215
139
164
186
114
138
222
145
171
224
145
177
224
145
177
224
145
176
225
146
176
225
146
177
225
146
176
224
145
176
224
146
174
225
147
173
224
146
172
223
145
171
224
144
170
223
143
170
224
141
171
200
115
147
180
82
121
200
105
144
225
138
171
224
143
170
224
146
172
224
146
172
224
146
172
225
147
173
225
147
173
224
146
172
224
146
172
223
143
172
222
142
171
223
141
171
223
140
170
223
140
170
224
141
171
224
141
171
223
140
170
224
141
171
224
141
171
223
141
170
221
141
168
221
141
168
219
139
166
181
103
130
216
136
165
218
138
167
218
138
167
217
137
167
218
133
163
205
132
161
89
56
77
25
29
43
23
39
53
24
52
59
75
40
61
144
52
92
170
54
102
169
54
101
170
56
103
169
56
103
165
52
99
165
51
99
164
52
101
164
52
100
164
52
98
165
53
99
163
54
99
159
56
97
154
57
95
151
60
93
113
74
75
143
169
129
137
183
126
140
181
133
94
131
109
109
145
148
125
161
168
169
200
211
174
198
208
169
197
205
118
152
165
105
144
156
102
142
154
104
139
152
114
138
148
166
193
198
116
149
154
98
138
147
96
136
147
95
137
146
94
134
140
64
101
77
62
112
68
69
104
63
74
93
64
73
19
46
91
12
57
90
12
53
97
32
69
129
55
96
132
55
97
133
56
98
130
54
97
124
56
98
74
66
94
58
114
133
54
116
137
56
119
134
94
163
169
95
148
156
102
155
164
107
173
179
106
172
178
108
170
179
104
170
176
108
160
165
66
94
102
10
17
33
12
12
30
12
11
30
11
13
29
11
13
26
12
14
27
12
14
27
12
14
27
12
14
27
12
14
27
12
14
27
12
14
26
12
14
28
12
14
29
12
13
30
12
12
29
13
12
28
13
11
28
14
12
29
12
11
27
12
11
27
12
11
27
87
77
102
82
75
99
78
73
96
85
79
102
91
81
106
95
85
109
92
82
107
90
80
103
91
82
106
87
81
107
85
81
108
91
84
111
94
87
113
88
81
107
78
70
96
76
68
92
76
68
92
79
70
94
82
74
98
79
70
95
75
65
89
76
63
89
83
71
96
93
78
99
98
71
91
183
124
148
221
146
169
222
145
169
224
145
169
224
143
170
215
138
164
185
114
138
222
145
171
223
144
173
225
146
176
225
146
179
225
146
178
225
146
175
225
146
175
224
145
174
224
146
173
224
146
172
224
146
172
224
146
172
223
143
169
224
142
169
222
139
169
213
126
160
180
79
122
182
78
125
208
116
153
224
140
170
224
144
171
224
144
171
225
145
172
224
146
172
224
146
172
224
146
172
224
145
172
222
143
172
222
142
171
223
142
171
223
140
170
223
140
170
223
140
170
223
140
170
223
140
170
223
140
170
223
140
170
223
140
170
221
141
168
221
141
168
220
140
167
213
134
162
183
107
135
217
138
167
215
136
165
218
135
167
219
132
163
195
128
155
62
37
55
26
35
48
24
45
58
28
51
60
96
68
85
159
92
119
157
52
94
168
55
100
169
56
101
168
55
100
165
52
97
165
52
97
164
52
100
164
53
100
164
52
98
164
53
98
162
54
98
158
55
96
153
53
92
157
56
98
141
65
91
117
116
97
142
181
134
141
181
128
132
170
127
88
125
116
105
146
150
143
178
186
171
200
208
165
197
204
111
147
160
103
142
155
102
142
154
104
139
153
123
147
157
159
186
191
108
141
147
96
136
145
97
136
147
94
137
146
98
128
138
70
90
80
65
87
67
65
78
57
71
80
61
71
20
43
88
12
54
88
12
51
93
30
65
128
54
95
131
53
95
131
54
96
131
55
98
125
56
98
75
62
91
61
113
133
54
115
137
55
118
134
89
157
164
94
147
155
100
153
163
106
172
178
106
172
178
107
171
182
101
173
180
102
171
175
112
163
168
73
104
111
8
15
32
13
11
32
10
13
30
12
14
27
12
14
27
12
14
27
12
14
27
12
14
27
13
15
28
13
15
28
12
14
27
12
14
27
12
13
28
11
13
29
12
12
26
14
13
27
14
12
27
13
12
28
12
12
28
12
11
27
11
11
27
66
57
82
68
61
84
74
68
91
81
74
98
94
83
108
96
85
109
95
84
107
92
82
103
90
82
104
94
86
112
97
90
117
100
91
119
95
86
113
93
84
111
88
79
105
80
70
95
72
62
87
70
60
85
66
57
81
62
53
76
62
53
76
72
60
84
80
71
92
93
80
100
100
71
92
189
127
154
220
144
172
223
145
174
223
144
173
224
143
171
213
136
163
185
114
139
222
145
172
223
145
172
225
146
175
225
146
177
225
146
177
225
147
173
225
147
173
224
146
173
224
146
172
224
146
172
224
146
172
224
146
172
223
142
170
224
141
170
223
139
169
221
136
169
182
87
129
180
75
124
184
83
127
216
129
162
223
141
170
222
142
170
224
143
170
224
145
171
224
145
171
224
145
171
224
145
172
224
143
173
222
141
170
223
141
171
223
140
170
223
140
170
223
140
170
223
140
170
223
140
170
223
140
170
223
140
170
223
140
170
222
141
168
221
140
167
219
140
166
218
140
167
200
125
152
180
106
133
213
136
165
220
135
169
216
132
163
178
117
141
46
30
46
28
37
49
28
49
60
32
52
61
95
62
80
201
129
160
154
75
107
160
58
99
168
56
99
171
57
101
166
54
98
165
51
97
163
52
100
163
53
100
163
53
99
164
53
99
163
53
99
160
53
97
155
52
94
160
55
98
156
55
97
118
63
78
137
154
120
142
179
126
141
180
125
102
142
111
102
143
141
109
147
155
156
189
197
155
190
196
105
142
155
104
142
156
102
141
153
100
133
144
136
162
171
144
173
179
101
136
143
97
135
145
93
134
143
93
131
139
91
104
117
59
29
44
63
11
34
65
13
32
59
12
28
77
10
42
93
10
52
89
12
52
92
29
66
127
53
95
130
53
95
130
53
95
132
55
99
126
57
99
78
61
90
62
112
130
54
116
136
54
119
135
86
154
162
92
146
153
100
154
163
105
172
176
105
173
175
106
172
182
105
171
183
106
172
179
106
168
175
107
160
167
42
66
77
12
12
32
11
11
30
10
12
27
11
13
27
12
14
27
12
14
27
12
14
27
13
15
28
13
15
28
12
14
26
12
14
27
11
13
29
11
13
29
12
13
27
13
13
28
13
13
29
12
13
28
10
12
27
10
12
26
10
12
27
67
57
82
81
73
97
88
81
105
91
84
109
97
84
113
101
88
113
98
86
108
94
84
105
94
85
106
96
86
110
97
87
111
91
83
107
87
78
103
93
85
110
93
84
108
81
71
95
69
59
83
62
52
76
63
55
77
74
65
86
77
68
89
79
67
89
78
67
85
83
71
91
96
65
88
195
130
158
223
144
173
224
145
174
224
144
173
223
143
172
212
135
163
188
116
142
222
143
172
223
145
171
225
147
173
225
147
173
225
147
173
225
147
173
225
147
173
225
147
173
224
146
172
224
146
172
224
146
172
223
145
171
224
142
171
223
140
170
223
140
170
223
139
171
192
102
142
180
75
125
181
74
123
188
94
133
221
134
169
222
140
170
224
141
168
224
143
170
224
144
170
224
144
170
224
143
171
224
141
171
223
140
170
223
140
170
223
140
170
223
140
170
223
140
170
223
140
170
223
140
170
223
140
170
223
140
170
223
140
170
224
139
168
223
141
169
221
142
168
218
141
167
218
141
169
181
106
135
187
112
142
219
136
171
211
138
166
135
85
104
45
33
46
38
42
55
34
53
60
39
52
59
121
81
101
209
133
164
202
126
157
142
63
94
162
57
96
172
56
100
170
55
100
167
52
98
164
52
100
164
52
100
164
52
100
166
52
100
164
51
99
160
51
98
156
51
97
156
54
97
158
54
100
143
61
97
111
95
82
143
176
125
138
183
122
134
175
135
86
121
112
106
143
152
125
160
171
141
177
185
104
141
155
104
142
158
104
141
154
96
126
135
148
175
182
124
157
165
99
138
147
98
134
146
96
132
141
99
109
121
60
28
48
71
9
39
71
6
36
69
7
36
62
7
34
65
7
37
86
11
49
87
11
52
96
27
69
128
54
97
130
54
96
130
53
94
132
55
99
127
57
99
80
59
86
61
113
126
55
118
135
52
120
137
86
151
161
90
143
151
100
157
165
103
173
175
104
174
175
106
173
182
107
172
184
108
171
184
107
170
182
103
167
176
102
144
155
18
32
45
12
11
30
10
11
29
11
12
28
12
14
28
12
14
27
13
15
28
13
15
28
13
15
28
11
15
26
12
15
28
12
15
31
12
15
30
12
14
28
12
14
29
11
13
30
10
12
27
8
10
23
6
8
21
8
10
23
73
63
88
77
69
93
83
75
99
89
81
106
96
83
111
98
85
110
100
88
109
98
88
109
98
88
112
95
85
109
92
82
108
85
77
99
74
66
88
76
68
90
76
67
90
72
62
86
74
64
88
74
64
88
73
65
88
84
74
98
87
77
101
87
76
100
80
70
90
80
68
89
96
62
85
203
136
162
225
146
174
223
144
172
224
144
172
223
143
172
211
134
162
190
118
144
222
143
172
223
145
171
224
146
172
224
146
172
224
146
172
224
146
172
225
147
173
225
147
173
224
146
172
224
146
172
224
146
172
221
143
169
224
141
171
224
141
171
223
140
170
222
140
170
206
119
155
179
75
124
180
73
123
177
75
121
199
106
145
223
137
172
224
139
170
224
142
171
224
142
171
224
142
171
224
142
171
224
141
171
224
141
171
223
140
170
223
140
170
223
140
170
223
140
170
223
140
170
223
140
170
223
140
170
223
140
170
223
140
170
223
140
168
223
140
168
223
141
168
223
141
169
223
140
170
219
136
168
161
80
112
202
119
152
205
127
156
164
107
128
123
89
106
57
47
61
49
52
61
60
47
60
173
117
140
212
131
161
212
135
164
194
119
147
146
53
87
168
57
99
172
53
99
171
56
102
165
53
101
164
52
100
164
52
100
165
51
100
164
50
99
160
51
98
156
51
96
153
53
98
156
54
97
156
55
100
129
62
84
125
145
111
137
183
129
139
180
133
114
150
121
102
139
138
105
141
153
107
144
157
104
140
155
103
141
158
103
140
153
93
123
132
154
182
189
108
142
150
97
138
146
97
134
144
96
123
132
64
45
62
72
11
41
70
7
36
69
5
35
70
10
38
63
9
35
61
6
32
75
7
41
78
9
46
102
33
73
129
54
97
130
53
96
131
53
95
131
55
99
126
56
98
79
59
85
60
113
126
55
118
135
53
120
137
86
149
160
89
142
150
100
160
164
103
173
178
102
168
178
96
159
171
107
171
183
108
172
184
107
172
183
102
173
179
107
166
172
62
89
97
12
12
31
11
12
30
11
13
29
12
14
29
12
14
28
11
13
28
11
13
28
12
14
29
12
14
28
12
14
28
12
14
28
13
14
27
14
14
25
14
13
26
13
12
27
11
12
26
6
8
21
3
5
18
4
6
19
75
65
90
73
65
89
78
71
94
86
78
104
95
82
110
98
86
111
99
87
109
97
86
108
96
86
111
95
85
111
94
84
111
88
81
100
75
68
86
64
57
75
64
57
76
71
61
85
74
64
88
74
64
88
74
66
90
82
73
97
88
78
103
90
77
103
87
77
100
87
74
96
97
61
83
206
137
162
224
146
171
224
145
172
225
145
171
223
143
171
212
135
163
188
117
143
223
143
172
223
145
171
224
146
172
224
146
172
224
146
172
224
146
172
224
146
172
225
147
173
224
146
172
224
146
172
224
146
172
222
144
170
224
141
171
224
141
171
223
140
170
222
140
170
218
133
167
183
81
129
180
72
126
183
74
125
181
79
125
209
120
158
224
138
173
224
141
172
224
141
171
224
141
171
224
141
171
224
141
171
224
141
171
223
140
170
223
140
170
223
140
170
223
140
170
223
140
170
223
140
170
223
140
170
223
140
170
223
140
170
223
140
168
223
140
168
224
139
168
223
140
168
221
140
169
219
137
168
204
124
155
157
73
106
210
123
153
215
133
161
202
133
162
149
94
120
120
73
94
164
112
134
211
133
162
216
132
160
218
130
160
212
131
158
189
107
136
147
52
88
169
57
101
170
55
101
165
53
101
164
52
100
164
52
100
165
52
100
165
51
100
161
53
99
155
49
95
153
49
93
153
53
88
158
52
95
149
57
95
115
80
78
139
170
127
133
182
125
137
176
130
88
123
109
103
141
147
102
143
151
104
141
155
104
142
158
104
141
154
94
124
132
146
175
182
102
138
145
96
137
145
98
132
141
77
79
92
72
10
41
67
5
32
77
7
38
82
9
41
79
8
40
70
7
36
67
6
31
76
8
38
70
7
39
119
49
88
130
53
97
132
54
97
134
54
96
130
55
98
124
57
98
79
61
87
59
113
125
55
117
135
53
119
136
87
149
161
86
139
145
103
165
168
102
170
180
74
137
155
58
119
134
88
150
163
106
170
182
106
172
183
103
173
179
105
167
172
95
135
141
8
14
31
11
12
30
11
12
29
11
13
28
11
13
29
10
11
29
9
10
28
10
11
29
13
12
30
13
12
28
12
12
25
12
12
22
13
12
20
12
11
22
12
10
23
11
11
24
7
9
22
3
5
18
4
6
19
84
75
94
77
68
89
82
73
96
87
78
104
91
79
109
93
83
108
94
84
105
96
87
107
95
85
109
92
82
107
88
78
103
77
68
91
68
59
82
68
59
82
72
63
86
74
64
88
73
63
87
74
64
89
77
69
93
84
74
99
90
77
102
94
81
107
103
91
114
105
90
113
108
72
94
210
141
165
224
146
171
225
146
172
224
146
171
223
143
172
213
135
164
186
115
139
222
144
170
223
145
171
223
146
172
224
146
172
224
146
172
225
145
171
225
145
171
225
146
171
224
146
172
222
145
173
223
144
172
223
144
172
224
141
170
223
140
169
223
140
168
222
139
168
221
137
170
196
103
144
181
75
125
182
71
123
181
74
124
181
84
127
219
129
165
222
138
171
223
141
172
223
139
170
223
140
170
223
140
170
223
140
170
223
140
170
223
140
170
223
140
170
223
140
170
223
140
170
223
140
170
223
140
170
223
140
170
223
140
170
223
140
169
223
140
169
223
140
169
223
140
169
221
139
169
219
137
167
219
137
167
176
96
127
180
87
121
216
124
158
214
133
165
213
134
167
214
135
167
213
135
165
218
135
164
219
137
164
220
134
163
218
133
161
214
130
159
172
92
121
157
56
96
172
54
101
166
51
97
164
53
98
164
52
99
163
53
100
163
52
98
164
54
100
158
49
94
156
49
92
157
53
91
158
51
92
157
54
96
137
62
88
124
133
101
130
178
119
133
179
122
111
149
112
97
134
131
99
143
150
103
142
152
101
143
153
105
141
151
103
131
141
124
154
161
104
136
148
97
134
145
102
116
128
64
28
48
78
9
40
66
6
32
81
9
41
86
8
42
79
8
38
70
7
34
71
7
35
80
8
41
75
7
41
104
39
73
129
54
95
130
56
98
134
54
98
129
53
95
125
56
96
79
62
90
60
113
129
54
117
136
52
120
135
88
150
161
81
136
145
105
169
175
95
160
172
56
117
137
57
117
134
61
122
137
101
164
179
105
170
184
103
172
180
104
168
174
106
155
161
25
40
52
4
9
21
6
9
23
6
7
24
9
9
26
9
10
26
9
10
25
10
10
26
12
11
26
12
11
25
12
11
24
12
11
23
12
11
22
12
11
22
12
11
21
11
11
23
8
9
22
4
7
20
4
8
20
93
85
101
86
77
95
82
73
96
82
72
98
84
74
100
85
75
99
86
77
97
90
82
99
80
72
89
72
63
82
70
61
82
73
63
88
75
65
90
76
66
91
80
70
95
81
71
96
82
72
97
80
70
95
76
68
92
81
70
95
88
74
100
92
79
105
99
86
109
101
85
109
111
73
96
214
145
170
224
146
172
224
146
172
224
146
172
224
143
173
212
134
162
185
113
138
223
145
170
222
146
172
222
146
172
224
146
172
224
146
172
225
145
172
225
145
172
225
145
172
224
145
173
223
144
173
222
143
172
223
143
172
224
141
169
223
140
168
223
140
168
222
139
168
214
131
164
202
115
152
175
74
119
180
70
121
181
72
123
178
76
122
190
95
135
220
133
169
223
138
171
223
139
171
223
140
171
223
140
170
223
140
170
223
140
170
223
140
170
223
140
170
223
140
170
223
140
170
223
140
170
223
140
170
223
140
170
223
140
170
223
140
170
223
140
170
223
140
170
223
140
170
223
140
170
222
139
169
219
136
166
211
133
163
153
67
100
191
98
134
219
131
165
218
133
168
219
135
169
218
137
167
217
137
165
218
138
165
219
136
164
218
133
162
218
131
161
209
129
159
157
80
109
158
56
98
167
53
97
167
53
98
161
54
98
163
54
100
163
53
98
164
54
99
161
51
96
158
50
93
156
49
91
157
50
92
157
52
94
146
58
93
114
74
70
133
169
123
132
180
125
133
175
131
82
122
104
102
145
146
103
144
151
100
143
150
101
136
146
102
133
143
101
140
147
99
135
148
98
132
143
81
80
96
68
9
36
75
7
37
72
7
34
82
8
41
84
9
42
75
8
36
66
7
32
72
8
37
78
8
40
77
9
42
88
24
57
128
54
93
129
55
96
132
52
97
128
52
94
124
57
96
77
65
92
57
114
130
52
118
137
52
122
135
91
151
162
80
133
144
105
168
177
75
139
152
55
116
135
54
116
135
54
116
134
81
142
158
105
169
183
102
170
179
103
168
175
109
162
170
59
80
92
2
9
20
5
8
22
4
6
22
3
6
20
2
6
19
5
9
21
5
9
21
9
9
21
10
10
22
12
10
23
12
11
24
13
11
24
13
11
24
13
11
24
12
11
24
9
9
22
5
8
20
4
8
20
98
89
105
96
87
105
88
78
101
89
79
103
94
85
106
93
84
103
85
76
95
74
66
83
68
60
76
76
67
85
84
75
95
88
78
103
85
75
100
83
73
98
78
68
93
76
66
91
76
66
91
75
65
90
74
67
91
81
71
96
91
77
103
95
82
108
94
86
107
100
82
106
111
70
94
216
146
172
224
146
172
224
146
172
224
146
172
223
142
172
215
136
165
185
113
138
223
145
170
222
146
172
223
146
172
224
146
172
224
146
173
224
145
174
224
145
175
224
145
175
224
144
174
223
144
173
223
143
172
221
141
170
223
140
168
223
140
168
223
140
168
224
140
169
219
138
169
172
95
127
180
88
128
177
70
118
180
71
122
180
74
123
179
74
122
201
108
148
225
135
173
223
139
174
222
141
173
223
140
170
223
140
170
224
141
171
224
141
171
224
141
171
223
140
170
223
140
170
223
140
170
223
140
170
223
140
170
223
140
170
223
140
170
223
140
170
223
140
170
223
140
170
224
141
171
223
140
170
220
138
168
214
138
168
185
106
136
167
75
111
204
108
145
222
132
168
221
135
169
218
138
168
216
138
165
217
138
165
218
136
164
218
134
162
219
132
161
213
132
163
204
126
157
143
62
95
164
58
99
168
54
99
162
52
97
163
53
99
163
53
98
164
54
99
161
51
96
157
49
92
157
50
92
157
50
92
156
51
93
152
51
97
139
57
86
115
118
97
139
176
131
134
180
129
111
155
117
89
129
120
98
141
146
99
142
149
93
127
137
88
123
132
97
137
147
98
131
146
99
119
132
64
29
52
79
9
40
70
7
35
75
6
35
83
8
41
78
9
40
67
6
33
65
6
31
71
7
34
75
9
38
74
8
39
82
18
50
130
55
94
130
52
95
132
52
97
128
52
94
123
58
97
73
70
94
56
115
131
56
116
137
53
119
134
90
150
161
77
131
142
102
164
175
56
122
137
52
116
136
51
116
138
51
116
136
58
122
138
100
165
178
104
171
181
105
170
179
106
166
173
80
112
123
6
15
28
5
12
24
4
9
21
3
8
19
2
8
18
3
9
19
6
11
21
8
8
19
8
8
18
12
10
21
12
10
22
13
11
23
13
11
26
13
10
27
12
11
26
11
11
25
9
11
24
6
10
22
90
81
97
101
92
110
104
95
117
100
90
112
96
88
104
87
78
95
73
65
83
76
67
86
86
77
99
93
84
107
94
84
108
96
86
111
95
85
110
88
78
103
75
65
90
71
61
86
75
66
90
78
68
93
79
71
95
86
76
101
92
78
104
95
82
108
94
88
109
104
85
109
124
80
104
217
148
174
224
146
172
224
146
172
224
146
172
223
143
172
220
141
170
189
115
140
222
144
170
222
145
171
223
146
172
224
146
172
224
146
174
225
146
177
224
145
177
224
145
177
224
145
175
225
145
174
224
143
173
222
140
169
223
140
168
223
140
168
223
140
168
223
139
168
220
140
169
201
127
156
171
84
121
176
72
119
181
71
122
182
71
123
181
69
123
178
78
124
214
122
163
222
137
175
220
140
174
223
140
170
223
140
170
224
141
171
224
141
171
224
141
171
223
140
170
223
140
170
223
140
170
223
140
170
223
140
170
223
140
170
223
140
170
223
140
170
223
140
170
224
140
170
224
141
171
223
140
170
220
137
167
218
138
169
214
135
166
151
67
99
177
79
117
215
120
157
221
133
168
217
137
166
215
137
164
217
138
165
218
137
164
218
135
163
216
135
162
218
129
162
215
124
160
195
112
147
145
51
88
165
55
98
168
49
97
164
52
99
163
53
98
163
53
98
159
49
94
156
49
92
155
48
90
155
48
91
155
48
92
153
47
98
144
52
96
111
60
71
126
152
115
123
173
117
125
174
124
81
120
99
98
143
146
99
141
148
82
114
124
97
135
143
98
137
149
98
130
145
86
97
111
73
8
42
82
7
40
63
7
33
74
7
35
82
8
41
74
9
39
64
7
32
66
8
33
71
7
33
71
7
34
72
8
36
76
12
44
126
51
91
133
52
96
131
52
97
129
53
96
121
58
96
66
74
94
53
114
130
56
116
137
54
119
135
96
153
165
78
130
142
80
141
153
51
118
133
50
116
136
46
113
138
48
115
137
50
116
132
83
147
158
104
170
182
106
170
180
104
168
175
93
132
143
7
17
32
4
13
25
4
11
21
7
9
20
7
8
19
8
9
20
8
9
20
11
11
20
10
9
19
12
10
20
12
11
21
13
11
23
13
11
26
13
10
30
12
11
27
12
11
25
9
12
25
7
11
23
75
66
85
79
70
89
76
67
86
74
65
84
67
58
75
74
65
82
84
76
92
90
80
102
93
83
107
94
84
108
92
82
106
90
81
102
91
82
105
92
82
106
88
78
103
88
78
102
89
80
104
90
82
105
93
85
108
94
86
110
96
84
110
99
86
112
98
89
114
108
91
113
133
85
109
220
147
175
224
144
171
223
145
171
223
146
172
222
143
173
221
143
172
185
111
136
224
145
171
221
145
170
222
146
172
223
146
174
222
145
174
224
143
173
224
143
173
223
143
172
223
142
171
223
140
170
223
140
170
223
140
170
223
140
170
223
140
170
223
140
170
223
140
169
222
137
167
221
136
170
169
90
125
169
72
119
178
70
124
182
69
125
183
71
127
180
72
122
186
84
129
221
130
169
222
141
173
222
138
171
222
139
170
223
140
168
224
141
170
224
141
171
223
140
170
223
140
170
223
140
170
223
140
170
223
140
170
223
140
170
223
140
168
223
140
168
223
140
168
224
139
168
224
139
168
223
138
167
220
135
164
219
136
166
217
134
164
173
103
128
164
72
106
187
90
129
218
131
164
216
136
163
217
137
164
217
137
164
217
137
164
217
137
164
214
136
162
215
132
163
217
127
163
212
126
163
180
98
133
147
55
90
163
54
97
164
53
97
164
54
96
163
52
97
157
50
95
155
49
95
156
47
94
151
44
92
139
39
85
125
28
76
107
18
62
92
21
48
66
64
47
75
120
74
72
123
75
72
112
78
84
122
121
101
138
146
76
107
118
98
137
143
96
137
147
100
131
145
75
79
94
77
7
41
77
7
39
65
8
35
71
7
37
80
9
40
70
9
35
67
7
33
69
8
34
75
8
37
69
7
32
60
7
28
67
11
43
120
50
91
130
53
98
130
52
99
128
53
97
110
57
96
62
91
111
53
119
134
55
117
138
55
118
133
102
155
166
75
131
141
55
120
134
49
116
131
48
115
131
44
115
135
45
117
137
48
118
135
65
128
144
102
166
179
107
169
179
105
168
173
103
152
156
15
31
42
5
11
24
2
12
21
9
10
21
11
9
20
12
10
21
12
10
21
12
10
23
12
10
23
12
10
23
12
10
24
13
11
24
13
11
24
13
11
25
13
10
29
13
10
28
12
11
26
8
8
21
98
88
107
82
73
92
59
50
69
56
47
66
54
45
63
65
56
74
81
72
90
91
82
104
96
86
110
97
87
111
92
82
106
89
79
101
89
80
103
91
81
106
94
84
109
98
88
113
98
89
113
96
88
112
97
89
113
99
91
115
101
90
116
105
92
118
105
94
120
114
97
120
144
96
120
220
145
174
224
145
171
224
146
172
223
146
172
223
144
173
221
144
172
181
107
133
222
143
169
222
144
169
223
145
171
224
145
174
223
143
174
224
141
171
224
141
171
224
141
171
223
140
170
223
140
170
223
140
170
223
140
170
223
140
170
223
140
170
223
140
170
222
140
170
220
136
167
223
139
172
212
131
165
154
65
104
174
73
119
178
69
120
181
71
124
179
71
122
178
72
119
195
100
140
221
135
170
222
138
171
222
139
170
223
140
168
224
141
170
224
141
171
223
140
170
223
140
170
223
140
170
223
140
170
223
140
170
223
140
170
223
140
168
223
140
168
223
140
168
224
139
168
224
139
168
223
138
167
221
136
165
221
135
166
219
134
165
204
130
157
151
67
99
172
76
116
201
113
147
218
135
165
217
136
164
217
137
164
217
137
164
217
137
164
216
138
163
217
135
163
219
130
164
214
128
164
208
126
160
161
83
112
156
59
97
162
54
97
165
53
97
163
51
97
155
49
95
155
46
93
145
39
86
118
20
65
104
12
56
98
13
55
97
11
53
94
15
53
73
28
43
72
99
69
69
119
72
71
117
77
62
98
81
99
131
139
81
111
131
97
137
146
93
138
147
102
133
148
67
71
86
79
8
43
77
8
39
66
6
34
69
6
35
76
9
38
68
6
32
70
8
34
67
7
33
72
8
37
70
9
34
59
7
27
66
10
41
118
53
90
134
51
97
130
50
97
124
54
98
81
57
88
61
110
126
53
118
135
56
117
138
57
120
136
98
150
164
49
106
119
51
115
131
48
114
132
46
114
132
44
113
132
46
117
135
47
117
135
51
116
135
91
157
169
106
169
178
105
168
172
108
162
165
39
60
69
7
12
26
5
14
24
11
11
24
12
10
24
12
10
24
12
10
24
12
10
25
12
10
25
13
11
25
13
11
26
14
12
26
13
11
26
13
11
25
13
10
26
13
10
26
10
9
23
7
6
19
86
74
93
82
70
90
83
71
91
82
71
91
77
69
89
72
63
83
69
60
80
72
62
85
82
72
96
88
78
102
93
83
107
96
87
108
98
88
111
95
85
110
98
88
113
100
90
116
99
90
116
96
87
113
95
86
111
98
89
113
100
89
115
105
92
118
106
94
121
115
96
119
153
102
126
220
145
174
225
145
172
224
146
172
223
146
172
223
144
174
222
144
172
184
110
135
221
142
168
222
143
169
222
143
170
221
142
171
221
141
171
224
141
171
224
140
171
223
140
170
223
140
170
223
140
170
223
140
170
223
140
170
223
140
170
223
140
170
223
140
170
223
140
170
222
139
171
220
138
168
222
141
171
189
108
137
163
70
106
173
71
115
175
71
121
179
72
122
181
72
120
177
75
118
206
115
151
221
137
170
222
139
169
223
140
168
224
141
170
224
141
171
223
140
170
223
140
170
223
140
170
223
140
170
223
140
170
223
140
170
223
140
168
223
140
168
222
139
167
221
137
166
221
136
165
222
137
166
223
138
167
221
138
168
221
136
167
215
137
166
168
91
119
166
71
112
177
84
122
215
129
162
216
135
163
217
137
164
217
137
164
217
137
164
217
138
162
217
135
162
220
131
164
215
130
164
212
128
162
200
122
149
143
60
90
159
52
96
164
51
98
162
50
99
153
49
96
138
37
83
109
14
59
99
12
56
95
11
56
95
15
58
97
13
55
93
14
55
91
19
56
67
62
55
73
116
76
67
121
71
71
108
73
62
89
85
94
127
142
95
135
150
94
137
147
100
132
147
74
81
95
75
8
41
75
8
39
66
6
34
68
6
35
68
9
35
68
8
34
73
8
36
68
6
32
73
7
37
72
8
34
64
7
29
70
7
41
101
37
72
130
51
93
122
56
96
96
61
94
62
93
110
56
116
133
53
117
138
58
116
137
60
122
139
88
141
157
45
104
121
51
114
134
49
115
135
48
116
138
45
112
131
43
115
131
44
117
135
47
116
136
75
143
154
105
169
177
105
167
172
105
167
168
59
86
95
9
12
30
6
14
26
11
11
26
13
10
27
13
10
27
13
10
27
13
10
27
13
10
27
13
10
27
13
10
27
13
10
27
14
11
28
13
10
27
12
10
23
12
10
23
12
11
24
10
9
24
91
79
97
96
83
102
96
83
104
94
81
103
94
84
106
92
84
106
91
82
104
85
75
98
84
73
96
79
68
92
76
68
91
87
79
102
96
87
110
95
85
108
98
88
111
100
91
114
101
92
116
101
92
118
99
90
115
96
87
111
97
85
111
100
87
113
101
89
114
112
91
114
160
107
132
222
145
175
225
145
173
223
146
172
224
146
172
224
144
172
223
144
172
182
107
133
224
144
170
224
144
169
223
143
171
223
142
171
223
140
169
224
140
170
224
140
170
224
139
170
223
140
170
223
140
170
223
140
170
223
140
170
223
140
170
223
140
170
223
140
170
223
141
171
223
140
171
223
139
169
220
139
167
218
137
164
161
82
110
169
72
113
175
70
118
179
70
120
181
70
119
179
71
118
178
79
120
210
124
158
222
139
170
222
141
169
223
140
169
224
141
170
223
140
169
223
140
169
223
140
170
223
140
170
223
140
170
223
140
170
223
139
168
223
139
168
223
139
167
222
138
167
222
138
167
223
139
167
223
139
167
220
139
168
221
137
167
217
135
165
209
125
157
151
62
101
171
74
115
199
109
145
218
134
166
217
135
166
218
136
166
219
136
166
216
137
161
218
136
162
220
133
163
218
132
164
215
129
162
208
127
157
192
110
141
146
47
86
162
53
98
159
47
95
135
34
80
110
13
59
103
11
56
98
11
56
97
10
56
97
12
59
97
12
55
94
14
55
98
12
57
78
24
44
72
93
64
72
116
68
76
115
72
60
91
65
97
132
135
95
135
150
94
136
147
98
133
147
92
98
114
66
7
37
73
9
37
69
7
35
71
8
36
68
7
33
72
8
35
73
8
35
67
6
32
74
8
36
75
7
35
70
6
32
73
9
42
79
18
51
118
58
96
92
58
90
64
88
109
57
113
127
49
117
135
53
115
137
58
116
136
69
130
147
79
131
147
52
111
129
52
114
136
48
115
136
47
116
138
45
112
131
44
114
131
46
117
136
47
117
138
60
128
141
102
166
175
105
168
173
106
169
172
76
109
118
7
13
30
7
13
26
11
11
27
13
10
28
13
10
28
14
11
28
13
10
29
14
11
29
14
11
30
14
11
29
14
11
30
14
11
29
13
11
28
13
11
24
13
11
23
13
12
25
14
12
27
105
92
110
101
88
108
99
85
107
101
87
112
102
92
117
99
95
118
99
93
116
99
90
112
105
93
117
105
94
119
99
94
117
92
89
115
84
79
102
76
69
88
88
81
98
93
86
104
102
94
115
106
97
120
100
90
115
95
85
109
96
84
108
96
84
108
96
83
106
105
80
102
169
115
140
221
143
174
224
144
174
222
146
173
225
145
172
225
144
171
223
143
170
186
108
134
224
144
170
224
144
168
224
143
174
224
141
171
223
140
165
223
140
168
223
140
169
223
140
170
223
140
171
223
140
170
224
141
171
224
141
171
223
140
170
223
140
170
224
141
171
224
141
170
224
139
168
224
139
168
223
138
167
220
138
167
209
130
160
151
64
100
172
71
115
176
70
118
179
68
118
180
69
119
179
72
119
185
85
124
218
130
165
220
138
169
222
140
168
223
140
168
223
140
168
223
140
168
223
140
170
223
140
170
223
140
170
223
140
169
223
138
167
224
139
168
224
139
168
223
139
167
222
139
167
223
140
168
223
140
168
223
138
168
222
137
168
219
134
167
218
133
167
174
91
126
170
73
114
177
81
121
216
125
164
218
133
168
220
133
167
221
135
168
217
135
162
218
136
161
219
134
160
218
132
160
215
130
162
212
127
160
207
123
156
169
90
120
148
52
89
142
38
82
110
12
59
103
11
56
100
11
55
99
12
55
98
13
55
99
12
55
99
12
55
99
12
55
95
14
54
89
20
49
67
55
46
74
113
74
70
117
71
68
112
74
78
112
109
97
138
147
94
140
149
99
131
146
79
83
99
59
6
33
71
7
35
72
7
35
78
9
38
76
7
36
77
7
36
72
8
35
66
8
33
72
9
34
71
6
34
70
5
37
75
9
43
67
11
44
68
58
84
66
96
119
59
113
136
51
118
134
48
116
138
51
115
135
56
117
137
79
138
155
69
120
136
57
116
131
51
115
134
46
116
134
45
114
134
45
112
132
45
112
131
46
112
134
47
113
136
54
118
135
97
161
168
103
168
173
107
167
174
89
128
139
5
16
32
7
13
26
11
11
24
12
11
25
12
11
25
13
12
26
14
11
30
14
11
30
14
11
30
14
11
30
14
11
30
14
11
28
13
11
25
14
12
26
13
11
25
15
13
27
15
13
27
104
93
117
105
94
118
105
94
118
106
95
120
107
99
125
107
102
127
105
98
123
104
94
119
106
94
119
105
94
120
103
98
123
106
105
130
107
106
130
97
95
118
92
88
111
84
79
102
77
70
93
85
77
100
93
84
106
92
83
103
92
81
102
93
81
102
99
86
108
103
79
101
178
124
149
219
141
173
225
144
174
223
146
174
225
146
172
226
145
171
224
144
171
188
109
136
222
142
169
223
145
169
225
145
176
224
142
172
222
140
165
224
141
168
224
141
169
224
140
171
224
140
171
224
141
171
224
141
171
224
141
171
223
140
170
223
140
170
224
141
171
224
141
170
224
139
168
224
139
168
223
138
167
221
138
166
221
141
168
189
108
138
161
68
106
171
70
115
176
67
115
180
68
117
180
69
117
179
70
115
191
95
133
220
133
167
222
140
170
223
140
168
223
140
168
223
140
168
223
140
170
223
140
170
224
141
171
224
140
170
224
139
168
224
139
168
224
139
168
222
138
167
222
139
167
223
140
168
223
140
168
223
139
168
221
136
167
220
135
168
218
132
167
205
120
157
149
60
97
171
74
115
198
103
142
220
131
166
220
132
166
219
136
166
217
136
162
218
136
162
219
135
161
219
133
161
215
128
162
213
127
160
209
124
157
203
122
154
133
60
89
107
16
58
105
11
58
103
12
56
99
10
54
99
12
55
98
13
55
100
13
56
100
13
56
99
12
55
96
14
55
95
15
54
80
23
42
71
88
64
74
116
74
69
116
72
56
94
79
100
137
143
101
134
145
90
102
116
92
72
92
67
10
38
72
7
35
75
7
35
84
9
40
80
9
39
76
8
36
73
8
36
69
7
33
71
8
34
67
6
33
72
6
38
78
8
43
62
12
43
54
91
105
52
118
135
58
116
138
56
117
135
53
116
140
54
116
137
55
118
137
85
145
162
53
107
122
56
116
130
51
116
132
47
117
132
45
114
130
44
111
129
45
112
130
44
111
131
46
112
133
51
117
133
84
150
157
103
168
173
104
168
173
97
143
152
6
20
34
9
13
26
10
12
26
12
11
27
12
11
27
12
11
27
14
11
30
14
11
30
14
11
30
14
11
30
14
11
30
13
10
27
12
10
24
13
11
25
12
11
25
15
13
27
16
14
28
112
103
134
111
103
132
113
104
131
113
106
131
108
103
129
105
102
127
105
97
124
105
95
120
106
94
120
105
94
121
101
95
122
106
102
129
112
108
135
117
114
142
110
107
135
101
96
124
94
88
114
87
81
104
75
67
86
72
63
80
81
71
88
92
81
98
105
91
114
115
90
113
172
117
143
220
142
174
225
144
174
223
146
174
224
145
171
224
143
170
224
144
171
190
113
139
222
142
169
222
144
168
224
145
175
223
142
172
222
142
166
224
141
169
224
141
170
224
141
171
224
141
172
224
141
171
224
141
171
223
140
170
223
140
170
223
140
170
224
141
171
224
141
170
224
139
168
224
139
168
224
139
168
223
140
165
221
141
165
220
140
167
166
85
115
167
71
113
175
70
115
182
69
117
182
69
117
180
69
115
178
72
115
198
106
142
222
137
169
222
139
167
222
139
167
222
139
167
223
140
170
223
140
170
224
141
171
224
141
170
224
139
168
224
139
168
223
138
167
222
138
167
222
139
167
222
139
167
222
139
167
223
138
168
221
136
167
221
136
169
220
134
169
217
131
168
164
86
119
169
73
113
178
76
117
213
121
156
219
131
164
216
137
164
218
137
163
219
136
162
219
135
161
219
132
160
217
127
161
215
126
161
210
122
157
197
113
146
147
69
103
98
18
58
102
12
60
103
12
57
99
10
54
99
12
55
98
13
55
100
13
56
100
13
56
100
13
56
100
12
56
97
13
58
94
15
53
68
46
43
77
109
72
69
115
67
63
100
77
104
132
136
92
101
117
101
80
98
115
79
98
70
15
41
70
8
35
74
7
35
83
7
38
75
8
36
68
7
33
63
5
30
67
7
33
66
6
31
71
7
35
76
7
40
77
9
43
56
12
41
53
92
109
53
116
139
58
115
140
59
116
136
57
116
141
56
117
138
53
116
135
87
148
165
47
103
118
54
114
126
49
116
128
46
116
128
45
113
127
44
112
128
45
112
129
45
112
130
46
113
132
49
116
131
71
137
144
102
170
174
103
168
174
102
154
161
16
33
45
11
14
27
11
13
29
12
12
30
12
12
30
12
12
30
14
11
30
14
11
30
14
11
30
14
11
30
14
11
30
12
10
26
13
11
25
13
11
25
13
11
25
13
11
25
14
12
26
112
109
139
110
104
133
108
101
128
109
104
130
108
103
132
107
102
131
106
97
126
105
95
122
101
92
120
103
95
126
103
98
130
104
102
130
111
110
138
121
118
147
114
110
141
106
99
132
101
94
122
99
92
115
95
85
104
87
76
93
82
69
87
76
63
80
81
67
89
100
77
99
151
102
125
219
143
173
225
143
170
224
145
171
222
145
171
225
144
173
223
144
172
188
111
138
219
142
169
222
143
170
224
144
171
224
144
170
224
145
169
223
143
171
223
142
171
224
141
171
224
141
171
224
141
171
223
140
170
223
140
170
223
140
170
223
140
170
223
140
170
223
140
170
223
140
169
223
140
169
223
140
169
222
138
166
221
137
164
221
139
167
213
133
160
150
69
100
174
72
113
183
67
115
184
68
117
181
67
115
181
69
118
178
72
116
204
110
148
222
136
169
222
138
167
223
139
169
223
141
171
222
141
171
224
141
171
223
140
170
224
139
171
224
139
170
223
138
170
223
138
170
223
138
170
222
138
170
222
138
169
223
138
170
223
138
170
222
137
169
221
136
167
217
133
165
198
123
152
149
61
97
172
69
110
191
96
134
219
131
167
218
134
163
217
135
161
218
134
161
218
133
160
218
131
159
217
127
160
214
124
158
207
116
153
168
77
116
150
64
105
122
46
84
94
12
54
99
12
57
99
12
56
98
11
56
98
13
57
100
13
57
100
13
57
99
12
57
99
10
55
96
12
56
90
14
57
77
22
43
71
91
62
70
115
70
63
90
67
88
95
103
107
84
108
118
85
107
119
81
101
76
27
49
71
9
38
69
7
35
84
8
40
80
7
38
76
11
39
64
8
33
56
4
27
65
6
31
74
7
37
79
9
42
73
8
39
48
14
38
59
99
115
53
118
136
55
116
136
57
116
135
56
116
138
54
116
136
54
118
132
84
139
156
46
105
122
49
117
131
47
116
129
45
115
127
45
113
126
45
112
128
46
111
129
46
111
129
45
111
129
45
112
128
56
123
136
99
167
176
100
168
174
106
161
170
30
50
61
13
13
27
12
15
28
13
13
29
12
12
29
13
12
30
14
11
31
14
11
31
14
11
31
14
11
30
14
11
29
14
11
29
14
11
28
14
11
29
13
10
28
13
10
28
13
10
28
105
102
129
108
100
128
107
101
128
107
104
131
108
105
134
108
103
132
105
98
126
101
90
116
97
85
112
107
97
126
109
101
132
106
105
134
109
109
137
114
111
140
105
100
131
99
92
124
98
90
118
97
89
112
92
82
103
90
79
98
95
83
103
95
82
102
90
76
99
89
68
90
107
67
89
212
144
172
222
142
169
224
143
170
223
145
171
223
143
171
221
142
171
195
118
146
213
137
165
222
142
171
223
143
171
223
143
169
224
144
170
223
144
173
223
143
172
223
142
171
224
141
171
225
142
172
224
141
171
224
141
171
223
140
170
223
140
170
223
140
170
223
140
170
223
140
170
223
140
170
223
140
170
223
139
168
223
138
167
221
138
166
221
139
167
201
124
153
154
62
98
177
70
115
179
68
116
181
68
116
180
68
119
179
70
118
178
76
120
213
122
159
222
137
168
222
137
169
220
139
169
222
141
170
223
140
170
222
139
169
223
138
171
222
137
170
222
137
170
222
137
170
223
138
171
223
138
171
223
138
171
223
138
171
223
138
170
222
137
167
221
136
165
219
134
162
212
134
163
163
84
114
167
69
109
173
75
117
210
119
158
218
132
163
218
134
162
219
134
163
216
131
160
216
130
159
215
128
160
212
124
159
177
88
125
156
62
106
154
61
106
145
63
104
102
28
65
98
12
56
99
12
57
98
11
56
99
12
57
100
13
58
100
13
58
99
12
57
98
11
56
97
12
55
91
12
56
79
24
45
70
88
60
77
107
75
73
69
63
109
85
103
118
86
111
119
84
107
117
83
103
78
37
56
74
10
42
66
6
34
78
7
36
82
7
38
80
8
38
77
9
38
72
7
35
62
6
31
66
7
34
72
9
40
65
7
35
47
22
45
62
103
120
54
116
134
55
118
136
53
116
135
52
115
136
53
116
138
59
121
134
74
125
142
52
112
131
46
116
133
47
117
135
46
115
133
44
112
131
45
111
129
46
111
129
46
111
129
45
110
128
46
113
129
48
115
132
92
160
170
99
167
174
105
163
172
51
78
87
11
15
27
11
15
26
14
13
28
12
11
28
14
11
30
14
11
30
14
11
30
14
11
30
14
11
29
14
11
28
14
11
28
14
11
28
14
11
29
13
10
28
13
10
28
13
10
28
107
99
122
105
95
121
105
100
127
109
109
137
110
110
138
110
107
135
106
102
129
100
95
117
99
94
117
103
99
125
101
98
126
103
101
130
105
102
131
108
103
133
106
100
130
102
95
123
100
93
119
96
88
111
89
81
103
89
80
102
96
85
108
102
90
113
100
86
111
96
80
102
96
67
89
180
124
149
218
143
173
223
141
171
224
145
170
223
143
170
222
143
172
195
118
146
210
135
162
222
142
173
222
142
172
223
143
171
224
144
171
224
144
173
224
144
173
225
145
174
224
142
172
225
142
172
224
141
171
224
141
171
223
140
170
223
140
170
223
140
170
223
140
170
223
140
170
223
140
170
224
141
171
223
140
169
223
140
168
223
139
168
222
138
167
218
138
166
189
110
140
159
65
104
173
68
113
179
68
118
180
68
123
180
69
121
180
70
119
185
87
127
218
130
164
221
136
170
221
138
168
222
139
169
223
139
169
222
137
169
223
138
171
223
138
171
223
138
171
223
138
171
223
138
171
223
138
171
223
138
171
223
138
169
223
138
168
222
137
166
221
137
163
221
134
162
216
132
161
201
119
151
154
64
102
171
72
116
187
90
132
217
128
161
217
134
163
218
133
163
216
131
162
215
128
160
213
125
160
189
101
139
155
64
107
156
60
107
156
59
108
151
61
107
134
55
96
96
15
57
96
11
56
98
11
56
99
11
56
98
12
56
99
12
57
99
12
57
98
11
57
98
11
55
92
12
53
70
27
40
74
101
69
75
95
74
107
85
95
117
87
107
120
86
109
118
83
106
110
77
99
57
20
41
73
8
40
68
7
36
69
6
33
83
8
39
84
10
40
75
9
37
66
6
32
55
6
28
63
4
31
65
6
36
65
7
37
48
43
62
62
109
127
56
114
136
55
118
139
50
117
137
47
114
136
49
115
138
63
124
138
59
109
128
50
113
132
46
117
136
47
116
136
47
115
135
45
112
132
45
111
129
46
111
129
46
111
129
46
111
129
45
113
128
46
113
129
84
151
162
99
168
174
103
167
174
76
113
120
8
16
27
12
15
27
13
13
27
12
11
28
13
10
29
12
11
27
13
12
28
13
11
28
13
12
27
13
12
26
13
12
26
13
12
26
14
13
28
14
13
28
14
13
28
14
13
28
104
91
113
105
95
119
110
106
134
111
112
141
114
115
143
111
111
138
102
99
127
104
101
127
105
103
129
105
105
134
102
103
134
109
106
135
109
105
134
103
98
128
102
97
125
104
98
121
106
99
123
108
100
124
105
98
122
101
94
117
104
95
120
104
94
120
108
95
121
101
88
111
98
76
96
118
73
97
211
142
172
221
140
171
223
143
169
225
145
172
223
144
173
204
127
155
200
126
153
223
142
174
224
143
174
222
142
171
222
141
169
224
142
172
223
143
172
224
145
174
223
142
171
224
141
171
224
141
171
224
141
171
223
140
170
223
140
170
223
140
170
223
140
170
223
140
170
223
140
170
224
141
171
222
141
169
222
140
168
223
139
168
223
138
167
221
136
165
217
137
167
181
99
131
166
65
108
178
68
120
180
68
125
181
68
123
180
67
120
176
70
115
191
100
135
220
133
169
220
136
168
221
138
168
221
136
167
221
135
167
223
138
171
223
138
171
223
138
171
223
138
171
223
138
171
223
138
171
223
138
171
222
137
168
222
137
166
222
138
164
221
137
162
222
134
160
221
132
162
217
134
165
155
76
108
169
70
115
173
69
115
207
118
153
217
133
164
218
133
165
216
131
163
215
127
161
205
113
152
162
68
111
160
64
111
156
60
108
157
59
109
153
59
108
146
60
106
115
41
81
93
14
57
95
12
56
97
11
56
98
11
56
99
12
57
99
12
57
98
11
57
99
10
56
89
14
52
69
55
51
77
101
70
86
81
78
119
87
107
118
90
109
120
89
109
116
83
105
77
44
66
49
7
33
68
6
37
74
11
40
65
7
32
70
5
33
71
6
34
69
6
33
67
7
33
65
6
31
68
5
34
74
8
40
65
14
43
58
79
93
53
116
132
49
116
138
51
117
137
48
117
138
46
115
138
47
116
138
62
121
138
48
98
119
50
115
135
44
116
133
45
115
129
46
115
130
45
113
128
45
111
128
46
111
129
46
111
129
46
111
129
44
111
127
47
114
131
75
142
152
100
168
175
102
170
175
98
144
149
16
30
38
12
15
27
13
13
27
12
11
28
13
10
29
13
12
27
14
13
28
14
13
28
15
14
28
15
14
27
15
14
27
15
14
27
15
14
28
15
14
28
15
14
28
15
14
28
114
105
131
114
110
137
115
115
143
111
115
142
112
113
141
111
112
142
106
106
137
106
105
134
113
109
138
117
114
143
116
118
146
112
111
143
104
100
131
100
93
122
100
89
116
101
90
114
101
91
115
106
98
121
111
107
129
112
108
131
113
108
136
114
107
138
113
107
137
110
100
129
104
86
115
99
73
100
163
108
135
217
141
172
224
140
168
222
143
169
223
143
170
211
133
159
195
120
145
224
141
171
224
141
171
223
140
170
223
140
170
224
141
171
224
141
171
223
140
170
223
140
170
223
140
170
223
140
170
223
140
170
223
140
170
223
140
170
223
140
170
223
140
170
223
140
170
223
140
170
223
140
170
223
140
169
223
140
168
223
139
167
223
138
167
223
138
165
221
137
167
219
134
169
170
87
122
168
70
111
177
68
118
180
67
122
180
67
120
181
69
119
176
71
118
203
111
154
222
134
171
222
138
172
222
139
171
223
137
169
222
137
170
223
138
171
223
138
171
223
138
171
223
138
171
222
137
170
223
138
171
222
138
170
221
138
168
222
137
166
222
137
163
222
135
161
220
134
162
216
132
161
194
114
145
151
60
98
169
66
109
189
93
132
217
128
164
215
129
163
214
128
161
209
122
155
170
76
119
162
65
112
160
62
113
157
59
110
155
59
107
153
60
108
150
60
106
141
57
101
94
22
61
95
14
57
98
12
57
99
12
55
99
12
55
98
11
54
97
10
56
97
12
54
76
19
39
82
78
67
82
77
73
116
91
100
124
87
106
121
85
107
116
84
108
84
51
75
52
7
39
54
7
39
59
5
36
75
8
41
77
7
38
70
7
38
70
7
34
73
8
34
74
8
38
62
8
32
67
8
38
58
17
45
58
67
86
60
112
129
52
118
139
45
117
137
52
118
137
43
117
139
44
117
141
49
115
137
47
104
119
47
104
122
50
116
134
44
116
133
45
114
132
46
113
131
46
111
131
46
111
129
46
111
129
46
111
129
46
111
129
46
112
129
45
113
131
66
133
146
104
168
176
103
167
175
104
166
173
51
77
85
13
14
28
12
13
26
12
13
26
11
14
27
12
14
26
12
14
26
12
14
26
12
14
26
12
14
27
12
14
27
12
14
27
11
13
26
11
13
26
12
13
26
12
14
27
116
108
134
112
109
135
114
114
141
109
113
139
113
114
141
113
114
143
108
109
139
105
103
133
105
101
130
109
105
135
115
118
145
108
113
143
103
103
132
101
92
122
102
89
116
100
87
110
100
88
110
102
93
114
103
95
117
109
101
126
115
108
137
115
111
141
110
106
137
112
105
136
110
98
129
109
93
121
109
76
98
193
132
159
220
139
169
221
140
167
222
142
169
220
142
168
187
112
136
224
141
171
224
141
171
224
141
171
224
141
171
224
141
171
223
140
170
223
140
170
223
140
170
223
140
170
223
140
170
223
140
170
223
140
170
223
140
170
223
140
170
223
140
170
223
140
170
223
140
170
223
140
170
223
140
169
223
140
168
223
139
167
223
138
167
224
139
167
223
138
168
222
137
170
219
134
168
165
82
114
168
68
111
179
69
120
180
67
119
180
67
118
178
69
118
175
75
121
213
119
158
223
135
171
222
138
171
222
137
169
222
137
170
223
138
171
223
138
171
223
138
171
223
138
171
223
138
171
224
139
172
222
138
170
222
139
169
222
137
166
221
137
164
221
135
161
220
134
162
218
132
161
214
131
164
156
76
110
166
70
110
171
69
112
205
115
151
216
126
162
214
123
161
176
88
126
159
64
110
160
64
111
158
60
109
157
59
108
156
60
108
154
61
108
150
60
106
144
59
103
110
40
78
95
13
57
98
12
57
99
12
55
100
11
55
99
10
54
101
11
56
89
16
53
68
34
47
88
73
73
113
90
97
121
87
103
125
86
109
120
83
109
88
55
80
49
7
39
53
6
41
56
8
43
53
5
37
62
6
38
73
7
39
77
7
42
74
9
40
72
10
41
53
18
46
43
37
59
51
60
81
61
92
110
61
111
128
51
118
135
54
120
139
52
118
135
51
118
137
45
118
140
45
118
140
51
115
134
37
94
108
51
112
129
46
114
131
46
116
135
47
115
134
46
113
132
46
111
131
46
111
130
46
111
129
46
111
129
46
111
129
46
112
129
45
113
131
65
131
144
103
168
176
102
168
175
102
166
172
75
102
111
12
14
27
12
14
27
13
15
28
12
16
28
13
15
28
13
15
28
13
15
28
13
15
28
13
15
28
13
15
28
13
15
28
12
14
27
12
14
27
13
15
28
13
15
28
107
99
123
111
108
131
119
119
143
117
121
145
119
121
145
120
122
148
114
115
144
105
104
133
101
96
126
105
101
131
116
118
146
120
125
155
113
115
143
108
103
131
106
96
122
102
91
115
104
95
119
107
101
123
109
100
124
112
103
128
113
104
133
111
103
135
108
102
128
109
103
130
109
102
130
105
96
123
104
87
108
126
86
109
214
144
174
221
142
170
223
143
170
221
143
169
184
109
133
225
142
172
225
142
172
225
142
172
224
141
171
223
140
170
223
140
170
223
140
170
223
140
170
223
140
170
223
140
170
223
140
170
223
140
170
223
140
170
223
140
170
223
140
170
223
140
170
223
140
170
223
140
170
223
140
169
223
140
168
224
139
168
224
139
168
224
139
169
224
139
169
222
137
167
221
136
165
216
133
163
165
81
114
169
68
113
178
68
118
181
67
118
179
66
117
175
68
116
182
81
123
218
126
163
222
137
170
223
138
170
223
138
171
223
138
171
223
138
171
223
138
171
223
138
171
222
137
170
222
137
170
222
138
170
222
139
169
222
137
166
222
137
164
221
135
161
220
133
161
221
132
162
217
130
165
193
113
147
151
64
101
167
67
109
176
76
116
199
102
143
176
79
123
164
64
113
160
63
113
157
60
108
158
60
106
158
60
108
157
61
109
154
61
108
151
61
107
143
59
103
108
39
76
96
14
57
98
11
56
99
10
54
98
11
54
95
13
54
89
15
53
72
26
51
99
72
87
121
88
102
121
87
104
122
86
108
122
83
111
86
51
79
50
7
39
53
8
42
55
6
43
56
6
44
52
6
41
50
4
36
57
5
35
64
5
35
61
6
37
40
13
41
58
86
108
58
112
130
55
114
131
51
117
134
50
117
134
53
120
135
56
120
137
52
118
138
48
118
139
46
118
140
44
117
136
52
113
129
36
92
106
49
114
129
47
117
133
46
116
135
45
113
132
46
113
132
45
110
130
46
111
129
46
111
129
47
112
130
47
112
130
46
112
129
45
113
131
71
138
151
101
167
175
101
169
175
100
166
172
78
107
115
12
14
28
12
14
27
13
15
28
12
16
28
11
13
28
10
12
27
11
13
28
11
13
27
12
14
27
12
14
27
13
15
28
13
15
28
13
15
28
13
15
28
13
15
28
94
86
111
103
99
123
119
117
143
119
122
147
121
123
149
123
124
152
118
120
150
111
112
141
106
105
134
112
112
140
121
125
151
125
129
159
121
123
153
118
116
145
113
110
137
106
100
128
109
105
132
107
104
131
98
92
117
99
90
116
101
90
119
100
88
119
100
89
112
102
93
116
105
97
122
103
96
120
102
90
112
100
74
96
172
113
141
220
143
172
222
144
170
221
143
169
178
103
128
222
141
170
224
141
170
224
140
170
225
142
171
224
141
171
224
140
171
223
140
170
223
140
170
223
140
170
223
140
170
223
140
170
223
140
170
223
140
170
223
140
170
223
140
170
223
140
170
223
140
170
223
140
170
223
140
169
223
140
169
224
140
169
224
140
169
224
139
171
224
139
170
223
138
167
222
137
166
221
137
167
218
134
167
165
79
114
171
69
113
179
67
115
181
65
116
179
68
117
178
69
114
189
92
130
221
132
166
222
137
169
223
138
169
223
138
170
223
137
170
223
138
171
223
138
171
223
138
171
222
137
170
223
138
171
223
139
170
222
137
168
222
137
166
219
135
161
219
133
161
220
132
161
219
131
164
213
130
164
148
70
102
163
69
108
163
65
106
164
64
108
165
65
113
161
64
114
158
64
114
157
62
110
156
61
106
158
60
106
158
60
108
154
61
108
151
60
107
145
60
104
102
32
69
94
14
56
97
11
55
99
10
54
94
15
55
82
15
50
88
43
66
117
82
102
121
89
108
123
86
107
123
89
109
117
84
107
82
49
75
49
8
43
56
8
46
56
7
46
57
6
44
54
5
42
54
6
41
51
7
40
48
8
39
54
6
37
48
8
38
37
53
73
61
112
132
54
116
137
56
116
138
56
119
140
55
119
138
56
121
135
57
121
138
53
118
141
48
116
139
46
117
139
44
116
135
52
111
127
39
94
107
49
115
129
45
117
133
46
116
134
46
113
132
47
114
132
45
112
130
46
111
129
46
111
129
47
112
130
47
112
130
46
114
130
47
115
132
85
150
164
101
167
177
100
170
177
99
166
172
67
97
105
12
15
28
12
14
27
11
13
26
11
15
27
11
13
29
10
11
28
10
12
28
10
12
27
10
12
26
11
13
27
13
15
28
13
15
28
13
15
28
13
15
28
13
15
28
91
81
106
94
88
113
111
103
131
113
111
139
115
117
146
118
122
152
117
121
153
117
122
151
118
122
151
122
127
152
119
124
148
119
125
153
117
121
150
113
113
144
112
109
139
107
104
129
110
107
132
105
102
127
97
89
116
99
89
116
98
88
115
95
85
112
98
86
112
95
85
110
97
90
114
101
95
118
107
94
117
109
89
111
116
76
101
204
136
164
220
141
168
222
142
169
192
117
142
214
137
163
223
140
168
224
139
168
224
141
170
225
140
171
224
140
171
224
139
170
223
140
170
223
140
170
223
140
170
223
140
170
223
140
170
223
140
170
223
140
170
223
140
170
223
140
170
223
140
170
223
140
170
223
140
170
223
140
170
223
140
170
223
140
170
224
139
172
223
138
171
223
138
171
223
138
171
221
137
170
221
137
170
217
133
166
164
80
112
170
68
108
180
66
112
181
68
116
182
68
116
177
70
113
194
101
137
221
134
167
221
137
166
221
136
167
222
137
168
223
138
171
223
138
171
223
138
171
223
138
171
223
138
171
223
138
171
223
138
171
223
138
169
220
136
162
219
134
161
219
133
160
218
133
162
214
132
162
186
108
138
148
63
97
161
65
109
164
65
112
162
65
114
158
66
114
155
66
114
156
64
112
155
62
107
157
62
107
158
61
106
155
60
106
151
59
106
139
59
100
95
19
57
97
12
54
95
13
54
90
15
53
88
30
60
110
67
91
123
86
107
124
91
109
123
89
110
123
88
110
117
81
103
74
42
63
49
7
40
53
7
47
58
6
50
59
8
49
56
6
45
52
6
42
50
7
36
47
26
38
40
16
36
52
8
43
42
13
44
54
93
111
55
117
140
54
120
142
51
119
140
50
121
141
51
121
140
54
120
138
56
121
139
55
118
136
51
118
137
47
117
139
46
116
137
53
110
129
39
92
104
49
115
127
44
117
132
47
117
135
50
115
133
48
115
131
44
113
128
45
112
128
46
112
129
47
112
130
46
112
130
44
112
129
56
122
139
98
162
177
100
166
178
101
167
175
97
155
160
32
49
60
13
13
28
11
13
26
10
12
25
12
14
27
12
14
29
12
14
29
11
13
28
10
12
27
10
12
27
11
13
28
12
14
29
13
15
28
13
15
28
13
15
28
13
15
28
91
79
102
99
91
115
112
103
128
110
107
132
110
110
137
116
119
146
118
121
149
114
116
146
119
121
150
128
131
158
126
129
154
122
126
152
117
119
145
110
108
135
106
102
129
104
99
123
104
99
123
100
94
119
98
90
116
94
84
111
93
83
110
97
87
114
103
90
116
101
91
116
99
91
115
98
92
115
107
91
116
107
92
114
109
87
109
150
98
122
219
142
173
223
139
169
206
131
154
198
124
149
222
140
168
223
140
168
223
141
169
223
141
170
223
140
170
223
140
170
223
140
170
223
140
170
223
140
170
223
140
170
223
140
170
223
140
170
223
140
170
223
140
170
223
140
170
223
140
170
223
140
170
223
140
170
223
140
170
223
140
170
223
140
170
223
138
171
222
137
170
224
139
172
223
138
171
222
138
171
222
138
171
220
136
169
213
133
164
162
81
112
169
66
107
179
68
113
179
67
113
178
70
114
175
72
114
196
100
140
219
130
167
221
135
169
219
137
169
221
138
170
222
137
170
223
138
171
223
138
171
223
138
171
223
138
171
223
138
171
223
138
170
222
137
166
220
135
164
220
134
163
218
133
163
215
131
162
211
129
162
142
67
97
158
69
111
161
66
112
160
65
113
156
65
113
154
65
114
155
65
112
155
64
108
155
64
107
155
62
106
153
61
106
147
61
106
126
53
90
93
15
53
95
16
55
82
26
55
101
60
84
126
84
109
126
88
109
124
89
109
123
88
108
122
86
108
113
76
100
67
30
55
52
6
39
56
7
45
58
6
47
57
7
44
57
7
45
54
6
43
51
5
45
43
18
35
68
87
63
58
70
53
40
18
33
28
34
44
60
110
121
52
118
141
53
118
140
51
117
139
51
120
141
52
120
139
54
120
138
56
121
139
56
119
137
50
117
136
47
117
139
48
116
138
50
112
130
36
91
103
49
110
123
45
114
130
47
117
135
48
117
133
47
114
131
46
112
128
45
112
128
45
112
129
45
112
129
45
111
128
48
112
133
82
152
166
96
170
179
99
169
173
107
159
164
61
92
99
10
15
29
11
13
26
12
14
27
11
13
26
12
14
27
11
13
28
12
14
29
12
14
29
11
13
28
10
12
27
11
13
28
12
14
29
12
14
28
12
14
28
12
14
27
12
14
27
92
78
99
104
94
115
111
100
123
116
110
133
115
110
134
116
111
137
114
110
138
113
112
141
119
119
149
120
121
148
120
121
146
118
115
139
105
99
124
101
91
118
99
87
114
99
90
114
106
96
121
102
92
117
100
90
116
94
84
111
98
88
115
102
92
119
103
90
116
99
89
114
98
91
114
99
92
116
105
89
116
106
91
115
104
86
107
99
62
86
186
128
154
220
141
170
218
138
162
185
113
137
220
141
167
223
140
168
221
141
169
222
141
170
222
141
170
222
141
170
223
140
170
223
140
170
223
140
170
223
140
170
223
140
170
223
140
170
223
140
170
223
140
170
223
140
170
223
140
170
223
140
170
223
140
170
223
140
170
223
140
170
223
140
170
224
139
171
224
139
172
224
139
172
224
139
172
222
138
171
222
138
171
222
138
171
220
139
170
214
133
164
168
85
117
160
65
103
176
70
111
179
69
115
180
68
116
176
65
115
188
90
135
216
124
164
220
135
169
222
138
170
222
137
170
222
137
170
223
138
171
223
138
171
223
138
171
223
138
171
223
138
171
222
137
168
221
136
167
221
134
166
220
134
165
216
131
162
213
132
164
180
109
138
144
61
101
158
68
112
158
65
112
155
65
113
153
65
113
154
65
112
156
65
109
155
63
107
157
62
107
152
63
107
140
66
106
93
32
63
81
29
56
102
60
83
122
87
109
126
93
114
123
89
109
124
89
108
125
88
108
123
85
108
102
65
88
55
18
42
54
8
43
56
7
46
58
7
48
59
6
47
56
8
39
54
7
40
52
6
41
49
7
40
48
51
43
65
108
64
66
108
62
54
80
53
60
98
67
43
86
74
57
115
126
51
119
140
49
119
139
48
121
140
50
121
139
54
120
137
55
120
138
57
120
138
49
115
135
47
117
139
48
115
137
46
114
130
46
111
120
36
94
107
35
92
112
47
110
130
49
115
133
46
113
129
44
113
128
45
113
128
46
114
130
45
113
129
45
113
129
73
136
151
104
167
177
110
164
169
106
143
148
104
98
112
71
54
70
12
16
27
10
14
26
12
14
27
12
14
27
12
14
28
12
14
29
12
14
29
13
15
30
13
15
30
11
13
28
11
13
28
12
14
29
12
14
28
12
14
27
13
15
28
13
15
28
90
77
98
96
84
105
103
92
113
111
102
123
111
102
124
110
103
127
113
108
134
112
111
138
112
114
140
108
110
135
110
109
135
109
101
128
100
90
116
104
92
116
103
91
114
103
93
118
105
96
120
105
96
120
104
95
120
102
94
118
101
93
117
105
93
118
106
93
118
103
92
117
102
91
117
104
93
119
106
92
118
107
92
117
104
87
112
103
78
101
122
82
104
212
141
170
220
141
168
179
107
131
222
143
169
223
140
168
222
142
169
223
143
172
222
142
171
222
140
170
223
140
170
223
140
170
223
140
170
223
140
170
223
140
170
223
140
170
223
140
170
223
140
170
223
140
170
223
140
170
223
140
170
223
140
170
223
140
170
223
140
170
223
140
170
223
140
169
223
140
169
223
140
169
223
139
169
223
139
172
223
139
172
223
138
171
222
138
169
220
136
167
219
135
165
175
95
121
164
65
102
176
70
113
176
68
116
178
66
118
176
67
117
181
82
124
208
118
153
223
134
168
222
134
168
222
137
169
222
139
169
222
138
169
222
138
169
222
138
169
222
138
169
221
137
166
220
135
166
221
135
167
221
136
168
216
134
164
216
131
164
207
131
162
141
73
107
146
76
113
137
69
106
136
68
106
141
72
110
144
73
112
144
72
110
146
71
110
147
70
109
138
67
103
107
55
85
96
67
85
120
90
107
125
92
110
127
92
110
128
90
110
124
91
109
122
92
108
117
86
104
87
54
75
51
10
40
51
7
42
56
7
47
53
8
44
56
7
43
56
7
44
52
7
41
50
9
38
51
7
38
45
13
33
64
79
59
62
111
64
61
116
63
50
94
51
65
109
62
62
106
69
49
96
96
55
118
137
52
120
139
52
120
138
52
121
137
54
122
138
54
122
138
54
121
138
48
117
137
47
117
138
48
116
136
47
115
132
45
115
128
48
113
129
48
110
129
50
112
130
53
115
131
47
114
127
43
114
124
48
113
130
51
112
132
48
113
130
66
128
143
104
162
171
109
142
154
100
96
114
135
93
119
159
104
129
101
64
84
14
15
26
10
13
25
12
14
27
12
15
27
12
15
28
11
13
28
12
14
29
12
14
29
15
17
32
13
13
30
12
12
29
13
13
30
14
13
28
13
13
27
14
14
27
16
16
30
102
89
107
106
94
112
106
96
113
108
99
116
109
101
121
111
105
128
116
113
138
116
117
142
112
117
142
109
114
138
109
109
135
111
102
130
107
97
122
105
96
118
107
96
118
108
98
123
109
100
125
108
100
124
106
99
122
103
99
122
105
99
122
103
92
117
103
92
116
105
95
120
102
92
118
99
87
114
103
90
115
105
92
117
101
87
112
98
81
104
101
74
96
169
111
138
217
142
172
179
108
133
220
141
168
223
140
168
222
142
169
221
141
170
222
141
170
223
140
170
223
140
170
223
140
170
223
140
170
223
140
170
223
140
170
223
140
170
223
140
170
223
140
170
223
140
170
223
140
170
223
140
170
223
140
170
223
140
170
223
140
170
223
140
170
223
140
168
223
140
168
223
140
168
222
139
168
223
139
172
223
138
171
223
138
171
223
138
170
223
138
168
222
137
165
220
136
162
186
105
132
155
63
98
173
68
113
178
65
116
180
68
117
177
69
114
174
73
112
205
110
147
223
132
168
220
134
167
220
138
168
221
138
169
222
137
169
222
137
169
221
137
168
220
134
166
222
134
168
221
135
169
220
135
167
216
133
163
215
136
167
188
131
157
127
111
132
132
144
158
136
160
171
130
159
169
132
154
168
123
143
158
119
137
152
115
123
141
103
106
123
83
90
104
93
90
107
98
90
107
110
94
112
122
96
116
128
95
117
129
91
115
126
90
114
111
79
101
67
37
59
52
7
41
54
6
41
56
5
41
57
6
42
53
7
43
57
7
43
50
9
37
43
28
33
56
57
48
51
50
41
34
37
26
69
100
70
62
113
66
62
115
63
58
100
60
60
103
59
63
111
65
49
97
76
56
116
122
55
121
136
53
120
138
53
120
137
54
122
138
54
122
138
54
121
138
49
119
139
48
118
138
49
116
135
48
115
133
46
114
131
46
113
130
49
114
132
49
115
133
49
115
132
49
110
127
47
110
126
47
112
130
52
114
131
63
116
129
103
133
150
88
92
108
97
57
85
156
91
125
172
102
134
168
104
131
121
78
100
14
14
25
11
14
26
12
14
27
12
16
28
12
16
28
13
15
30
15
17
32
17
19
34
15
17
33
17
17
35
19
18
36
20
18
37
20
17
35
18
16
33
18
16
33
18
15
32
104
95
113
110
101
119
111
101
118
109
98
117
112
104
125
116
111
133
112
109
133
111
111
137
118
121
146
115
119
143
111
110
137
110
102
129
109
101
126
109
100
122
106
97
118
110
100
125
112
103
127
111
103
127
108
102
127
108
105
129
107
103
128
101
92
118
99
89
113
100
90
114
101
91
118
101
91
117
102
89
116
100
87
114
91
77
104
89
77
102
102
87
111
114
80
104
204
137
168
189
118
143
209
130
157
223
140
168
222
141
169
221
141
170
222
140
170
223
140
170
223
140
170
223
140
170
223
140
170
223
140
170
223
140
170
223
140
170
223
140
170
223
140
170
223
140
170
223
140
170
223
140
170
223
140
170
224
141
171
224
141
171
223
140
170
222
139
167
223
140
168
223
140
168
222
139
168
223
139
172
222
138
171
223
138
171
223
138
170
223
138
169
223
138
166
222
138
164
217
138
162
200
118
147
158
64
101
172
66
111
178
67
114
178
67
113
180
68
113
177
71
114
196
100
138
219
128
164
219
133
166
222
137
170
222
137
171
222
137
171
221
134
168
222
130
167
219
135
170
215
138
173
213
137
169
193
134
160
149
127
145
138
164
172
142
195
203
136
199
206
131
199
204
131
199
205
131
199
208
132
198
207
131
195
205
131
192
203
131
195
203
132
193
201
135
186
195
130
177
186
119
159
170
113
140
154
99
114
130
97
90
111
92
72
96
55
22
51
54
8
47
57
6
48
57
6
44
59
6
42
56
7
39
54
6
45
51
7
40
42
34
33
70
96
65
69
110
69
71
109
67
66
106
64
64
112
67
65
113
65
64
114
61
62
107
64
55
99
58
62
113
63
58
111
70
44
98
86
59
120
129
53
120
138
53
120
138
54
121
138
55
122
139
54
121
138
50
119
139
47
117
137
49
116
135
48
115
133
49
114
132
49
114
132
48
114
132
48
114
132
45
113
131
44
112
128
45
114
128
50
112
126
63
97
115
74
75
95
98
54
83
122
55
90
140
71
104
170
101
131
174
104
132
171
103
131
138
90
114
22
13
27
13
13
26
12
14
27
11
15
27
10
14
26
12
14
29
13
15
30
14
16
31
12
13
29
14
14
32
18
16
34
21
18
37
20
17
37
21
18
37
19
16
36
20
17
37
118
110
133
114
106
129
111
100
124
111
100
123
113
104
125
114
109
132
113
110
135
113
109
136
117
115
141
116
114
141
115
109
137
114
108
135
112
104
129
108
100
122
108
98
120
107
96
121
111
102
126
109
101
125
104
99
124
108
106
132
108
105
131
103
95
122
91
83
107
85
77
100
87
78
104
101
91
118
109
98
126
111
98
127
109
96
124
106
94
122
116
107
132
122
109
131
158
103
133
207
136
162
191
115
140
223
140
168
221
141
168
221
141
170
222
141
170
223
140
170
223
140
170
223
140
170
223
140
170
223
140
170
223
140
170
223
140
170
223
140
170
223
140
170
223
140
170
223
140
170
222
139
169
223
140
170
224
141
171
224
141
171
223
140
170
222
139
167
223
140
168
223
140
168
222
139
168
223
139
172
222
138
171
223
138
171
223
138
170
223
138
169
223
138
167
222
137
164
219
137
161
220
136
163
211
127
159
160
77
110
166
63
104
177
68
113
181
67
115
181
67
115
177
67
112
181
81
121
198
106
142
209
121
156
217
130
165
218
131
166
220
133
168
220
134
171
217
132
170
203
136
170
161
122
147
137
154
164
147
196
203
141
200
210
135
200
212
131
201
211
128
202
211
129
201
211
128
202
211
129
201
210
129
198
208
125
197
209
124
196
209
129
195
209
128
195
207
123
196
205
122
193
202
127
191
201
127
186
196
129
174
186
114
146
161
73
77
99
49
13
51
55
9
51
54
8
48
54
8
47
57
8
45
56
7
52
46
13
40
61
80
55
65
112
67
62
117
63
66
116
62
63
117
62
64
116
62
71
112
66
68
113
62
64
111
62
50
97
54
62
115
64
60
115
66
50
99
69
55
111
115
54
119
139
54
119
139
55
121
138
56
121
139
55
120
138
50
119
139
47
117
137
48
115
135
48
114
132
53
116
134
52
116
134
49
116
133
47
113
130
45
114
127
48
112
125
63
97
118
64
70
91
95
54
86
115
53
89
123
52
90
127
52
90
165
91
126
172
103
133
174
105
133
174
103
132
148
96
121
31
17
32
14
14
27
12
14
27
11
15
27
10
14
26
12
14
29
12
14
29
12
14
29
14
16
32
15
15
33
18
17
35
21
18
37
20
16
37
20
16
38
19
14
37
20
15
38
126
121
146
121
116
141
121
117
142
117
112
137
116
111
134
120
113
137
118
115
137
114
112
138
115
109
138
115
111
139
115
109
138
112
109
134
110
104
129
107
97
122
105
92
117
106
92
118
111
100
125
108
102
125
104
99
122
111
106
130
108
104
130
102
99
126
91
87
113
82
77
103
85
78
103
91
82
109
98
89
120
110
100
131
124
114
145
123
116
144
123
119
145
129
122
145
131
104
126
196
135
163
181
105
135
224
139
167
221
141
166
224
141
171
224
141
171
223
140
170
223
140
170
223
140
170
223
140
170
223
140
170
223
140
170
223
140
170
223
140
170
223
140
170
223
140
170
223
140
170
223
140
170
224
139
169
224
139
168
224
139
168
224
139
168
223
138
167
224
139
168
224
139
168
223
138
168
222
138
171
221
137
170
221
137
170
223
138
171
223
138
171
223
138
171
222
137
170
222
136
164
221
136
164
218
135
164
215
133
163
182
99
130
154
61
100
171
68
114
177
66
116
174
66
114
172
67
113
170
68
112
168
69
112
170
73
115
175
79
118
183
87
126
176
91
128
157
91
125
129
123
139
145
185
193
142
200
206
135
203
209
134
204
211
136
201
212
133
200
211
130
202
210
128
204
211
129
203
210
129
203
210
129
203
210
128
203
211
128
197
208
131
194
207
128
198
208
121
197
205
122
196
205
123
196
205
124
193
203
126
188
201
123
186
198
129
174
192
88
109
131
48
16
56
55
8
52
51
9
47
54
7
46
55
7
49
41
24
35
72
102
68
62
115
64
63
117
66
63
117
65
66
117
66
67
106
59
71
114
66
67
113
63
66
110
68
48
95
53
58
116
67
62
116
66
64
113
72
41
96
86
55
119
133
54
120
140
56
121
138
55
123
140
55
123
140
55
120
137
47
117
134
46
118
136
48
114
137
57
114
142
55
116
137
53
117
132
56
111
127
62
103
123
68
78
101
90
52
86
115
54
92
123
51
91
126
49
91
126
50
91
133
56
97
172
96
133
174
102
133
173
106
133
174
102
132
159
99
126
50
28
42
14
13
26
11
15
27
11
14
26
13
11
25
12
14
27
11
13
26
16
18
31
17
18
33
18
17
35
20
19
37
21
20
38
21
19
39
18
16
37
19
17
38
21
18
39
126
123
148
128
125
150
131
128
152
123
119
143
114
109
132
117
110
133
116
113
135
114
113
136
116
110
136
114
110
135
117
109
136
116
108
130
112
102
123
106
93
113
104
91
112
104
91
117
109
99
124
114
108
131
110
106
128
100
98
121
101
101
126
109
110
135
111
108
136
108
104
131
102
98
124
96
92
118
101
99
128
114
110
140
127
121
152
129
124
150
128
124
149
132
125
152
144
124
151
147
102
128
171
107
135
223
141
171
222
143
169
224
141
171
224
141
171
223
140
170
223
140
170
223
140
170
223
140
170
223
140
170
223
140
170
223
140
170
223
140
170
223
140
170
223
140
170
223
140
170
223
140
170
224
139
169
224
139
168
223
138
167
222
137
166
222
137
166
223
138
167
224
139
168
223
138
168
222
138
171
221
137
170
221
137
170
223
138
171
223
138
171
223
138
171
222
137
170
221
136
167
221
136
165
220
136
164
218
136
163
216
136
164
200
118
150
158
72
108
162
66
108
167
68
112
170
65
112
173
65
113
171
66
113
169
65
112
167
66
112
161
72
116
128
78
113
137
153
170
148
197
207
140
203
211
140
204
212
137
205
213
135
205
213
133
202
213
131
202
212
129
201
211
125
200
209
122
200
207
122
201
207
122
201
207
121
200
207
123
199
207
128
198
208
124
200
208
122
199
207
123
198
207
125
198
207
123
193
203
124
193
203
118
192
201
118
188
198
126
180
194
82
99
119
51
10
51
55
6
47
58
6
46
56
7
43
42
42
39
74
107
72
64
114
68
64
116
66
63
117
63
65
117
64
53
91
47
69
112
65
66
113
64
65
110
69
43
86
46
61
114
67
64
115
66
63
113
66
51
102
76
52
110
113
54
119
135
56
121
138
55
123
140
54
124
140
55
120
139
53
119
138
50
119
138
48
117
137
53
116
140
48
116
133
54
110
125
65
86
106
83
56
86
115
52
91
125
50
90
122
49
89
123
48
89
126
48
90
128
49
91
134
55
97
174
98
135
174
102
133
172
105
133
173
103
132
165
103
130
76
48
64
17
14
27
13
13
27
13
13
26
14
13
27
13
15
28
11
13
26
13
15
28
15
16
31
19
18
36
20
19
37
21
20
38
20
19
39
19
17
38
21
18
39
22
19
40
128
130
154
128
128
151
128
126
150
121
117
142
113
108
131
110
102
126
112
109
132
116
114
135
120
113
136
115
110
132
115
107
130
112
102
124
110
99
119
108
97
116
106
95
115
98
89
114
99
91
115
112
104
128
112
107
130
109
105
129
115
114
139
122
122
148
125
122
152
122
121
149
116
117
142
115
117
142
120
121
149
127
125
153
134
128
158
133
128
157
132
127
158
134
125
156
135
128
153
105
94
111
143
97
122
213
139
169
223
141
171
224
141
171
224
141
171
223
140
170
223
140
170
223
140
170
223
140
170
223
140
170
223
140
170
223
140
170
223
140
170
223
140
170
223
140
170
223
140
170
223
140
170
223
139
169
224
139
168
223
138
167
223
138
167
224
139
168
224
139
168
224
139
168
223
139
168
223
139
172
222
138
171
223
139
172
223
138
171
223
138
171
223
138
171
223
138
171
222
137
170
222
137
167
222
136
163
220
136
161
216
137
162
217
134
163
213
129
162
170
93
124
146
60
97
164
68
112
169
67
116
168
66
114
168
68
117
149
75
118
118
105
130
146
177
193
141
203
212
138
208
217
140
207
218
139
207
217
138
205
217
132
202
214
131
203
214
132
204
215
129
204
215
124
201
211
122
199
208
122
199
208
122
199
208
120
199
207
124
200
208
129
200
210
124
201
209
122
201
208
122
199
207
124
198
207
124
196
205
125
193
204
124
192
203
123
189
201
119
188
197
126
169
185
58
54
78
59
7
49
56
7
45
48
10
38
37
50
39
56
91
57
52
96
53
65
113
65
64
117
63
65
117
65
53
93
50
66
111
65
65
112
65
66
111
70
36
73
35
57
101
57
63
111
62
61
115
60
64
111
70
39
90
79
56
119
130
54
122
138
55
122
139
55
121
138
50
118
138
49
117
137
49
115
134
52
114
133
58
112
130
68
101
120
71
66
90
109
52
89
125
52
91
126
51
90
125
51
89
128
46
88
128
48
91
128
51
93
127
48
90
131
52
94
172
96
134
174
102
133
172
105
132
173
105
134
167
102
131
96
62
80
20
14
29
16
13
28
15
13
27
13
14
27
12
14
27
12
14
27
11
13
26
12
13
28
16
15
33
20
19
37
20
19
37
20
19
39
20
18
39
21
18
39
21
18
39
129
132
156
129
131
155
128
126
151
128
125
150
127
122
147
127
120
145
124
119
144
124
120
142
121
113
135
117
110
132
117
109
131
118
109
132
114
106
129
111
104
126
109
103
125
100
92
117
97
88
113
101
92
117
104
96
121
110
104
129
113
107
134
114
110
136
121
120
149
120
121
148
115
118
144
114
119
144
119
120
147
126
123
151
133
125
155
133
127
159
134
127
162
134
126
158
114
119
138
157
173
186
117
99
118
201
134
162
222
142
171
223
141
170
223
140
170
223
140
170
223
140
170
223
140
170
223
140
170
223
140
170
223
140
170
223
140
170
223
140
170
223
140
170
223
140
169
223
140
169
223
140
169
222
138
168
222
138
167
224
139
168
224
140
169
224
139
168
224
139
168
224
139
168
223
139
168
222
139
172
221
138
171
222
139
172
223
138
171
223
138
171
223
138
171
223
138
171
222
137
171
222
137
169
222
137
163
222
137
161
221
137
161
222
135
163
221
134
165
214
133
163
202
123
155
159
77
114
153
63
108
164
70
115
142
73
113
122
120
144
148
191
206
141
201
212
143
204
215
141
205
218
137
208
219
137
208
218
137
205
218
133
205
217
131
206
217
131
205
216
131
203
215
127
200
211
125
198
209
126
199
210
124
198
209
122
199
208
125
200
209
130
201
211
127
202
211
122
200
208
123
200
209
124
198
207
125
198
207
125
196
206
124
193
204
124
193
203
116
193
199
118
185
192
94
122
139
51
12
48
44
17
34
57
64
52
65
98
63
65
115
62
67
111
63
48
93
46
64
115
66
65
116
68
55
95
53
62
109
63
64
112
66
65
108
67
55
93
53
58
101
58
52
96
50
64
114
60
61
113
62
53
105
78
51
104
110
55
120
139
53
121
141
53
120
137
52
122
141
46
119
136
50
117
132
66
106
128
69
80
101
94
52
86
123
53
93
129
48
90
134
49
92
131
51
92
128
50
91
132
47
91
131
49
93
129
48
91
130
45
89
128
49
90
164
89
124
174
103
132
173
105
131
174
106
134
169
103
132
118
77
98
21
14
28
18
13
28
17
14
28
16
16
30
14
16
30
16
16
31
15
16
31
15
15
31
17
16
34
19
19
37
19
19
37
20
19
39
19
18
38
19
18
39
20
18
39
133
137
162
134
136
162
134
134
160
130
128
154
127
126
150
129
126
151
129
123
149
124
116
139
112
102
124
102
92
114
104
92
114
110
102
122
116
110
131
116
112
133
115
110
133
112
104
128
107
97
122
110
97
123
109
99
124
102
97
120
103
93
118
104
96
121
112
108
135
113
112
137
114
115
139
115
117
142
118
117
143
121
119
146
125
121
148
125
125
153
134
128
161
132
129
161
113
139
153
155
198
211
112
124
139
189
132
156
219
141
166
220
140
169
222
140
170
223
140
170
223
140
170
223
140
170
223
140
170
223
140
170
223
140
170
223
140
170
223
140
170
223
140
170
223
140
168
223
140
168
222
139
167
222
139
168
223
140
170
224
141
171
224
141
171
223
140
168
223
140
168
223
140
168
222
139
168
221
139
171
221
139
171
221
139
172
222
138
171
223
138
171
223
138
171
223
138
171
222
138
171
222
138
170
222
139
166
222
139
164
222
138
163
222
138
163
221
137
163
219
136
161
219
135
163
218
131
168
182
113
147
120
70
100
129
140
156
146
198
210
138
204
219
140
203
218
137
204
218
135
204
217
133
204
214
132
205
214
133
206
215
133
206
215
134
206
215
134
205
215
133
204
214
133
205
214
127
200
209
130
204
213
127
203
211
122
199
208
123
200
210
124
200
210
124
198
209
121
198
208
122
199
209
124
199
206
124
198
205
122
196
207
124
197
207
123
195
203
122
193
200
118
188
193
120
166
178
44
37
52
56
70
53
71
111
72
62
117
64
63
118
64
69
116
68
64
107
62
59
104
58
66
116
68
54
96
53
61
109
63
65
115
68
61
100
58
59
104
59
63
112
64
60
103
57
56
102
58
63
114
67
59
113
72
44
89
76
55
117
133
50
120
142
57
118
136
55
119
139
56
117
131
62
102
116
77
61
91
109
56
92
126
54
96
133
49
95
134
50
95
134
51
95
135
50
95
133
47
92
133
47
92
134
48
93
132
46
91
132
46
90
131
51
89
149
75
106
174
102
129
173
104
129
174
104
132
171
103
132
135
85
109
27
15
33
21
14
33
17
16
33
18
18
34
19
19
37
20
19
37
19
17
36
19
16
35
19
17
35
20
19
37
19
19
37
19
19
38
18
19
37
18
18
36
19
19
37
131
137
160
133
138
161
135
137
161
132
135
158
124
130
151
124
124
146
117
112
136
110
99
122
109
97
118
113
100
121
117
103
125
116
107
127
116
108
129
120
115
137
118
113
135
114
106
129
114
104
128
111
99
124
99
90
114
90
81
105
90
80
105
101
91
115
107
96
121
111
103
127
112
106
130
113
107
132
115
107
136
111
106
134
114
110
137
116
119
144
131
129
160
111
117
146
146
190
202
126
186
198
103
137
149
169
125
149
219
139
168
221
141
170
222
141
170
223
140
170
223
140
170
223
140
170
223
140
170
223
140
170
223
140
170
223
140
170
223
140
170
223
140
170
223
140
168
223
140
168
222
139
167
222
139
169
223
140
170
224
141
171
224
141
171
224
140
168
223
139
168
222
138
166
222
138
167
222
138
171
222
138
171
222
138
171
222
138
171
223
138
171
223
138
171
223
138
170
223
138
168
223
138
168
222
137
167
222
137
167
222
137
167
221
137
164
221
137
163
221
137
160
218
137
162
215
135
169
172
128
157
135
156
172
143
201
208
134
206
215
138
205
219
138
204
218
138
205
219
136
205
218
133
205
215
133
206
215
133
206
215
132
205
214
133
206
215
133
206
215
134
207
216
132
205
214
132
205
214
131
204
213
127
203
212
122
199
208
123
200
210
125
200
211
125
199
210
123
199
210
123
199
209
125
198
206
125
198
205
123
197
208
125
198
208
123
195
202
125
192
202
122
188
195
123
183
186
63
95
88
74
111
74
65
118
67
64
118
67
59
108
62
64
110
63
70
113
67
50
95
49
66
115
67
51
94
51
60
109
62
63
113
66
53
92
49
64
110
63
63
114
65
64
109
61
53
97
55
64
113
65
59
113
59
56
100
67
50
101
103
51
121
134
53
120
133
58
114
134
65
88
109
90
57
86
124
54
94
132
49
95
130
47
93
135
46
94
134
49
95
134
51
95
134
50
94
134
48
93
133
47
92
133
47
92
133
47
92
133
47
92
130
49
89
136
58
92
172
98
127
174
103
129
175
103
132
174
103
133
149
94
120
35
17
38
24
18
39
23
22
41
20
21
40
19
20
38
20
19
37
19
18
36
18
15
34
19
15
35
20
17
36
19
17
36
21
19
37
21
19
36
20
18
35
20
18
36
134
137
159
135
135
158
135
133
157
135
133
157
129
129
151
125
122
145
121
116
139
110
103
123
104
95
114
108
98
117
109
97
116
109
100
120
112
103
125
113
107
129
113
107
130
112
104
127
111
101
125
102
90
114
91
81
104
92
79
103
86
75
99
81
68
92
86
75
97
95
86
108
102
94
116
102
95
119
106
95
125
104
95
124
106
98
127
115
112
138
114
122
147
124
157
176
146
200
212
97
158
173
98
147
158
141
114
136
216
141
172
221
141
170
222
141
170
223
140
170
223
140
170
223
140
170
223
140
170
223
140
170
223
140
170
223
140
170
223
140
170
223
140
170
223
140
168
223
140
168
222
139
167
222
139
168
222
139
169
223
140
170
223
140
170
223
139
168
222
137
166
222
137
166
222
137
167
223
138
171
223
138
171
223
138
171
222
137
170
222
137
170
222
137
170
221
136
169
221
136
164
221
136
164
221
135
168
222
136
169
221
136
170
221
136
166
221
137
162
220
135
159
214
139
166
175
126
155
140
164
179
143
202
214
139
204
217
139
205
217
142
205
218
138
205
218
135
203
216
132
203
215
134
206
217
134
207
216
132
205
214
131
204
213
132
206
215
133
207
216
133
207
216
133
207
216
132
205
214
130
203
212
123
199
208
122
199
208
124
201
211
126
201
211
126
200
211
124
200
211
124
199
209
125
198
206
126
197
205
123
197
208
125
198
207
123
195
203
124
193
202
124
190
197
121
189
191
83
135
125
74
119
77
71
121
68
73
117
66
55
95
52
68
114
67
71
114
68
47
92
46
66
115
67
53
96
52
63
112
65
63
113
66
52
92
48
65
113
65
63
115
64
66
112
62
52
94
53
63
110
66
61
113
60
64
110
68
43
87
71
55
118
123
57
114
129
68
83
105
100
54
88
125
56
92
128
53
91
132
50
95
133
50
96
133
49
96
131
48
93
131
48
92
133
48
93
134
48
93
134
48
93
134
48
93
134
48
93
134
48
93
133
48
90
131
50
87
161
85
116
175
102
129
176
102
131
175
100
131
161
101
129
50
29
46
24
19
35
24
22
36
18
22
35
16
18
35
19
18
36
19
17
35
17
12
32
19
12
32
19
14
34
19
15
34
22
18
36
23
20
37
23
19
36
23
19
36
134
132
153
126
121
144
124
117
140
126
120
142
129
122
142
131
128
149
130
132
153
126
125
145
117
112
133
109
102
123
95
87
109
92
82
105
91
80
101
92
81
100
95
84
102
102
91
110
111
100
122
113
103
128
111
101
127
105
93
118
88
77
99
79
68
89
84
73
93
83
74
93
84
76
96
84
77
97
86
76
100
89
80
103
96
85
109
111
103
127
102
128
146
150
200
217
117
175
189
86
147
166
93
146
164
115
111
131
211
142
170
222
140
167
223
140
169
223
139
171
222
140
172
222
141
172
222
141
172
222
141
172
223
140
170
223
140
170
223
140
170
222
139
169
223
140
168
223
140
168
223
140
168
223
139
169
223
139
171
223
139
171
223
139
171
222
138
170
222
138
169
222
138
169
222
138
170
223
138
171
223
138
171
223
138
171
223
138
170
223
138
169
222
137
169
220
136
168
216
129
159
206
115
148
200
106
142
201
107
145
211
123
161
220
134
165
219
136
161
215
141
168
169
122
147
146
172
186
141
205
217
137
207
219
141
206
219
142
205
218
142
206
218
139
204
217
135
203
215
131
204
214
129
203
215
104
178
191
88
161
175
127
200
209
133
206
215
134
206
217
134
206
218
134
206
219
131
204
215
126
201
211
123
201
210
124
200
210
125
200
211
126
200
211
126
200
211
123
201
210
123
201
209
123
199
207
123
197
205
124
197
209
126
199
208
123
195
203
123
194
200
123
193
200
122
191
197
99
154
148
68
117
74
69
122
67
70
116
66
52
97
51
69
119
68
67
115
66
53
97
52
65
114
68
50
94
50
65
114
65
60
109
59
56
99
55
63
114
62
61
116
59
65
114
61
49
91
50
64
109
66
62
115
64
62
113
67
57
101
68
55
95
98
68
83
105
110
53
92
131
55
97
128
53
93
128
54
94
130
53
98
131
52
97
131
53
96
132
52
96
131
49
93
132
47
92
134
47
92
134
48
93
134
48
93
133
47
92
133
47
92
128
47
88
129
50
87
142
68
100
174
100
130
176
103
132
174
101
132
163
103
130
76
45
62
24
19
32
24
21
33
22
22
33
20
19
33
22
20
36
24
21
39
26
21
39
27
19
37
26
19
38
27
20
39
26
19
38
26
19
38
27
21
40
28
22
40
111
103
122
110
97
118
118
105
126
121
110
129
126
118
136
132
129
149
127
130
151
128
127
150
127
123
146
110
104
128
98
90
114
95
86
110
96
87
108
98
86
105
102
89
107
108
94
115
110
101
123
117
113
137
122
119
145
118
111
136
105
96
119
86
75
96
78
66
86
74
65
84
76
67
86
78
71
89
77
68
86
78
67
87
79
71
92
79
83
103
140
186
200
132
194
210
86
151
166
86
149
166
91
147
167
101
116
135
200
138
165
223
141
167
222
141
169
223
139
171
223
140
172
223
141
172
223
141
172
223
141
172
223
140
170
223
140
170
222
139
169
222
139
168
223
140
168
223
140
168
223
140
168
223
139
170
223
138
171
222
137
170
222
137
170
221
137
170
223
139
172
222
138
171
222
138
171
223
138
171
223
138
171
223
138
171
222
137
169
222
137
168
222
134
167
205
116
150
176
80
118
173
70
112
174
69
112
172
68
114
168
68
114
189
94
130
212
131
161
160
121
143
148
170
181
145
204
211
136
208
218
140
206
218
140
206
218
139
207
218
139
207
218
138
205
216
134
204
215
128
201
213
94
167
181
70
146
162
93
166
181
130
204
214
132
205
215
134
206
218
134
206
220
134
206
220
130
204
215
124
200
210
123
201
211
124
200
211
126
200
211
126
200
211
126
200
211
123
202
209
123
202
209
122
199
207
122
196
206
125
199
210
125
198
208
123
195
203
124
194
199
122
193
200
120
191
197
107
164
162
62
112
73
69
122
69
63
110
63
60
107
59
64
118
63
64
117
66
57
104
58
63
106
63
54
94
51
67
113
66
51
100
51
62
111
63
62
116
61
60
114
57
64
113
60
50
92
49
64
110
66
62
116
63
62
112
63
66
107
66
53
73
64
99
56
85
127
54
96
131
54
98
129
52
96
130
53
97
131
52
99
131
52
99
131
52
97
132
52
96
132
50
93
131
47
91
134
47
92
134
48
93
134
48
93
133
47
92
133
47
92
128
46
88
129
50
89
127
52
85
166
92
123
174
102
132
174
103
133
167
104
131
100
62
81
31
19
33
28
19
34
27
21
37
24
21
36
26
23
40
27
24
43
30
26
44
31
25
42
30
24
43
33
26
47
39
30
53
40
31
54
40
31
54
43
34
57
102
90
108
107
90
109
114
98
117
114
101
119
121
112
130
130
125
146
121
120
142
113
112
134
116
113
135
112
108
131
109
102
126
106
101
124
113
107
129
115
106
129
116
106
129
117
107
130
116
111
134
118
117
139
122
120
145
122
117
142
117
108
131
102
89
110
87
75
95
76
67
86
73
65
83
72
65
82
73
65
81
73
64
84
66
71
90
123
155
169
140
204
216
96
166
182
81
147
165
86
148
166
88
148
167
102
131
149
177
128
153
222
142
171
222
141
170
223
140
168
222
139
168
223
140
169
223
140
170
223
140
169
222
139
169
222
139
169
223
140
170
223
140
169
223
140
168
223
140
168
223
140
168
222
138
169
223
138
171
223
138
171
222
137
170
223
139
172
222
138
171
221
137
170
222
137
170
223
138
171
223
138
171
223
138
171
222
137
167
222
134
166
209
115
152
174
74
116
175
69
115
176
66
115
173
64
114
169
66
115
171
69
118
166
75
118
128
89
116
148
172
188
145
204
212
138
206
214
140
205
217
139
206
218
137
208
218
134
207
216
134
207
216
134
205
215
127
199
213
90
162
179
72
146
165
73
149
164
121
196
208
132
206
217
133
206
216
134
206
218
134
206
220
134
206
220
131
205
216
124
201
211
122
200
210
123
199
209
126
200
211
126
200
211
126
200
211
123
202
210
123
202
209
122
199
207
124
198
207
125
199
210
125
198
208
123
195
203
124
193
201
121
193
200
119
193
198
119
179
181
59
107
80
69
117
73
50
96
51
68
114
64
67
114
62
67
116
65
64
108
63
62
97
57
53
91
51
70
110
68
49
90
50
64
115
63
64
118
63
62
115
62
65
113
61
51
94
49
63
109
63
61
115
60
61
113
60
65
110
63
70
86
63
114
54
77
129
51
94
129
51
97
131
52
98
131
52
99
131
52
100
131
52
99
130
51
98
131
52
96
132
50
93
132
48
92
134
48
93
134
48
93
134
48
93
134
48
93
134
48
93
130
47
91
132
50
91
130
53
89
148
73
105
173
100
131
175
102
132
168
102
130
123
78
100
39
23
39
33
22
41
30
25
45
35
32
52
36
33
53
37
34
56
39
35
57
42
39
58
44
41
62
45
42
64
50
46
69
52
48
71
53
49
72
54
50
74
123
111
131
124
108
130
126
109
131
123
111
130
130
120
139
128
121
143
128
124
147
127
125
148
131
129
151
128
124
147
126
121
144
127
124
146
130
126
149
132
124
150
132
125
151
129
126
151
122
118
142
119
115
138
114
105
131
117
104
131
118
105
129
106
92
114
100
88
108
91
82
102
83
75
94
76
70
86
75
69
82
72
70
88
90
120
131
146
199
209
111
184
195
81
149
169
83
148
168
87
148
165
86
148
166
102
141
157
149
111
135
220
142
173
221
142
170
222
140
167
224
139
166
223
138
167
224
139
168
224
139
168
222
139
169
221
138
168
223
140
170
223
140
170
223
140
168
223
140
168
222
139
167
221
137
168
223
138
170
224
139
172
224
139
172
224
140
173
222
138
171
221
137
170
221
137
170
223
138
171
222
138
170
221
137
169
222
136
166
214
123
155
176
76
117
175
67
115
174
63
114
175
64
117
171
64
117
166
65
117
163
72
119
125
79
112
140
173
189
142
203
217
139
205
218
139
206
217
136
209
218
132
209
216
132
208
217
131
206
215
132
206
215
124
198
208
84
156
172
71
143
166
71
144
167
99
173
188
130
204
215
132
206
218
133
206
217
134
206
218
134
206
220
134
206
220
132
206
217
126
203
213
124
202
212
124
200
210
126
200
211
126
200
211
126
200
211
123
202
210
122
202
209
122
199
207
124
198
207
124
198
209
125
197
207
123
195
203
124
193
202
121
194
201
118
194
199
124
187
193
81
127
112
68
113
76
55
100
56
73
118
66
73
119
66
68
118
67
67
113
67
55
93
51
59
106
63
69
102
66
46
72
44
64
113
60
61
116
61
63
114
65
67
112
62
57
100
54
58
104
57
61
115
59
61
113
60
61
111
63
77
97
69
97
53
68
129
52
96
131
52
99
131
52
99
131
52
100
131
51
101
131
52
100
132
53
100
132
52
98
132
50
94
133
48
93
135
48
93
134
48
93
134
48
93
134
48
93
134
48
93
132
47
93
131
49
91
129
49
87
130
54
88
170
97
127
177
102
133
172
102
131
137
91
112
54
39
55
49
43
63
46
46
68
54
51
73
54
51
74
54
50
75
54
51
76
55
55
76
56
55
77
55
54
78
58
58
83
59
61
86
59
60
85
54
55
81
125
112
132
128
115
135
130
117
137
128
118
137
130
122
141
131
122
146
134
130
154
137
135
158
136
134
156
130
126
149
120
116
139
123
115
141
123
114
138
124
113
136
125
115
137
127
123
146
133
128
149
117
114
131
104
94
112
104
90
110
106
93
115
115
103
125
122
112
136
110
101
124
95
85
105
87
75
94
81
74
92
74
90
107
144
193
207
130
197
211
84
156
174
81
148
171
82
150
167
83
148
164
85
146
168
90
146
159
118
108
125
214
142
171
222
143
170
220
140
170
223
140
170
223
140
168
223
140
168
222
139
167
222
139
167
222
139
167
222
139
167
222
139
167
223
140
168
222
139
167
221
138
166
221
137
165
222
137
166
223
138
167
223
138
167
223
139
171
222
138
171
221
137
170
221
136
170
222
137
169
221
140
166
218
136
164
218
129
163
181
85
123
175
68
112
172
68
112
170
68
115
169
69
114
167
69
112
164
71
113
131
81
112
140
170
184
141
204
218
138
205
220
138
208
218
134
209
218
130
210
217
130
210
214
131
210
215
129
206
216
121
198
210
79
156
168
69
144
164
70
142
164
81
152
170
125
197
212
131
204
217
132
204
216
133
205
219
135
207
220
134
206
220
133
205
219
132
205
214
130
204
213
125
202
210
123
199
209
124
201
212
126
201
212
126
200
212
123
201
211
123
200
209
124
199
206
124
197
205
125
195
209
126
195
209
125
195
209
123
194
203
122
197
201
123
195
202
123
188
195
110
161
156
50
85
61
68
114
67
71
120
64
71
119
65
69
119
63
64
117
66
48
91
48
67
108
69
60
71
55
35
40
27
68
107
60
64
115
57
66
115
61
64
112
64
60
102
58
55
100
54
63
113
62
60
114
61
62
112
62
74
104
70
90
55
65
129
53
96
131
52
99
132
53
100
132
53
100
132
53
100
132
53
100
132
53
100
132
53
100
131
52
97
131
49
92
133
48
90
133
47
91
133
47
92
134
48
93
134
48
93
131
49
92
127
47
90
123
46
88
123
48
87
155
83
117
175
101
133
170
102
130
152
100
121
64
50
68
59
61
86
60
61
91
65
66
93
64
65
92
61
62
89
59
61
87
58
60
84
58
60
84
56
57
84
52
54
79
51
53
76
50
52
75
51
53
76
131
119
139
133
120
140
135
123
143
132
122
141
126
121
139
129
124
146
131
128
152
133
132
154
132
132
153
135
133
155
130
127
149
128
119
145
120
110
135
120
107
129
120
107
128
124
111
134
128
119
136
121
115
129
116
104
121
114
99
118
107
95
115
109
97
119
107
97
119
93
85
106
88
79
99
85
75
95
67
76
92
130
175
187
142
203
218
101
165
182
79
149
169
80
149
171
77
149
166
81
147
164
82
146
165
87
146
160
100
112
129
203
137
167
221
141
169
221
139
170
222
140
170
222
139
167
223
140
168
222
139
167
222
139
167
222
139
167
222
139
167
222
139
167
223
140
168
223
140
168
222
139
167
222
138
167
223
138
167
222
137
166
222
137
166
220
136
169
221
137
170
221
137
170
220
136
169
221
136
167
221
137
165
220
133
165
199
105
143
173
70
113
173
66
112
169
66
112
170
68
115
168
69
115
167
67
114
126
79
109
140
166
179
139
207
212
134
209
219
137
208
220
137
209
218
134
209
217
131
210
217
131
209
216
129
206
215
120
196
209
80
156
171
68
148
166
66
143
167
68
143
167
110
183
200
131
205
218
134
208
219
133
207
217
132
204
218
133
205
219
134
206
220
133
205
219
132
205
214
130
204
213
127
204
212
125
202
211
124
201
211
126
201
211
126
200
210
122
199
209
121
198
207
123
198
205
125
198
205
122
192
201
120
190
199
121
191
200
122
194
201
122
196
203
121
195
205
123
191
199
126
184
191
69
113
101
73
121
76
68
119
65
71
120
66
68
119
64
67
117
67
52
83
48
60
78
57
45
19
34
43
19
24
65
97
56
62
115
60
63
118
62
64
114
66
66
108
63
57
102
56
64
113
63
61
115
63
65
112
63
74
106
71
88
55
64
130
53
96
131
52
99
132
53
100
132
53
100
132
53
100
132
53
100
132
53
100
132
53
100
131
52
98
131
49
92
133
48
89
133
47
91
133
47
92
134
48
93
134
48
93
131
49
93
129
50
92
126
48
90
124
48
88
136
61
98
172
97
130
171
101
131
160
104
127
81
60
81
75
77
104
75
77
107
74
75
103
66
67
95
65
66
94
64
66
93
61
62
89
57
59
84
55
57
81
51
53
76
45
47
68
44
46
68
45
47
69
130
120
139
130
120
139
131
121
140
131
122
141
131
127
145
134
134
154
133
133
156
133
133
156
135
137
158
135
136
157
131
131
152
132
127
152
132
126
149
127
119
140
124
114
134
128
114
138
126
113
133
120
108
125
115
101
120
113
99
118
108
95
116
98
86
108
101
89
107
97
82
102
88
80
100
74
81
97
117
158
169
138
205
216
118
189
205
80
149
169
77
150
172
80
150
174
77
148
167
79
147
164
80
148
164
84
146
161
94
128
145
179
126
154
221
138
170
225
138
169
224
139
169
223
140
168
223
140
168
223
140
168
223
140
168
223
140
168
222
139
167
222
139
167
223
140
168
223
140
168
223
140
168
224
139
168
224
139
168
224
139
168
223
138
167
221
137
170
221
137
170
222
138
171
221
138
170
220
137
167
222
136
166
216
122
160
179
73
120
175
67
115
171
64
113
169
65
115
173
65
114
166
68
115
144
70
112
133
152
167
142
202
214
132
208
215
140
206
218
139
208
219
137
210
219
134
208
217
132
209
217
131
208
217
122
198
211
83
157
173
69
144
163
67
145
166
68
145
169
88
161
181
128
203
217
130
205
216
134
209
219
134
209
217
132
205
217
131
203
217
134
206
220
134
206
219
133
206
215
133
206
215
128
204
212
126
203
211
124
201
209
124
199
208
124
198
207
121
198
208
118
195
204
106
180
187
86
157
165
75
144
154
70
139
150
73
142
152
79
149
158
92
165
175
109
184
197
118
190
200
120
188
200
105
165
161
62
110
79
70
123
75
72
121
69
67
118
64
67
113
66
51
69
44
40
16
29
54
8
45
48
12
35
58
79
48
63
113
64
60
117
63
66
114
67
66
108
64
56
101
55
63
113
62
61
115
63
64
112
62
74
105
71
88
56
64
130
53
96
131
52
99
132
53
100
132
53
100
132
53
100
132
53
100
132
53
100
132
53
100
131
52
98
132
50
93
134
49
90
134
48
92
134
48
93
134
48
93
134
48
93
131
48
92
130
49
92
129
50
92
126
49
90
127
50
89
161
85
121
172
100
131
167
106
132
99
70
95
90
90
118
81
83
115
71
72
100
65
66
94
66
67
95
66
67
96
62
63
92
58
60
85
56
58
80
53
55
75
42
45
64
44
47
67
50
53
72
129
118
139
125
115
135
128
120
137
128
122
140
134
132
151
141
143
163
140
142
165
137
140
162
140
143
164
141
143
164
139
140
161
138
139
162
136
136
157
133
131
149
132
127
146
135
127
151
127
116
140
116
102
124
109
93
114
109
96
115
107
94
114
98
88
108
106
99
114
113
98
118
94
95
112
108
147
155
145
207
215
129
202
212
81
156
172
76
151
170
75
151
173
81
150
176
81
147
170
79
147
164
80
148
163
84
146
161
96
142
159
149
115
141
218
141
172
223
137
167
223
139
168
223
140
168
223
140
168
221
138
166
222
139
167
223
140
168
222
139
167
222
139
167
223
140
169
223
140
169
223
140
169
223
140
169
224
139
170
223
138
168
224
139
169
222
138
171
222
138
171
222
138
171
222
139
170
221
137
166
221
133
165
198
101
143
180
67
120
172
61
113
171
65
115
170
66
118
167
66
114
145
72
112
126
137
154
144
205
212
133
208
218
135
208
217
139
207
217
137
210
217
136
211
218
135
209
218
131
206
215
128
202
216
91
162
179
70
143
163
70
142
164
69
144
163
75
148
168
121
194
208
129
204
214
130
206
215
134
210
218
133
209
217
133
207
218
132
204
217
133
206
219
134
206
219
133
206
216
133
207
216
127
203
212
124
200
208
124
200
207
125
200
208
123
197
206
105
181
191
74
149
159
65
138
146
66
139
147
65
135
151
64
134
149
65
133
148
67
136
149
64
139
151
63
138
153
86
158
170
110
184
193
120
187
192
82
132
121
65
119
76
71
120
69
67
119
65
69
111
67
57
69
51
50
8
37
52
6
44
47
8
40
50
60
42
66
110
67
61
116
63
68
112
67
66
108
63
56
101
55
64
113
62
62
114
62
63
113
62
73
104
69
89
55
63
128
54
95
132
52
99
132
53
100
131
53
99
132
53
100
132
53
100
132
53
100
132
53
100
131
52
98
132
50
93
133
49
90
134
48
92
133
48
93
134
48
93
134
48
93
132
48
92
132
49
92
130
49
92
128
48
91
129
49
90
141
64
101
174
100
133
169
103
131
113
77
102
91
90
118
78
81
112
67
68
96
68
69
97
67
68
96
66
67
96
66
67
97
61
63
88
57
59
79
50
52
72
41
43
63
45
48
67
55
58
77
134
123
147
130
122
143
128
124
141
132
131
148
138
139
162
142
146
168
141
147
169
141
146
167
142
145
166
142
144
165
139
140
161
135
134
157
133
134
154
132
128
146
126
118
136
125
115
136
117
104
126
112
97
120
110
93
113
105
93
109
99
86
104
106
93
112
114
104
121
109
103
122
107
135
149
145
201
212
137
207
217
99
170
183
79
152
170
74
150
172
74
150
174
78
149
175
79
147
173
80
147
166
81
146
163
84
146
163
92
146
162
121
108
132
217
141
172
223
139
166
222
141
169
224
141
169
224
139
168
223
138
167
222
138
166
222
139
167
222
139
167
222
139
168
224
141
171
224
141
171
224
141
171
223
141
172
223
140
173
223
139
172
223
138
171
223
138
171
223
138
171
223
138
171
223
138
170
221
135
165
215
123
161
178
75
122
176
67
122
172
63
115
169
64
112
168
67
119
159
71
119
122
110
134
153
195
210
138
205
215
136
209
216
137
210
216
137
210
216
136
210
216
134
211
216
135
207
216
133
205
218
100
173
192
69
143
165
69
144
165
70
145
166
72
145
164
104
175
192
132
206
219
131
205
215
132
206
215
135
209
218
136
210
219
132
209
216
132
206
215
132
206
217
135
205
219
131
205
216
129
203
214
126
200
211
124
198
206
125
199
206
117
191
201
84
156
170
64
141
154
62
138
151
64
137
147
66
138
147
63
136
153
63
135
150
65
134
147
66
135
144
65
137
148
64
134
152
61
133
149
77
149
160
115
184
195
121
180
176
61
110
81
73
120
72
69
121
65
69
113
68
58
74
53
48
8
38
50
6
40
50
7
41
39
33
33
69
106
69
61
114
60
60
105
60
58
101
57
56
101
55
64
112
60
63
114
61
63
115
63
75
102
67
95
55
64
129
54
94
135
51
98
133
53
98
131
52
97
132
53
100
132
53
100
131
52
99
132
53
100
130
52
98
131
51
93
132
50
90
132
49
92
132
49
93
134
48
93
134
48
93
134
48
93
134
48
93
134
48
93
133
48
91
130
48
90
127
50
90
166
93
125
170
101
130
123
83
106
72
69
91
64
70
96
66
67
95
75
76
104
71
72
100
68
69
98
65
67
97
65
67
92
64
66
87
60
62
84
49
51
72
43
46
65
44
47
65
135
131
153
134
131
153
131
132
152
136
139
159
142
144
165
143
146
167
141
146
166
141
146
166
140
143
164
140
142
163
136
136
158
130
126
150
130
129
150
132
124
143
126
115
133
120
107
125
113
97
117
112
95
114
112
94
111
105
93
107
101
88
104
105
89
107
92
87
104
94
125
136
143
201
215
139
207
223
115
186
203
77
149
171
74
148
175
71
148
173
72
148
173
73
147
173
75
147
173
78
148
169
80
146
166
82
146
165
88
146
164
96
110
129
205
142
169
222
139
168
223
141
170
224
141
169
223
139
167
221
136
165
222
138
167
223
140
168
223
140
168
223
140
169
224
141
171
224
141
171
224
141
171
223
141
172
223
140
173
223
139
172
223
138
171
223
138
171
223
138
171
223
138
171
223
138
170
221
135
167
201
107
145
177
66
118
173
66
121
170
63
114
172
63
112
160
73
120
122
89
119
144
192
203
136
204
214
139
206
220
139
211
220
138
210
219
137
208
218
137
209
217
133
207
214
134
204
216
102
168
182
66
146
164
64
145
164
65
146
165
69
148
167
88
160
177
130
203
218
131
205
216
133
207
216
134
208
217
135
209
218
135
210
219
132
210
217
131
205
214
130
207
217
134
205
218
130
204
215
125
199
210
123
197
208
122
196
205
101
174
184
70
143
156
65
138
153
63
139
155
60
137
150
62
138
149
63
138
148
63
136
151
64
136
149
66
136
147
65
135
142
63
135
143
63
135
149
61
134
147
63
136
145
93
164
174
121
186
189
106
163
153
59
107
76
66
118
72
65
115
67
60
83
56
44
13
39
46
7
39
51
6
41
39
16
27
68
94
64
63
115
62
62
111
63
39
84
40
58
106
58
63
114
61
62
116
62
65
113
65
78
94
65
104
54
72
132
52
95
139
52
98
137
52
98
135
52
97
133
52
100
132
52
99
131
53
100
131
53
99
130
52
98
131
51
94
132
50
90
132
49
92
132
49
93
134
48
93
134
48
93
134
48
93
134
48
93
134
48
93
133
49
92
129
47
89
124
46
87
148
76
108
171
99
126
142
94
117
67
59
79
63
66
91
69
70
98
76
77
105
75
76
104
71
73
101
66
69
96
66
68
93
65
66
90
63
64
87
62
63
84
52
54
74
41
43
62
133
129
146
132
130
148
131
133
152
133
137
156
136
141
160
141
145
164
143
146
165
140
145
164
138
141
162
138
140
161
140
140
162
139
137
160
132
134
154
132
128
146
130
122
140
125
114
135
117
103
125
113
98
121
118
106
125
117
109
126
118
111
129
104
106
123
102
130
144
146
199
211
139
208
222
129
200
216
83
156
174
75
149
173
72
148
175
72
149
176
72
149
175
71
148
174
72
148
174
76
147
171
78
147
169
81
147
169
83
147
166
93
128
142
185
131
156
219
140
170
225
142
172
222
139
167
222
138
167
222
137
166
222
139
167
223
140
168
223
140
168
224
141
169
224
141
171
224
141
171
224
141
171
223
141
172
223
140
173
223
139
172
223
138
171
223
138
171
223
138
171
223
138
171
223
138
170
220
132
166
184
84
127
175
62
116
172
61
118
167
66
115
167
67
113
129
76
111
137
170
183
137
205
213
137
207
221
140
206
225
140
209
223
140
209
223
136
206
219
135
207
217
134
205
214
119
180
196
60
128
144
63
147
164
65
148
166
66
146
165
72
148
168
122
194
210
131
205
217
133
207
217
135
209
218
135
209
218
135
209
218
135
209
218
131
211
217
131
207
216
130
207
217
133
206
218
130
204
215
125
199
210
122
195
206
91
163
173
65
139
150
64
138
152
66
139
156
63
139
157
61
138
153
60
138
150
60
138
148
63
131
147
56
121
135
58
121
132
58
117
124
61
116
125
58
116
130
57
117
130
64
130
139
71
142
153
114
187
199
118
189
196
109
170
167
67
118
97
67
109
75
66
81
62
45
10
38
48
8
41
52
4
40
46
9
29
64
82
56
62
114
61
62
116
65
59
106
61
64
114
65
63
116
62
61
117
63
67
111
65
77
82
59
117
57
82
136
50
95
142
51
97
141
52
98
139
52
97
135
52
100
133
53
100
132
55
101
130
54
100
131
53
98
131
52
94
131
50
90
131
48
91
131
48
92
134
48
93
134
48
93
134
48
93
134
48
93
134
48
93
133
49
92
130
48
90
124
46
87
132
58
91
172
97
123
158
101
125
69
54
73
64
65
87
70
71
98
80
81
109
77
78
106
71
73
99
67
70
94
66
68
93
64
65
91
60
60
84
59
60
81
59
60
80
53
54
73
134
126
140
133
126
141
133
130
146
133
135
152
135
138
158
138
141
161
141
144
163
142
145
166
143
145
167
143
145
167
144
146
168
140
141
162
137
139
159
133
131
152
134
131
152
133
128
152
124
119
142
125
115
139
134
127
151
134
134
154
127
133
153
109
141
158
145
204
219
142
206
221
136
207
222
90
164
180
74
150
171
73
149
173
73
149
175
74
149
177
74
149
176
73
148
175
73
149
174
73
148
170
77
147
169
80
147
168
82
146
167
95
138
156
157
116
141
218
139
171
224
140
170
222
138
167
223
138
167
223
138
167
222
139
168
223
140
169
223
140
170
224
141
170
224
140
169
224
140
169
224
139
169
223
139
170
223
138
171
223
138
171
223
138
171
222
138
169
222
138
169
223
137
169
222
135
167
217
124
159
176
69
113
174
64
113
170
64
114
166
67
114
149
76
118
125
133
154
143
202
213
139
206
218
140
206
222
140
207
224
139
208
222
137
209
221
135
206
217
133
205
214
129
195
207
65
124
142
70
143
162
61
146
163
65
147
165
70
149
166
105
180
198
130
204
222
131
207
221
131
207
218
134
210
218
132
211
217
131
210
217
134
208
218
134
210
217
133
208
217
128
206
216
128
205
216
128
202
212
119
193
203
79
152
163
64
139
151
65
140
153
65
138
155
63
139
157
63
139
154
65
137
152
61
129
144
52
118
131
87
147
160
112
176
188
123
190
200
125
193
201
126
191
199
123
190
199
112
180
187
89
150
159
61
126
140
117
188
202
119
192
202
119
186
196
121
183
179
88
133
124
51
66
62
43
12
40
44
8
39
51
6
40
51
8
36
54
64
45
64
111
63
62
113
65
65
116
67
63
116
62
62
116
60
59
118
61
68
110
67
78
68
60
128
57
87
139
51
94
143
51
97
142
53
98
143
52
98
140
51
101
133
52
100
131
54
100
130
53
99
130
52
98
132
52
96
132
50
92
132
48
92
133
48
93
134
48
93
134
48
93
132
49
93
132
49
93
132
49
93
131
50
91
130
49
88
124
46
84
126
50
85
162
85
117
165
100
127
83
57
76
66
65
88
66
67
96
74
77
106
76
78
107
71
72
102
64
68
96
60
65
92
61
63
90
62
61
86
60
59
82
60
59
81
59
58
80
134
122
139
135
123
141
133
126
144
134
135
153
137
139
160
139
141
162
141
143
164
145
147
169
145
147
169
144
146
169
145
147
169
144
146
168
140
141
163
141
141
163
141
139
162
140
136
161
132
129
152
132
126
150
133
129
154
124
132
153
110
142
157
142
203
215
138
209
222
139
208
224
111
183
199
74
152
170
72
149
172
73
149
174
74
148
175
75
149
176
75
149
175
74
148
173
74
149
172
73
149
168
76
147
167
80
147
166
82
146
166
94
141
162
129
109
133
215
143
173
222
139
168
222
137
166
223
138
167
223
138
167
222
139
169
223
140
170
224
141
171
224
141
170
224
139
168
222
137
166
222
137
166
222
137
168
222
137
170
222
137
170
222
137
170
222
139
169
222
138
169
222
135
167
220
132
165
204
107
144
175
67
110
172
66
112
168
68
114
160
73
118
120
99
128
152
195
211
139
206
217
139
209
220
140
209
223
140
208
223
138
208
220
133
207
217
134
205
215
134
201
213
79
140
154
70
139
157
63
143
163
63
146
165
64
145
163
89
165
182
127
203
220
130
205
223
130
206
221
129
205
217
132
210
217
131
212
216
128
209
215
132
207
216
134
207
217
132
205
215
130
207
217
123
201
212
117
190
200
78
151
163
64
138
151
64
139
153
65
141
155
66
139
155
67
136
154
67
133
148
56
114
130
93
147
162
122
186
200
127
193
205
126
196
206
123
197
206
123
198
206
125
197
205
125
196
204
124
193
202
125
193
203
119
187
200
122
191
203
122
191
199
123
191
200
116
187
192
121
184
185
107
152
156
79
97
110
38
28
50
47
10
43
51
10
44
45
46
38
67
110
68
61
116
64
64
118
67
63
118
61
63
115
59
61
115
60
73
104
69
89
56
67
132
57
90
139
52
96
142
51
98
142
53
99
144
52
99
141
51
102
134
51
100
130
53
99
131
53
99
131
52
99
133
52
97
132
51
94
133
48
93
134
48
93
134
48
93
134
48
93
132
49
93
131
50
93
130
49
92
129
49
90
129
51
88
123
47
83
126
50
86
146
70
106
168
101
129
103
68
89
72
70
95
69
69
100
74
79
108
77
80
110
75
75
107
66
70
102
59
64
93
62
63
89
64
62
87
62
59
84
60
58
83
62
60
85
127
117
137
124
114
135
135
131
151
144
145
166
145
147
169
145
147
170
146
148
171
146
148
169
143
145
166
140
142
163
142
144
164
142
146
169
142
145
168
143
145
168
142
141
167
143
140
167
141
139
164
137
137
160
130
134
157
105
135
152
144
204
217
139
210
220
138
210
221
122
196
210
76
153
172
73
150
172
73
150
173
73
149
174
74
148
175
75
148
175
76
148
173
75
147
171
73
146
169
73
149
167
76
148
166
79
146
164
82
146
164
90
145
163
102
108
129
202
143
170
220
137
165
222
137
166
224
139
168
224
139
168
222
139
169
222
139
169
223
140
170
223
140
170
223
138
167
223
138
167
223
138
167
222
137
169
223
138
171
223
138
171
223
138
171
222
139
169
222
138
169
221
134
166
221
132
165
187
88
127
174
67
113
168
67
114
160
70
116
130
77
115
149
176
196
141
203
219
139
208
219
139
209
220
140
209
223
138
208
221
135
208
216
133
207
216
134
203
217
99
160
175
64
132
147
65
143
160
63
146
166
66
147
166
74
152
171
120
196
213
132
206
223
130
205
224
130
206
220
129
205
217
132
210
217
131
212
216
128
209
215
132
206
216
132
205
217
131
205
217
128
202
215
118
191
205
79
152
165
66
139
154
66
139
155
65
138
156
64
139
155
67
137
152
65
126
142
83
133
148
122
183
196
125
195
206
122
197
206
122
200
207
125
201
209
125
199
208
125
198
208
124
197
209
124
198
209
123
198
209
121
198
207
121
196
203
125
194
202
123
188
198
123
191
200
119
190
199
117
190
199
113
187
193
120
182
189
111
154
167
77
101
118
45
41
62
33
32
35
72
107
73
66
115
63
66
113
66
63
116
61
62
115
60
66
112
63
79
90
65
110
54
78
131
56
93
138
53
96
142
51
98
141
52
98
143
51
98
139
50
101
133
51
99
131
52
99
132
52
99
132
53
100
132
51
97
131
50
93
133
49
93
134
48
93
134
48
93
134
48
93
134
48
93
132
49
93
129
49
92
126
49
89
125
49
87
123
47
86
124
49
87
131
54
91
168
98
128
120
77
100
81
76
102
83
84
116
90
95
126
84
87
118
81
81
114
77
80
112
72
75
104
70
67
95
66
62
90
65
62
90
65
62
90
66
63
91
134
131
151
136
132
153
143
144
165
147
152
173
150
152
176
150
152
176
149
151
175
146
148
169
143
146
165
142
145
164
142
145
165
140
146
169
137
142
167
143
147
172
141
144
169
142
142
169
142
144
169
134
145
165
102
132
146
143
203
215
137
211
223
139
210
221
132
204
213
84
161
174
70
150
171
72
149
173
73
151
174
74
150
174
74
148
175
75
148
174
76
148
172
75
147
169
73
146
167
74
150
166
77
149
165
80
147
164
84
147
165
88
147
165
103
125
145
174
123
147
219
137
164
222
137
166
224
139
168
224
139
168
223
140
170
223
140
170
223
140
170
223
140
170
223
138
167
223
138
167
223
138
167
223
138
169
223
138
171
223
138
171
223
138
171
222
139
169
222
138
169
220
134
166
215
126
159
174
73
114
171
66
112
166
69
115
141
74
114
140
159
177
142
206
218
139
207
224
137
209
220
138
210
221
138
210
223
136
208
220
134
208
214
133
206
216
117
182
198
63
126
143
68
144
159
62
147
163
65
146
168
69
147
167
110
186
205
130
204
222
133
205
223
130
206
223
129
205
220
129
205
217
132
210
217
131
212
216
128
209
215
132
206
216
132
206
217
131
205
218
123
195
209
79
150
165
66
139
155
65
138
155
66
139
158
65
137
157
67
135
154
57
119
135
99
157
169
127
196
205
122
199
206
121
200
206
122
200
207
120
203
208
122
202
209
123
200
208
123
199
209
122
198
211
122
198
211
122
198
211
123
198
209
123
197
202
124
197
200
122
194
202
123
194
201
124
190
200
125
189
200
118
189
198
114
185
195
113
185
194
114
181
192
116
169
180
102
138
150
72
115
107
58
106
73
67
113
68
64
117
64
63
116
62
72
110
66
77
68
55
130
57
90
132
55
97
136
53
97
142
51
98
141
52
98
143
51
98
137
51
100
132
51
99
131
52
99
133
52
99
132
53
99
131
51
96
131
50
93
132
48
92
133
47
92
134
48
93
134
48
93
135
48
93
133
48
93
129
49
92
125
49
90
123
48
87
122
48
87
122
49
87
124
47
85
159
88
117
134
85
111
86
79
106
94
94
127
94
99
131
90
93
126
85
85
119
77
80
112
73
74
104
72
65
95
69
64
93
72
69
98
75
72
101
75
72
101
142
141
162
143
141
162
139
138
159
144
143
165
147
147
171
143
149
171
141
146
168
145
146
167
145
146
165
142
145
164
140
145
164
141
146
170
141
145
171
142
146
172
143
146
172
143
141
169
140
144
173
107
135
156
141
200
214
141
210
224
138
209
224
135
208
216
93
168
180
73
150
165
73
151
168
74
150
170
74
149
169
72
147
167
74
149
169
72
146
166
74
146
166
75
148
167
75
148
167
75
148
165
78
147
166
81
146
166
86
148
169
87
144
163
102
121
140
148
98
121
216
141
170
223
140
172
222
136
169
222
138
170
222
139
168
222
139
167
223
140
168
223
140
169
223
138
170
222
137
170
223
138
170
223
138
171
223
138
171
223
138
171
222
137
170
220
139
167
222
137
169
221
130
166
204
109
149
171
70
114
167
71
113
154
71
113
133
129
156
154
196
215
137
208
221
141
210
226
141
209
224
137
209
222
134
210
219
132
209
217
131
207
213
131
195
208
69
127
144
69
142
162
62
143
165
64
145
164
67
146
164
100
172
188
133
205
221
132
205
220
134
206
220
133
207
219
132
206
218
132
206
217
132
209
216
131
209
214
131
207
216
131
204
217
129
204
212
127
201
211
84
156
170
65
138
157
64
138
159
62
140
157
64
139
156
66
132
149
70
127
143
116
181
194
129
199
211
122
201
207
122
201
206
123
200
205
127
201
208
124
201
211
124
201
211
123
200
210
122
199
211
121
199
212
122
199
210
122
199
207
125
198
206
122
197
203
121
197
201
122
197
200
118
193
199
122
195
202
124
191
200
122
190
200
121
187
200
116
186
199
113
186
199
115
184
195
116
180
191
119
179
184
103
161
155
60
110
83
65
114
70
62
114
62
74
104
68
96
58
65
135
52
93
134
55
98
139
53
98
141
52
98
141
52
98
140
52
98
137
52
101
132
52
98
130
53
96
129
52
93
130
52
90
130
52
93
129
51
95
129
48
92
131
49
92
132
49
93
133
48
93
132
48
92
131
48
92
130
49
92
127
48
90
124
47
89
124
48
87
123
48
86
123
47
83
151
76
106
151
94
123
88
80
106
98
102
132
93
98
127
89
94
126
78
82
115
74
75
107
72
71
101
68
63
91
70
65
92
81
77
104
86
81
111
88
84
114
141
142
156
138
136
152
134
127
144
136
127
146
138
131
151
140
137
156
141
139
157
142
137
156
141
135
154
136
132
153
138
136
158
145
145
170
144
146
171
143
146
171
142
145
170
143
146
171
109
131
153
142
196
210
142
209
221
139
210
223
137
209
223
108
181
193
75
151
167
69
150
166
71
151
168
72
147
166
72
147
166
72
147
166
72
147
166
73
147
166
75
148
167
75
148
167
75
148
167
74
147
165
78
147
166
81
146
166
85
147
167
93
142
161
114
107
127
168
110
134
216
140
168
223
140
173
222
137
170
222
137
170
221
138
167
221
138
166
223
140
168
223
140
169
223
138
171
222
137
170
223
138
171
223
138
171
223
138
171
223
138
171
222
137
169
221
138
167
223
136
169
223
130
167
185
88
129
172
68
115
161
74
116
125
99
126
150
193
210
143
205
221
138
210
224
141
212
227
142
207
223
136
208
221
131
209
218
129
208
215
132
204
214
92
151
166
67
138
154
63
145
163
63
145
166
68
147
165
83
158
174
128
201
216
131
203
218
133
205
220
134
206
220
133
207
218
132
206
217
132
206
217
133
208
216
132
209
214
131
206
215
130
205
217
122
198
210
88
163
176
65
141
157
64
139
158
66
139
156
66
138
154
62
128
143
81
141
156
127
195
208
126
198
210
124
200
211
122
202
207
124
202
207
126
200
207
129
201
209
125
201
211
124
200
211
123
200
210
122
199
210
122
198
211
124
198
208
124
198
205
124
197
204
119
196
201
120
197
201
124
196
200
118
192
200
121
192
202
123
189
200
120
189
200
118
188
200
117
188
202
116
188
202
114
188
196
114
187
194
116
187
190
116
184
183
112
163
159
56
104
77
67
112
70
75
83
60
117
59
80
140
49
93
137
53
98
140
53
98
141
52
98
142
53
99
141
53
99
138
53
100
137
53
98
132
52
94
129
52
91
129
52
90
131
53
93
130
52
96
129
49
92
131
49
91
132
49
92
133
49
92
131
48
92
131
49
92
130
49
92
127
48
91
124
47
90
123
46
87
123
47
86
123
47
85
136
61
93
163
101
130
82
65
91
82
86
114
80
84
114
85
88
121
83
86
118
74
76
106
71
69
99
68
63
90
68
64
89
73
69
95
79
75
102
89
84
114
140
136
151
139
132
148
136
125
142
133
120
138
126
114
132
128
116
134
130
123
139
136
128
143
138
129
146
135
126
148
139
134
157
141
141
165
143
143
167
140
138
163
131
132
156
106
126
145
136
190
201
139
212
220
139
212
223
136
208
220
116
190
202
77
153
171
74
150
172
75
149
169
72
145
164
60
131
150
72
147
166
72
147
166
72
147
166
74
148
167
75
148
167
74
147
166
74
147
166
73
146
163
78
147
166
81
146
166
83
145
165
100
135
155
152
112
133
190
119
142
204
129
156
221
138
170
221
135
169
222
138
170
224
141
169
224
141
169
223
140
168
223
140
169
223
138
171
222
137
170
222
137
170
223
138
171
223
138
171
223
138
171
222
137
169
221
138
167
223
136
169
218
125
161
172
74
117
168
71
117
132
77
110
154
182
200
141
205
221
139
209
225
137
212
225
139
213
225
141
208
224
136
209
222
132
209
217
131
205
215
112
177
191
63
130
147
67
146
163
66
148
167
69
147
167
71
150
166
115
192
206
132
205
220
132
204
219
134
206
221
134
206
221
133
207
218
133
207
218
132
206
217
133
207
215
132
207
213
130
206
215
127
203
215
95
171
189
64
141
161
67
144
164
66
143
162
68
140
152
62
127
140
96
156
166
129
197
208
128
200
212
126
201
211
127
203
213
125
202
209
128
203
209
130
202
209
130
199
208
125
199
210
126
200
211
125
199
210
122
198
210
121
197
208
124
196
205
126
195
202
124
192
201
123
192
200
123
193
199
123
192
197
126
188
194
124
179
188
129
180
190
127
184
192
125
186
195
121
184
194
116
184
194
114
187
193
114
188
191
114
187
191
115
186
196
119
179
190
98
150
142
71
98
79
92
56
65
134
58
93
140
53
96
139
53
97
140
52
98
141
52
98
141
52
98
141
52
98
140
53
97
140
51
95
135
51
91
129
53
89
129
53
90
128
52
91
128
51
94
130
51
92
132
51
91
132
50
90
132
49
90
130
49
92
130
49
92
128
49
91
126
48
91
125
48
93
124
47
90
123
46
88
123
46
87
126
50
84
163
94
125
94
64
91
77
79
108
81
84
114
90
92
125
90
93
125
81
82
112
74
73
100
67
63
88
66
62
85
68
64
88
73
69
95
82
78
105
144
131
153
148
135
157
145
133
154
140
128
149
136
124
145
136
123
145
138
130
150
142
134
149
140
132
148
132
123
144
130
122
146
125
120
143
123
118
141
116
115
136
92
101
121
128
177
189
140
210
219
139
212
221
136
209
220
124
199
210
79
155
170
71
147
171
73
148
173
79
144
170
55
115
138
71
141
160
74
148
167
73
148
167
73
147
166
73
148
167
74
148
167
73
147
166
73
147
166
72
146
162
78
146
164
81
145
165
87
144
165
97
116
137
195
135
159
211
132
154
182
110
136
221
139
172
222
136
169
222
138
171
223
139
169
223
139
168
223
139
169
223
139
169
223
138
171
223
138
171
223
138
171
223
138
171
223
138
171
223
138
171
222
137
170
221
137
166
223
135
167
208
115
152
168
72
116
146
77
116
137
159
172
142
204
215
141
207
225
140
208
226
141
209
225
140
211
225
138
211
223
136
211
222
133
206
217
129
195
209
63
128
147
69
145
163
65
146
166
65
147
167
66
146
166
99
175
192
131
206
221
133
207
221
132
205
220
134
206
221
134
206
220
133
207
218
133
206
217
132
206
216
134
206
216
131
204
213
127
204
212
104
180
192
66
143
165
61
141
163
64
143
163
68
144
162
60
127
138
92
155
165
127
199
207
126
200
209
131
203
216
131
204
216
131
205
217
130
205
214
127
202
210
129
201
209
130
199
208
126
199
209
125
201
211
124
200
210
122
197
208
124
196
207
126
195
204
123
192
200
121
191
197
127
188
196
125
166
178
115
134
151
108
94
117
106
71
101
107
74
103
106
92
115
106
111
129
111
133
147
114
151
162
117
168
177
123
178
186
121
181
190
119
180
196
112
179
195
117
176
177
72
95
95
120
56
87
139
55
97
136
55
96
139
53
97
142
51
97
141
52
98
142
52
98
140
52
97
140
54
95
143
50
93
135
49
90
129
52
89
126
53
88
123
54
88
119
52
85
118
52
82
118
53
83
121
54
86
125
52
87
128
48
91
128
48
89
126
49
90
125
47
91
124
47
92
124
47
90
124
47
89
124
47
90
123
47
83
153
82
114
112
74
103
91
91
120
92
93
124
92
91
126
96
96
128
98
98
127
89
87
114
74
71
95
65
61
84
65
61
85
67
63
89
76
71
98
140
127
145
144
131
150
147
134
152
146
134
153
146
134
154
144
135
154
141
134
153
142
134
151
137
128
147
128
115
137
121
108
131
119
108
133
119
106
128
99
102
119
123
158
171
148
208
222
137
211
225
137
211
223
132
205
216
85
163
176
73
149
171
71
147
174
72
147
171
66
130
155
63
126
148
75
145
165
75
148
167
75
148
167
75
148
167
73
149
167
72
149
167
70
146
165
71
145
164
74
147
162
78
147
163
81
145
163
93
140
161
117
105
126
212
139
168
217
137
160
177
105
130
220
140
172
222
137
170
222
138
171
221
136
169
221
136
169
223
138
171
223
138
171
223
138
171
223
138
171
223
138
171
223
138
171
223
138
171
223
138
171
222
137
170
220
137
168
220
133
163
193
99
137
158
76
119
131
125
147
150
202
212
136
209
217
140
210
222
142
209
224
142
209
225
142
209
225
136
208
217
133
207
217
133
200
216
83
138
157
72
140
163
67
145
165
63
146
164
64
146
166
80
159
180
126
205
222
131
209
224
131
209
222
131
207
220
133
207
220
134
206
219
134
207
216
133
206
215
132
205
214
133
204
216
128
202
214
111
190
199
69
146
163
65
141
163
60
142
160
63
141
157
60
125
142
96
156
169
128
199
211
123
200
210
126
203
214
133
205
219
134
206
220
134
206
220
133
204
219
124
200
212
124
201
207
126
200
206
124
200
209
122
201
209
124
198
209
124
197
209
124
194
206
128
192
202
133
180
191
118
137
151
108
96
118
122
67
103
138
66
108
146
65
110
146
63
107
148
63
106
146
62
105
144
63
105
136
67
105
123
64
99
111
63
97
105
79
107
101
106
125
110
134
151
118
162
179
118
175
181
108
135
144
127
60
96
140
55
97
139
55
98
140
53
99
140
52
98
139
53
98
142
51
96
136
53
95
133
52
91
139
51
92
131
52
89
117
53
82
94
54
68
80
66
60
69
71
52
67
74
54
64
75
56
74
66
59
93
54
64
118
54
84
128
48
85
130
48
90
126
48
92
123
46
88
124
46
88
125
47
89
124
46
90
122
48
83
138
66
98
131
83
114
88
84
110
91
90
123
91
89
124
97
94
126
100
97
127
96
93
120
82
80
104
72
69
95
69
65
92
73
69
96
77
71
99
140
128
140
142
130
142
146
134
146
147
135
149
147
136
155
145
136
154
143
136
153
140
132
149
132
122
142
124
111
133
124
110
134
124
113
136
120
114
134
114
143
157
149
207
220
141
207
221
138
211
224
134
209
223
98
171
187
72
150
167
72
148
169
71
147
169
76
144
165
48
111
131
76
144
164
74
147
166
75
148
167
75
148
167
75
148
167
72
149
167
72
149
167
73
147
166
75
147
166
77
147
164
77
146
164
82
146
161
94
122
139
163
120
146
216
135
169
220
137
165
180
105
131
218
138
170
221
137
170
223
138
171
224
139
172
224
139
172
223
138
171
223
138
171
223
138
171
223
138
171
223
138
171
223
138
171
223
138
171
223
138
171
223
137
171
218
135
171
215
136
169
182
86
128
128
95
122
153
194
207
145
206
217
141
206
221
140
208
224
141
210
226
141
210
225
140
210
223
131
207
216
133
202
215
108
169
186
67
131
151
71
144
165
65
144
163
65
146
164
71
150
168
116
193
210
130
208
221
131
210
220
132
210
219
132
209
218
133
207
217
133
206
216
134
206
215
134
206
216
133
205
214
133
205
213
127
203
213
79
157
172
64
143
164
65
141
162
67
139
158
60
125
142
103
162
177
129
198
210
129
201
213
129
205
216
131
206
217
134
206
220
134
206
220
134
206
220
135
203
219
130
204
216
122
201
207
123
201
207
126
199
212
127
197
210
126
195
206
126
191
203
130
173
190
105
123
139
111
74
101
140
64
106
146
65
109
150
64
108
148
58
103
146
59
103
147
60
103
147
60
102
149
61
102
150
62
102
148
61
101
147
60
100
147
59
100
146
63
104
139
65
105
128
61
100
100
63
93
110
137
147
120
152
162
110
55
90
138
56
98
139
55
98
140
53
98
141
51
100
139
52
98
146
49
95
141
52
94
131
53
90
118
56
81
90
55
62
72
77
57
70
95
60
63
103
60
64
106
59
61
106
59
60
107
61
66
103
62
73
94
60
80
63
54
111
51
74
130
48
86
127
47
87
124
47
89
124
46
88
125
47
89
124
47
86
123
48
81
127
53
84
143
88
118
85
74
100
84
83
113
84
81
113
87
85
114
92
89
116
88
85
112
80
77
104
76
73
100
74
70
97
78
74
101
81
75
103
146
134
145
147
135
146
148
136
147
148
136
149
148
137
154
146
137
154
144
137
153
141
133
150
131
121
141
126
113
135
129
115
139
129
122
141
102
124
136
146
201
213
136
210
225
137
210
223
137
209
222
109
183
199
75
149
172
72
149
170
72
148
167
72
149
164
65
126
142
63
128
144
73
146
163
72
148
166
75
148
167
75
148
167
75
148
167
72
149
167
72
149
167
74
146
166
77
145
166
77
146
164
78
144
165
89
131
148
87
70
89
202
134
164
223
134
173
222
136
170
190
112
141
209
130
161
222
137
170
222
137
170
223
138
171
223
138
171
223
138
171
223
138
171
223
138
171
223
138
171
223
138
171
223
138
171
223
138
171
223
138
171
223
138
171
219
135
170
213
128
165
144
83
120
144
170
189
144
204
217
143
205
221
144
205
226
142
207
228
139
211
227
139
211
224
136
209
218
133
206
217
133
194
211
61
122
141
69
144
162
68
146
163
67
148
164
68
147
164
103
177
192
131
206
219
132
210
219
132
211
216
133
212
217
133
210
216
134
209
215
133
206
213
135
205
215
135
205
215
134
204
214
132
204
214
99
174
189
61
143
162
62
144
161
65
143
158
61
125
142
107
165
180
133
202
213
129
202
213
131
205
216
132
206
217
133
206
218
134
206
220
134
206
220
135
207
221
134
204
219
127
202
214
123
200
207
126
200
206
125
196
206
125
194
201
135
181
192
114
133
150
110
70
103
140
69
108
152
65
106
153
61
106
152
59
104
153
59
103
153
58
101
147
59
101
141
57
96
132
49
86
153
67
103
159
72
106
161
74
108
158
72
106
150
64
103
148
63
103
144
59
101
144
57
100
139
58
99
108
62
94
126
127
146
104
60
91
135
57
96
138
54
97
140
53
98
140
50
101
135
50
97
138
50
92
131
56
88
103
58
71
72
70
56
71
99
64
62
110
60
64
108
55
62
108
56
60
107
56
65
104
56
65
107
58
62
108
56
62
107
56
70
99
59
73
66
52
108
53
76
124
48
88
124
47
89
124
46
88
125
47
89
124
47
86
124
47
85
124
46
84
148
86
119
83
63
88
75
74
101
73
69
98
72
69
95
76
74
97
82
79
106
86
83
113
83
80
108
80
76
103
77
73
100
76
70
98
150
139
152
148
137
151
148
137
152
149
138
152
149
136
151
147
137
153
146
137
155
144
135
153
136
129
145
140
126
145
141
128
152
113
117
136
140
190
201
136
209
219
136
211
225
138
210
225
121
193
205
76
151
170
73
147
172
70
148
169
71
149
164
74
145
163
51
109
129
74
142
160
70
147
164
71
148
166
75
148
167
75
148
167
74
147
166
73
148
166
71
147
166
72
145
166
73
146
165
76
143
164
82
131
150
86
91
108
143
95
118
216
138
169
222
136
172
222
137
170
206
124
154
196
116
144
221
136
167
222
137
169
222
137
170
223
138
171
223
138
171
223
138
171
223
138
171
223
138
171
223
138
171
222
138
169
222
137
168
223
138
170
221
139
171
222
137
170
199
123
157
134
135
158
150
203
223
142
206
223
141
207
225
140
209
228
141
208
229
141
208
228
137
208
221
134
207
215
134
202
215
83
142
158
67
138
157
64
147
164
66
147
165
69
149
166
84
159
176
130
203
218
132
206
218
133
208
218
133
209
217
133
212
217
133
212
217
134
210
216
132
206
213
134
205
213
133
205
214
131
205
215
115
191
204
66
146
164
64
143
162
67
141
158
61
128
143
103
166
180
130
199
211
133
205
216
131
204
217
132
205
218
132
205
218
133
206
220
133
206
221
134
207
220
133
206
217
130
203
215
122
200
210
122
198
207
126
197
206
132
192
202
123
160
171
110
86
111
140
69
108
149
65
108
148
62
106
150
62
106
149
61
107
150
59
104
148
59
102
146
62
100
134
55
88
143
73
101
182
106
137
194
113
145
198
116
147
199
117
147
199
116
145
192
108
144
165
80
120
146
58
101
143
57
100
138
57
100
138
60
101
113
57
89
95
38
69
135
56
95
139
52
96
140
52
98
136
51
98
127
53
94
121
59
87
88
58
63
70
91
57
66
107
61
62
111
59
61
110
59
63
110
58
64
110
59
61
110
58
61
109
58
62
112
60
62
112
59
61
110
58
59
108
56
75
100
60
73
60
52
116
53
83
124
47
89
122
47
91
123
48
89
125
47
89
123
48
90
123
46
89
146
81
118
94
66
89
83
79
100
81
74
101
73
71
97
72
71
96
76
75
99
83
82
110
87
85
114
84
82
109
74
72
97
70
68
93
149
145
163
148
142
159
148
141
156
149
139
152
148
137
150
145
134
151
143
134
153
143
136
154
145
141
155
149
140
157
127
126
147
134
167
181
144
208
220
140
209
222
140
211
222
131
203
215
85
158
172
72
147
170
72
147
172
70
148
168
70
147
161
64
129
148
65
126
148
74
146
166
72
150
168
70
147
165
75
148
167
75
148
167
73
146
165
74
146
165
72
145
166
73
145
166
76
146
162
85
132
151
81
89
106
115
89
105
178
116
140
218
139
170
221
139
171
221
137
170
217
133
162
186
105
131
222
137
167
222
137
168
222
137
170
223
138
171
223
138
171
223
138
171
223
138
171
223
138
171
223
138
171
223
137
168
222
137
166
222
137
168
222
136
170
217
139
173
160
127
150
156
197
210
141
208
225
142
207
227
141
207
227
140
209
228
141
208
227
139
207
224
138
206
221
136
206
216
115
175
190
63
132
148
65
145
161
64
147
165
65
145
165
71
149
168
120
195
213
131
207
222
134
210
222
134
209
222
133
209
221
132
211
219
132
211
219
133
210
219
130
206
215
133
206
214
132
206
216
124
200
212
77
154
169
64
144
161
68
140
158
63
123
142
108
167
182
132
199
212
132
204
216
129
205
216
132
204
218
134
206
220
134
206
220
131
206
220
129
206
220
130
206
217
129
203
212
134
200
211
126
200
208
129
195
205
136
182
197
114
123
141
124
73
107
151
66
107
153
62
106
153
61
108
154
60
108
156
60
109
156
60
108
155
59
106
150
62
103
133
55
89
165
93
121
196
119
150
199
119
150
202
120
152
200
118
148
199
117
145
200
117
145
201
116
147
201
115
149
182
98
132
150
65
101
143
57
98
144
53
96
137
54
94
121
49
85
113
41
77
137
52
94
141
51
97
137
54
93
118
61
85
81
65
59
71
101
64
65
108
60
62
112
56
62
110
57
63
109
61
63
111
61
63
111
60
61
110
57
61
110
57
62
112
59
62
112
59
61
111
58
60
107
55
63
104
55
72
94
64
81
53
57
119
51
83
123
46
87
120
50
89
124
48
88
122
48
89
124
48
89
136
69
106
107
71
93
85
77
95
97
89
113
99
94
121
92
90
114
84
83
104
79
77
101
81
79
106
83
81
107
75
74
97
72
70
92
150
150
170
148
146
164
148
144
157
148
140
152
147
137
151
145
137
153
144
138
156
147
139
158
149
142
158
145
142
159
109
134
148
150
205
218
139
208
222
141
206
222
135
209
219
97
170
182
75
151
169
71
148
170
71
148
169
71
147
168
74
145
163
52
113
130
74
140
161
72
146
165
71
150
167
72
149
167
75
148
167
75
148
167
73
146
165
73
147
165
70
146
164
72
145
161
84
139
154
75
94
107
118
97
112
125
80
96
206
136
160
222
138
171
221
137
170
222
138
171
221
137
166
185
103
129
222
137
166
222
137
168
223
138
171
223
138
171
223
138
171
223
138
171
223
138
171
223
138
171
222
137
170
223
137
168
222
136
166
220
135
167
220
137
170
187
129
160
157
175
191
145
208
219
145
207
225
142
207
227
140
207
226
141
208
227
139
210
227
137
208
223
135
202
218
131
197
211
66
126
143
70
143
160
65
146
164
65
148
167
67
145
164
99
175
192
128
206
222
132
209
224
134
210
224
134
210
225
134
210
225
133
211
223
133
211
223
132
209
221
131
206
218
131
205
216
127
203
216
90
167
182
65
145
160
70
145
159
61
121
139
107
169
184
132
203
215
132
204
216
132
205
216
131
204
216
133
205
219
135
207
221
134
206
220
131
207
220
128
207
219
128
204
213
128
200
208
129
201
209
127
200
205
131
175
185
110
93
118
136
70
106
152
65
106
159
60
103
156
60
104
158
60
109
158
58
108
159
58
108
155
62
106
149
63
102
133
56
88
177
104
132
201
122
153
204
122
154
206
121
154
205
120
153
202
117
148
201
118
147
200
119
146
202
119
143
201
116
143
199
114
143
194
109
139
169
85
119
146
57
95
143
53
95
138
54
96
122
49
87
118
40
79
136
55
96
128
58
87
85
63
60
73
98
61
67
111
57
66
108
60
62
111
55
60
112
57
62
111
62
63
111
61
63
111
60
63
111
58
63
112
59
63
112
60
63
111
59
63
111
59
61
110
57
63
108
57
59
105
60
69
92
61
84
53
56
118
50
78
123
49
87
125
48
86
122
49
86
124
48
86
124
56
90
124
79
101
68
56
73
78
71
93
93
87
112
102
99
119
107
105
122
100
97
117
91
87
112
86
82
106
79
76
99
74
71
92
150
145
158
148
144
157
148
144
158
148
144
156
150
142
155
150
144
158
146
143
159
146
143
162
147
146
161
118
127
140
139
191
199
136
211
222
140
210
227
140
208
224
110
184
195
73
148
169
71
148
170
69
148
165
68
148
162
71
146
166
70
136
157
58
118
133
74
145
164
71
148
166
69
149
166
71
149
166
75
148
167
75
148
167
73
146
165
71
146
163
71
146
163
80
143
160
77
109
126
115
103
119
135
103
118
151
97
116
217
136
167
222
137
170
220
136
169
222
138
171
220
136
165
185
103
128
221
137
166
222
137
168
223
138
171
223
138
171
223
138
171
223
138
171
223
138
171
223
138
171
222
137
170
222
137
168
223
136
166
220
138
168
205
140
167
148
146
163
153
204
216
146
207
224
147
206
225
141
206
226
139
206
225
141
208
227
137
211
225
135
208
220
136
203
219
93
151
168
71
138
156
70
143
162
66
147
167
62
148
167
82
158
176
127
205
221
132
211
225
133
211
226
133
209
227
133
210
227
133
210
228
133
210
225
133
211
225
133
209
224
130
206
221
129
205
218
106
182
197
68
146
164
66
142
158
62
122
139
111
163
179
135
202
214
132
205
216
132
206
217
131
206
217
131
206
217
133
205
219
135
207
221
134
206
220
131
206
219
128
204
216
128
200
209
131
198
206
131
195
204
131
161
177
117
76
108
149
69
112
157
63
108
156
61
105
157
59
105
159
60
107
161
59
109
157
59
108
155
59
107
144
58
96
147
73
102
192
114
143
201
119
147
205
121
154
207
121
155
209
121
155
209
120
155
206
119
151
203
120
148
201
120
147
202
119
144
202
118
144
201
116
145
200
115
145
199
115
145
183
100
133
149
64
103
141
54
98
142
55
101
123
46
85
108
47
78
89
53
67
78
79
66
69
92
57
69
108
64
63
111
61
63
111
56
62
111
57
62
111
62
63
111
61
63
111
60
63
111
59
63
111
58
63
111
59
63
111
59
63
111
59
62
112
57
63
109
58
59
108
56
61
103
55
66
85
55
92
53
65
123
50
85
125
47
85
122
50
83
124
49
84
122
52
85
141
88
113
74
60
77
75
69
89
70
61
85
62
58
75
72
68
82
87
83
100
95
90
113
98
93
116
93
88
110
85
80
102
138
129
134
140
131
138
144
136
147
145
137
150
149
139
154
148
144
156
147
142
156
147
143
155
139
138
153
123
166
175
142
208
218
138
211
224
140
209
223
125
196
207
76
154
165
71
148
166
70
147
166
71
148
166
72
149
167
69
144
162
58
119
137
73
137
153
68
146
163
70
147
165
72
147
166
71
146
165
71
149
166
72
147
165
74
146
165
74
141
163
75
147
164
78
120
138
113
105
127
139
120
135
139
107
123
186
120
145
220
135
165
222
137
170
222
137
170
222
137
170
220
135
166
186
104
132
219
134
163
222
137
166
223
138
171
223
138
171
223
138
171
223
138
171
223
138
171
223
138
171
223
138
171
222
137
167
221
137
163
216
139
168
158
122
145
158
196
207
145
207
218
149
205
223
142
209
227
141
209
228
140
209
225
137
209
221
132
211
220
133
204
216
124
185
200
64
127
149
67
144
170
65
146
169
66
143
165
68
148
166
115
191
207
132
209
225
133
210
226
133
211
226
134
212
225
133
211
224
133
210
224
133
210
223
133
210
228
129
206
224
128
205
220
119
195
216
72
152
167
67
144
156
63
131
144
106
166
182
134
200
213
131
205
214
131
206
216
135
209
220
134
208
219
131
206
216
128
206
213
130
206
217
131
204
219
133
203
219
130
201
215
129
199
209
138
194
206
131
159
173
121
73
108
152
66
112
157
62
108
158
62
108
159
63
110
157
61
109
157
59
109
157
60
108
153
61
103
138
52
88
170
93
120
204
122
150
207
122
151
210
122
152
207
120
154
207
121
154
206
121
154
207
121
154
207
121
150
206
122
146
202
120
145
200
119
146
200
118
146
199
115
144
200
115
143
200
115
142
198
114
145
180
98
132
140
57
98
140
53
98
136
53
97
110
44
81
99
45
73
116
56
81
111
57
73
90
68
67
70
90
61
71
108
67
65
110
60
61
110
57
61
111
58
64
110
61
67
109
63
65
111
61
64
112
60
63
111
59
63
111
59
63
111
58
62
109
57
62
107
56
61
106
55
64
103
58
69
71
53
109
50
75
124
47
85
121
49
85
125
48
84
124
46
82
146
85
114
72
51
72
70
67
88
70
67
89
70
68
84
64
61
79
60
57
78
62
58
80
73
68
90
83
76
99
95
86
110
136
125
132
140
129
138
146
133
146
147
132
148
150
136
154
150
142
157
149
139
155
147
141
156
109
131
140
143
205
212
138
208
220
141
213
222
132
205
217
84
157
174
71
147
165
72
147
166
72
147
166
72
147
166
70
148
165
71
142
160
52
111
130
74
144
160
70
148
165
71
148
166
72
147
166
71
146
164
71
149
166
71
147
166
74
146
165
73
143
164
80
133
152
95
99
118
143
124
144
149
124
141
137
96
114
210
137
164
221
136
166
222
137
170
222
137
170
222
137
170
221
136
167
196
114
142
211
127
156
222
137
166
223
138
170
223
138
171
223
138
171
223
138
171
223
138
171
223
138
171
223
138
171
221
137
168
222
138
168
193
133
162
148
168
182
148
204
215
145
207
220
143
208
224
140
210
227
141
209
227
140
210
225
134
209
219
130
206
216
135
203
216
77
138
152
72
144
163
66
145
170
67
147
170
71
149
170
95
172
189
130
207
223
133
210
226
133
210
226
133
211
225
133
212
225
134
212
225
134
211
225
133
209
224
133
209
226
130
206
223
128
204
220
87
165
184
68
145
160
62
133
145
101
163
177
133
202
217
130
206
216
130
206
214
132
206
217
133
207
218
133
207
218
133
207
218
131
208
217
131
205
217
131
203
217
134
200
215
132
197
210
140
194
204
134
147
166
120
72
105
157
64
111
156
61
107
156
59
106
156
59
109
157
62
110
155
62
109
153
63
108
141
56
95
148
70
102
196
115
147
206
123
153
206
121
150
209
123
152
210
124
153
210
123
157
206
120
154
206
121
154
207
121
154
207
121
150
206
122
146
202
120
145
199
118
145
200
119
146
200
117
145
201
116
145
200
115
143
198
113
145
187
103
139
145
59
101
142
54
100
142
51
98
140
55
100
134
56
98
137
55
94
149
75
105
176
111
132
156
106
116
106
82
76
79
90
59
69
105
61
65
107
61
65
108
61
64
110
61
64
112
60
64
112
60
63
111
59
63
111
59
63
110
58
63
109
58
64
108
57
63
107
55
60
105
55
67
97
63
78
55
55
118
50
80
123
45
80
127
45
83
125
46
83
143
80
109
86
57
80
72
69
91
74
71
94
75
74
94
74
72
94
73
71
93
72
70
88
68
65
81
63
58
74
63
56
73
148
135
144
146
135
146
145
136
150
144
136
151
148
142
157
149
147
162
143
140
154
122
126
141
135
184
191
140
209
219
140
208
226
136
209
219
101
176
190
73
150
170
73
148
171
73
148
167
73
148
167
73
148
167
72
149
163
67
133
149
59
123
142
72
146
164
71
149
166
71
148
166
71
146
165
70
145
164
70
149
166
71
147
166
73
145
164
76
141
158
80
103
119
132
122
137
145
122
141
155
123
143
161
106
129
219
138
168
222
138
167
222
137
170
222
137
170
223
138
171
221
136
166
204
121
149
202
119
147
221
136
165
221
136
169
223
138
171
223
138
171
223
138
171
223
138
171
223
138
171
222
137
170
221
137
170
212
138
169
151
134
155
158
201
216
146
207
222
143
208
222
139
210
224
141
209
225
142
209
226
138
211
223
133
210
217
135
203
215
106
166
180
65
138
149
66
147
164
65
146
169
69
147
169
79
157
175
126
203
219
132
209
225
133
210
226
133
210
226
133
211
225
132
211
224
133
211
224
133
210
224
132
207
224
130
206
221
130
206
221
110
185
203
68
144
163
66
136
152
91
153
164
134
202
215
133
204
218
133
206
217
135
208
217
134
208
219
134
208
219
132
206
217
131
205
216
131
203
217
131
202
216
132
201
213
131
199
210
138
197
207
125
147
160
127
72
104
153
67
107
154
66
107
160
61
107
160
60
107
156
61
107
156
64
106
149
62
100
142
61
93
183
103
132
208
123
154
208
121
153
208
122
152
209
123
152
209
123
152
210
124
153
209
122
156
207
120
154
206
121
154
206
121
154
207
121
150
205
121
144
203
120
146
200
119
146
201
119
147
201
117
146
201
116
145
200
115
145
193
107
141
154
68
106
141
55
98
139
55
99
139
56
100
138
57
100
134
56
98
150
73
111
182
108
138
187
112
138
191
109
138
179
116
133
152
106
113
94
82
70
73
98
62
65
109
61
61
112
56
62
110
57
63
111
59
64
112
60
64
112
60
64
111
59
64
111
59
64
108
57
64
108
56
59
107
53
55
104
55
72
88
62
89
48
62
120
50
79
126
45
82
122
45
83
136
70
100
108
69
95
84
78
101
85
81
106
84
82
108
78
77
100
75
73
95
73
73
91
74
73
89
77
74
90
76
71
89
151
146
155
152
146
158
152
147
161
149
142
159
150
146
163
150
151
166
147
150
165
113
146
155
141
208
214
138
208
222
136
209
226
118
191
205
74
152
168
72
150
169
73
148
170
75
148
167
74
148
167
74
148
167
74
148
162
53
116
132
69
141
159
71
146
166
69
147
165
70
146
165
71
145
165
71
146
164
71
149
166
71
146
165
75
144
164
75
121
137
127
122
136
142
123
136
146
120
140
145
110
129
190
124
151
220
135
167
222
138
168
222
137
170
222
137
170
223
138
171
221
136
168
213
129
158
191
110
137
221
136
164
221
136
169
223
138
171
223
138
171
223
138
171
223
138
170
222
138
169
222
137
170
221
136
172
180
124
154
154
182
194
147
205
219
144
207
225
144
208
225
141
209
225
140
209
225
142
208
225
137
211
221
132
208
214
132
193
207
64
125
140
67
146
159
62
148
164
65
147
168
69
147
168
112
190
207
131
209
224
134
212
227
134
211
226
134
211
226
134
211
226
133
211
224
134
211
224
134
210
224
133
207
225
131
205
220
127
201
217
81
153
174
73
142
161
78
139
155
133
202
214
130
205
215
129
205
217
132
208
218
132
210
218
132
208
217
133
207
217
132
206
216
132
205
217
132
201
218
132
201
215
133
198
209
140
194
206
125
140
159
135
73
109
155
66
105
162
63
103
159
64
104
160
60
104
161
59
105
153
62
100
144
58
91
172
91
119
205
120
148
212
123
152
214
122
153
215
120
153
213
124
154
209
123
152
209
123
152
209
124
153
209
122
155
207
121
153
206
121
153
206
120
153
207
120
150
205
121
145
204
121
145
201
120
145
202
119
146
201
117
145
201
115
146
194
109
141
155
69
104
147
57
98
143
54
98
141
55
99
141
55
99
141
55
98
156
74
112
187
108
142
192
113
143
188
114
139
187
111
140
184
112
139
186
111
138
175
113
132
144
100
106
86
85
65
71
103
62
63
110
61
63
111
59
64
112
59
64
112
61
65
111
59
65
111
59
66
110
59
63
110
57
62
109
54
57
107
53
63
101
59
70
69
57
107
52
74
123
47
82
120
47
84
126
55
88
127
82
109
89
80
103
88
85
112
87
87
116
82
82
109
80
80
103
76
77
98
68
67
88
71
68
90
74
71
92
156
154
170
158
155
172
160
156
175
156
151
171
154
152
170
152
154
172
115
133
146
144
197
207
137
208
220
139
207
225
128
205
218
82
157
171
73
149
165
72
147
166
72
147
167
73
147
166
72
148
166
69
146
164
71
141
156
48
112
127
71
145
162
69
146
167
70
147
167
72
146
168
72
144
166
71
144
165
71
145
165
71
145
165
77
135
154
98
110
124
154
138
154
154
132
147
149
123
136
139
96
112
214
139
166
223
137
168
222
138
169
223
138
171
223
138
171
223
138
171
221
136
168
217
135
163
182
105
129
219
136
161
222
137
169
223
138
171
223
138
171
223
138
170
223
137
166
221
137
164
221
138
172
210
137
175
146
139
160
153
206
215
146
207
219
143
207
226
141
208
227
141
211
229
138
211
229
140
208
227
137
210
220
132
207
214
94
149
164
68
139
158
62
148
167
63
147
165
67
149
167
89
169
185
130
209
224
132
211
224
134
212
225
133
212
225
133
211
224
134
211
225
135
211
225
135
211
225
135
211
225
131
208
223
128
205
222
101
176
196
68
141
162
65
127
143
128
196
211
132
205
218
130
205
217
129
206
216
131
209
219
129
209
218
131
207
216
132
206
215
133
204
213
133
203
215
131
200
216
131
201
212
146
191
203
119
136
151
133
72
109
161
66
110
162
64
105
166
64
106
163
65
105
155
63
101
143
57
92
163
86
115
202
119
151
210
123
157
213
123
156
215
122
153
216
123
154
216
123
154
212
124
154
210
123
153
209
122
152
208
122
151
208
123
152
209
123
152
206
120
149
206
119
150
206
120
151
207
121
148
206
120
143
203
120
141
202
118
143
203
116
147
196
109
143
160
71
107
147
57
96
146
55
98
144
55
98
142
56
97
140
56
93
163
82
115
187
109
138
191
114
143
191
115
145
191
114
146
191
113
144
189
113
142
188
113
138
186
111
136
182
112
135
161
113
121
103
84
76
66
98
63
65
108
59
65
111
56
62
111
61
67
111
60
67
111
60
66
110
59
65
110
58
63
109
57
58
106
55
60
104
56
67
86
59
77
35
51
120
47
83
123
49
85
122
49
85
130
82
108
85
71
92
85
84
109
80
82
112
82
81
109
83
81
105
81
79
102
76
74
96
77
75
96
80
79
98
161
162
181
161
159
178
157
154
171
156
153
168
155
150
165
141
143
161
122
167
176
141
207
217
138
210
222
137
209
225
102
177
193
74
150
168
72
147
166
72
147
166
72
148
167
72
148
166
72
148
166
70
146
164
64
128
144
60
127
141
70
144
161
70
147
168
68
145
165
69
144
165
73
144
166
73
141
166
70
141
166
74
143
160
75
110
124
140
139
153
155
135
152
152
132
146
144
115
129
163
103
125
220
136
167
223
136
168
222
138
169
223
138
171
223
138
171
223
138
171
221
136
168
220
138
166
182
105
130
220
137
162
222
137
169
223
138
171
223
138
171
222
138
170
223
138
168
222
137
166
215
141
173
162
123
151
157
187
201
146
208
218
146
208
224
141
208
227
140
208
227
141
210
229
140
210
229
137
208
224
135
205
215
120
186
198
61
127
144
67
143
162
63
147
166
65
147
163
73
151
169
121
199
216
131
209
225
132
210
224
132
213
227
133
213
227
132
212
226
133
211
226
135
211
226
134
210
226
134
210
226
131
208
225
122
197
215
73
146
164
58
127
145
120
186
201
134
205
220
131
205
218
131
206
218
130
205
216
132
208
219
130
206
217
135
208
217
135
206
216
136
204
215
135
203
214
133
199
209
144
194
204
126
124
144
139
72
111
161
64
111
167
61
106
163
62
102
156
65
100
140
54
87
165
86
117
200
119
151
210
125
158
214
126
161
217
127
162
218
126
159
216
123
154
216
123
154
217
124
155
217
124
155
217
123
155
217
124
155
216
123
154
211
123
153
209
123
152
207
121
150
207
121
150
207
121
150
208
122
148
205
119
144
201
116
142
200
116
145
191
105
139
156
69
107
147
56
97
146
55
97
146
55
97
145
56
97
144
59
97
169
86
120
194
111
142
197
116
144
196
116
144
193
114
144
191
115
145
191
112
141
189
114
138
188
113
134
185
113
135
182
112
138
184
110
134
176
113
130
107
87
83
72
101
62
63
110
55
63
110
58
67
111
60
67
111
60
66
110
59
65
110
58
62
107
55
58
107
55
59
105
56
68
96
61
65
43
42
109
41
72
121
50
83
123
46
82
139
82
109
78
62
82
83
82
106
83
82
109
84
82
110
85
81
109
83
81
108
82
79
104
81
79
102
82
80
103
160
158
173
156
152
166
153
144
156
153
145
154
153
149
161
116
135
149
146
205
216
136
210
223
136
210
222
119
194
207
74
149
169
73
148
171
73
148
169
73
148
167
73
149
166
72
149
167
72
148
166
70
144
163
52
113
129
73
139
155
67
145
161
69
147
167
71
148
168
72
147
168
73
144
166
73
142
165
70
143
164
74
129
147
118
123
139
150
142
157
156
136
153
153
134
148
148
112
128
194
125
151
220
135
166
222
136
168
223
138
169
223
138
171
223
138
171
223
138
171
222
137
169
220
138
166
175
98
122
220
136
162
221
136
168
223
138
171
222
137
170
220
136
169
220
138
169
221
138
169
196
139
165
143
158
173
149
208
217
145
208
223
146
207
228
141
209
228
141
209
228
142
210
229
142
209
228
136
209
222
139
205
217
84
138
154
69
143
161
65
146
167
64
147
166
69
148
163
108
181
200
131
206
225
133
210
226
132
211
225
131
213
230
132
214
231
131
213
229
132
210
228
134
209
228
134
209
228
133
208
227
130
207
225
92
166
184
65
133
149
110
175
189
132
205
218
133
207
220
133
207
220
131
205
217
132
206
217
134
205
217
133
204
216
137
206
217
138
206
217
139
204
216
139
202
213
143
195
202
123
127
143
138
75
108
160
63
107
158
62
106
158
68
104
144
59
90
153
83
106
198
119
146
216
127
158
215
123
155
215
125
160
217
126
161
220
127
163
220
126
160
216
123
154
217
124
155
217
124
155
218
124
155
217
124
155
217
123
155
217
123
154
214
122
153
210
121
151
206
120
149
207
121
149
206
120
147
206
120
147
205
119
147
201
116
147
182
97
131
152
64
104
146
57
101
147
55
100
147
56
99
145
54
95
148
58
97
175
91
125
196
111
143
198
114
142
200
115
143
200
116
144
193
114
142
192
115
144
192
113
144
190
114
142
188
114
137
185
113
134
183
113
134
186
112
136
183
109
134
160
112
123
70
82
55
62
112
57
65
110
56
66
110
59
66
110
59
65
109
58
64
108
56
62
107
55
58
108
56
58
107
57
63
102
58
69
63
50
98
37
61
114
47
77
122
46
80
140
75
104
90
62
84
85
80
103
84
80
105
86
81
110
89
85
116
91
89
119
85
82
111
81
78
106
81
78
104
158
149
159
158
144
157
156
144
153
154
143
150
142
140
151
137
176
188
139
208
220
135
210
223
133
207
219
87
163
179
73
150
172
72
148
169
72
147
167
73
148
167
72
148
167
70
149
169
68
148
165
73
145
163
50
110
130
73
143
161
65
146
164
66
146
167
70
147
166
73
146
166
72
144
166
68
144
165
74
143
159
78
109
123
142
143
154
147
137
148
156
139
152
156
137
148
140
98
115
213
140
165
221
137
167
223
137
168
222
138
170
223
138
171
223
138
171
223
138
171
222
137
168
221
136
165
179
100
126
219
136
163
221
136
169
223
138
171
222
137
170
221
136
169
219
137
165
216
142
167
148
122
143
161
201
216
145
207
222
146
207
225
144
206
227
141
209
227
142
209
227
141
208
226
140
208
225
136
207
219
118
179
191
64
129
147
65
144
165
64
147
169
66
148
170
83
161
176
130
206
223
132
208
225
132
211
226
132
213
228
132
214
230
133
214
231
132
212
229
132
210
227
133
210
227
133
209
227
129
206
223
114
186
205
68
135
154
99
161
177
134
205
218
129
206
222
130
206
220
131
205
219
133
207
219
135
207
217
137
207
218
139
207
219
139
206
216
138
206
218
139
202
214
146
196
208
121
129
144
146
72
109
163
65
105
159
62
101
139
54
90
168
88
120
205
121
153
214
128
160
215
127
159
219
127
161
220
127
162
219
128
164
220
127
164
221
127
164
220
126
161
216
123
156
217
124
155
217
124
154
217
124
155
217
124
155
217
124
155
217
124
155
214
122
153
211
121
152
205
120
149
207
121
148
207
120
145
207
118
148
207
116
150
186
98
132
149
61
97
145
55
97
146
56
101
146
56
103
146
56
100
149
60
99
179
93
127
201
115
146
200
115
144
202
116
144
201
115
142
201
115
142
195
113
141
191
116
143
191
114
144
190
114
145
190
113
140
188
113
135
186
111
132
184
112
135
182
109
135
172
111
130
79
82
61
64
110
58
64
112
57
65
110
59
66
110
59
65
109
58
63
107
56
63
107
55
61
108
56
59
105
56
60
103
57
67
75
52
104
48
67
104
38
70
122
46
81
135
63
93
110
71
95
86
78
99
82
78
101
83
78
104
83
79
107
86
83
110
85
83
108
81
78
102
81
79
101
158
146
154
157
142
154
156
145
154
154
149
156
114
134
142
146
207
215
134
213
224
134
209
222
110
184
199
73
150
168
71
149
169
71
146
165
71
146
165
73
148
167
72
147
167
67
147
167
67
146
164
67
134
152
65
128
148
70
145
164
65
148
167
68
147
168
70
146
165
72
143
163
71
143
163
72
143
162
75
120
137
130
127
143
148
136
147
151
134
145
159
141
151
159
138
148
160
105
125
218
139
165
222
138
166
223
138
169
222
138
170
223
138
171
223
138
171
223
138
171
222
137
167
221
136
165
180
101
127
216
135
162
221
137
169
223
138
171
222
137
170
222
137
169
215
139
166
181
133
153
152
177
190
146
207
221
146
209
227
143
209
227
140
207
227
141
208
226
142
209
226
140
207
224
140
207
224
138
203
217
73
132
146
72
145
164
64
145
166
66
147
170
69
149
170
117
194
209
132
209
225
131
209
225
131
212
226
132
214
229
133
214
231
134
214
231
134
211
229
132
210
227
132
211
226
131
210
225
126
202
218
79
147
167
94
155
172
133
202
217
132
205
218
130
205
224
132
205
222
135
207
221
137
207
219
138
207
217
139
207
218
139
207
218
140
206
217
143
202
215
151
196
207
129
131
148
145
74
112
154
65
105
145
64
95
171
96
125
205
123
156
214
128
163
219
128
164
218
127
162
219
128
163
219
128
163
220
128
164
220
128
165
220
128
165
221
127
164
220
126
162
218
124
158
218
125
155
217
124
153
217
124
155
217
124
155
217
124
155
217
124
155
215
123
154
211
122
152
208
122
151
205
119
146
206
117
144
207
115
148
188
95
131
156
60
98
153
58
97
148
56
97
147
59
99
146
57
101
156
69
108
188
101
137
201
115
148
201
115
144
202
116
145
202
116
145
201
116
142
201
115
142
196
113
141
192
116
142
191
115
143
192
115
145
192
113
141
190
113
136
187
112
135
185
112
137
183
110
137
175
111
131
79
79
61
66
108
58
63
113
58
66
110
59
66
110
59
65
109
58
63
107
55
63
107
54
63
107
56
62
106
57
59
103
56
70
85
57
103
52
68
98
31
63
120
46
80
128
53
84
124
78
102
84
74
93
81
77
99
82
78
101
81
78
103
82
79
105
82
78
104
78
75
99
78
75
98
156
143
153
155
143
152
152
145
152
131
135
142
136
181
188
137
212
220
137
211
225
125
198
215
76
151
170
72
149
168
72
148
168
72
147
166
72
147
166
73
148
167
70
146
165
64
146
164
69
144
161
54
116
134
69
138
156
67
145
163
66
147
167
70
146
168
70
145
163
74
142
166
71
142
161
80
138
152
83
97
112
153
137
153
157
143
153
153
132
144
157
134
145
153
123
134
193
123
146
221
136
164
221
138
166
222
139
169
223
138
170
223
138
171
223
138
171
223
138
171
222
137
168
221
137
166
190
112
138
211
132
158
221
137
169
223
138
171
223
138
171
222
137
170
213
138
171
143
134
156
155
205
217
146
208
223
146
209
226
143
208
227
142
209
228
143
210
227
143
210
227
141
208
225
139
205
221
114
176
190
67
133
152
71
144
165
69
147
169
69
148
170
94
170
188
133
210
226
132
209
225
130
210
224
130
212
226
131
213
228
133
213
230
134
212
229
134
210
229
131
210
226
130
210
224
128
206
221
103
176
192
82
149
167
129
203
219
131
206
219
132
206
219
132
204
222
135
206
222
138
207
221
138
207
218
139
206
217
139
205
217
141
207
219
139
204
215
149
197
206
133
139
150
193
129
159
211
121
159
197
111
146
206
129
158
214
128
161
217
127
163
218
129
165
217
128
164
219
128
163
219
128
163
219
128
163
219
128
163
220
128
165
221
128
165
222
128
165
221
127
162
218
124
158
217
124
155
218
125
154
217
124
154
217
124
155
217
124
155
217
124
155
216
123
154
212
122
152
210
124
153
205
118
145
207
117
146
183
91
125
156
60
100
155
58
99
153
57
97
152
58
96
155
63
99
177
90
125
200
113
147
201
114
147
200
114
145
201
115
144
201
115
144
201
115
144
201
116
142
201
115
142
196
114
141
192
116
142
193
116
142
193
114
144
193
114
140
191
114
136
187
112
135
185
111
136
185
112
139
178
113
134
84
80
64
68
108
59
64
111
57
66
110
59
66
110
59
64
108
58
62
106
55
63
107
54
64
108
57
63
107
58
59
103
54
69
92
60
87
50
57
110
45
73
106
39
69
123
50
79
140
88
112
81
68
88
83
79
100
86
82
105
88
85
109
88
83
111
82
76
105
77
71
98
76
71
96
158
144
156
157
147
153
151
149
154
120
143
149
145
208
215
135
210
222
136
206
223
91
166
185
72
149
170
72
148
168
73
148
167
72
147
166
72
147
166
73
148
167
69
146
165
63
147
163
70
143
159
52
112
129
71
142
160
66
146
163
66
145
166
71
143
167
70
144
162
75
141
167
71
142
159
73
118
129
100
96
111
136
122
134
143
126
137
139
116
128
152
123
134
145
101
115
213
135
159
223
135
164
222
138
166
222
139
169
223
138
170
223
138
171
223
138
171
223
138
171
222
137
168
221
138
166
200
121
148
206
129
154
222
137
170
223
138
171
223
138
171
220
139
171
168
124
149
154
188
208
148
207
223
145
206
221
140
207
223
140
209
226
141
210
228
143
210
227
143
210
227
139
206
223
134
199
215
70
128
143
74
142
165
70
145
167
70
147
170
76
153
173
124
200
215
133
208
224
131
209
225
131
212
226
131
214
228
130
213
227
131
210
227
132
210
227
134
209
228
133
209
227
132
208
224
126
196
214
84
147
166
130
202
221
128
206
221
129
209
221
132
209
221
133
208
224
133
207
221
135
208
219
138
208
218
139
205
217
140
204
217
140
204
216
150
199
209
136
139
152
194
131
159
213
131
165
215
131
163
217
128
161
217
128
160
219
125
160
219
126
163
220
128
164
220
128
165
219
128
163
219
128
163
219
128
163
219
128
163
220
128
165
221
128
165
222
128
165
220
126
162
216
123
156
217
124
155
218
125
154
217
124
154
217
124
155
217
124
155
217
124
155
215
123
154
212
122
153
211
125
154
206
119
147
205
114
144
158
64
100
156
59
101
155
60
101
154
62
100
169
82
115
195
109
140
202
116
144
201
115
144
201
114
145
201
115
146
201
115
144
201
115
144
201
115
144
201
115
142
201
115
142
197
114
142
192
116
142
194
116
140
193
114
142
194
114
139
193
115
136
188
113
136
186
112
137
184
111
138
178
111
132
76
69
55
68
106
57
64
110
57
66
110
59
66
110
59
65
109
58
63
107
55
63
107
54
64
107
57
61
105
56
61
106
54
66
97
59
78
56
54
116
51
78
97
33
60
121
51
79
152
94
120
77
63
82
86
82
104
87
83
106
83
80
105
81
75
100
78
70
95
73
66
89
72
64
86
164
149
159
158
149
158
128
130
140
139
185
194
138
211
220
136
209
221
118
189
203
72
149
165
73
148
167
72
147
166
72
147
166
75
147
166
74
148
167
70
147
167
68
148
169
63
150
165
64
135
149
60
121
138
70
142
161
69
143
164
69
143
164
70
143
165
71
143
165
71
142
169
77
139
156
74
87
98
113
97
110
119
100
114
140
117
133
151
126
138
154
124
135
162
105
124
218
136
163
222
136
168
222
138
170
223
138
171
223
138
171
223
138
171
223
138
171
223
138
171
222
137
168
221
136
165
205
125
152
208
129
155
222
137
165
222
138
168
222
135
168
209
139
168
139
143
162
149
205
224
146
206
227
143
208
226
141
209
228
140
208
227
140
208
227
141
209
226
138
210
225
134
205
220
108
168
183
69
134
155
69
143
162
69
147
165
72
147
167
105
180
199
130
208
225
130
211
225
132
213
226
132
213
227
132
214
229
131
211
228
133
210
228
133
210
228
133
209
228
131
209
225
133
204
222
93
153
172
127
201
218
130
210
225
132
209
225
132
209
225
136
208
225
135
209
226
133
208
220
135
207
214
136
208
214
144
201
217
141
203
217
146
202
212
136
149
157
191
131
157
219
132
164
217
133
162
217
133
163
217
129
161
218
128
161
220
127
161
221
127
161
221
127
161
221
127
162
220
128
162
219
128
163
219
127
164
219
127
165
220
128
165
220
128
164
220
126
161
218
125
158
216
123
154
217
124
155
217
124
155
217
124
155
217
124
155
218
125
156
218
125
156
216
122
154
211
123
153
206
124
152
205
118
149
207
116
150
179
90
124
168
75
111
180
91
124
194
107
139
202
117
148
200
117
147
199
116
144
198
114
143
199
116
144
199
118
145
202
116
145
202
115
144
200
115
144
203
115
145
202
116
145
195
114
141
194
116
142
194
116
141
193
115
140
192
114
137
191
114
137
188
112
138
185
111
136
184
112
136
178
114
133
91
91
71
61
96
52
61
108
62
62
109
54
63
108
57
63
108
56
60
108
52
64
107
53
65
107
56
59
107
57
59
105
55
61
100
56
71
67
54
115
51
81
107
42
72
111
52
78
157
96
124
87
64
83
87
81
103
83
80
102
77
73
96
75
66
93
73
63
89
72
62
85
73
63
84
163
151
161
159
151
162
118
144
154
143
208
216
136
212
224
128
205
218
81
160
173
73
150
167
73
148
167
72
147
166
72
147
166
74
148
166
72
148
166
66
145
165
64
147
166
64
147
162
52
120
134
71
137
155
71
144
164
71
143
165
72
144
166
72
144
166
71
143
166
69
144
166
68
116
132
116
109
122
143
125
136
140
119
131
138
115
128
145
118
130
145
110
122
191
126
148
220
136
165
222
137
169
223
138
171
223
138
171
223
138
171
223
138
171
223
138
171
223
138
171
222
138
168
221
136
165
197
118
145
207
129
155
222
138
167
222
137
166
215
137
168
162
118
143
165
193
209
145
208
224
145
207
226
142
208
227
141
209
228
140
208
227
139
207
226
135
209
226
133
205
219
135
199
215
69
129
147
72
143
165
68
145
164
70
148
167
83
158
178
128
204
222
131
211
226
131
214
227
133
215
227
133
215
228
132
214
229
131
211
228
133
210
228
134
209
228
134
209
228
135
206
225
105
166
185
129
193
212
127
206
221
131
209
225
135
207
225
136
207
225
139
206
225
139
208
224
138
211
222
140
207
216
141
204
216
149
201
218
153
199
209
138
151
162
183
130
155
214
133
165
217
131
161
215
136
162
218
131
163
220
132
164
221
130
163
220
128
161
221
127
161
221
127
161
221
127
161
220
128
162
219
128
163
219
127
164
219
127
165
220
128
165
220
128
164
220
126
160
218
124
157
216
123
154
217
124
155
217
124
155
217
124
155
217
124
155
218
125
156
218
125
156
218
123
155
212
124
154
206
124
152
206
119
149
207
117
149
209
118
150
208
116
148
206
116
148
204
117
148
204
119
149
202
119
148
197
117
144
196
116
143
197
117
144
198
119
145
202
116
145
202
115
144
200
115
144
203
115
145
202
116
145
195
114
141
194
116
143
194
115
146
193
114
143
192
113
141
191
113
140
188
112
138
185
111
136
184
112
136
173
113
130
111
123
95
88
123
78
62
103
59
66
104
60
63
107
62
63
109
58
60
110
54
60
109
55
60
108
56
57
106
55
55
106
55
57
103
54
67
76
53
108
48
75
117
48
80
108
47
74
164
99
129
99
66
87
82
74
97
82
77
100
81
73
97
77
70
96
73
69
92
72
68
90
75
71
92
160
152
163
133
136
146
136
188
196
136
210
222
132
210
224
104
182
197
69
150
166
71
149
166
72
147
166
73
148
167
73
148
167
71
148
165
65
145
162
63
146
164
63
148
165
68
145
159
47
111
127
70
142
161
68
145
165
69
144
165
69
144
165
69
144
165
66
142
163
74
141
159
85
101
116
143
128
139
156
136
145
156
133
143
154
128
140
154
124
135
139
96
110
212
136
162
221
136
165
223
138
171
223
138
171
223
138
171
223
138
171
223
138
171
223
138
171
223
138
171
222
138
168
220
136
165
186
111
136
206
129
155
222
137
168
221
137
166
197
139
167
148
156
174
152
205
218
143
209
223
142
208
226
140
208
226
140
208
227
140
208
227
138
207
226
132
207
226
135
203
217
106
160
174
67
137
155
67
145
166
65
146
166
70
148
169
112
186
206
131
208
224
132
213
226
132
216
226
134
216
228
134
216
229
132
213
229
130
211
228
132
210
227
132
207
226
134
206
225
109
171
192
128
187
208
139
204
224
130
207
223
132
209
225
135
206
224
135
207
224
139
205
223
138
208
218
138
208
217
138
205
214
135
205
214
144
204
211
137
156
164
186
129
154
217
131
165
219
127
161
219
129
159
219
133
160
220
129
162
221
129
163
220
129
162
220
127
161
221
127
161
221
127
161
221
127
161
219
127
161
218
127
162
219
127
164
219
127
165
220
128
165
220
128
164
220
126
160
216
123
155
216
123
154
217
124
155
217
124
155
217
124
155
217
124
155
218
125
156
218
125
156
217
123
155
212
125
154
206
125
152
210
123
152
207
117
146
210
119
148
209
117
146
206
117
146
204
118
146
204
120
147
202
119
146
199
120
147
200
120
147
199
120
147
198
119
145
202
116
145
202
114
144
200
115
144
201
115
144
198
114
143
194
114
141
192
116
142
193
115
145
192
114
142
192
114
140
191
114
140
188
112
138
186
112
137
185
113
137
169
113
126
103
127
92
121
162
110
68
96
57
68
81
52
64
79
51
64
84
49
66
98
53
63
103
57
60
106
57
57
105
53
55
105
56
56
106
53
67
90
56
97
48
68
120
47
79
125
56
87
167
98
129
118
77
100
84
73
97
85
77
100
88
76
102
83
76
99
81
76
98
80
75
98
80
75
99
158
153
163
118
148
154
143
210
218
137
208
225
129
204
220
80
156
174
72
148
168
71
148
167
72
147
166
73
148
167
73
148
167
69
148
165
64
146
164
62
147
165
63
148
165
64
138
153
57
119
135
68
145
163
64
147
167
65
146
166
66
146
166
67
145
166
66
144
164
69
122
139
131
127
141
151
138
145
160
140
146
161
138
146
161
135
144
163
133
143
160
106
124
219
137
164
222
137
166
223
138
171
223
138
171
223
138
171
223
138
171
223
138
171
223
138
171
223
138
171
222
138
167
220
137
164
181
109
133
208
131
158
222
137
170
217
138
167
156
123
145
158
196
212
146
207
222
144
208
224
140
209
226
139
207
226
139
206
225
139
207
226
137
207
225
132
205
225
135
197
211
64
122
137
66
144
164
64
147
169
66
149
170
84
161
183
129
205
224
132
210
225
132
214
226
131
216
227
133
216
228
133
216
229
132
214
229
131
212
228
133
210
228
133
205
224
112
179
199
116
179
199
140
203
224
139
205
225
137
207
226
136
207
225
136
203
221
138
205
222
141
206
222
141
207
215
146
204
217
144
204
216
147
202
211
145
161
173
181
128
152
216
133
165
219
132
166
217
127
160
221
129
159
220
131
158
221
127
160
220
126
160
219
127
160
220
127
161
221
127
161
221
127
161
221
127
161
220
128
161
219
128
162
219
129
163
219
128
163
220
128
163
221
129
163
221
127
161
218
125
158
215
123
154
216
123
154
217
124
154
217
124
155
217
124
155
218
125
156
218
125
156
217
123
155
212
124
154
207
124
152
210
123
151
209
121
147
207
118
144
208
117
143
206
117
145
204
118
145
204
120
146
202
120
146
199
121
147
199
121
147
198
119
145
197
118
145
201
116
145
201
115
144
200
115
144
201
115
144
199
114
143
194
113
140
191
114
140
193
115
141
192
114
139
192
113
137
192
114
138
189
112
138
185
111
136
184
112
136
161
109
120
116
144
105
122
168
110
120
147
101
89
86
60
110
88
75
105
85
73
87
79
60
67
76
46
61
97
54
54
105
53
56
106
57
56
106
51
63
99
56
83
51
58
123
48
81
143
70
102
170
98
130
133
86
110
83
70
92
88
77
102
91
77
104
88
79
102
87
79
101
85
77
101
84
75
101
140
141
149
134
185
187
140
208
218
136
210
225
108
180
195
74
147
164
75
148
167
74
148
167
73
148
167
73
148
167
72
148
167
66
146
167
64
145
166
65
147
168
66
146
167
59
125
145
65
130
147
66
146
163
62
148
168
63
148
168
68
145
168
70
143
168
71
140
161
72
98
110
146
131
141
152
141
146
157
139
145
160
139
146
164
141
149
159
128
138
186
122
143
221
136
165
221
138
166
223
138
171
223
138
171
222
138
171
222
138
171
223
138
171
223
138
171
223
138
171
222
137
166
219
138
163
180
112
135
211
131
162
220
133
167
199
134
164
144
154
172
149
204
219
146
205
224
143
207
227
137
209
228
137
207
226
140
206
225
139
207
226
131
207
223
133
205
221
109
161
179
68
136
157
63
146
170
63
146
171
67
147
171
114
191
212
130
207
225
133
211
227
133
214
229
132
215
229
131
215
229
132
215
229
133
213
228
132
211
226
133
209
225
127
188
208
110
172
191
136
205
225
138
205
227
139
206
227
137
205
226
139
206
225
138
206
222
139
208
219
139
208
216
145
205
213
143
204
216
148
201
214
149
166
180
173
127
151
214
136
167
221
132
163
220
133
167
221
133
166
221
131
162
220
129
158
221
127
161
221
127
161
222
128
162
222
128
162
222
128
162
221
127
161
221
127
161
221
127
160
218
129
159
216
132
158
216
129
155
220
127
155
221
128
157
222
129
160
219
128
160
215
126
156
215
124
153
217
124
153
218
125
155
218
125
156
218
125
156
218
125
156
216
122
154
214
123
153
210
123
152
209
124
153
207
121
148
205
119
145
205
119
144
205
119
145
204
120
146
204
120
146
203
120
146
199
119
146
200
120
147
198
118
145
198
117
145
200
117
145
200
116
144
200
115
144
200
115
144
199
116
144
200
114
143
192
112
139
191
115
141
190
113
139
191
111
138
191
111
138
191
110
137
185
111
136
183
111
135
152
102
113
122
147
107
121
170
106
127
165
108
106
124
85
111
83
71
117
82
79
115
86
81
103
83
71
41
63
31
56
102
55
57
105
52
58
106
53
63
104
57
73
60
49
119
50
80
148
77
106
174
97
128
149
93
117
81
66
81
89
77
101
88
78
104
91
79
104
89
77
101
87
76
100
89
78
102
116
141
150
148
207
211
137
207
217
130
202
217
79
152
167
74
147
164
75
148
167
74
148
167
73
148
167
72
149
167
70
149
167
65
147
166
64
146
165
65
146
166
67
145
163
51
113
130
70
140
158
65
146
164
64
147
168
65
147
167
69
144
165
72
143
164
74
128
144
90
90
103
125
103
114
126
111
118
145
126
132
161
140
147
170
142
151
145
106
119
210
138
162
221
136
165
222
138
166
223
138
171
223
138
171
222
138
171
222
138
171
223
138
171
223
138
171
223
138
171
221
138
166
219
137
164
183
111
138
210
128
161
218
132
169
152
118
143
156
197
210
144
207
222
143
206
224
140
207
226
138
208
228
138
208
227
137
207
225
137
209
226
132
207
223
131
199
214
61
122
140
69
144
164
64
144
167
66
145
169
85
162
183
131
208
226
133
210
227
134
212
227
133
214
228
132
215
229
132
214
228
132
213
228
133
211
226
132
210
225
126
199
216
105
164
184
138
206
225
133
207
225
137
208
228
138
208
228
138
206
227
138
207
225
138
207
223
139
209
220
139
209
217
140
205
213
142
206
213
150
174
188
171
123
149
213
136
167
219
128
163
221
132
164
219
132
167
222
133
166
221
130
162
221
128
158
221
127
161
221
127
161
222
128
162
222
128
162
222
128
162
222
128
162
221
127
161
221
127
160
218
129
159
217
133
159
216
129
155
220
127
154
221
128
156
222
129
158
220
128
160
217
127
157
215
123
153
217
123
152
218
125
155
218
125
156
218
125
156
218
125
156
216
122
153
214
123
154
210
123
152
209
124
153
206
120
147
206
120
145
205
119
144
205
119
145
204
120
146
204
120
146
203
120
146
199
119
146
200
120
147
198
118
145
198
117
144
200
117
145
201
116
145
200
115
144
200
115
144
199
116
144
201
116
145
195
115
142
191
115
140
190
113
138
190
111
137
191
111
137
190
111
137
185
112
136
181
113
136
139
100
106
127
157
114
122
172
108
123
167
109
123
163
112
92
95
68
117
85
76
118
85
78
107
83
72
55
73
42
46
87
43
57
103
52
59
107
53
62
106
55
71
71
51
114
51
77
149
80
108
176
97
127
159
99
123
84
63
80
90
76
101
88
78
104
89
79
103
87
77
101
88
78
102
90
80
104
125
173
183
138
208
214
138
209
218
112
184
195
74
146
161
74
147
164
75
148
167
74
148
167
72
149
167
68
148
165
64
148
164
63
149
164
64
147
163
66
146
163
67
142
157
51
111
127
69
142
163
63
146
167
67
146
167
68
146
166
73
145
162
76
143
159
73
107
119
132
123
134
131
112
121
110
90
101
125
105
111
159
139
146
170
139
150
157
105
122
218
137
164
221
136
165
221
138
166
223
138
171
223
138
171
222
138
171
222
138
171
223
138
171
223
138
171
223
138
171
224
138
169
221
134
164
188
112
141
206
130
163
196
131
162
137
157
173
148
206
220
144
206
223
138
209
225
138
208
226
140
207
228
138
208
227
135
209
226
133
210
226
133
206
223
104
165
178
67
139
157
64
146
166
67
144
165
70
145
168
111
187
205
131
208
224
133
210
225
134
212
227
132
213
228
132
214
228
132
212
227
132
211
226
133
210
226
130
203
220
100
163
182
137
204
223
132
206
223
132
209
226
134
209
228
135
208
227
137
206
227
137
207
224
138
209
224
138
209
219
138
209
217
145
203
214
150
179
194
162
121
146
212
136
165
218
133
164
219
132
164
218
136
168
220
131
167
221
131
165
221
129
161
221
128
158
221
127
161
221
127
161
222
128
162
222
128
162
222
128
162
222
128
162
222
128
162
221
127
160
218
129
159
217
133
160
216
129
155
220
128
153
221
128
154
221
128
156
219
127
158
219
128
159
216
123
152
217
123
152
218
125
155
218
125
156
218
125
156
218
125
156
216
123
154
210
119
150
206
120
149
207
122
151
205
119
146
206
120
145
205
119
144
205
119
145
205
120
146
204
120
146
203
120
146
200
120
147
200
120
147
198
118
145
198
117
144
200
117
145
201
117
146
200
115
144
200
115
144
199
116
144
201
115
144
196
116
143
190
115
138
191
113
137
191
111
136
191
111
137
188
111
137
185
111
136
179
115
137
128
103
100
128
165
116
120
172
106
123
168
111
120
170
111
114
145
103
98
85
65
118
84
74
112
83
74
64
78
48
49
85
43
59
102
54
57
105
52
58
104
51
70
82
54
107
51
74
151
82
108
175
98
126
168
99
125
93
65
84
92
77
101
86
78
103
86
77
101
88
79
102
88
79
102
89
80
103
141
206
216
133
209
217
130
205
216
83
156
170
75
147
165
74
147
166
73
148
167
72
148
167
70
148
166
64
147
164
62
148
164
63
148
165
64
146
166
65
145
162
61
131
145
61
125
137
65
143
162
63
147
168
66
146
168
67
145
168
68
145
162
74
134
145
109
123
131
155
148
157
155
139
148
138
119
128
130
111
117
151
133
139
163
131
142
180
115
139
221
135
167
221
138
169
222
138
169
223
138
171
223
138
171
223
138
171
223
138
171
223
138
171
223
138
171
223
138
171
224
136
168
222
135
168
200
120
152
197
127
157
152
116
145
160
198
215
143
208
224
145
205
223
140
208
226
139
208
226
138
207
226
138
206
226
135
210
227
131
209
223
135
202
220
68
127
144
68
144
164
63
147
166
69
146
163
82
156
174
129
205
222
134
210
225
134
211
225
134
212
226
133
213
226
131
213
226
132
213
227
133
211
227
133
205
222
100
163
181
133
201
220
135
210
226
133
209
225
133
210
227
134
210
228
136
208
227
136
205
226
137
206
226
140
206
224
140
206
220
138
205
214
150
187
197
152
118
146
210
137
171
219
133
167
220
133
168
221
133
168
220
134
168
220
132
166
220
131
164
220
129
161
221
127
159
221
127
161
221
127
161
222
128
162
222
128
162
222
128
162
222
128
162
222
128
162
221
127
160
216
128
159
217
133
162
217
129
157
220
128
153
220
128
154
221
128
156
219
127
158
219
127
160
217
123
154
217
122
152
218
125
154
218
125
155
218
124
155
217
123
155
215
121
152
211
121
150
207
120
147
207
122
148
205
120
144
204
119
143
205
120
143
205
119
145
205
120
146
204
119
144
203
119
144
200
119
146
198
120
146
198
118
145
198
117
144
200
117
145
201
116
145
201
115
144
201
115
144
200
115
144
199
115
145
195
115
144
190
113
140
189
113
135
190
114
135
189
113
137
187
111
136
185
111
136
180
118
135
122
109
93
131
170
118
123
170
108
120
169
112
120
169
111
119
164
110
97
113
78
115
83
73
114
83
75
63
74
47
57
95
52
50
92
46
55
102
52
58
107
52
72
88
54
97
46
64
151
82
109
174
98
126
171
101
125
103
70
89
83
69
91
77
66
91
74
65
87
77
69
89
79
70
92
82
73
96
137
209
217
133
210
220
112
189
202
73
148
164
74
147
166
72
148
166
72
149
167
69
147
166
66
146
165
64
148
166
63
149
166
64
148
167
65
146
168
67
144
162
52
119
134
66
136
153
64
144
164
63
149
168
64
147
167
65
145
169
67
144
160
75
116
127
143
145
154
163
155
164
160
145
153
153
136
143
157
138
144
158
140
146
150
115
126
205
130
158
220
134
167
222
138
171
222
138
171
223
138
171
223
138
171
223
138
171
223
138
171
223
138
171
223
138
171
223
138
171
223
137
169
222
137
169
205
129
159
170
117
143
145
151
174
153
204
221
144
207
225
141
207
224
141
208
227
140
208
227
140
207
226
140
207
227
135
209
226
130
205
220
115
176
193
69
131
154
66
144
167
63
146
168
67
145
163
107
182
198
132
208
224
133
209
225
134
211
225
134
212
225
133
212
225
133
212
225
130
211
225
135
209
226
106
169
188
128
195
213
132
207
224
136
210
227
134
210
226
135
210
227
138
209
227
137
208
226
136
206
224
137
205
225
141
203
221
141
205
216
153
189
203
134
114
134
212
132
171
218
133
169
219
132
168
221
133
170
222
134
170
221
135
169
219
134
165
219
132
164
219
129
161
220
127
161
221
127
161
221
127
161
222
128
162
222
128
162
222
128
162
222
128
162
222
128
162
222
128
162
216
127
159
216
129
161
217
128
159
220
127
154
220
127
155
221
128
157
219
127
158
218
125
158
216
123
153
217
123
152
218
125
153
218
125
154
217
124
155
215
121
154
212
122
152
209
122
149
207
122
147
205
121
144
204
119
142
205
120
143
205
120
143
205
119
145
205
119
145
205
119
143
203
118
142
201
117
145
198
119
145
197
119
145
198
117
145
199
118
145
200
116
144
201
115
144
201
115
143
200
115
144
197
115
145
192
113
143
191
113
143
190
114
136
190
115
135
187
114
138
186
111
135
183
111
136
175
117
131
118
119
91
131
172
119
127
171
112
121
171
113
119
169
109
118
169
104
124
155
108
100
84
67
114
85
75
65
72
47
60
101
55
44
83
39
62
103
58
57
106
52
69
94
55
90
51
59
154
85
113
174
97
127
171
101
124
114
74
94
82
69
87
75
62
86
66
58
78
71
62
81
73
64
85
77
68
90
135
207
215
130
207
217
86
164
176
73
149
165
72
148
167
70
148
165
68
148
165
64
148
165
63
147
165
65
148
166
65
148
166
64
146
166
66
146
168
70
142
162
50
114
131
69
141
161
63
144
166
63
147
168
64
147
165
65
145
166
76
140
155
99
113
123
161
156
165
167
158
166
162
146
153
157
138
144
165
144
151
168
145
153
150
104
120
217
138
167
220
136
169
222
138
171
223
138
171
223
138
171
223
138
171
223
138
171
223
138
171
223
138
171
223
138
171
223
138
171
222
137
169
221
137
167
205
137
165
118
99
119
159
193
209
145
205
221
147
204
226
141
207
225
139
208
227
139
208
227
139
208
227
137
208
227
133
209
226
137
206
223
75
134
151
71
143
165
66
145
170
67
148
172
74
151
171
124
201
217
132
209
225
133
210
226
134
211
226
134
212
225
134
212
225
133
211
224
131
211
226
115
176
196
120
182
201
130
210
225
130
211
225
135
209
226
136
210
227
135
209
225
137
209
225
139
208
225
139
204
222
140
204
222
138
204
216
146
199
206
122
105
127
189
110
147
220
128
166
220
135
165
222
131
165
222
132
167
221
133
166
220
133
165
220
132
164
221
132
164
221
131
164
220
130
162
222
128
162
222
128
162
222
128
162
222
128
162
222
128
162
222
128
162
222
128
162
221
128
161
220
127
161
218
128
161
216
129
160
220
127
155
220
127
156
221
128
158
220
128
160
216
124
157
215
122
153
217
123
152
219
124
153
218
125
154
214
122
153
212
121
153
209
122
153
208
122
151
208
124
150
206
121
146
204
119
142
204
119
142
205
120
143
205
119
145
205
119
145
205
119
143
203
118
142
204
119
148
201
119
147
199
118
145
200
118
146
199
118
145
199
115
144
200
115
144
201
115
143
200
115
144
198
116
145
191
112
142
193
113
144
192
114
137
191
115
136
188
114
137
187
113
134
183
112
135
170
117
128
113
130
95
126
171
117
127
173
114
122
173
115
119
173
110
118
171
104
121
163
106
106
114
82
110
86
74
73
74
51
61
102
55
51
90
45
57
93
50
59
104
51
65
100
57
76
60
53
153
87
111
174
96
127
171
99
122
128
79
99
84
67
83
72
62
82
69
61
80
74
65
84
76
67
87
75
66
88
134
208
216
116
194
203
70
149
161
70
147
163
71
148
166
67
147
164
64
146
163
62
149
165
62
149
166
65
148
166
67
146
166
64
146
166
65
145
167
70
138
159
51
114
127
70
141
153
66
143
162
68
145
167
67
143
165
67
145
164
67
127
139
133
134
142
161
147
157
162
151
158
163
149
154
164
144
149
164
141
149
164
136
145
166
110
129
219
137
167
220
137
170
223
138
171
222
138
171
223
138
171
223
138
171
223
138
171
223
138
171
223
138
171
223
138
171
223
138
171
222
138
170
220
137
165
199
140
163
134
147
162
150
206
217
139
208
222
143
207
228
140
209
227
139
210
228
138
209
228
138
209
227
133
209
226
131
208
224
124
187
205
61
125
141
67
145
161
65
147
167
67
148
168
93
170
186
130
208
224
132
210
226
133
211
226
133
212
226
134
212
225
135
211
225
135
209
223
120
188
205
111
173
192
136
205
223
130
209
224
133
211
226
132
211
226
134
211
227
137
210
226
140
209
225
139
206
223
139
204
221
140
202
219
150
196
210
124
117
136
162
81
118
214
126
162
219
133
164
220
133
160
222
132
162
221
131
163
220
131
161
219
132
160
221
132
163
221
132
164
219
130
162
218
129
161
222
128
162
222
128
162
222
128
162
222
128
162
222
128
162
222
128
162
222
128
162
220
128
161
222
127
161
218
126
160
215
128
159
220
127
156
220
127
157
221
127
160
220
128
161
216
124
157
215
122
153
217
123
152
219
124
153
218
125
154
212
123
153
210
122
153
209
121
153
209
120
151
199
110
139
199
111
137
204
119
142
205
120
143
205
120
143
205
119
145
205
119
145
205
119
143
204
118
142
206
118
148
202
119
147
202
118
147
202
119
147
199
117
145
199
115
143
200
115
144
201
115
143
200
115
144
198
116
146
191
111
142
192
112
142
191
113
136
191
114
135
188
113
136
185
113
132
183
112
133
159
111
119
119
145
106
122
171
116
125
173
113
123
175
116
122
170
115
120
169
107
118
167
109
113
137
100
98
78
64
75
73
49
60
103
54
59
101
54
48
84
41
63
103
52
63
102
57
69
70
54
153
90
111
174
95
127
172
98
122
139
83
103
78
61
74
71
64
80
75
67
85
80
71
90
83
74
95
82
72
95
130
208
216
91
168
179
71
148
165
69
146
166
66
147
166
65
146
164
64
145
164
64
146
165
65
146
165
66
147
166
66
147
166
65
148
166
62
145
166
65
129
151
60
122
138
70
141
156
71
142
162
73
143
168
71
143
167
70
143
163
76
112
127
152
148
157
162
149
154
164
150
155
171
151
158
172
151
158
169
149
156
156
122
133
199
128
150
220
137
161
222
137
167
223
137
172
223
138
170
223
138
171
223
138
171
223
138
171
223
138
171
223
138
171
223
138
171
222
137
170
219
137
168
220
136
167
168
124
149
158
191
206
140
208
223
139
208
224
142
209
226
141
209
225
138
210
224
138
210
225
136
209
226
131
210
226
133
206
223
92
149
168
70
142
159
65
147
164
66
148
165
68
147
164
118
195
210
131
209
223
133
211
224
134
212
225
134
211
226
133
211
226
132
208
224
132
198
217
102
158
179
137
205
224
133
209
225
133
210
226
133
210
226
135
210
226
137
208
226
138
209
224
139
207
222
139
205
218
139
204
216
152
198
207
128
131
149
153
73
113
196
102
143
220
130
167
220
132
164
220
132
158
220
132
160
220
131
163
221
132
163
221
132
163
222
133
165
222
133
165
220
129
162
219
128
161
222
128
162
222
128
162
222
128
162
222
128
162
222
128
162
222
128
162
222
128
162
221
127
162
220
125
161
216
128
158
215
128
152
217
127
154
219
127
158
221
127
163
222
128
163
218
125
156
215
122
153
216
123
154
218
124
155
214
124
152
208
126
150
205
122
146
202
111
142
172
80
113
158
63
98
169
75
108
205
119
145
205
121
143
205
120
143
205
119
147
205
119
146
204
118
143
203
117
142
206
118
143
202
118
144
202
118
146
202
116
145
201
116
145
201
115
144
201
115
144
201
115
144
201
115
144
199
116
144
191
113
139
191
112
137
192
112
137
192
115
138
186
112
137
185
112
138
182
113
137
145
100
105
126
162
114
123
173
115
123
174
116
123
174
116
121
171
113
121
169
112
115
171
110
117
152
105
92
78
61
80
74
54
59
100
55
60
103
56
47
84
41
62
101
55
63
100
56
73
81
55
150
91
110
174
97
128
171
98
121
148
90
114
74
55
72
78
71
91
87
79
100
89
80
102
90
80
103
90
80
103
119
197
207
72
150
163
71
148
166
69
147
168
66
147
166
65
146
165
65
146
165
65
146
165
65
146
165
66
147
166
66
147
166
65
147
168
64
145
165
53
116
138
67
133
151
69
142
160
72
144
165
72
143
167
71
141
164
71
136
152
110
125
137
164
159
166
171
157
163
173
158
164
176
157
165
176
157
165
177
155
163
150
108
121
214
137
160
220
137
160
222
138
167
223
137
172
223
138
170
223
138
171
223
138
171
223
138
171
223
138
171
223
138
171
223
138
171
222
137
170
220
137
169
210
136
168
142
145
160
149
202
213
141
206
223
141
207
224
142
209
226
141
209
225
138
209
222
138
210
225
136
208
226
133
208
225
129
198
216
60
124
143
69
145
161
65
148
165
66
148
165
82
161
176
130
209
223
134
212
225
135
213
226
135
213
226
133
213
227
133
211
226
134
205
223
100
162
181
137
202
222
135
206
224
134
211
227
134
211
227
133
210
226
136
209
226
138
208
226
141
205
225
142
202
221
136
205
217
146
200
214
132
143
160
141
73
111
173
75
119
216
124
161
221
132
162
223
134
164
222
132
164
220
131
164
221
132
164
221
132
164
221
132
164
222
133
165
222
133
165
220
129
162
220
128
161
222
128
162
222
128
162
222
128
162
222
128
162
222
128
162
222
128
162
222
128
162
221
127
162
218
123
160
216
128
157
215
128
151
217
127
155
219
127
159
221
127
163
221
127
161
218
125
156
216
123
154
217
124
155
215
124
154
212
122
152
206
120
148
199
106
138
165
67
109
159
60
103
160
61
103
179
84
122
206
119
151
204
121
146
205
119
147
205
119
148
205
119
146
204
118
143
203
117
141
206
118
143
202
118
143
200
117
145
200
115
144
200
114
143
200
114
143
201
115
144
201
115
144
201
115
144
199
115
144
191
113
139
192
114
138
193
113
138
192
115
139
185
112
137
185
112
138
181
116
136
127
100
94
128
169
116
123
173
114
123
174
115
123
174
115
121
171
112
121
169
112
115
170
109
120
157
109
88
77
59
85
75
56
58
98
55
59
102
55
52
92
48
54
93
49
62
100
55
73
89
57
140
90
106
171
97
127
168
98
122
150
95
118
82
65
81
87
78
99
95
86
108
95
86
107
94
85
106
88
79
100
96
173
184
71
148
163
72
148
169
68
145
167
65
146
165
65
146
165
66
147
166
66
147
166
66
147
166
66
147
166
66
147
166
62
144
166
65
143
161
48
111
131
69
140
160
66
142
164
66
141
163
67
143
164
70
142
161
70
120
134
149
151
160
168
162
164
173
158
166
173
157
165
171
157
165
173
156
165
175
152
160
162
107
124
219
135
161
222
138
161
222
138
167
223
137
172
223
138
170
223
138
171
223
138
171
223
138
171
223
138
171
223
138
171
223
138
171
223
138
171
220
140
172
175
122
151
153
188
202
146
205
217
144
206
224
143
207
225
141
208
225
141
208
224
141
210
223
141
210
226
137
206
226
134
203
222
106
167
186
66
136
154
65
146
161
64
147
164
66
148
165
108
186
202
130
209
223
133
211
224
134
212
225
134
212
225
132
211
225
137
209
227
100
163
182
128
198
216
133
208
225
135
210
226
134
210
226
132
210
226
134
210
226
136
210
227
138
208
226
139
205
223
137
205
218
138
204
211
139
157
174
135
72
109
168
66
113
196
99
138
219
128
162
221
133
160
222
133
163
221
131
166
221
131
165
221
132
164
222
133
165
222
133
165
221
132
164
221
132
164
220
129
162
220
129
162
222
128
162
222
128
162
222
128
162
222
128
162
222
128
162
222
128
162
222
128
162
221
126
161
220
126
162
216
128
157
215
128
151
218
127
159
219
128
160
221
127
159
219
126
157
217
124
155
217
124
155
217
124
155
215
124
153
212
119
152
200
106
142
166
63
106
165
55
107
162
57
105
160
60
103
202
107
145
207
119
150
204
120
145
205
119
146
205
119
147
205
119
146
204
118
143
202
116
141
207
118
144
201
117
143
200
116
144
200
115
144
200
114
143
202
116
145
201
115
144
199
114
143
200
114
143
199
115
144
190
112
138
191
113
137
192
112
137
192
116
139
186
112
137
184
111
135
177
118
133
113
114
90
124
169
112
123
173
112
122
174
112
122
174
112
121
171
112
120
168
111
115
171
109
120
157
109
86
77
58
91
78
60
56
93
51
58
102
55
59
101
55
46
86
42
62
101
56
69
96
55
120
84
92
166
99
126
165
100
123
146
96
117
83
67
83
90
79
100
93
82
103
97
88
107
91
83
101
71
62
80
77
154
167
70
147
164
71
147
169
68
145
167
65
146
165
65
146
165
66
147
166
66
147
166
66
147
166
66
147
166
66
147
166
62
144
166
65
141
158
52
116
134
68
142
162
64
143
165
64
141
165
66
144
165
72
143
161
82
110
122
166
162
168
170
161
161
170
156
165
171
154
164
171
157
167
172
157
166
167
143
152
184
119
140
222
136
164
221
137
163
222
138
168
223
137
172
223
138
171
223
138
171
223
138
171
223
138
171
223
138
171
221
137
169
221
136
169
222
136
169
214
139
169
140
137
153
154
206
218
145
207
221
144
208
226
142
207
225
141
208
226
140
208
225
140
209
224
141
208
226
136
205
224
137
202
222
75
133
152
69
143
161
65
148
164
64
147
164
73
153
169
125
204
220
132
210
225
133
211
225
133
211
225
133
210
224
136
210
225
110
174
191
123
187
205
130
208
223
131
212
227
134
210
226
135
210
227
133
209
225
135
209
226
136
208
224
135
204
222
136
207
221
141
204
213
141
169
181
130
73
106
164
69
114
175
69
115
214
121
158
217
130
163
220
131
164
221
132
164
221
132
163
221
132
163
221
132
164
222
133
165
222
133
165
221
132
164
221
131
163
220
128
162
221
129
162
222
128
162
222
128
162
222
128
162
222
128
162
222
128
162
221
127
161
222
128
162
222
127
162
219
125
161
215
126
156
216
128
153
217
128
160
219
128
161
219
127
158
216
124
154
216
124
155
216
123
154
216
122
153
215
119
149
201
104
138
162
65
104
163
57
104
167
54
107
164
57
103
189
92
129
212
117
150
207
120
145
204
120
142
205
119
142
205
119
146
205
119
146
204
118
144
202
116
142
205
118
144
200
117
143
199
116
144
201
116
145
201
115
144
203
117
146
202
116
145
199
114
143
200
114
144
198
115
144
190
112
138
191
112
137
192
112
137
191
115
139
186
112
137
185
111
137
171
116
127
114
133
97
122
171
111
123
174
111
121
173
110
121
173
110
119
171
111
122
170
112
116
172
108
119
156
108
86
77
57
97
82
65
54
87
46
56
102
53
58
102
54
44
84
40
60
101
54
64
100
54
106
79
81
164
100
125
165
101
124
140
92
113
88
72
89
90
79
99
96
85
104
91
82
99
68
59
77
59
50
69
72
147
168
72
147
168
70
146
166
67
145
165
65
146
165
65
146
165
66
147
166
66
147
166
64
148
166
68
146
166
66
146
165
61
143
164
67
138
155
55
121
137
64
142
158
65
145
165
65
142
168
66
143
167
74
135
153
120
131
144
165
158
163
167
156
160
169
154
165
170
155
166
173
158
169
174
159
169
154
123
135
207
134
156
222
139
168
222
138
171
223
138
171
223
138
171
223
138
171
223
138
171
223
138
171
223
138
171
223
138
170
222
136
167
218
134
165
222
137
169
187
129
153
150
183
190
148
207
219
147
207
225
141
210
226
140
209
226
140
208
229
140
208
229
138
208
227
138
209
227
134
206
223
121
186
204
61
126
145
66
145
164
65
146
167
68
147
166
97
173
187
133
210
225
133
209
228
132
211
226
130
211
226
134
208
227
123
187
204
110
175
188
134
208
221
131
210
222
132
209
225
134
209
225
137
208
226
139
207
226
139
206
225
138
206
220
137
203
220
136
203
219
144
179
197
126
79
114
162
68
113
169
63
109
194
95
136
219
125
163
219
129
164
221
131
166
221
132
166
221
132
164
221
132
164
221
132
164
222
133
165
222
133
165
222
131
164
219
128
161
220
127
161
222
128
162
222
128
162
222
128
162
222
128
162
222
128
162
221
127
161
221
127
161
219
125
159
219
125
160
217
124
158
216
126
157
216
128
157
214
129
156
216
127
161
216
126
157
214
124
152
214
123
153
214
121
151
213
118
148
201
104
132
167
67
101
162
60
103
162
58
106
162
58
105
174
74
114
211
115
148
211
119
146
208
118
143
208
118
143
208
118
143
208
118
144
207
118
145
204
118
146
201
116
145
201
120
147
200
119
147
198
118
145
199
115
144
201
115
144
201
115
144
201
115
144
199
114
142
197
113
146
195
111
144
192
112
139
191
111
136
192
113
137
190
114
137
186
110
137
183
110
138
152
108
112
118
151
103
120
172
109
121
175
113
120
173
111
122
172
111
118
172
111
121
170
108
116
170
103
121
155
107
91
78
57
105
85
71
60
81
44
54
105
52
55
103
50
49
89
48
54
96
46
60
102
52
93
75
63
168
100
122
169
98
123
133
83
105
94
79
99
94
85
103
88
78
94
65
57
72
59
50
69
78
69
92
71
148
168
71
148
168
68
146
166
67
146
165
65
146
165
65
146
165
65
146
165
65
147
166
64
148
166
67
145
165
65
144
164
63
142
164
60
126
144
62
129
145
65
143
159
64
147
165
62
145
166
67
142
161
69
117
134
150
154
165
166
157
163
168
158
165
169
156
168
170
160
171
174
162
174
178
162
174
151
108
124
216
139
163
222
138
168
222
137
170
223
138
171
223
138
171
223
138
171
223
138
171
223
138
171
223
138
171
223
138
171
223
136
167
219
133
164
215
141
172
155
130
153
157
200
212
143
208
221
146
207
223
140
209
225
140
210
227
140
209
229
140
209
229
139
207
226
134
207
224
131
205
222
90
154
172
69
140
159
66
146
166
65
146
168
67
146
165
119
196
210
132
209
224
133
208
228
133
210
226
134
207
224
132
197
215
100
164
179
136
207
221
133
208
222
132
210
224
132
210
225
134
209
225
137
209
226
139
207
226
141
205
224
142
203
220
141
202
216
143
187
202
117
91
121
160
68
116
167
65
111
172
70
111
216
119
157
219
127
162
220
131
164
221
131
166
221
132
165
221
132
163
221
132
163
221
132
164
222
133
165
222
133
165
221
130
163
219
127
161
221
127
161
222
128
162
222
128
162
222
128
162
222
128
162
222
128
162
221
127
161
221
127
161
220
126
160
220
126
160
218
126
158
216
126
156
217
128
156
216
128
157
216
126
157
217
124
155
215
122
151
215
122
149
215
120
151
197
101
132
165
64
104
162
59
104
159
60
106
157
60
106
160
67
105
202
109
144
211
119
149
210
119
146
208
118
144
208
118
144
208
118
144
208
118
144
207
118
144
204
118
146
200
115
144
201
118
146
201
118
146
200
117
145
199
115
143
200
114
143
201
115
144
201
115
144
199
114
142
195
111
143
193
110
142
192
112
138
191
111
136
191
113
137
189
113
137
185
111
138
184
113
137
128
103
93
125
168
113
122
174
112
121
174
112
120
173
111
123
171
111
119
171
111
120
168
108
120
170
106
121
149
104
95
77
57
109
85
72
64
79
44
58
103
52
55
103
52
56
100
52
46
86
41
62
101
53
80
74
51
165
102
120
171
98
125
123
78
98
109
97
115
93
85
102
65
56
72
54
45
62
78
69
90
97
87
111
70
148
168
68
147
167
66
147
166
66
147
166
65
146
165
65
146
165
65
146
165
65
146
165
63
148
165
66
144
164
65
144
164
65
141
163
53
115
135
67
135
151
66
142
158
63
143
163
59
144
162
72
141
157
89
113
127
167
161
172
173
162
169
173
164
175
175
163
177
173
168
179
176
169
181
179
161
176
171
114
134
218
133
160
222
137
167
223
137
170
223
138
171
223
138
171
223
138
171
223
138
171
223
138
171
223
138
171
223
138
171
220
138
168
220
136
164
198
139
169
144
165
184
147
206
221
142
208
224
146
207
222
139
210
225
139
210
227
138
209
229
139
209
228
137
208
226
133
208
225
134
203
221
63
126
147
69
145
164
66
146
168
66
146
170
80
158
177
128
207
221
133
209
224
133
209
229
133
208
226
138
203
221
96
155
170
134
205
218
133
209
223
133
210
224
133
210
226
132
209
225
134
209
225
136
208
226
136
207
224
136
206
222
140
202
218
148
192
206
117
105
129
157
68
115
170
60
110
170
65
109
194
98
134
221
127
160
220
129
160
220
131
161
221
132
164
221
132
163
221
132
162
222
132
163
222
133
165
222
133
165
222
133
165
221
131
164
219
128
161
222
128
162
222
128
162
222
128
162
222
128
162
222
128
162
222
128
162
221
127
161
221
127
161
219
125
159
220
127
159
218
126
156
217
127
155
217
128
156
218
127
159
217
124
153
217
122
153
216
120
154
215
120
152
196
99
136
163
62
103
163
58
107
161
59
107
156
61
103
142
55
92
180
100
127
205
120
148
210
122
150
207
117
145
208
118
145
208
118
146
208
118
146
208
118
144
206
118
144
204
118
146
200
115
144
200
117
145
200
116
145
199
116
144
200
115
144
201
115
144
201
115
144
201
115
144
200
115
143
195
110
143
193
109
142
190
110
137
191
111
136
191
112
136
187
111
135
185
112
137
175
115
131
114
122
91
126
172
113
122
172
110
122
174
112
121
172
111
123
170
111
122
171
114
122
170
112
121
167
107
113
136
94
102
78
60
112
82
71
69
76
44
61
102
52
55
103
53
55
103
49
43
84
40
59
100
52
88
97
65
152
98
112
172
100
127
115
76
95
99
90
107
69
62
79
54
46
62
75
66
85
89
79
103
96
86
111
68
147
167
66
147
166
64
147
165
64
147
165
65
146
165
65
146
165
65
146
165
66
146
165
64
146
164
66
144
164
65
144
164
65
140
159
50
110
127
70
139
158
68
141
162
66
140
164
62
141
160
74
131
144
123
131
141
170
161
170
175
164
171
174
163
174
175
163
178
174
168
181
177
169
183
166
144
160
195
131
153
218
133
161
220
137
167
223
137
170
223
138
171
223
138
171
223
138
171
223
138
171
223
138
171
223
138
171
223
137
171
222
138
169
219
141
165
158
119
144
159
198
217
146
206
224
144
208
226
141
208
223
137
211
226
139
210
227
139
207
227
138
208
226
133
209
224
131
208
223
116
177
195
62
131
151
66
145
166
65
146
167
67
147
169
104
178
197
131
209
225
132
211
225
133
209
226
137
206
224
101
166
181
127
198
207
131
208
219
132
209
224
135
211
227
135
211
227
134
208
225
130
211
224
137
208
223
135
205
218
137
202
215
147
198
213
117
119
142
153
67
115
164
65
114
170
65
112
176
71
114
212
119
155
219
128
162
221
131
163
220
130
162
221
131
163
221
132
163
221
132
162
222
132
164
222
133
165
222
133
165
221
132
164
221
130
163
219
128
161
222
128
162
222
128
162
222
128
162
222
128
162
222
128
162
221
127
160
221
127
161
221
127
162
218
124
160
219
125
158
217
124
153
216
125
151
217
127
155
216
126
158
215
124
150
216
122
152
216
120
153
194
98
133
160
62
105
160
58
109
164
57
107
162
59
103
146
56
90
167
88
112
205
120
148
203
120
146
207
122
148
207
119
145
208
118
145
208
118
145
208
118
145
208
118
144
207
118
143
204
118
144
201
116
143
202
116
145
201
116
145
201
115
144
201
115
144
201
115
144
201
115
144
200
115
144
200
115
145
195
112
143
194
110
141
191
109
136
192
112
137
189
111
134
184
112
133
185
111
136
155
106
116
120
148
105
125
172
111
123
173
111
122
174
110
121
173
109
122
171
112
121
170
112
122
168
107
121
164
107
105
122
85
111
84
70
112
81
70
75
74
47
62
99
52
55
101
50
55
102
47
49
89
43
57
101
52
105
128
89
139
89
98
166
99
125
95
66
83
74
66
82
56
49
68
77
69
90
94
85
108
94
85
109
92
83
108
66
147
166
64
146
165
63
149
166
64
148
166
65
146
165
65
146
165
65
146
165
67
146
165
65
143
163
66
144
164
66
144
164
64
140
156
48
111
125
68
139
160
68
141
163
65
143
166
63
142
160
66
117
126
143
150
158
173
163
172
177
162
172
175
163
171
174
164
176
173
166
178
178
165
179
155
123
140
211
141
164
220
135
165
220
137
167
222
138
171
223
138
171
223
138
171
223
138
171
223
138
171
223
138
171
223
138
171
222
138
171
220
140
169
209
141
164
146
150
167
150
204
221
144
206
224
141
207
225
139
210
225
139
210
228
141
209
228
139
207
226
135
209
225
131
209
222
132
208
222
87
145
162
67
142
161
65
146
167
64
145
166
69
147
169
122
196
216
133
211
227
132
210
224
134
209
223
118
183
199
118
184
198
135
208
218
132
208
220
133
209
225
135
211
227
135
211
227
133
209
225
129
211
222
135
206
217
137
205
215
146
198
211
130
139
160
142
68
114
166
64
117
168
65
115
173
65
112
193
95
133
218
127
163
220
130
166
222
131
164
219
128
161
221
130
163
221
131
164
221
132
164
222
132
165
222
133
165
221
132
164
221
132
164
220
130
162
219
128
161
222
128
162
222
128
162
222
128
162
222
128
162
221
127
161
220
126
159
220
126
160
220
126
161
218
124
160
218
124
158
217
125
152
217
125
151
218
125
155
215
125
157
214
122
150
215
121
151
188
93
127
164
62
102
161
57
103
162
57
107
164
56
103
154
56
94
161
84
108
204
120
144
209
118
149
207
123
150
207
123
147
207
119
144
208
118
144
208
118
144
208
118
144
208
118
143
207
119
143
204
118
143
201
117
143
202
116
145
202
116
145
201
115
144
201
115
144
201
115
144
200
115
144
200
115
144
197
113
144
194
111
141
193
110
138
193
110
137
192
114
136
186
111
134
182
113
133
181
116
134
129
101
96
127
165
116
123
172
112
121
173
111
121
173
108
121
173
108
121
172
114
122
172
112
122
168
104
123
162
107
96
105
73
113
84
73
111
81
70
81
78
52
62
98
52
56
102
48
56
103
48
55
96
48
60
102
56
115
145
104
128
86
90
152
96
118
69
50
64
59
51
67
79
71
91
99
90
114
101
91
116
95
85
110
90
81
106
66
147
166
65
147
165
64
150
167
65
149
167
66
147
166
66
147
166
65
146
165
65
144
164
65
143
163
65
143
163
65
143
163
67
139
156
52
113
128
67
141
161
66
143
164
66
144
165
70
141
159
74
106
116
148
148
157
169
159
168
178
162
172
175
164
171
176
165
175
172
163
172
183
162
175
161
112
132
218
140
166
221
135
166
222
138
168
223
138
171
223
138
171
223
138
171
223
138
171
223
138
171
223
138
171
223
138
171
221
137
170
217
140
169
178
127
150
156
189
201
144
204
221
146
207
226
142
208
225
141
210
226
141
208
227
141
208
227
138
209
227
134
211
226
133
210
223
129
202
217
65
127
144
67
144
162
65
146
167
64
145
166
85
162
184
132
208
227
131
209
226
132
207
222
127
194
210
103
167
182
133
206
220
132
209
222
132
209
223
133
209
225
134
210
226
134
210
226
131
210
223
134
206
219
137
205
216
140
200
210
129
156
171
133
71
112
166
61
114
168
64
114
172
63
112
175
69
112
213
119
154
219
129
165
221
131
167
220
129
163
220
129
162
220
129
162
221
131
163
221
132
164
222
132
165
222
133
165
221
132
164
220
131
163
220
129
162
220
129
162
222
128
162
222
128
162
222
128
162
222
128
162
222
128
162
221
128
160
221
127
161
221
127
162
217
123
160
218
124
160
219
126
155
217
124
151
215
122
154
216
122
157
214
119
150
185
88
124
160
59
103
164
60
106
165
55
104
163
56
104
153
57
95
158
78
106
204
121
148
211
119
148
211
120
151
204
122
148
206
123
147
208
119
145
208
118
144
208
118
144
208
118
144
208
118
144
207
118
144
203
117
144
200
116
144
201
115
144
201
115
144
201
115
144
201
115
144
202
116
145
200
115
144
200
115
144
196
112
144
193
110
140
194
111
139
192
110
136
188
116
135
185
112
137
185
110
134
168
118
125
118
128
99
124
171
114
123
173
114
121
172
112
120
172
108
109
160
98
99
148
92
109
159
101
119
166
103
126
158
107
92
88
61
116
84
73
112
83
71
74
74
48
62
100
54
55
104
49
55
104
49
56
101
51
75
109
67
122
151
110
115
86
84
129
86
103
56
45
57
81
71
87
105
93
114
105
94
119
102
89
115
96
84
110
91
79
105
66
147
166
65
147
166
65
150
167
65
149
167
66
147
166
66
147
166
65
146
165
65
144
163
65
143
163
65
143
163
65
143
163
63
131
149
57
118
133
65
141
160
65
143
162
69
143
162
73
134
152
110
120
133
156
143
156
164
156
164
174
163
171
177
163
171
176
159
168
171
156
165
170
139
153
186
121
144
220
137
165
224
137
168
222
137
169
222
138
171
223
138
171
223
138
171
223
138
171
223
138
171
223
138
171
222
137
170
220
137
169
213
141
168
146
135
150
157
206
217
145
206
224
145
208
227
141
208
225
140
211
226
137
207
225
140
207
226
139
209
227
135
210
226
131
207
221
112
181
196
67
131
149
66
145
163
65
146
167
65
146
167
105
182
204
132
210
228
131
209
225
133
203
220
99
158
175
136
203
217
132
208
222
131
210
225
132
209
226
134
210
226
134
210
226
134
210
226
133
209
222
133
206
218
139
204
215
142
169
187
124
75
112
164
64
115
170
63
112
170
63
111
172
60
107
191
94
131
219
126
159
220
129
165
221
131
167
221
130
164
221
130
163
222
131
164
222
132
165
221
132
164
222
132
165
222
133
165
221
132
164
220
131
163
220
129
162
220
129
162
222
128
162
222
128
162
222
128
162
222
128
162
222
128
162
222
128
161
222
128
162
221
127
163
217
123
160
218
124
160
218
124
155
216
123
152
217
123
156
211
115
150
179
83
117
160
58
101
161
57
108
164
57
109
165
56
105
154
56
98
149
73
98
203
119
147
207
121
149
213
120
150
212
119
151
204
124
149
206
124
147
209
118
145
208
118
144
208
118
144
208
118
144
208
118
144
206
117
145
201
115
144
199
114
143
201
115
144
201
115
144
201
115
144
201
115
144
202
116
145
200
115
144
200
115
144
196
112
143
194
111
141
194
111
139
192
109
135
190
113
133
184
112
139
182
111
134
131
101
98
127
158
114
121
169
109
117
171
110
111
163
105
85
136
75
64
115
54
61
111
56
67
119
62
113
160
99
115
143
95
94
79
58
117
81
72
113
84
72
69
74
45
60
101
53
54
104
49
54
106
49
55
101
50
64
101
57
117
153
110
108
101
90
89
63
74
75
69
80
103
92
109
105
91
113
98
85
110
97
83
109
96
82
108
91
78
103
66
147
166
66
147
166
66
147
166
66
147
166
66
147
166
66
147
166
65
146
165
63
142
162
64
142
162
65
143
163
66
143
163
62
127
144
59
126
139
62
141
162
64
143
157
68
143
157
69
120
133
145
146
155
168
156
165
171
160
168
175
161
169
176
161
167
179
157
165
176
152
161
154
120
131
205
131
156
223
137
168
222
137
168
222
137
168
222
138
170
223
138
171
223
138
171
223
138
171
223
138
171
222
138
171
222
137
170
220
134
168
192
129
156
150
172
184
148
207
219
147
207
226
146
207
226
143
208
226
141
211
227
138
209
224
134
210
224
133
208
225
131
206
222
134
206
218
89
148
161
70
142
160
64
146
166
65
146
166
69
148
168
121
198
217
131
210
224
135
208
223
100
164
180
132
197
214
133
209
220
133
210
223
133
210
227
135
209
227
133
209
226
132
210
224
132
208
222
134
208
217
134
203
215
140
184
200
118
84
116
160
68
117
172
62
113
170
63
111
171
63
109
177
69
113
215
117
156
222
130
165
221
132
165
221
132
164
221
131
164
221
131
164
221
132
164
221
132
164
221
132
164
221
132
164
221
132
164
220
130
163
220
129
162
221
128
162
222
128
162
222
128
162
222
128
162
221
127
161
222
128
162
221
127
161
220
126
159
219
125
160
219
125
162
218
124
162
215
124
155
215
123
153
214
120
152
207
112
146
172
76
111
164
60
102
164
56
106
162
55
107
165
58
104
156
60
96
147
73
100
203
119
148
205
118
147
208
121
150
208
120
150
206
120
152
206
123
152
207
121
147
208
119
145
209
119
145
208
118
144
208
118
144
208
119
146
206
117
145
201
114
142
201
115
143
201
115
144
201
115
144
201
115
144
201
115
144
201
116
145
199
115
144
199
116
144
197
114
142
194
111
139
193
110
138
192
109
136
190
113
133
188
109
138
174
116
132
116
120
88
124
169
111
121
171
111
101
154
95
71
117
63
63
109
55
64
110
56
63
108
55
59
109
54
104
148
89
102
119
82
92
67
59
112
79
71
102
79
67
60
82
46
59
102
54
54
103
53
54
102
52
54
102
53
50
90
47
109
149
102
85
101
75
71
62
73
93
82
97
100
87
105
97
82
104
96
83
104
97
85
106
96
84
105
91
78
99
66
147
166
66
147
166
66
147
166
66
147
166
66
147
166
65
146
165
64
145
164
65
144
164
64
142
162
66
144
164
67
145
165
58
122
140
62
130
143
62
141
162
63
142
155
70
140
153
78
111
123
165
162
169
174
161
172
174
160
172
176
159
170
177
159
169
177
155
163
176
150
159
155
108
124
216
137
164
223
137
168
223
138
169
222
138
169
223
138
170
223
138
171
223
138
171
223
138
171
223
138
171
223
138
171
220
137
170
219
139
171
160
121
144
159
199
209
149
207
222
146
206
225
144
208
226
142
209
226
142
211
227
138
209
224
134
210
224
132
209
225
131
205
222
127
198
210
60
123
138
70
144
163
65
147
168
64
147
165
86
164
181
130
207
224
134
207
223
114
180
196
116
185
200
132
209
222
132
208
222
133
209
223
134
210
225
135
209
225
133
210
225
131
210
223
136
206
221
135
206
218
143
192
207
116
99
124
156
71
114
166
63
115
166
64
113
171
65
112
172
63
109
194
92
133
221
124
162
219
129
164
221
132
164
221
132
164
222
133
165
222
133
165
221
132
164
221
132
164
221
132
164
221
132
164
220
131
163
219
129
161
219
128
161
222
128
162
222
128
162
222
128
162
222
128
162
220
126
160
220
126
160
219
125
159
218
124
160
218
124
161
218
124
159
219
125
158
213
124
155
213
121
154
205
106
143
171
67
106
163
58
101
164
56
102
165
55
104
162
58
106
156
57
98
151
72
97
200
122
148
209
122
151
211
122
152
209
122
152
207
121
151
206
121
151
204
121
148
205
119
143
209
119
144
209
119
145
208
118
144
208
118
144
207
118
145
204
116
144
201
115
142
201
116
143
201
115
144
201
115
144
201
115
144
201
115
144
201
116
145
200
116
145
197
114
142
194
111
139
193
112
139
191
111
138
189
111
137
188
113
135
183
114
134
136
100
104
125
152
108
116
166
105
87
136
79
62
111
55
63
107
54
64
108
55
63
107
54
62
107
54
59
108
52
107
142
92
91
94
67
90
67
59
106
82
69
78
70
50
65
96
55
57
104
54
56
104
54
54
102
52
54
102
52
52
95
50
93
134
86
91
110
80
92
86
96
98
87
104
92
79
99
93
80
100
91
78
99
94
82
102
98
86
106
96
84
104
66
147
166
66
147
166
65
146
165
65
146
165
65
146
165
64
145
164
62
143
162
65
144
164
65
143
163
66
144
164
66
144
164
53
117
135
65
134
147
61
141
162
62
142
155
76
138
151
112
123
133
168
155
163
171
156
167
172
156
167
174
155
165
175
155
164
174
154
161
177
148
158
172
110
131
219
135
164
222
136
167
222
137
168
222
139
169
223
138
170
223
138
171
223
138
171
223
138
171
222
138
171
222
136
170
219
139
171
207
141
169
145
149
163
147
206
213
148
207
227
144
207
228
142
209
226
141
209
226
141
210
226
139
210
225
134
210
224
133
209
225
133
207
224
113
179
193
63
131
146
66
142
162
61
146
165
63
147
163
103
180
196
132
206
223
128
194
211
102
168
183
132
208
222
130
210
223
133
209
225
133
209
223
133
209
222
132
209
222
133
210
223
136
208
221
137
204
217
143
196
210
114
122
140
150
72
111
163
64
109
166
62
114
168
62
112
173
62
110
173
68
111
215
118
156
220
128
163
219
131
163
221
132
164
221
132
164
222
133
165
222
133
165
222
133
165
222
133
165
221
132
164
220
131
163
220
129
162
220
128
161
221
127
161
222
128
162
222
128
162
221
127
161
221
127
161
222
128
162
220
126
160
217
123
157
217
123
159
218
124
159
217
124
157
216
123
154
213
119
154
194
97
135
168
63
105
167
56
102
166
56
108
166
56
106
164
58
104
154
59
100
150
69
99
202
118
143
208
122
147
211
121
151
212
122
152
209
123
152
208
123
152
207
123
149
203
121
143
205
120
141
208
119
142
208
118
144
208
118
144
208
118
144
207
119
146
200
114
141
199
115
141
200
116
142
201
115
144
201
115
144
201
115
144
201
115
144
201
116
145
199
116
144
195
112
140
193
110
138
191
111
138
187
111
137
188
113
138
186
110
135
172
117
127
107
110
87
117
157
105
74
123
66
62
111
55
63
112
57
65
110
56
64
108
55
63
107
54
61
106
53
60
108
51
109
134
94
88
75
58
88
63
53
96
82
63
61
82
44
60
100
54
56
103
52
54
102
50
54
102
50
54
102
50
55
100
52
78
120
71
98
119
87
94
90
102
99
90
112
93
83
103
87
76
95
81
69
89
83
71
91
86
74
94
90
78
98
65
147
166
66
147
166
65
146
165
65
146
165
64
144
164
64
144
163
63
143
162
65
144
164
65
143
164
66
144
163
67
144
163
53
116
133
67
137
150
62
143
163
64
143
157
70
125
137
140
141
151
167
149
156
164
149
155
163
146
151
167
148
152
171
150
154
172
152
158
161
131
141
191
119
143
221
134
164
222
136
168
223
138
169
223
138
169
223
138
170
223
138
171
223
138
171
223
138
171
220
136
169
221
135
167
217
139
168
176
126
150
161
186
198
144
205
216
146
206
228
142
209
229
142
210
227
141
210
227
140
209
226
140
210
225
134
211
225
131
208
224
135
205
223
88
148
164
70
141
158
65
143
164
62
148
167
64
149
164
116
194
208
129
202
216
95
157
174
133
207
222
129
209
222
132
210
224
134
210
227
133
209
224
133
209
221
132
210
220
131
209
221
132
206
219
142
200
216
118
138
153
145
70
108
160
66
109
164
63
111
170
59
114
169
62
112
173
63
111
194
95
135
221
128
163
221
130
163
219
131
163
221
132
164
221
132
164
222
133
165
222
133
165
222
133
165
221
132
164
221
132
164
220
130
163
220
129
162
221
127
161
221
127
161
221
128
161
222
128
161
221
127
161
220
128
160
221
129
161
220
127
159
218
125
157
217
125
155
216
125
154
216
123
156
212
117
154
185
86
125
165
61
104
164
58
103
163
55
105
164
54
110
162
56
105
157
59
99
153
69
101
205
119
149
211
120
147
213
123
149
215
123
153
212
121
152
206
121
149
207
124
151
206
121
145
203
120
141
206
120
140
208
119
141
208
118
144
208
118
144
208
118
144
205
118
145
199
113
140
199
115
141
200
116
142
201
115
144
201
115
144
201
115
144
201
115
144
201
116
144
199
116
143
195
112
140
193
110
138
191
111
137
188
112
137
184
112
137
180
113
136
135
102
100
108
131
95
67
114
57
64
110
55
62
111
56
62
112
57
64
110
58
63
108
55
61
106
52
63
108
54
61
107
50
93
113
80
102
80
68
88
64
52
80
74
51
55
99
50
54
102
50
55
102
50
55
103
50
55
103
49
55
104
49
56
102
52
65
107
58
103
125
92
91
88
100
107
98
122
103
94
115
91
82
100
85
74
93
80
68
88
75
63
83
73
61
81
63
149
166
64
148
166
65
146
165
65
145
164
65
143
163
65
143
163
65
143
163
63
144
165
66
144
165
66
144
161
68
142
158
51
111
126
68
139
154
62
145
162
67
141
160
72
109
122
155
147
156
156
144
147
156
139
143
157
140
144
161
141
146
163
142
147
166
140
149
149
112
124
209
133
159
220
134
164
222
137
170
223
138
171
223
138
171
223
138
171
223
138
171
223
138
171
223
138
171
219
137
168
222
138
163
214
141
166
142
132
150
156
203
214
143
208
219
144
206
224
142
208
227
141
209
228
140
208
227
140
208
227
141
210
225
132
212
224
129
206
223
133
197
218
65
122
140
68
142
164
65
143
166
62
147
167
77
157
173
130
203
215
101
168
181
126
199
215
133
209
225
133
210
226
133
211
226
133
210
224
133
210
223
132
209
222
130
209
216
132
204
218
135
200
219
129
154
176
128
72
109
162
65
113
162
63
109
165
62
108
173
58
112
172
62
112
173
68
113
213
119
156
219
130
162
221
132
164
221
132
164
222
133
165
222
133
165
222
133
165
222
133
165
221
132
164
219
130
162
220
131
163
220
128
161
221
127
161
221
127
161
221
127
161
219
127
159
222
128
159
219
128
159
215
129
157
216
129
154
217
128
154
216
127
153
214
126
152
213
123
153
206
109
146
172
74
115
163
58
102
163
57
103
161
56
104
163
56
107
162
54
104
155
57
99
155
72
101
207
118
148
213
120
151
214
121
152
216
123
154
214
122
154
210
121
151
206
121
148
205
122
147
206
118
143
207
118
143
208
118
144
208
118
144
208
118
144
208
118
144
207
117
143
204
117
144
200
114
141
201
117
143
201
117
143
201
115
144
201
115
144
201
115
144
201
115
142
200
116
140
199
115
142
194
111
139
193
110
138
188
113
134
186
111
133
184
110
136
165
113
127
80
83
57
69
111
59
63
110
58
66
110
59
66
110
58
65
110
56
64
109
58
60
107
52
61
105
46
59
107
50
66
106
57
75
84
61
109
82
75
76
62
47
56
79
46
54
103
54
54
105
49
55
103
49
54
102
49
54
103
47
54
103
46
56
103
48
54
94
48
107
132
98
89
86
94
111
100
123
111
99
120
106
94
112
102
90
109
95
83
103
86
74
94
80
68
88
64
150
167
65
149
166
64
146
165
65
145
164
65
143
163
64
142
162
64
142
162
63
144
165
66
144
166
65
143
160
66
140
156
52
109
123
71
139
154
64
144
161
70
136
155
98
114
128
158
146
155
161
149
153
168
151
158
168
151
156
165
145
151
160
138
145
161
132
142
151
102
119
220
139
166
222
137
167
222
137
170
223
138
171
223
138
171
223
138
171
223
138
171
223
138
171
223
138
171
222
139
169
221
139
166
192
132
159
150
171
187
148
206
217
143
209
221
139
207
223
139
209
226
141
209
228
140
208
227
140
208
227
138
208
225
131
211
224
129
205
221
117
179
198
62
127
146
66
141
166
64
143
168
63
145
167
100
174
190
117
183
195
115
180
192
133
208
223
133
210
226
134
211
227
134
211
227
132
211
225
131
211
223
130
210
221
126
210
218
134
202
216
134
172
190
118
74
107
157
67
115
163
62
111
164
60
108
168
59
107
173
60
111
170
63
109
193
95
135
219
127
162
220
131
163
222
133
165
221
132
164
222
133
165
222
133
165
222
133
165
222
132
164
221
130
163
220
129
162
221
130
163
221
128
162
221
127
161
222
128
162
221
127
161
219
127
160
222
127
161
219
127
160
214
128
158
213
128
155
215
127
154
215
124
152
216
121
151
197
98
132
170
64
105
164
56
102
163
56
104
163
55
104
163
55
104
165
57
105
157
57
95
155
73
100
205
119
146
212
120
149
215
122
153
217
124
155
218
125
156
214
123
155
211
123
152
207
122
149
205
121
146
207
119
144
207
119
144
208
118
144
208
118
144
208
118
144
208
118
144
207
117
143
203
116
143
201
115
142
201
116
143
201
117
143
201
115
144
201
115
144
201
115
144
201
116
142
200
116
140
198
115
141
195
112
140
192
112
139
186
114
137
186
111
133
183
112
133
122
87
89
73
102
62
62
111
56
65
111
60
67
111
60
66
110
58
64
109
55
63
108
52
62
104
44
63
106
44
58
106
48
62
91
49
61
54
38
105
80
72
61
62
39
62
97
54
57
104
52
57
104
48
56
103
49
55
103
50
55
103
49
54
102
49
55
103
51
48
89
43
105
130
96
78
76
80
95
83
102
96
84
102
100
87
105
106
94
113
105
93
113
91
79
99
87
75
95
64
150
167
64
148
166
63
145
163
65
145
164
67
145
165
67
145
165
66
144
164
65
145
167
67
145
166
66
145
162
66
140
155
53
106
120
72
138
153
63
140
156
72
130
150
125
127
142
165
149
158
168
157
162
175
159
167
176
158
166
173
153
162
164
143
152
166
136
146
165
105
125
221
134
163
221
137
167
223
138
171
223
138
171
223
138
171
223
138
171
223
138
171
222
137
170
223
138
171
221
139
168
215
141
167
154
124
148
158
198
216
146
207
221
146
208
223
140
208
223
139
209
226
141
209
228
140
208
227
139
207
226
135
207
226
130
209
225
131
206
220
92
152
168
66
140
160
67
144
171
63
143
171
67
143
167
115
182
199
101
160
172
135
206
216
132
210
224
133
210
226
135
211
227
135
210
227
132
210
224
130
208
221
129
207
219
131
203
213
137
189
200
113
87
116
153
72
115
162
63
114
161
61
110
163
63
109
170
58
106
173
62
109
173
71
112
216
122
157
219
129
161
221
132
164
222
133
165
222
133
165
222
133
165
222
133
165
221
132
164
221
131
164
222
128
162
222
128
162
222
128
162
222
128
162
222
128
162
222
128
162
222
128
162
219
127
162
220
126
162
217
125
161
212
126
158
214
124
155
216
123
154
215
116
149
188
88
122
169
62
100
172
60
105
167
57
105
163
55
106
161
56
105
160
60
105
151
55
96
162
79
107
206
121
150
209
121
149
213
120
151
216
123
154
217
124
155
217
125
156
210
122
153
210
124
153
207
121
148
205
119
145
207
119
144
207
119
144
208
118
144
208
118
144
208
118
144
207
117
143
207
117
143
203
116
142
201
115
142
200
116
142
200
116
142
202
116
145
202
116
145
201
115
144
201
116
143
199
115
139
194
111
137
193
110
138
190
112
139
185
111
138
183
110
133
156
108
116
74
84
56
64
109
58
63
110
56
66
112
62
67
111
60
66
110
58
64
108
55
62
106
50
62
106
46
62
106
49
68
103
55
67
74
44
93
70
62
92
74
63
58
79
45
60
101
50
57
104
49
54
104
46
54
104
48
55
104
50
54
102
51
55
103
54
54
102
53
51
91
46
99
120
87
66
64
64
81
69
83
83
71
87
92
78
96
103
90
110
106
94
114
96
84
104
94
82
102
64
150
167
63
147
165
63
144
163
64
144
163
66
144
164
66
144
164
66
144
164
64
146
165
65
145
165
66
144
162
66
140
158
53
106
120
72
139
152
63
142
156
68
116
133
156
150
166
172
157
166
171
160
168
174
159
170
180
163
173
179
159
168
170
149
156
154
126
136
191
122
145
220
132
162
221
138
167
223
138
171
223
138
171
223
138
171
223
138
171
223
138
171
222
137
170
222
138
171
218
137
166
203
137
163
140
149
165
146
206
220
142
209
226
143
208
226
140
208
225
140
209
227
141
209
229
140
208
228
138
209
228
133
208
227
128
209
224
133
202
218
67
128
146
67
144
167
65
146
175
63
143
168
76
146
166
85
148
164
132
201
213
132
206
218
132
211
224
132
211
225
133
211
225
134
210
224
134
205
220
130
205
220
129
205
217
141
195
203
107
102
122
150
70
114
163
64
113
161
62
114
161
63
113
159
65
110
167
60
107
172
62
107
192
95
131
219
127
161
220
131
164
222
133
165
222
133
165
222
133
165
222
133
165
222
133
165
222
131
164
221
130
163
222
128
162
222
128
162
222
128
162
222
128
161
223
128
161
222
128
162
222
127
162
221
127
163
219
126
162
215
124
159
213
124
158
215
122
154
204
106
139
175
70
105
169
61
97
169
60
99
169
58
103
165
56
101
164
56
102
161
57
101
146
55
93
163
82
113
207
119
151
210
121
153
210
120
153
212
121
153
216
123
154
217
123
154
215
123
153
209
122
149
209
123
149
205
120
146
204
119
144
207
119
144
207
119
144
208
118
144
208
118
144
209
117
144
208
116
144
207
115
143
203
115
143
201
115
143
201
115
143
201
116
143
201
117
143
201
116
143
200
115
143
200
115
143
199
115
142
196
114
141
193
112
139
186
111
138
186
109
138
175
109
126
98
84
73
68
107
62
61
111
56
63
110
57
62
111
60
64
111
60
65
110
57
63
107
52
61
105
50
59
107
47
58
106
52
64
87
54
87
74
58
108
75
70
76
65
50
54
88
47
56
102
49
55
102
48
54
104
47
55
104
50
55
104
52
55
103
53
55
103
54
54
101
53
56
95
50
85
106
79
56
55
52
69
57
65
69
56
69
80
66
84
96
84
106
103
92
115
101
90
113
101
91
114
63
149
166
62
146
164
64
146
164
65
145
164
66
144
164
65
143
163
66
144
164
64
146
165
64
145
164
64
142
162
67
140
161
51
104
119
70
139
151
65
141
155
83
112
127
169
162
177
173
160
170
175
162
172
178
164
176
181
164
175
177
157
166
169
147
154
147
115
125
209
135
160
222
135
164
222
138
168
223
138
171
223
138
171
223
138
171
223
138
171
223
138
171
222
137
170
222
137
170
221
137
169
175
123
148
160
190
200
143
207
219
142
209
228
141
209
228
140
209
228
140
209
229
142
208
230
141
208
229
136
210
229
132
209
227
129
207
223
124
186
205
63
127
146
65
143
166
63
144
172
68
145
165
61
127
141
122
190
202
132
207
221
133
209
223
133
211
223
133
211
223
132
211
222
130
209
220
132
204
217
130
206
218
140
197
210
115
124
142
145
73
112
164
65
114
162
66
114
162
64
116
163
65
115
163
65
111
170
63
110
176
71
112
215
120
153
217
127
159
221
131
164
222
133
165
222
133
165
222
133
165
222
133
165
222
133
165
222
131
164
221
130
163
222
128
162
222
128
162
222
128
162
223
128
161
223
128
160
222
126
161
220
124
161
220
124
161
218
126
161
218
125
161
216
116
154
192
89
127
169
62
101
172
61
102
170
58
98
167
57
98
164
56
101
161
57
98
165
61
101
146
52
88
171
92
120
208
122
153
211
120
152
216
124
157
214
123
156
214
123
156
217
123
154
217
122
153
212
121
149
207
120
145
206
120
145
205
120
144
205
120
145
207
119
144
207
119
144
208
118
144
209
118
144
210
117
144
207
116
144
205
114
143
202
114
144
201
115
144
201
115
144
201
115
143
201
117
141
200
116
141
198
113
142
199
114
143
197
113
142
192
112
139
188
110
137
183
110
137
169
96
120
106
63
67
72
95
60
63
111
59
63
112
60
64
111
59
62
112
60
63
111
60
64
111
57
63
107
51
61
104
48
58
107
46
58
103
53
54
66
42
101
80
68
112
78
72
63
56
37
57
95
53
54
102
51
55
103
50
56
105
50
55
104
52
55
103
53
55
103
53
55
103
53
52
99
51
56
95
49
67
90
66
57
55
54
69
57
67
69
56
72
83
70
90
100
88
112
105
95
120
107
97
122
109
99
124
63
149
166
62
146
164
64
146
164
65
145
164
66
144
164
65
143
163
65
143
163
64
146
164
64
145
164
64
142
162
68
141
162
52
105
122
70
138
149
70
136
150
108
121
137
170
165
179
166
157
166
168
154
165
172
158
170
172
155
166
167
145
154
165
141
148
148
104
118
216
138
164
222
135
164
221
137
167
223
138
171
223
138
171
223
138
171
223
138
171
223
138
171
222
137
170
222
137
170
214
136
169
144
134
152
153
205
215
141
208
221
141
208
227
141
209
228
140
210
228
140
209
229
141
208
229
140
208
229
136
209
228
130
208
226
132
204
222
104
159
179
68
138
156
64
143
164
64
141
163
64
134
153
102
164
177
134
205
218
132
210
222
133
211
224
133
211
222
133
210
221
132
209
219
131
208
219
130
206
216
134
202
209
120
135
154
138
73
114
163
64
114
162
63
112
159
64
112
162
61
112
165
63
112
166
63
110
165
63
106
197
100
136
221
130
159
221
131
161
222
132
164
221
132
164
221
132
164
221
132
164
222
133
165
221
132
164
221
130
163
221
129
162
222
128
162
222
128
162
221
127
161
222
127
160
222
127
159
221
126
161
218
122
159
217
123
159
218
119
157
206
104
142
176
71
111
169
58
103
169
60
105
166
59
103
164
57
100
162
56
101
159
57
103
157
60
99
140
50
83
181
103
129
205
124
151
212
123
151
215
122
153
216
122
153
215
121
152
216
122
155
216
121
153
216
121
152
210
120
148
207
121
146
204
118
143
204
120
144
205
120
144
207
119
144
207
119
144
208
118
144
209
118
144
209
118
144
206
117
144
202
116
143
201
115
144
201
115
144
201
115
144
201
115
143
200
116
141
200
116
141
199
114
142
197
113
142
193
111
139
189
111
137
185
110
135
166
92
119
117
61
74
72
77
51
65
108
60
61
111
58
62
113
60
64
112
60
63
112
60
63
110
59
63
110
56
61
108
51
60
106
49
60
105
51
64
93
54
70
60
46
101
73
63
112
79
71
67
65
44
62
102
58
54
102
50
56
104
51
56
105
50
55
103
50
54
103
50
54
103
50
54
102
49
52
98
47
55
96
49
49
73
47
67
66
70
79
68
84
78
68
86
87
76
98
98
88
112
103
94
119
105
96
120
108
99
123
63
149
166
62
146
164
63
144
163
63
143
163
66
144
164
65
143
163
65
143
163
63
145
164
64
145
164
65
143
163
66
139
160
53
104
122
70
139
150
71
127
141
140
145
162
172
168
182
165
160
168
168
154
165
173
158
171
167
149
160
162
140
149
166
141
149
164
108
126
218
135
163
220
134
163
222
138
167
223
138
171
223
138
171
223
138
171
223
138
171
223
138
171
222
137
170
220
136
169
187
127
155
149
174
188
145
205
217
145
208
224
141
208
227
140
208
227
140
210
228
140
209
229
141
207
229
139
207
228
134
208
227
129
207
224
134
202
222
78
133
153
68
142
159
62
143
162
68
141
159
77
136
152
136
202
217
133
207
219
132
211
223
132
211
224
135
210
221
134
209
219
132
207
217
132
207
218
135
201
213
129
155
169
130
69
108
161
66
116
161
67
114
162
64
113
163
60
111
162
60
110
165
60
109
170
61
108
173
72
114
216
124
158
219
131
159
221
131
160
222
131
164
221
132
164
221
132
164
221
132
164
221
132
164
220
131
163
220
129
162
220
129
162
221
127
161
221
127
161
221
127
161
221
127
160
221
126
158
219
124
158
219
123
160
212
118
154
189
88
126
171
60
102
170
58
101
167
58
107
165
58
106
162
57
105
161
56
104
160
57
106
155
58
105
143
57
92
192
113
139
207
124
150
211
123
149
215
122
149
217
122
152
217
122
152
216
121
151
216
120
152
216
119
152
216
121
151
207
120
147
205
119
144
204
118
143
204
120
144
204
120
144
207
119
144
207
119
144
208
118
144
208
117
143
208
116
143
204
118
144
201
118
144
201
115
144
201
115
144
201
115
144
201
115
143
200
116
140
201
117
142
201
116
144
196
113
141
191
112
138
186
110
136
161
89
113
126
61
83
80
62
55
71
105
61
65
109
55
61
110
58
61
113
60
64
112
60
63
112
60
64
109
59
61
108
54
59
107
50
56
106
48
62
102
54
67
77
49
95
74
64
104
70
61
112
80
70
67
69
45
59
102
55
54
102
50
56
105
51
56
105
50
55
104
48
54
103
48
54
103
48
53
102
47
52
99
45
55
97
49
50
73
48
69
70
77
78
70
92
78
69
92
80
71
94
84
76
100
100
92
116
110
102
126
109
101
125
63
150
167
62
146
164
64
145
164
63
142
162
62
143
162
62
142
162
62
143
162
63
145
164
66
144
164
65
143
163
67
140
161
53
106
126
70
138
154
67
111
123
157
159
170
169
164
172
173
163
172
176
165
174
172
160
168
166
147
156
168
146
153
166
136
144
183
117
137
219
136
162
220
133
163
222
138
168
223
138
171
223
138
171
223
138
171
221
136
168
222
137
170
220
137
169
216
140
170
150
125
147
161
198
213
143
207
222
143
208
226
140
208
227
141
209
228
142
210
229
142
210
229
140
208
227
136
208
226
133
208
225
132
208
227
129
195
210
59
124
141
63
141
163
65
141
161
61
127
143
129
193
210
131
204
222
133
209
225
133
210
225
132
210
223
135
209
221
134
207
216
135
203
214
131
203
213
128
170
183
118
76
106
156
68
111
167
63
113
165
63
113
164
61
112
164
60
111
164
59
109
162
60
107
171
60
108
200
98
140
220
127
160
218
132
160
220
132
160
221
132
162
221
132
164
222
132
165
222
132
165
222
130
163
221
128
162
221
127
161
221
127
161
221
127
160
220
128
162
218
127
162
215
123
159
219
123
159
219
121
158
198
101
138
175
70
110
169
59
102
171
58
104
171
58
106
167
57
107
165
55
105
163
54
104
161
58
105
154
57
100
156
68
102
207
118
150
210
122
152
212
121
151
214
121
151
217
122
153
214
120
151
215
120
151
215
120
152
215
119
152
215
118
151
212
120
150
206
120
146
207
118
143
207
118
144
207
118
144
207
118
144
207
119
143
208
118
143
207
116
144
206
116
143
202
114
141
200
114
142
200
115
144
201
115
144
200
115
144
200
115
144
199
116
144
199
116
142
199
115
142
196
113
140
192
110
135
185
111
133
162
90
113
130
58
84
97
59
65
72
91
58
65
109
55
62
112
59
65
110
60
65
111
59
65
110
57
63
110
56
64
107
55
63
105
52
58
107
49
58
105
48
67
92
50
90
75
58
107
75
69
103
66
64
108
80
70
64
75
44
58
102
51
55
105
45
56
105
48
56
105
50
54
102
51
54
102
52
55
103
51
54
102
49
51
101
46
54
98
49
50
75
48
69
68
75
74
66
85
73
65
84
72
64
83
71
62
82
80
71
91
99
90
112
106
96
120
63
150
167
62
146
164
65
146
165
66
145
164
64
145
164
64
145
164
63
144
163
63
145
163
67
144
164
65
143
163
66
140
161
51
106
124
71
137
152
76
107
119
154
152
161
154
145
153
151
137
147
158
145
155
166
151
160
172
152
160
172
150
157
158
126
134
203
131
152
220
136
162
221
135
164
221
136
167
223
138
171
223
138
171
222
137
170
221
136
168
222
136
168
221
136
168
198
134
162
150
160
176
152
202
217
143
207
224
144
207
226
141
209
228
141
209
228
142
210
229
142
210
229
139
209
227
134
209
225
132
208
224
131
205
223
112
173
190
63
131
148
68
142
164
62
133
152
108
169
186
134
203
220
131
206
223
132
208
224
133
210
224
131
209
222
132
209
219
132
205
217
129
205
213
137
181
194
115
84
110
159
68
109
163
64
106
164
63
110
165
63
113
164
62
112
164
62
112
164
59
109
162
60
107
171
61
109
203
100
142
221
127
160
219
131
161
221
131
160
220
132
162
219
132
164
220
133
165
220
133
165
222
130
162
222
128
161
221
128
160
221
128
160
221
127
160
220
126
161
218
123
160
218
121
159
205
107
145
179
78
116
168
63
103
169
60
102
170
59
102
171
58
103
169
57
104
165
58
107
165
56
104
161
58
102
147
55
94
167
84
117
209
120
153
215
124
155
213
122
153
214
121
152
215
122
153
218
123
155
215
121
153
215
120
152
215
120
152
215
119
152
215
118
151
211
120
149
208
122
148
208
118
144
208
118
144
208
118
144
208
118
144
207
119
143
208
118
144
208
117
145
205
115
142
203
115
143
201
115
144
199
114
143
200
114
144
200
115
144
200
115
144
199
116
144
197
114
139
194
112
136
192
109
134
184
105
130
151
75
107
133
52
90
112
55
75
72
78
57
68
106
62
61
111
56
61
112
60
66
110
60
66
110
59
66
110
57
64
108
52
63
105
48
60
105
47
58
107
49
63
104
55
70
74
44
108
83
68
108
75
68
99
64
61
100
77
63
65
82
46
57
102
49
55
105
46
55
104
49
55
103
51
55
103
53
55
103
53
55
103
51
54
102
49
52
101
47
57
96
50
50
69
47
71
68
77
72
65
83
71
64
82
69
62
80
71
62
80
72
61
80
80
70
91
95
85
107
62
149
166
61
145
163
64
145
164
65
144
164
64
145
164
66
147
166
62
143
162
64
146
164
68
145
165
65
143
163
67
142
162
54
114
128
72
135
148
97
112
124
158
149
157
157
144
152
150
132
141
149
131
140
161
143
152
176
156
164
181
158
165
156
117
128
215
136
160
221
137
163
223
137
166
223
137
168
222
137
170
223
138
171
222
137
170
221
137
170
221
139
168
218
136
168
163
119
147
155
193
207
143
208
222
143
209
227
142
208
226
139
210
228
137
208
226
139
210
228
138
209
227
137
210
227
135
211
227
130
209
224
131
203
219
95
149
167
68
139
157
74
140
161
78
136
154
133
203
222
132
207
225
136
207
224
135
207
223
134
210
223
132
210
221
131
207
216
132
202
217
135
195
206
113
98
122
151
72
112
165
63
105
163
61
106
164
61
110
163
61
111
163
61
111
163
62
112
164
60
109
163
59
107
169
61
108
183
79
122
219
123
160
218
127
160
221
128
160
221
131
163
220
132
164
221
132
164
220
132
164
221
129
159
220
127
157
221
128
158
221
128
158
221
127
160
220
122
158
216
114
153
189
84
125
170
61
105
168
60
103
168
61
104
168
60
101
170
60
102
171
60
103
170
58
104
164
56
105
159
59
102
146
57
90
183
99
127
211
123
154
210
120
151
213
122
153
214
122
153
216
123
154
217
124
155
218
123
155
217
123
154
216
121
153
215
120
152
216
119
153
215
118
151
210
119
148
207
120
147
208
118
144
208
118
144
208
118
144
208
118
144
207
119
143
208
118
144
209
118
146
208
118
145
204
117
144
201
115
144
200
114
144
201
115
144
200
115
144
200
115
144
197
114
142
194
111
140
192
109
138
177
95
123
143
64
94
133
54
89
123
55
82
76
64
54
66
106
61
62
113
59
63
112
58
64
111
60
66
110
60
66
110
59
65
109
56
64
107
51
62
106
47
58
107
49
62
103
51
60
80
46
95
75
61
116
82
72
108
79
68
90
63
54
79
74
52
61
92
48
55
103
49
55
104
49
55
104
52
55
103
55
55
103
55
55
103
53
54
102
50
54
102
49
53
101
48
62
94
54
51
61
49
69
61
76
72
61
81
71
60
80
66
55
75
65
53
71
68
56
74
86
73
93
96
84
104
62
149
166
61
145
163
64
145
164
65
144
163
63
143
162
65
145
164
62
143
162
64
145
164
67
145
165
66
144
164
67
143
163
54
115
128
72
131
142
113
120
131
159
146
154
159
144
151
160
139
147
158
138
146
165
145
154
176
156
164
181
157
164
153
106
119
219
136
161
221
137
164
223
136
166
223
136
168
222
137
170
223
138
171
223
138
170
223
137
170
221
139
167
211
138
165
145
143
162
149
205
218
138
210
225
140
211
228
138
211
226
139
210
228
138
208
226
139
209
228
137
209
226
135
210
226
133
210
226
128
208
222
133
202
218
67
123
145
71
142
162
63
123
142
132
191
208
131
206
226
131
208
227
138
207
225
138
208
224
135
209
222
131
209
218
130
207
215
138
197
213
112
115
141
151
70
113
163
62
111
163
62
109
163
60
110
163
60
111
162
62
111
161
61
111
161
61
110
163
60
108
164
59
107
166
60
107
169
62
107
196
98
136
219
124
161
221
126
161
221
128
161
219
127
160
220
127
160
220
127
160
221
129
159
220
128
158
220
127
157
220
127
158
214
117
152
188
88
125
174
65
107
173
57
103
175
59
106
170
59
105
165
59
103
167
59
99
169
60
101
170
59
102
169
61
104
153
55
98
155
71
103
204
115
144
216
122
150
216
123
152
214
122
151
215
124
155
215
124
155
217
124
155
218
124
156
218
123
155
217
122
154
216
121
153
216
120
152
215
119
153
215
118
151
210
120
149
206
120
146
208
118
144
207
117
143
208
118
144
208
118
144
207
119
143
208
118
144
208
117
145
207
116
145
203
115
144
201
115
144
200
114
144
201
115
144
200
115
143
200
114
143
196
112
140
188
105
139
158
76
110
139
55
92
136
53
90
126
57
81
80
63
53
69
102
60
63
110
55
66
111
56
64
111
58
63
112
60
65
111
59
66
110
59
64
110
57
62
108
53
58
106
50
57
106
53
64
94
53
62
60
41
98
74
64
120
79
72
113
82
69
84
65
51
60
79
45
56
101
50
55
104
49
55
104
51
54
103
54
55
102
56
55
103
56
55
103
53
54
102
50
54
103
49
54
101
48
60
88
52
63
63
61
84
71
90
89
72
93
88
71
91
79
63
84
74
60
78
74
61
78
88
75
94
98
85
106
63
149
166
62
146
164
64
145
164
64
144
164
65
143
163
65
143
163
65
143
163
65
143
163
66
144
164
65
143
163
64
141
161
58
119
138
72
117
129
113
117
125
151
138
145
150
136
141
157
136
143
167
144
152
174
153
161
175
159
166
178
149
158
168
110
127
219
135
162
221
135
164
222
135
167
222
135
167
222
137
168
223
138
169
223
138
169
221
137
169
219
137
165
181
126
150
160
184
201
144
206
224
141
209
226
139
211
226
136
211
226
139
210
230
141
207
229
139
208
229
137
208
227
134
209
226
131
210
225
129
206
221
124
187
203
62
125
146
65
129
149
108
167
182
136
203
219
132
205
221
135
207
226
139
206
226
132
207
222
131
209
219
131
208
216
134
201
209
116
140
155
140
74
111
164
66
110
163
61
109
162
58
113
162
58
114
163
59
111
164
61
111
163
61
111
161
61
111
163
60
107
165
59
107
165
59
107
168
60
109
169
62
107
200
97
138
219
120
159
219
126
161
217
126
159
218
127
159
219
128
161
219
127
161
217
123
159
215
119
156
194
96
133
173
70
112
169
60
105
170
58
104
170
56
103
170
57
104
171
60
107
166
57
105
165
59
102
169
60
102
167
61
102
148
53
90
174
90
120
210
120
151
215
123
152
216
123
153
216
123
154
217
124
155
217
124
155
216
123
154
217
124
155
217
122
154
217
122
154
216
119
152
217
120
153
216
119
152
214
118
151
213
119
151
209
118
147
208
118
146
208
118
144
208
118
144
208
118
144
208
118
144
208
119
142
208
118
144
207
116
145
204
114
145
202
113
145
201
113
145
199
112
144
200
114
142
199
113
140
197
111
139
178
94
122
145
64
94
138
56
90
137
53
93
130
56
91
97
54
63
72
96
61
63
111
56
62
112
56
62
111
56
62
111
56
64
113
58
64
112
59
64
112
63
60
108
55
59
108
51
58
106
51
64
102
52
67
74
45
94
75
62
99
73
63
116
80
71
106
80
67
52
53
29
56
92
51
53
104
51
54
105
50
54
106
53
54
103
54
55
101
56
55
101
57
55
103
53
54
103
49
54
102
50
54
100
49
57
78
53
90
81
88
95
79
96
101
81
100
98
81
99
83
69
86
79
66
84
83
69
88
91
77
99
98
84
107
63
149
166
63
147
164
64
145
164
65
145
164
66
144
164
65
143
163
63
141
161
65
143
163
66
144
164
64
142
162
63
141
160
61
127
145
64
102
116
127
129
138
158
145
152
153
141
145
152
132
139
167
146
153
178
161
168
178
164
171
172
141
151
192
122
144
221
135
162
221
135
163
222
136
165
222
135
166
222
137
168
223
138
169
223
138
169
221
139
169
218
138
169
145
134
151
155
202
216
146
205
225
144
206
227
142
208
227
139
209
227
139
210
230
140
207
228
137
209
229
134
209
226
133
210
226
131
209
225
132
206
222
106
166
181
71
137
158
88
152
170
136
203
218
136
204
220
138
208
223
136
208
223
137
209
221
136
207
219
134
206
219
141
202
213
133
163
173
161
107
139
134
60
96
162
65
109
164
59
113
163
58
116
162
60
115
163
60
112
163
60
112
163
60
112
160
60
111
163
60
107
165
59
107
166
60
108
167
59
107
170
61
106
172
61
105
180
74
115
192
94
131
202
106
142
203
107
144
203
107
144
197
99
138
184
83
123
170
66
107
168
60
103
169
61
105
170
60
105
172
60
106
172
59
107
171
58
108
171
58
107
170
58
104
168
61
105
159
62
99
142
57
86
187
106
131
212
123
155
215
123
155
217
123
153
218
124
155
217
124
155
218
125
156
218
125
156
216
123
154
217
124
155
217
122
154
217
121
153
216
119
152
217
120
153
216
119
152
212
119
151
210
120
151
208
116
146
209
116
145
209
118
144
208
118
144
208
118
144
208
118
144
207
118
141
207
118
143
205
115
144
202
113
144
200
112
144
198
111
143
197
111
143
199
113
141
194
107
138
161
76
109
141
54
91
139
55
88
141
53
89
133
55
84
101
56
67
74
87
63
67
109
62
63
111
56
61
113
57
63
113
57
63
112
57
63
113
58
64
112
60
63
111
59
60
108
53
59
106
51
64
104
54
63
73
40
104
80
68
108
75
67
103
72
62
116
79
70
89
73
55
61
84
47
60
100
55
53
105
51
55
106
50
54
105
50
55
103
54
55
101
55
55
101
54
54
103
49
54
104
48
54
100
50
58
94
52
70
74
67
110
96
110
99
82
101
90
71
91
86
70
88
81
65
84
84
68
87
92
75
95
96
79
101
100
83
107
63
149
166
63
147
164
64
145
164
65
145
164
66
144
164
66
144
164
66
144
164
66
144
164
66
144
164
66
144
164
65
142
162
66
135
152
62
93
109
139
138
148
169
157
163
169
159
162
164
146
152
170
151
157
179
163
170
183
166
173
163
129
140
206
132
155
221
135
160
222
136
162
222
136
164
222
136
165
222
137
168
222
137
168
223
138
169
220
136
166
191
130
158
145
172
186
146
204
221
147
205
228
144
206
229
142
208
230
140
209
230
139
209
230
138
207
228
136
210
229
132
210
227
131
211
226
132
209
224
135
205
223
83
142
158
82
150
170
129
201
218
134
206
219
133
204
220
138
206
221
138
209
221
138
208
219
147
203
222
142
202
217
147
180
191
160
124
144
213
130
166
173
100
133
148
60
101
162
61
113
162
59
113
164
59
109
165
61
107
163
61
108
163
62
108
161
61
107
163
60
107
165
59
107
166
60
108
166
59
107
166
60
104
170
60
104
171
61
104
169
62
105
169
62
106
169
62
106
167
60
104
167
61
107
167
60
106
170
60
107
172
60
108
172
60
106
172
60
106
172
60
106
173
59
109
169
57
108
164
58
103
165
62
103
152
59
93
149
68
94
198
116
142
213
125
152
213
123
155
216
123
155
218
123
153
218
124
154
218
125
156
218
125
156
218
125
156
216
123
154
216
123
154
217
122
154
216
120
152
216
119
152
217
120
153
216
119
152
214
119
152
210
118
149
209
117
147
209
118
146
208
118
144
208
118
144
208
118
144
208
118
144
206
121
142
205
119
143
201
115
143
199
112
143
198
111
143
198
112
144
196
111
142
184
98
132
151
65
101
140
52
91
141
53
93
140
54
90
135
56
89
105
59
69
72
81
53
68
109
61
67
110
56
65
111
56
62
113
57
63
114
58
63
114
58
63
114
59
63
110
61
61
108
54
60
107
52
61
104
55
57
80
45
96
79
63
117
82
71
117
78
69
101
69
59
113
81
68
66
70
43
61
100
52
57
102
50
55
105
50
56
108
51
53
104
48
55
102
52
57
101
55
58
101
51
54
103
47
53
103
47
55
98
50
59
85
53
95
85
93
119
100
121
118
101
120
107
90
111
98
80
102
93
75
97
96
76
97
100
79
100
101
80
104
102
81
107
63
148
164
62
145
162
64
144
164
65
144
164
67
145
165
66
144
164
66
144
164
66
144
164
66
144
164
66
144
164
66
144
164
66
138
155
44
79
94
144
138
149
172
160
167
172
162
165
164
148
154
168
153
158
177
161
168
181
163
170
156
115
128
214
138
161
222
136
161
222
136
161
222
137
162
221
136
163
221
138
166
222
138
168
222
138
170
219
138
169
149
128
147
160
200
217
142
207
225
143
207
228
143
208
229
142
209
229
139
210
230
141
209
230
140
208
229
136
210
229
132
211
227
130
212
226
135
210
225
135
202
219
67
129
146
116
187
204
133
207
224
136
208
224
136
208
223
138
208
222
139
208
220
138
208
221
142
207
224
152
193
211
149
116
139
213
132
164
218
128
163
216
128
164
163
78
113
156
64
105
161
60
105
167
59
105
166
61
104
164
62
105
163
63
105
161
63
105
163
60
107
164
60
107
166
59
107
165
59
107
163
59
105
167
60
106
168
61
106
166
59
105
167
60
107
166
60
107
165
60
106
163
59
105
164
60
106
165
58
105
167
58
105
172
60
106
171
61
106
172
60
106
173
59
108
170
58
107
160
60
101
142
55
88
163
85
111
210
122
151
213
122
154
213
123
154
215
123
155
215
122
153
218
124
155
218
124
155
218
125
156
218
125
156
218
125
156
217
124
155
216
122
153
215
120
152
216
119
152
217
119
152
217
119
152
215
119
150
213
119
150
211
118
148
208
118
146
207
118
146
208
118
144
208
118
144
208
118
144
207
118
144
204
118
143
201
115
142
200
114
143
199
112
142
202
114
146
195
108
143
169
84
117
143
56
97
141
53
92
139
51
90
140
50
89
139
52
89
117
59
81
67
71
51
67
109
60
61
112
55
64
111
54
63
111
57
64
112
57
64
113
58
64
113
58
63
112
57
63
108
57
63
108
54
60
104
53
47
86
42
57
70
40
107
83
71
118
83
72
113
78
70
95
66
56
104
79
63
61
78
43
53
104
48
52
103
48
55
104
51
56
107
53
54
103
51
56
102
54
58
102
54
59
102
50
55
102
46
54
103
45
56
95
52
49
64
42
109
93
105
123
98
125
124
106
130
121
104
126
110
92
115
104
85
109
104
83
105
104
82
105
105
83
106
104
81
106
66
148
164
63
144
162
63
142
162
65
143
164
67
145
165
67
145
165
66
144
164
66
144
164
66
144
164
66
144
164
66
144
164
66
139
156
50
90
102
146
138
148
172
160
168
171
159
163
170
153
159
178
164
169
180
167
172
186
168
174
158
109
124
218
139
162
222
136
161
222
136
161
221
137
161
221
137
161
221
138
165
222
139
168
222
139
172
204
136
166
145
158
173
153
204
220
140
209
226
141
208
227
141
209
228
142
210
229
140
210
229
142
208
230
143
207
230
139
208
229
135
211
227
131
211
224
132
206
220
121
184
199
99
164
179
135
207
222
136
209
226
136
206
224
138
208
223
137
208
222
140
207
220
142
204
218
151
199
215
141
131
155
208
136
169
219
127
162
219
128
163
219
128
163
212
123
157
150
67
99
161
64
104
165
60
105
166
60
106
163
62
106
163
62
106
162
62
106
163
60
107
163
60
107
165
59
107
165
59
107
165
59
107
165
59
107
166
60
108
166
59
107
166
59
107
165
59
107
163
60
107
162
61
106
163
60
105
165
59
105
166
59
104
172
60
106
171
61
106
172
60
106
169
60
105
162
60
101
145
55
90
190
104
136
212
124
156
214
123
156
218
125
159
216
126
158
217
124
155
217
124
155
218
125
156
218
125
156
218
125
156
218
125
156
218
125
156
217
124
155
216
121
153
215
120
152
216
119
152
217
119
153
216
119
151
213
119
149
210
119
147
208
118
146
208
118
146
208
118
146
208
118
144
208
118
144
207
117
143
207
117
143
203
117
144
201
115
143
200
113
144
198
111
141
188
100
132
153
64
103
141
51
89
141
51
95
141
53
89
140
52
91
137
52
89
122
58
79
77
63
56
72
101
61
59
112
54
61
112
57
62
112
56
63
111
57
64
112
56
64
113
59
63
111
58
63
110
54
64
107
54
62
104
53
44
85
38
60
98
52
65
86
49
100
78
65
118
83
73
107
78
71
90
67
55
89
75
55
65
90
50
57
105
51
56
107
52
56
104
52
54
104
52
54
101
52
56
102
56
59
102
54
56
101
49
55
98
45
56
98
43
59
90
55
47
43
36
114
96
109
122
97
125
118
102
128
120
102
126
113
94
118
109
89
114
108
87
110
108
86
109
107
85
108
109
87
110
79
158
174
68
148
165
65
144
164
65
144
165
67
145
165
66
144
164
66
144
164
66
144
164
66
144
164
66
144
164
66
144
164
66
141
158
66
108
120
143
137
147
160
150
156
163
150
154
171
153
159
181
165
171
179
163
169
180
161
167
167
113
130
219
137
162
222
136
161
222
137
161
221
137
161
220
136
161
221
138
165
222
137
168
220
138
171
168
120
145
160
195
206
142
206
219
136
210
224
141
208
227
140
208
227
140
209
228
139
210
228
140
209
229
140
208
229
136
209
228
134
211
226
132
211
223
136
208
221
102
162
176
132
200
216
133
206
221
137
208
226
139
206
225
139
208
222
138
208
220
141
206
218
148
203
215
130
143
160
197
133
165
220
128
161
221
126
161
220
127
161
220
128
162
219
128
163
205
120
154
144
57
93
161
60
104
165
59
105
164
61
106
163
61
106
163
62
106
163
60
107
163
60
107
165
59
107
165
59
107
165
59
107
165
59
107
165
59
107
166
59
107
166
59
107
166
60
108
164
60
108
163
62
106
164
61
106
166
60
106
167
60
105
172
60
106
170
59
104
169
60
105
155
58
97
155
73
103
206
121
154
217
123
159
218
125
159
217
126
159
218
125
159
218
124
158
217
124
155
218
125
156
218
125
156
218
125
156
218
125
156
218
125
156
218
125
156
217
124
155
215
120
152
216
121
153
217
120
153
215
119
152
214
120
151
211
120
148
208
119
146
208
118
146
208
118
146
208
118
146
208
118
144
208
118
144
208
118
144
205
115
141
202
115
142
200
114
143
196
109
140
168
82
112
146
56
91
143
52
94
143
52
92
142
51
94
140
54
88
138
55
90
125
57
85
77
64
52
70
104
65
63
110
55
60
113
54
63
112
57
62
112
57
63
113
57
65
113
57
62
113
58
60
111
57
63
108
53
60
100
50
43
83
35
60
103
53
60
104
53
65
91
53
90
71
57
113
80
70
99
74
65
85
67
54
69
71
44
61
99
54
54
107
49
55
108
51
56
104
51
53
102
49
54
102
52
56
102
56
57
101
53
56
99
47
54
99
47
57
97
46
52
66
41
72
52
57
117
99
115
121
98
123
116
102
125
120
102
126
118
99
124
115
95
120
112
90
114
113
91
114
115
93
116
118
96
119
