P3
100 200
255
255
255
255
255
255
255
255
255
255
255
255
255
255
255
255
255
255
255
255
255
255
255
255
255
255
255
255
255
255
255
255
255
255
255
255
255
255
255
255
255
255
255
255
255
255
255
255
255
255
255
255
255
255
255
255
255
255
255
255
255
255
255
255
255
255
255
255
255
255
255
255
255
255
255
255
255
255
255
255
255
255
255
255
255
255
255
255
255
255
255
255
255
255
255
255
255
255
255
255
255
255
255
255
255
255
255
255
255
255
255
255
255
255
255
255
255
255
255
255
255
255
255
255
209
217
221
248
248
248
255
255
255
255
255
255
255
255
255
255
255
255
255
255
255
255
255
255
255
255
255
255
255
255
255
255
255
255
255
255
255
255
255
255
255
255
255
255
255
255
255
255
255
255
255
255
255
255
255
255
255
255
255
255
255
255
255
255
255
255
255
255
255
255
255
255
255
255
255
255
255
255
255
255
255
255
255
255
255
255
255
255
255
255
255
255
255
255
255
255
255
255
255
255
255
255
255
255
255
255
255
255
255
255
255
255
255
255
255
255
255
255
255
255
255
255
255
255
255
255
255
255
255
255
255
255
255
255
255
255
255
255
255
255
255
255
255
255
255
255
255
255
255
255
255
255
255
255
255
255
255
255
255
255
255
255
255
255
255
255
255
255
255
255
255
255
255
255
255
255
255
255
255
255
255
255
255
255
255
255
255
255
255
255
255
255
255
255
255
255
255
255
255
255
255
255
255
255
255
255
255
255
255
255
255
255
255
255
255
255
255
255
255
255
255
255
255
255
255
255
255
255
255
255
255
255
255
255
255
255
255
255
255
255
255
255
255
255
255
255
255
255
255
255
255
255
255
255
255
255
255
255
255
255
255
255
255
255
255
255
255
255
255
255
255
255
255
255
255
255
255
255
255
255
255
255
255
255
255
255
255
255
255
255
255
255
255
255
255
255
255
255
255
255
181
206
225
184
202
220
251
251
252
255
255
255
255
255
255
255
255
255
255
255
255
255
255
255
255
255
255
255
255
255
252
252
252
250
250
250
255
255
255
255
255
255
255
255
255
255
255
255
255
255
255
255
255
255
255
255
255
255
255
255
255
255
255
255
255
255
255
255
255
255
255
255
255
255
255
255
255
255
255
255
255
255
255
255
255
255
255
255
255
255
255
255
255
255
255
255
255
255
255
255
255
255
255
255
255
255
255
255
255
255
255
255
255
255
255
255
255
255
255
255
255
255
255
255
255
255
255
255
255
255
255
255
255
255
255
255
255
255
255
255
255
255
255
255
255
255
255
255
255
255
255
255
255
255
255
255
255
255
255
255
255
255
255
255
255
255
255
255
255
255
255
255
255
255
255
255
255
255
255
255
255
255
255
255
255
255
255
255
255
255
255
255
255
255
255
255
255
255
255
255
255
255
255
255
255
255
255
255
255
255
255
255
255
255
255
255
255
255
255
255
255
255
255
255
255
255
255
255
255
255
255
255
255
255
255
255
255
255
255
255
255
255
255
255
255
255
255
255
255
255
255
255
255
255
255
255
255
255
255
255
255
255
255
255
255
255
255
255
255
255
255
255
255
255
255
255
255
255
255
255
255
255
255
255
255
255
255
255
255
255
255
255
255
255
255
255
255
254
254
254
157
186
225
124
160
209
186
195
215
253
253
253
255
255
255
255
255
255
255
255
255
255
255
255
244
245
247
213
223
233
177
186
207
245
245
245
255
255
255
255
255
255
255
255
255
255
255
255
255
255
255
255
255
255
255
255
255
255
255
255
255
255
255
255
255
255
255
255
255
255
255
255
255
255
255
255
255
255
255
255
255
255
255
255
255
255
255
255
255
255
255
255
255
255
255
255
255
255
255
255
255
255
255
255
255
255
255
255
255
255
255
255
255
255
255
255
255
255
255
255
255
255
255
255
255
255
255
255
255
255
255
255
255
255
255
255
255
255
255
255
255
255
255
255
255
255
255
255
255
255
255
255
255
255
255
255
255
255
255
255
255
255
255
255
255
255
255
255
255
255
255
255
255
255
255
255
255
255
255
255
255
255
255
255
255
255
255
255
255
255
255
255
255
255
255
255
255
255
255
255
255
255
255
255
255
255
255
255
255
255
255
255
255
255
255
255
255
255
255
255
255
255
255
255
255
255
255
255
255
255
255
255
255
255
255
255
255
255
255
255
255
255
255
255
255
255
255
255
255
255
255
255
255
255
255
255
255
255
255
255
255
255
255
255
255
255
255
255
255
255
255
255
255
255
255
255
255
255
255
248
249
249
242
244
244
255
255
255
255
255
255
255
255
255
255
255
255
255
255
255
163
187
219
112
149
202
111
135
180
207
212
224
255
255
255
255
255
255
245
246
247
205
217
232
162
190
223
115
142
188
200
202
209
255
255
255
255
255
255
255
255
255
255
255
255
255
255
255
255
255
255
255
255
255
255
255
255
255
255
255
255
255
255
255
255
255
255
255
255
255
255
255
255
255
255
255
255
255
255
255
255
255
255
255
255
255
255
255
255
255
255
255
255
255
255
255
255
255
255
255
255
255
255
255
255
255
255
255
255
255
255
255
255
255
255
255
255
255
255
255
255
255
255
255
255
255
255
255
255
255
255
255
255
255
255
255
255
255
255
255
255
255
255
255
255
255
255
255
255
255
255
255
255
255
255
255
255
255
255
255
255
255
255
255
255
255
255
255
255
255
255
255
255
255
255
255
255
255
255
255
255
255
255
255
255
255
255
255
255
255
255
255
255
255
255
255
255
255
255
255
255
255
255
255
255
255
255
255
255
255
255
255
255
255
255
255
255
255
255
255
255
255
255
255
255
255
255
255
255
255
255
255
255
255
255
255
255
255
255
255
255
255
255
255
255
255
255
255
255
255
255
255
255
255
255
255
255
255
255
255
255
255
255
255
255
255
255
255
255
255
255
255
255
255
255
255
217
220
220
241
241
241
255
255
255
255
255
255
255
255
255
255
255
255
255
255
255
251
251
251
211
216
225
113
144
191
102
126
172
123
137
168
226
230
236
210
214
224
145
167
207
97
123
167
93
117
168
104
114
149
249
249
249
255
255
255
255
255
255
255
255
255
255
255
255
255
255
255
255
255
255
255
255
255
255
255
255
255
255
255
255
255
255
255
255
255
255
255
255
255
255
255
255
255
255
255
255
255
255
255
255
255
255
255
255
255
255
255
255
255
255
255
255
255
255
255
255
255
255
255
255
255
255
255
255
255
255
255
255
255
255
255
255
255
255
255
255
255
255
255
255
255
255
255
255
255
255
255
255
255
255
255
255
255
255
255
255
255
255
255
255
255
255
255
255
255
255
255
255
255
255
255
255
255
255
255
255
255
255
255
255
255
255
255
255
255
255
255
255
255
255
255
255
255
255
255
255
255
255
255
255
255
255
255
255
255
255
255
255
255
255
255
255
255
255
255
255
255
255
255
255
255
255
255
255
255
255
255
255
255
255
255
255
255
255
255
255
255
255
255
255
255
255
255
255
255
255
255
255
255
255
255
255
255
255
255
255
255
255
255
255
255
255
255
255
255
255
255
255
255
255
255
255
255
255
255
255
255
255
255
255
255
255
255
255
255
255
255
255
255
255
255
255
215
223
222
225
227
226
255
255
255
253
253
253
236
237
237
205
210
209
189
198
197
151
160
160
113
128
127
105
120
119
62
89
100
68
98
121
80
107
134
107
133
165
110
137
185
109
140
191
119
148
199
75
95
149
189
191
200
255
255
255
255
255
255
255
255
255
255
255
255
255
255
255
255
255
255
255
255
255
255
255
255
255
255
255
255
255
255
255
255
255
255
255
255
255
255
255
255
255
255
255
255
255
255
255
255
255
255
255
255
255
255
255
255
255
255
255
255
255
255
255
255
255
255
255
255
255
255
255
255
255
255
255
255
255
255
255
255
255
255
255
255
255
255
255
255
255
255
255
255
255
255
255
255
255
255
255
255
255
255
255
255
255
255
255
255
255
255
255
255
255
255
255
255
255
255
255
255
255
255
255
255
255
255
255
255
255
255
255
255
255
255
255
255
255
255
255
255
255
255
255
255
255
255
255
255
255
255
255
255
255
255
255
255
255
255
255
255
255
255
255
255
255
255
255
255
255
255
255
255
255
255
255
255
255
255
255
255
255
255
255
255
255
255
255
255
255
255
255
255
255
255
255
255
255
255
255
255
255
255
255
255
255
255
255
255
255
255
255
255
255
255
255
255
255
255
255
255
255
255
255
255
255
255
255
255
255
255
255
255
255
255
255
255
255
255
255
255
254
254
254
164
172
172
246
246
246
209
213
212
136
149
147
70
102
103
76
114
111
46
82
82
33
67
70
33
68
71
34
67
73
32
66
72
30
64
69
30
62
67
32
64
72
49
75
101
86
114
155
84
106
154
79
93
125
183
185
186
198
200
200
218
219
219
243
243
243
255
255
255
255
255
255
255
255
255
255
255
255
255
255
255
255
255
255
255
255
255
255
255
255
255
255
255
255
255
255
255
255
255
255
255
255
255
255
255
255
255
255
255
255
255
255
255
255
255
255
255
255
255
255
255
255
255
255
255
255
255
255
255
255
255
255
255
255
255
255
255
255
255
255
255
255
255
255
255
255
255
255
255
255
255
255
255
255
255
255
255
255
255
255
255
255
255
255
255
255
255
255
255
255
255
255
255
255
255
255
255
255
255
255
255
255
255
255
255
255
255
255
255
255
255
255
255
255
255
255
255
255
255
255
255
255
255
255
255
255
255
255
255
255
255
255
255
255
255
255
255
255
255
255
255
255
255
255
255
255
255
255
255
255
255
255
255
255
255
255
255
255
255
255
255
255
255
255
255
255
255
255
255
255
255
255
255
255
255
255
255
255
255
255
255
255
255
255
255
255
255
255
255
255
255
255
255
255
255
255
255
255
255
255
255
255
255
255
255
255
255
255
255
255
255
255
255
255
255
255
255
254
254
254
158
162
163
136
148
149
48
82
83
44
77
78
60
94
96
35
70
71
35
69
73
37
70
76
35
69
72
35
69
74
34
67
74
33
66
73
32
65
72
32
65
68
34
63
69
22
45
53
21
36
50
21
39
48
36
61
68
34
57
66
32
57
63
85
100
102
170
184
182
242
245
244
255
255
255
255
255
255
255
255
255
255
255
255
255
255
255
255
255
255
255
255
255
255
255
255
255
255
255
255
255
255
255
255
255
255
255
255
255
255
255
255
255
255
255
255
255
255
255
255
255
255
255
255
255
255
255
255
255
255
255
255
255
255
255
255
255
255
255
255
255
255
255
255
255
255
255
255
255
255
255
255
255
255
255
255
255
255
255
255
255
255
255
255
255
255
255
255
255
255
255
255
255
255
255
255
255
255
255
255
255
255
255
255
255
255
255
255
255
255
255
255
255
255
255
255
255
255
255
255
255
255
255
255
255
255
255
255
255
255
255
255
255
255
255
255
255
255
255
255
255
255
255
255
255
255
255
255
255
255
255
255
255
255
255
255
255
255
255
255
255
255
255
255
255
255
255
255
255
255
255
255
255
255
255
255
255
255
255
255
255
255
255
255
255
255
255
255
255
255
255
255
255
255
255
255
255
255
255
255
255
255
255
255
255
255
255
255
255
255
255
255
255
255
251
251
251
180
189
187
73
103
103
72
102
103
46
81
81
37
73
77
39
73
80
49
83
88
49
85
87
46
82
85
43
79
84
36
70
76
37
70
77
36
69
76
34
67
74
33
65
72
34
65
71
27
58
60
35
58
67
19
38
44
24
39
46
19
38
42
18
37
43
23
41
47
31
55
55
108
136
132
241
242
242
255
255
255
255
255
255
255
255
255
255
255
255
255
255
255
255
255
255
255
255
255
255
255
255
255
255
255
255
255
255
255
255
255
255
255
255
255
255
255
255
255
255
255
255
255
255
255
255
255
255
255
255
255
255
255
255
255
255
255
255
255
255
255
255
255
255
255
255
255
255
255
255
255
255
255
255
255
255
255
255
255
255
255
255
255
255
255
255
255
255
255
255
255
255
255
255
255
255
255
255
255
255
255
255
255
255
255
255
255
255
255
255
255
255
255
255
255
255
255
255
255
255
255
255
255
255
255
255
255
255
255
255
255
255
255
255
255
255
255
255
255
255
255
255
255
255
255
255
255
255
255
255
255
255
255
255
255
255
255
255
255
255
255
255
255
255
255
255
255
255
255
255
255
255
255
255
255
255
255
255
255
255
255
255
255
255
255
255
255
255
255
255
255
255
255
255
255
255
255
255
255
255
255
255
255
255
255
255
255
255
255
255
255
255
255
255
252
253
252
166
181
178
86
124
118
81
118
114
49
84
82
43
79
80
40
74
79
40
70
77
41
66
75
39
68
75
42
75
80
44
80
83
58
94
97
49
82
84
38
73
78
35
71
78
34
68
77
34
67
74
32
64
69
28
54
59
34
62
66
18
34
40
32
53
56
59
84
86
25
45
45
50
72
71
68
99
99
214
216
216
255
255
255
255
255
255
255
255
255
255
255
255
255
255
255
255
255
255
255
255
255
255
255
255
255
255
255
255
255
255
255
255
255
255
255
255
255
255
255
255
255
255
255
255
255
255
255
255
255
255
255
255
255
255
255
255
255
255
255
255
255
255
255
255
255
255
255
255
255
255
255
255
255
255
255
255
255
255
255
255
255
255
255
255
255
255
255
255
255
255
255
255
255
255
255
255
255
255
255
255
255
255
255
255
255
255
255
255
255
255
255
255
255
255
255
255
255
255
255
255
255
255
255
255
255
255
255
255
255
255
255
255
255
255
255
255
255
255
255
255
255
255
255
255
255
255
255
255
255
255
255
255
255
255
255
255
255
255
255
255
255
255
255
255
255
255
255
255
255
255
255
255
255
255
255
255
255
255
255
255
255
255
255
255
255
255
255
255
255
255
255
255
255
255
255
255
255
255
255
255
255
255
255
255
255
255
255
255
255
255
255
255
255
254
255
255
188
207
202
96
145
138
64
104
101
44
77
79
41
70
75
56
88
90
31
59
63
27
57
61
25
48
54
27
54
60
30
60
66
34
66
71
37
73
78
62
99
99
65
100
98
38
73
78
39
75
80
33
67
73
36
67
73
21
43
49
32
61
67
25
44
50
19
32
37
33
56
57
63
89
89
67
93
94
37
62
68
215
216
216
255
255
255
255
255
255
255
255
255
255
255
255
255
255
255
255
255
255
255
255
255
255
255
255
255
255
255
255
255
255
255
255
255
255
255
255
255
255
255
255
255
255
255
255
255
255
255
255
255
255
255
255
255
255
255
255
255
255
255
255
255
255
255
255
255
255
255
255
255
255
255
255
255
255
255
255
255
255
255
255
255
255
255
255
255
255
255
255
255
255
255
255
255
255
255
255
255
255
255
255
255
255
255
255
255
255
255
255
255
255
255
255
255
255
255
255
255
255
255
255
255
255
255
255
255
255
255
255
255
255
255
255
255
255
255
255
255
255
255
255
255
255
255
255
255
255
255
255
255
255
255
255
255
255
255
255
255
255
255
255
255
255
255
255
255
255
255
255
255
255
255
255
255
255
255
255
255
255
255
255
255
255
255
255
255
255
255
255
255
255
255
255
255
255
255
255
255
255
255
255
255
255
255
255
255
255
255
255
255
255
255
255
255
220
230
228
111
163
155
64
106
103
60
98
97
42
79
81
43
76
77
64
98
100
34
62
69
34
64
71
31
56
64
36
67
72
43
76
81
43
78
82
38
75
77
37
77
79
57
97
96
73
108
105
31
60
63
38
71
76
38
70
77
20
42
48
33
64
69
25
52
57
22
40
44
58
78
79
29
50
52
25
50
54
85
92
94
243
243
243
255
255
255
255
255
255
255
255
255
255
255
255
255
255
255
255
255
255
255
255
255
255
255
255
255
255
255
255
255
255
255
255
255
255
255
255
255
255
255
255
255
255
255
255
255
255
255
255
255
255
255
255
255
255
255
255
255
255
255
255
255
255
255
255
255
255
255
255
255
255
255
255
255
255
255
255
255
255
255
255
255
255
255
255
255
255
255
255
255
255
255
255
255
255
255
255
255
255
255
255
255
255
255
255
255
255
255
255
255
255
255
255
255
255
255
255
255
255
255
255
255
255
255
255
255
255
255
255
255
255
255
255
255
255
255
255
255
255
255
255
255
255
255
255
255
255
255
255
255
255
255
255
255
255
255
255
255
255
255
255
255
255
255
255
255
255
255
255
255
255
255
255
255
255
255
255
255
255
255
255
255
255
255
255
255
255
255
255
255
255
255
255
255
255
255
255
255
255
255
255
255
255
255
255
255
255
255
255
255
255
252
253
253
154
187
180
82
128
123
57
97
96
49
86
89
43
80
82
50
87
88
60
94
95
36
66
73
41
83
89
44
79
85
46
79
83
41
76
79
60
97
100
77
122
117
54
97
94
53
94
95
64
104
102
78
118
115
42
80
82
40
71
77
25
46
51
30
59
64
32
62
66
22
38
41
29
48
52
69
94
95
74
91
92
210
210
210
255
255
255
255
255
255
255
255
255
255
255
255
255
255
255
255
255
255
255
255
255
255
255
255
255
255
255
255
255
255
255
255
255
255
255
255
255
255
255
255
255
255
255
255
255
255
255
255
255
255
255
255
255
255
255
255
255
255
255
255
255
255
255
255
255
255
255
255
255
255
255
255
255
255
255
255
255
255
255
255
255
255
255
255
255
255
255
255
255
255
255
255
255
255
255
255
255
255
255
255
255
255
255
255
255
255
255
255
255
255
255
255
255
255
255
255
255
255
255
255
255
255
255
255
255
255
255
255
255
255
255
255
255
255
255
255
255
255
255
255
255
255
255
255
255
255
255
255
255
255
255
255
255
255
255
255
255
255
255
255
255
255
255
255
255
255
255
255
255
255
255
255
255
255
255
255
255
255
255
255
255
255
255
255
255
255
255
255
255
255
255
255
255
255
255
255
255
255
255
255
255
255
255
255
255
255
255
255
255
255
255
255
255
227
235
233
118
169
159
98
145
136
70
115
110
71
112
111
58
99
99
59
100
99
60
98
98
37
68
71
45
86
88
57
94
95
53
88
89
69
110
112
40
79
80
83
128
125
97
144
140
57
98
95
83
127
124
96
146
138
78
122
116
32
60
63
36
54
60
29
57
63
36
68
72
21
38
42
23
37
43
25
43
50
66
92
92
175
187
185
230
237
235
246
249
248
246
248
248
237
242
241
254
255
254
255
255
255
255
255
255
255
255
255
255
255
255
255
255
255
255
255
255
255
255
255
255
255
255
255
255
255
255
255
255
255
255
255
255
255
255
255
255
255
255
255
255
255
255
255
255
255
255
255
255
255
255
255
255
255
255
255
255
255
255
255
255
255
255
255
255
255
255
255
255
255
255
255
255
255
255
255
255
255
255
255
255
255
255
255
255
255
255
255
255
255
255
255
255
255
255
255
255
255
255
255
255
255
255
255
255
255
255
255
255
255
255
255
255
255
255
255
255
255
255
255
255
255
255
255
255
255
255
255
255
255
255
255
255
255
255
255
255
255
255
255
255
255
255
255
255
255
255
255
255
255
255
255
255
255
255
255
255
255
255
255
255
255
255
255
255
255
255
255
255
255
255
255
255
255
255
255
255
255
255
255
255
255
255
255
255
255
255
255
255
255
255
255
255
255
255
255
255
184
206
201
119
171
160
112
161
151
113
159
152
66
109
106
64
110
109
56
91
91
61
99
100
32
63
66
52
91
93
33
60
64
60
92
95
41
77
80
55
95
98
34
70
75
69
110
111
72
110
109
57
96
94
107
159
149
103
154
147
66
95
92
34
55
59
32
60
65
35
72
76
22
44
49
22
36
43
15
24
32
36
60
65
42
72
72
124
144
140
187
196
195
205
210
209
247
247
247
255
255
255
255
255
255
255
255
255
255
255
255
255
255
255
255
255
255
255
255
255
255
255
255
255
255
255
255
255
255
255
255
255
255
255
255
255
255
255
255
255
255
255
255
255
255
255
255
255
255
255
255
255
255
255
255
255
255
255
255
255
255
255
255
255
255
255
255
255
255
255
255
255
255
255
255
255
255
255
255
255
255
255
255
255
255
255
255
255
255
255
255
255
255
255
255
255
255
255
255
255
255
255
255
255
255
255
255
255
255
255
255
255
255
255
255
255
255
255
255
255
255
255
255
255
255
255
255
255
255
255
255
255
255
255
255
255
255
255
255
255
255
255
255
255
255
255
255
255
255
255
255
255
255
255
255
255
255
255
255
255
255
255
255
255
255
255
255
255
255
255
255
255
255
255
255
255
255
255
255
255
255
255
255
255
255
255
255
255
255
255
255
255
255
255
255
255
255
254
255
255
133
166
160
101
149
140
106
153
146
76
117
115
57
98
98
54
96
95
47
71
74
51
83
86
39
73
75
45
85
87
40
69
74
30
52
58
41
67
72
50
87
89
40
73
76
46
78
82
52
90
94
37
68
73
64
100
100
64
108
108
78
118
114
55
80
81
38
68
73
34
73
77
22
47
54
17
37
42
16
28
33
24
42
46
38
68
73
108
120
120
196
203
202
255
255
255
255
255
255
255
255
255
255
255
255
255
255
255
255
255
255
255
255
255
255
255
255
255
255
255
255
255
255
255
255
255
255
255
255
255
255
255
255
255
255
255
255
255
255
255
255
255
255
255
255
255
255
255
255
255
255
255
255
255
255
255
255
255
255
255
255
255
255
255
255
255
255
255
255
255
255
255
255
255
255
255
255
255
255
255
255
255
255
255
255
255
255
255
255
255
255
255
255
255
255
255
255
255
255
255
255
255
255
255
255
255
255
255
255
255
255
255
255
255
255
255
255
255
255
255
255
255
255
255
255
255
255
255
255
255
255
255
255
255
255
255
255
255
255
255
255
255
255
255
255
255
255
255
255
255
255
255
255
255
255
255
255
255
255
255
255
255
255
255
255
255
255
255
255
255
255
255
255
255
255
255
255
255
255
255
255
255
255
255
255
255
255
255
255
255
255
255
255
255
255
255
255
247
250
249
99
133
131
75
114
111
76
115
112
49
87
88
42
80
82
41
76
79
57
62
63
51
71
75
44
79
83
38
73
80
39
73
74
12
32
38
40
63
66
21
36
40
48
80
84
32
56
58
37
65
69
40
69
76
26
51
56
46
80
85
37
77
80
80
117
119
48
83
87
39
73
77
22
45
49
21
40
45
20
30
38
9
21
24
31
59
61
111
123
124
190
197
196
224
231
230
255
255
255
255
255
255
255
255
255
255
255
255
255
255
255
255
255
255
255
255
255
255
255
255
255
255
255
255
255
255
255
255
255
255
255
255
255
255
255
255
255
255
255
255
255
255
255
255
255
255
255
255
255
255
255
255
255
255
255
255
255
255
255
255
255
255
255
255
255
255
255
255
255
255
255
255
255
255
255
255
255
255
255
255
255
255
255
255
255
255
255
255
255
255
255
255
255
255
255
255
255
255
255
255
255
255
255
255
255
255
255
255
255
255
255
255
255
255
255
255
255
255
255
255
255
255
255
255
255
255
255
255
255
255
255
255
255
255
255
255
255
255
255
255
255
255
255
255
255
255
255
255
255
255
255
255
255
255
255
255
255
255
255
255
255
255
255
255
255
255
255
255
255
255
255
255
255
255
255
255
255
255
255
255
255
255
255
255
255
255
255
255
255
255
255
255
255
255
255
255
255
227
235
234
72
110
109
37
69
71
40
75
77
36
68
71
25
52
56
37
65
70
63
63
62
84
85
84
44
73
80
38
68
75
29
56
61
27
45
52
27
45
52
39
46
49
26
39
44
34
57
63
31
52
57
41
49
54
35
57
63
23
43
47
44
76
84
38
77
82
80
119
118
40
71
75
21
40
46
26
45
50
20
33
39
7
18
21
32
52
56
28
53
56
175
182
182
187
199
197
250
252
252
255
255
255
255
255
255
255
255
255
255
255
255
255
255
255
255
255
255
255
255
255
255
255
255
255
255
255
255
255
255
255
255
255
255
255
255
255
255
255
255
255
255
255
255
255
255
255
255
255
255
255
255
255
255
255
255
255
255
255
255
255
255
255
255
255
255
255
255
255
255
255
255
255
255
255
255
255
255
255
255
255
255
255
255
255
255
255
255
255
255
255
255
255
255
255
255
255
255
255
255
255
255
255
255
255
255
255
255
255
255
255
255
255
255
255
255
255
255
255
255
255
255
255
255
255
255
255
255
255
255
255
255
255
255
255
255
255
255
255
255
255
255
255
255
255
255
255
255
255
255
255
255
255
255
255
255
255
255
255
255
255
255
255
255
255
255
255
255
255
255
255
255
255
255
255
255
255
255
255
255
255
255
255
255
255
255
255
255
255
255
255
255
255
255
255
255
255
255
210
222
220
62
94
95
30
60
65
36
62
70
34
54
61
18
38
41
38
63
68
49
50
52
139
119
116
33
51
55
45
65
69
35
47
51
24
42
48
24
44
52
57
53
55
82
75
75
23
48
51
22
38
43
83
81
82
32
45
47
21
41
43
45
56
61
40
75
83
52
87
90
76
107
105
23
40
45
31
49
55
21
38
44
8
20
24
26
46
51
111
116
117
100
118
117
230
232
232
235
243
241
255
255
255
255
255
255
255
255
255
255
255
255
255
255
255
255
255
255
255
255
255
255
255
255
255
255
255
255
255
255
255
255
255
255
255
255
255
255
255
255
255
255
255
255
255
255
255
255
255
255
255
255
255
255
255
255
255
255
255
255
255
255
255
255
255
255
255
255
255
255
255
255
255
255
255
255
255
255
255
255
255
255
255
255
255
255
255
255
255
255
255
255
255
255
255
255
255
255
255
255
255
255
255
255
255
255
255
255
255
255
255
255
255
255
255
255
255
255
255
255
255
255
255
255
255
255
255
255
255
255
255
255
255
255
255
255
255
255
255
255
255
255
255
255
255
255
255
255
255
255
255
255
255
255
255
255
255
255
255
255
255
255
255
255
255
255
255
255
255
255
255
255
255
255
255
255
255
255
255
255
255
255
255
255
255
255
255
255
255
255
255
255
255
255
255
255
255
255
194
210
207
59
87
88
31
62
65
33
55
63
59
63
67
18
31
35
35
53
59
64
67
71
165
136
129
96
86
84
27
44
49
82
82
85
37
44
51
23
42
47
32
36
36
128
126
123
21
43
47
21
44
52
111
99
96
69
58
54
28
46
52
81
78
79
59
72
73
37
75
79
80
114
113
52
74
75
32
53
59
21
43
47
11
25
29
26
41
48
178
179
180
69
90
91
230
231
231
244
248
248
255
255
255
255
255
255
255
255
255
255
255
255
255
255
255
255
255
255
255
255
255
255
255
255
255
255
255
255
255
255
255
255
255
255
255
255
255
255
255
255
255
255
255
255
255
255
255
255
255
255
255
255
255
255
255
255
255
255
255
255
255
255
255
255
255
255
255
255
255
255
255
255
255
255
255
255
255
255
255
255
255
255
255
255
255
255
255
255
255
255
255
255
255
255
255
255
255
255
255
255
255
255
255
255
255
255
255
255
255
255
255
255
255
255
255
255
255
255
255
255
255
255
255
255
255
255
255
255
255
255
255
255
255
255
255
255
255
255
255
255
255
255
255
255
255
255
255
255
255
255
255
255
255
255
255
255
255
255
255
255
255
255
255
255
255
255
255
255
255
255
255
255
255
255
255
255
255
255
255
255
255
255
255
255
255
255
255
255
255
255
255
255
255
255
255
255
255
255
182
201
197
57
87
87
31
61
64
32
53
61
82
74
74
31
36
39
25
45
50
69
70
70
107
93
90
209
195
182
77
73
69
58
57
58
140
131
124
46
50
48
55
47
42
173
161
151
64
59
58
34
40
47
137
116
109
109
85
77
42
51
54
77
74
72
93
80
74
39
70
76
39
75
79
90
128
126
33
57
61
25
46
51
62
66
68
25
39
45
183
185
186
134
140
140
229
230
230
252
253
252
255
255
255
255
255
255
255
255
255
255
255
255
255
255
255
255
255
255
255
255
255
255
255
255
255
255
255
255
255
255
255
255
255
255
255
255
255
255
255
255
255
255
255
255
255
255
255
255
255
255
255
255
255
255
255
255
255
255
255
255
255
255
255
255
255
255
255
255
255
255
255
255
255
255
255
255
255
255
255
255
255
255
255
255
255
255
255
255
255
255
255
255
255
255
255
255
255
255
255
255
255
255
255
255
255
255
255
255
255
255
255
255
255
255
255
255
255
255
255
255
255
255
255
255
255
255
255
255
255
255
255
255
255
255
255
255
255
255
255
255
255
255
255
255
255
255
255
255
255
255
255
255
255
255
255
255
255
255
255
255
255
255
255
255
255
255
255
255
255
255
255
255
255
255
255
255
255
255
255
255
255
255
255
255
255
255
255
255
255
255
255
255
255
255
255
255
255
255
174
195
190
63
97
96
31
58
62
27
47
55
92
78
75
135
119
112
79
67
61
114
93
82
178
154
138
193
172
150
239
218
194
201
182
162
228
210
186
236
212
190
235
208
185
247
222
195
201
176
156
191
166
147
220
189
166
225
192
170
158
131
120
117
89
81
155
122
115
31
48
52
34
66
71
64
101
101
50
76
76
30
51
56
209
209
209
65
72
74
196
197
198
169
171
171
244
244
244
255
255
255
255
255
255
255
255
255
255
255
255
255
255
255
255
255
255
255
255
255
255
255
255
255
255
255
255
255
255
255
255
255
255
255
255
255
255
255
255
255
255
255
255
255
255
255
255
255
255
255
255
255
255
255
255
255
255
255
255
255
255
255
255
255
255
255
255
255
255
255
255
255
255
255
255
255
255
255
255
255
255
255
255
255
255
255
255
255
255
255
255
255
255
255
255
255
255
255
255
255
255
255
255
255
255
255
255
255
255
255
255
255
255
255
255
255
255
255
255
255
255
255
255
255
255
255
255
255
255
255
255
255
255
255
255
255
255
255
255
255
255
255
255
255
255
255
255
255
255
255
255
255
255
255
255
255
255
255
255
255
255
255
255
255
255
255
255
255
255
255
255
255
255
255
255
255
255
255
255
255
255
255
255
255
255
255
255
255
255
255
255
255
255
255
255
255
255
255
255
255
181
198
195
72
109
107
31
51
56
123
102
95
187
154
139
244
221
195
235
218
190
240
219
191
253
229
197
236
209
183
254
223
192
255
225
192
252
225
192
247
222
195
224
202
177
233
211
181
243
219
189
249
226
199
253
233
203
251
232
200
246
220
192
240
210
184
190
168
148
33
36
37
31
60
65
52
82
85
64
92
91
35
56
58
205
207
207
135
138
138
231
231
231
239
239
239
255
255
255
255
255
255
255
255
255
255
255
255
255
255
255
255
255
255
255
255
255
255
255
255
255
255
255
255
255
255
255
255
255
255
255
255
255
255
255
255
255
255
255
255
255
255
255
255
255
255
255
255
255
255
255
255
255
255
255
255
255
255
255
255
255
255
255
255
255
255
255
255
255
255
255
255
255
255
255
255
255
255
255
255
255
255
255
255
255
255
255
255
255
255
255
255
255
255
255
255
255
255
255
255
255
255
255
255
255
255
255
255
255
255
255
255
255
255
255
255
255
255
255
255
255
255
255
255
255
255
255
255
255
255
255
255
255
255
255
255
255
255
255
255
255
255
255
255
255
255
255
255
255
255
255
255
255
255
255
255
255
255
255
255
255
255
255
255
255
255
255
255
255
255
255
255
255
255
255
255
255
255
255
255
255
255
255
255
255
255
255
255
255
255
255
255
255
255
255
255
255
255
255
255
191
204
202
83
125
123
59
60
62
190
160
146
219
201
180
205
195
175
186
167
145
224
211
187
205
189
163
245
219
193
254
222
192
254
223
193
253
227
195
225
203
174
202
191
174
107
99
88
103
93
84
89
78
72
99
91
81
130
123
108
194
177
156
251
228
197
250
232
207
103
99
89
58
65
66
39
66
70
69
97
97
42
64
66
163
171
170
202
202
202
255
255
255
255
255
255
255
255
255
255
255
255
255
255
255
255
255
255
255
255
255
255
255
255
255
255
255
255
255
255
255
255
255
255
255
255
255
255
255
255
255
255
255
255
255
255
255
255
255
255
255
255
255
255
255
255
255
255
255
255
255
255
255
255
255
255
255
255
255
255
255
255
255
255
255
255
255
255
255
255
255
255
255
255
255
255
255
255
255
255
255
255
255
255
255
255
255
255
255
255
255
255
255
255
255
255
255
255
255
255
255
255
255
255
255
255
255
255
255
255
255
255
255
255
255
255
255
255
255
255
255
255
255
255
255
255
255
255
255
255
255
255
255
255
255
255
255
255
255
255
255
255
255
255
255
255
255
255
255
255
255
255
255
255
255
255
255
255
255
255
255
255
255
255
255
255
255
255
255
255
255
255
255
255
255
255
255
255
255
255
255
255
255
255
255
255
255
255
255
255
255
255
255
255
255
255
255
255
255
255
202
210
209
103
149
145
33
57
61
184
174
161
92
87
77
96
93
97
118
114
121
48
41
68
127
118
107
229
210
183
254
225
191
254
224
190
253
224
192
249
222
191
165
150
134
191
185
183
182
178
189
104
94
145
49
34
92
93
88
97
82
78
77
182
169
146
247
232
202
187
168
153
121
102
97
27
51
53
74
101
100
37
60
60
99
117
116
249
249
249
255
255
255
255
255
255
255
255
255
255
255
255
255
255
255
255
255
255
255
255
255
255
255
255
255
255
255
255
255
255
255
255
255
255
255
255
255
255
255
255
255
255
255
255
255
255
255
255
255
255
255
255
255
255
255
255
255
255
255
255
255
255
255
255
255
255
255
255
255
255
255
255
255
255
255
255
255
255
255
255
255
255
255
255
255
255
255
255
255
255
255
255
255
255
255
255
255
255
255
255
255
255
255
255
255
255
255
255
255
255
255
255
255
255
255
255
255
255
255
255
255
255
255
255
255
255
255
255
255
255
255
255
255
255
255
255
255
255
255
255
255
255
255
255
255
255
255
255
255
255
255
255
255
255
255
255
255
255
255
255
255
255
255
255
255
255
255
255
255
255
255
255
255
255
255
255
255
255
255
255
255
255
255
255
255
255
255
255
255
255
255
255
255
255
255
255
255
255
255
255
255
255
255
255
255
255
255
255
255
255
222
225
225
119
167
161
45
77
80
137
131
126
138
132
126
203
201
203
142
139
159
105
94
158
47
35
90
205
193
177
253
225
193
255
224
191
254
224
192
249
220
189
245
224
201
234
226
221
41
38
106
62
53
117
57
48
120
133
131
142
157
153
148
226
211
187
249
226
194
212
191
170
127
92
85
22
36
38
62
89
87
27
51
50
52
80
82
198
200
200
255
255
255
255
255
255
255
255
255
255
255
255
255
255
255
255
255
255
255
255
255
255
255
255
255
255
255
255
255
255
255
255
255
255
255
255
255
255
255
255
255
255
255
255
255
255
255
255
255
255
255
255
255
255
255
255
255
255
255
255
255
255
255
255
255
255
255
255
255
255
255
255
255
255
255
255
255
255
255
255
255
255
255
255
255
255
255
255
255
255
255
255
255
255
255
255
255
255
255
255
255
255
255
255
255
255
255
255
255
255
255
255
255
255
255
255
255
255
255
255
255
255
255
255
255
255
255
255
255
255
255
255
255
255
255
255
255
255
255
255
255
255
255
255
255
255
255
255
255
255
255
255
255
255
255
255
255
255
255
255
255
255
255
255
255
255
255
255
255
255
255
255
255
255
255
255
255
255
255
255
255
255
255
255
255
255
255
255
255
255
255
255
255
255
255
255
255
255
255
255
255
255
255
255
255
255
255
255
255
255
244
244
244
120
148
144
67
104
103
86
88
84
217
207
191
225
219
216
97
95
129
66
74
140
49
55
106
205
198
191
252
223
192
255
223
192
255
223
191
255
223
192
252
223
193
245
233
221
99
100
138
135
171
195
131
155
187
174
170
175
231
213
190
252
224
192
252
223
194
230
204
181
182
136
125
51
43
46
48
71
70
24
47
46
28
57
59
95
118
114
226
226
226
255
255
255
255
255
255
255
255
255
255
255
255
255
255
255
255
255
255
255
255
255
255
255
255
255
255
255
255
255
255
255
255
255
255
255
255
255
255
255
255
255
255
255
255
255
255
255
255
255
255
255
255
255
255
255
255
255
255
255
255
255
255
255
255
255
255
255
255
255
255
255
255
255
255
255
255
255
255
255
255
255
255
255
255
255
255
255
255
255
255
255
255
255
255
255
255
255
255
255
255
255
255
255
255
255
255
255
255
255
255
255
255
255
255
255
255
255
255
255
255
255
255
255
255
255
255
255
255
255
255
255
255
255
255
255
255
255
255
255
255
255
255
255
255
255
255
255
255
255
255
255
255
255
255
255
255
255
255
255
255
255
255
255
255
255
255
255
255
255
255
255
255
255
255
255
255
255
255
255
255
255
255
255
255
255
255
255
255
255
255
255
255
255
255
255
255
255
255
255
255
255
255
255
255
255
255
255
255
255
255
155
164
162
129
151
149
32
55
59
181
176
164
234
218
202
192
188
187
123
155
178
138
178
200
228
221
207
253
223
192
251
219
191
254
224
193
254
223
192
255
223
191
253
231
211
215
212
215
147
180
201
158
177
190
231
219
207
250
220
192
254
221
190
252
224
199
175
143
126
177
139
128
52
44
47
18
34
37
17
35
38
17
35
37
72
96
94
175
179
178
241
241
241
255
255
255
255
255
255
255
255
255
255
255
255
255
255
255
255
255
255
255
255
255
255
255
255
255
255
255
255
255
255
255
255
255
255
255
255
255
255
255
255
255
255
255
255
255
255
255
255
255
255
255
255
255
255
255
255
255
255
255
255
255
255
255
255
255
255
255
255
255
255
255
255
255
255
255
255
255
255
255
255
255
255
255
255
255
255
255
255
255
255
255
255
255
255
255
255
255
255
255
255
255
255
255
255
255
255
255
255
255
255
255
255
255
255
255
255
255
255
255
255
255
255
255
255
255
255
255
255
255
255
255
255
255
255
255
255
255
255
255
255
255
255
255
255
255
255
255
255
255
255
255
255
255
255
255
255
255
255
255
255
255
255
255
255
255
255
255
255
255
255
255
255
255
255
255
255
255
255
255
255
255
255
255
255
255
255
255
255
255
255
255
255
255
255
255
255
255
255
255
255
255
255
255
255
255
255
255
208
212
211
184
193
192
82
115
113
46
61
63
194
189
172
245
238
218
196
195
189
199
195
191
253
227
199
250
219
188
251
218
187
250
220
189
254
224
195
255
223
191
254
223
193
246
225
204
206
194
184
240
222
201
251
223
191
254
223
191
252
222
191
251
226
200
203
183
167
157
136
131
11
19
24
16
32
36
16
33
36
17
34
35
25
49
50
149
162
162
211
211
211
252
252
252
255
255
255
255
255
255
255
255
255
255
255
255
255
255
255
255
255
255
255
255
255
255
255
255
255
255
255
255
255
255
255
255
255
255
255
255
255
255
255
255
255
255
255
255
255
255
255
255
255
255
255
255
255
255
255
255
255
255
255
255
255
255
255
255
255
255
255
255
255
255
255
255
255
255
255
255
255
255
255
255
255
255
255
255
255
255
255
255
255
255
255
255
255
255
255
255
255
255
255
255
255
255
255
255
255
255
255
255
255
255
255
255
255
255
255
255
255
255
255
255
255
255
255
255
255
255
255
255
255
255
255
255
255
255
255
255
255
255
255
255
255
255
255
255
255
255
255
255
255
255
255
255
255
255
255
255
255
255
255
255
255
255
255
255
255
255
255
255
255
255
255
255
255
255
255
255
255
255
255
255
255
255
255
255
255
255
255
255
255
255
255
255
255
255
255
255
255
255
255
255
255
255
255
255
247
247
247
195
198
197
157
176
174
56
81
81
100
110
107
166
161
144
215
198
175
248
225
194
254
222
190
250
220
190
250
221
187
251
221
190
253
222
192
255
223
193
255
224
192
255
224
191
254
223
191
255
225
191
254
224
191
254
223
191
254
226
197
190
170
148
178
168
156
25
28
30
21
33
38
20
35
39
18
35
39
20
36
42
18
31
37
70
98
99
214
217
216
236
236
236
255
255
255
255
255
255
255
255
255
255
255
255
255
255
255
255
255
255
255
255
255
255
255
255
255
255
255
255
255
255
255
255
255
255
255
255
255
255
255
255
255
255
255
255
255
255
255
255
255
255
255
255
255
255
255
255
255
255
255
255
255
255
255
255
255
255
255
255
255
255
255
255
255
255
255
255
255
255
255
255
255
255
255
255
255
255
255
255
255
255
255
255
255
255
255
255
255
255
255
255
255
255
255
255
255
255
255
255
255
255
255
255
255
255
255
255
255
255
255
255
255
255
255
255
255
255
255
255
255
255
255
255
255
255
255
255
255
255
255
255
255
255
255
255
255
255
255
255
255
255
255
255
255
255
255
255
255
255
255
255
255
255
255
255
255
255
255
255
255
255
255
255
255
255
255
255
255
255
255
255
255
255
255
255
255
255
255
255
255
255
255
255
255
255
255
255
255
255
255
255
255
255
255
255
255
255
255
211
212
212
233
233
233
168
182
180
54
69
68
149
148
142
212
202
182
251
224
192
255
222
190
245
213
184
251
223
190
254
223
192
255
223
193
255
223
193
255
224
192
255
224
191
255
224
191
255
224
192
255
224
190
253
224
190
226
204
181
51
44
44
11
29
33
16
35
37
18
33
39
23
40
45
20
39
44
20
38
43
20
31
39
25
47
49
162
175
173
238
238
238
250
250
250
255
255
255
255
255
255
255
255
255
255
255
255
255
255
255
255
255
255
255
255
255
255
255
255
255
255
255
255
255
255
255
255
255
255
255
255
255
255
255
255
255
255
255
255
255
255
255
255
255
255
255
255
255
255
255
255
255
255
255
255
255
255
255
255
255
255
255
255
255
255
255
255
255
255
255
255
255
255
255
255
255
255
255
255
255
255
255
255
255
255
255
255
255
255
255
255
255
255
255
255
255
255
255
255
255
255
255
255
255
255
255
255
255
255
255
255
255
255
255
255
255
255
255
255
255
255
255
255
255
255
255
255
255
255
255
255
255
255
255
255
255
255
255
255
255
255
255
255
255
255
255
255
255
255
255
255
255
255
255
255
255
255
255
255
255
255
255
255
255
255
255
255
255
255
255
255
255
255
255
255
255
255
255
255
255
255
255
255
255
255
255
255
255
255
255
255
255
255
255
255
255
255
255
255
253
253
253
220
220
220
249
249
249
218
217
213
212
206
186
221
206
176
254
224
190
255
222
189
255
222
193
253
224
192
255
224
193
255
223
193
255
223
193
255
223
191
255
224
191
255
224
191
255
224
192
255
223
192
250
224
198
131
109
99
19
32
37
20
36
42
21
38
42
21
40
45
22
41
46
31
54
58
20
42
46
22
37
44
19
32
38
89
115
114
238
239
239
242
243
242
255
255
255
255
255
255
255
255
255
255
255
255
255
255
255
255
255
255
255
255
255
255
255
255
255
255
255
255
255
255
255
255
255
255
255
255
255
255
255
255
255
255
255
255
255
255
255
255
255
255
255
255
255
255
255
255
255
255
255
255
255
255
255
255
255
255
255
255
255
255
255
255
255
255
255
255
255
255
255
255
255
255
255
255
255
255
255
255
255
255
255
255
255
255
255
255
255
255
255
255
255
255
255
255
255
255
255
255
255
255
255
255
255
255
255
255
255
255
255
255
255
255
255
255
255
255
255
255
255
255
255
255
255
255
255
255
255
255
255
255
255
255
255
255
255
255
255
255
255
255
255
255
255
255
255
255
255
255
255
255
255
255
255
255
255
255
255
255
255
255
255
255
255
255
255
255
255
255
255
255
255
255
255
255
255
255
255
255
255
255
255
255
255
255
255
255
255
255
255
255
255
255
255
255
255
255
255
254
254
254
251
251
251
250
250
250
236
231
216
250
224
194
255
222
188
255
221
191
254
222
192
255
225
194
255
226
195
254
224
193
254
224
190
255
223
192
255
223
192
255
223
190
254
224
189
252
227
198
191
163
146
127
121
120
135
137
138
104
105
106
132
133
134
20
32
39
26
42
48
28
47
54
29
50
56
25
38
45
18
30
35
57
88
89
197
203
203
244
247
247
253
254
254
255
255
255
255
255
255
255
255
255
255
255
255
255
255
255
255
255
255
255
255
255
255
255
255
255
255
255
255
255
255
255
255
255
255
255
255
255
255
255
255
255
255
255
255
255
255
255
255
255
255
255
255
255
255
255
255
255
255
255
255
255
255
255
255
255
255
255
255
255
255
255
255
255
255
255
255
255
255
255
255
255
255
255
255
255
255
255
255
255
255
255
255
255
255
255
255
255
255
255
255
255
255
255
255
255
255
255
255
255
255
255
255
255
255
255
255
255
255
255
255
255
255
255
255
255
255
255
255
255
255
255
255
255
255
255
255
255
255
255
255
255
255
255
255
255
255
255
255
255
255
255
255
255
255
255
255
255
255
255
255
255
255
255
255
255
255
255
255
255
255
255
255
255
255
255
255
255
255
255
255
255
255
255
255
255
255
255
255
255
255
255
255
255
255
255
255
255
255
255
255
255
255
255
255
255
255
255
255
255
255
255
255
255
240
240
239
236
227
208
252
226
193
255
222
191
255
220
192
249
219
188
227
201
169
238
212
180
252
225
190
254
223
192
255
223
193
254
222
193
251
227
197
205
182
160
190
156
139
228
226
225
253
253
253
238
238
238
190
190
190
224
224
224
139
139
140
44
48
54
33
55
61
25
41
47
17
30
35
45
73
76
139
150
150
248
249
248
251
251
251
255
255
255
255
255
255
255
255
255
255
255
255
255
255
255
255
255
255
255
255
255
255
255
255
255
255
255
255
255
255
255
255
255
255
255
255
255
255
255
255
255
255
255
255
255
255
255
255
255
255
255
255
255
255
255
255
255
255
255
255
255
255
255
255
255
255
255
255
255
255
255
255
255
255
255
255
255
255
255
255
255
255
255
255
255
255
255
255
255
255
255
255
255
255
255
255
255
255
255
255
255
255
255
255
255
255
255
255
255
255
255
255
255
255
255
255
255
255
255
255
255
255
255
255
255
255
255
255
255
255
255
255
255
255
255
255
255
255
255
255
255
255
255
255
255
255
255
255
255
255
255
255
255
255
255
255
255
255
255
255
255
255
255
255
255
255
255
255
255
255
255
255
255
255
255
255
255
255
255
255
255
255
255
255
255
255
255
255
255
255
255
255
255
255
255
255
255
255
255
255
255
255
255
255
255
255
255
255
255
255
255
255
255
255
255
255
195
207
202
202
199
178
250
229
201
253
221
192
255
222
193
255
225
194
254
223
193
254
223
189
253
223
191
254
223
195
247
225
198
187
160
138
217
188
164
246
226
201
243
242
242
255
255
255
255
255
255
241
242
242
234
235
235
254
254
254
208
208
208
70
80
83
25
45
49
15
34
37
47
80
81
73
94
95
240
240
240
245
246
246
255
255
255
255
255
255
255
255
255
255
255
255
255
255
255
255
255
255
255
255
255
255
255
255
255
255
255
255
255
255
255
255
255
255
255
255
255
255
255
255
255
255
255
255
255
255
255
255
255
255
255
255
255
255
255
255
255
255
255
255
255
255
255
255
255
255
255
255
255
255
255
255
255
255
255
255
255
255
255
255
255
255
255
255
255
255
255
255
255
255
255
255
255
255
255
255
255
255
255
255
255
255
255
255
255
255
255
255
255
255
255
255
255
255
255
255
255
255
255
255
255
255
255
255
255
255
255
255
255
255
255
255
255
255
255
255
255
255
255
255
255
255
255
255
255
255
255
255
255
255
255
255
255
255
255
255
255
255
255
255
255
255
255
255
255
255
255
255
255
255
255
255
255
255
255
255
255
255
255
255
255
255
255
255
255
255
255
255
255
255
255
255
255
255
255
255
255
255
255
255
255
255
255
255
254
254
254
255
255
255
249
249
249
190
202
200
99
139
134
45
72
75
145
147
137
229
219
196
251
226
200
254
223
193
255
221
191
254
223
190
251
228
197
223
202
179
162
126
109
204
171
146
252
227
197
237
221
194
245
245
245
255
255
255
255
255
255
254
254
254
243
247
246
255
255
255
255
255
255
194
195
196
30
49
57
27
50
55
60
93
98
46
65
70
223
223
223
246
246
246
255
255
255
255
255
255
255
255
255
255
255
255
255
255
255
255
255
255
255
255
255
255
255
255
255
255
255
255
255
255
255
255
255
255
255
255
255
255
255
255
255
255
255
255
255
255
255
255
255
255
255
255
255
255
255
255
255
255
255
255
255
255
255
255
255
255
255
255
255
255
255
255
255
255
255
255
255
255
255
255
255
255
255
255
255
255
255
255
255
255
255
255
255
255
255
255
255
255
255
255
255
255
255
255
255
255
255
255
255
255
255
255
255
255
255
255
255
255
255
255
255
255
255
255
255
255
255
255
255
255
255
255
255
255
255
255
255
255
255
255
255
255
255
255
255
255
255
255
255
255
255
255
255
255
255
255
255
255
255
255
255
255
255
255
255
255
255
255
255
255
255
255
255
255
255
255
255
255
255
255
255
255
255
255
255
255
255
255
255
255
255
255
243
244
244
212
216
216
204
208
208
217
219
219
216
198
205
198
190
194
125
137
137
65
95
94
28
55
58
30
54
59
29
54
59
56
68
68
162
158
144
234
220
195
251
231
202
221
200
174
179
148
129
174
126
111
195
153
133
250
226
195
220
199
171
223
210
186
189
189
192
236
236
237
255
255
255
252
253
252
249
251
251
255
255
255
255
255
255
203
204
204
27
49
57
40
72
75
36
69
74
51
61
65
232
232
232
251
251
251
255
255
255
255
255
255
255
255
255
255
255
255
255
255
255
255
255
255
255
255
255
255
255
255
255
255
255
255
255
255
255
255
255
255
255
255
255
255
255
255
255
255
255
255
255
255
255
255
255
255
255
255
255
255
255
255
255
255
255
255
255
255
255
255
255
255
255
255
255
255
255
255
255
255
255
255
255
255
255
255
255
255
255
255
255
255
255
255
255
255
255
255
255
255
255
255
255
255
255
255
255
255
255
255
255
255
255
255
255
255
255
255
255
255
255
255
255
255
255
255
255
255
255
255
255
255
255
255
255
255
255
255
255
255
255
255
255
255
255
255
255
255
255
255
255
255
255
255
255
255
255
255
255
255
255
255
255
255
255
255
255
255
255
255
255
255
255
255
255
255
255
255
255
255
255
255
255
255
255
255
255
255
255
255
255
255
252
253
253
201
207
206
88
107
107
48
77
77
39
72
71
120
125
126
152
139
142
146
133
136
29
38
45
26
42
49
29
46
52
23
46
50
28
52
57
23
43
47
20
35
39
67
70
65
147
121
108
170
126
110
189
137
122
187
142
122
243
222
195
180
172
150
194
177
156
207
200
190
229
231
233
220
223
224
211
219
215
238
243
240
255
255
255
255
255
255
255
255
255
207
195
198
157
141
149
35
55
60
83
89
91
202
202
202
243
243
243
255
255
255
255
255
255
255
255
255
255
255
255
255
255
255
255
255
255
255
255
255
255
255
255
255
255
255
255
255
255
255
255
255
255
255
255
255
255
255
255
255
255
255
255
255
255
255
255
255
255
255
255
255
255
255
255
255
255
255
255
255
255
255
255
255
255
255
255
255
255
255
255
255
255
255
255
255
255
255
255
255
255
255
255
255
255
255
255
255
255
255
255
255
255
255
255
255
255
255
255
255
255
255
255
255
255
255
255
255
255
255
255
255
255
255
255
255
255
255
255
255
255
255
255
255
255
255
255
255
255
255
255
255
255
255
255
255
255
255
255
255
255
255
255
255
255
255
255
255
255
255
255
255
255
255
255
255
255
255
255
255
255
255
255
255
255
255
255
255
255
255
255
255
255
255
255
255
255
255
255
255
255
255
255
255
255
254
255
255
228
230
229
58
74
74
28
50
57
104
110
112
198
199
199
248
248
248
253
253
253
252
252
252
181
181
181
52
56
58
24
37
42
22
42
46
23
35
42
29
41
37
93
118
109
119
126
138
161
123
115
189
140
124
187
140
123
240
212
185
213
203
179
67
96
93
160
164
164
229
231
234
220
226
228
160
189
174
167
218
187
187
229
208
224
230
229
230
231
231
213
214
214
126
112
116
149
121
127
218
217
218
237
237
237
251
251
251
255
255
255
255
255
255
255
255
255
255
255
255
255
255
255
255
255
255
255
255
255
255
255
255
255
255
255
255
255
255
255
255
255
255
255
255
255
255
255
255
255
255
255
255
255
255
255
255
255
255
255
255
255
255
255
255
255
255
255
255
255
255
255
255
255
255
255
255
255
255
255
255
255
255
255
255
255
255
255
255
255
255
255
255
255
255
255
255
255
255
255
255
255
255
255
255
255
255
255
255
255
255
255
255
255
255
255
255
255
255
255
255
255
255
255
255
255
255
255
255
255
255
255
255
255
255
255
255
255
255
255
255
255
255
255
255
255
255
255
255
255
255
255
255
255
255
255
255
255
255
255
255
255
255
255
255
255
255
255
255
255
255
255
255
255
255
255
255
255
255
255
255
255
255
255
255
255
255
255
255
255
255
255
255
255
255
255
255
255
250
250
250
189
190
190
99
104
105
202
202
203
250
250
250
255
255
255
255
255
255
255
255
255
255
255
255
255
255
255
236
236
236
188
188
188
72
68
67
41
36
28
83
118
99
103
134
128
141
146
164
156
118
109
190
142
127
234
204
178
251
228
196
174
169
152
56
99
99
121
153
150
213
221
223
156
191
173
161
219
187
158
216
184
138
183
163
69
98
97
47
66
72
27
44
49
111
108
107
229
228
227
253
253
253
255
255
255
255
255
255
255
255
255
255
255
255
255
255
255
255
255
255
255
255
255
255
255
255
255
255
255
255
255
255
255
255
255
255
255
255
255
255
255
255
255
255
255
255
255
255
255
255
255
255
255
255
255
255
255
255
255
255
255
255
255
255
255
255
255
255
255
255
255
255
255
255
255
255
255
255
255
255
255
255
255
255
255
255
255
255
255
255
255
255
255
255
255
255
255
255
255
255
255
255
255
255
255
255
255
255
255
255
255
255
255
255
255
255
255
255
255
255
255
255
255
255
255
255
255
255
255
255
255
255
255
255
255
255
255
255
255
255
255
255
255
255
255
255
255
255
255
255
255
255
255
255
255
255
255
255
255
255
255
255
255
255
255
255
255
255
255
255
255
255
255
255
255
255
255
255
255
255
255
255
255
255
255
255
255
255
255
255
255
255
255
255
253
253
253
198
220
225
143
168
177
244
244
244
255
255
255
255
255
255
255
255
255
255
255
255
255
255
255
255
255
255
244
244
244
199
197
195
121
108
99
53
40
28
41
62
47
96
143
122
104
130
128
147
151
172
170
135
124
234
204
178
251
225
194
226
210
184
165
166
161
38
71
76
81
121
117
106
146
134
157
210
182
149
201
177
151
197
189
65
103
105
56
91
93
37
64
66
44
54
52
102
86
67
123
102
83
172
163
158
238
238
238
255
255
255
255
255
255
255
255
255
255
255
255
255
255
255
255
255
255
255
255
255
255
255
255
255
255
255
255
255
255
255
255
255
255
255
255
255
255
255
255
255
255
255
255
255
255
255
255
255
255
255
255
255
255
255
255
255
255
255
255
255
255
255
255
255
255
255
255
255
255
255
255
255
255
255
255
255
255
255
255
255
255
255
255
255
255
255
255
255
255
255
255
255
255
255
255
255
255
255
255
255
255
255
255
255
255
255
255
255
255
255
255
255
255
255
255
255
255
255
255
255
255
255
255
255
255
255
255
255
255
255
255
255
255
255
255
255
255
255
255
255
255
255
255
255
255
255
255
255
255
255
255
255
255
255
255
255
255
255
255
255
255
255
255
255
255
255
255
255
255
255
255
255
255
255
255
255
255
255
255
255
255
255
255
255
255
255
255
255
240
242
241
158
169
172
195
198
200
255
255
255
255
255
255
255
255
255
255
255
255
255
255
255
251
252
251
212
225
212
166
181
156
99
85
66
95
75
56
67
61
48
51
88
72
101
145
127
107
132
135
177
183
196
186
169
156
252
232
198
225
208
185
214
211
211
213
217
219
72
83
84
25
49
55
41
71
69
48
79
72
47
75
70
94
135
140
50
92
83
55
78
72
64
64
55
92
77
61
97
77
55
97
78
56
95
92
71
168
181
164
247
248
247
255
255
255
255
255
255
255
255
255
255
255
255
255
255
255
255
255
255
255
255
255
255
255
255
255
255
255
255
255
255
255
255
255
255
255
255
255
255
255
255
255
255
255
255
255
255
255
255
255
255
255
255
255
255
255
255
255
255
255
255
255
255
255
255
255
255
255
255
255
255
255
255
255
255
255
255
255
255
255
255
255
255
255
255
255
255
255
255
255
255
255
255
255
255
255
255
255
255
255
255
255
255
255
255
255
255
255
255
255
255
255
255
255
255
255
255
255
255
255
255
255
255
255
255
255
255
255
255
255
255
255
255
255
255
255
255
255
255
255
255
255
255
255
255
255
255
255
255
255
255
255
255
255
255
255
255
255
255
255
255
255
255
255
255
255
255
255
255
255
255
255
255
255
255
255
255
255
255
255
255
255
255
255
210
212
212
110
134
130
170
174
174
255
255
255
255
255
255
255
255
255
255
255
255
255
255
255
251
251
251
203
226
206
179
216
178
92
84
61
96
74
56
92
73
58
62
90
68
77
125
100
107
157
131
120
145
141
223
227
234
199
188
185
205
185
166
212
211
211
225
229
233
188
192
193
147
169
158
103
123
117
24
40
45
41
56
54
106
147
129
71
142
106
78
128
100
92
76
58
98
78
58
99
77
57
101
78
58
87
70
50
135
169
130
178
231
180
193
232
196
231
237
232
255
255
255
255
255
255
255
255
255
255
255
255
255
255
255
255
255
255
255
255
255
255
255
255
255
255
255
255
255
255
255
255
255
255
255
255
255
255
255
255
255
255
255
255
255
255
255
255
255
255
255
255
255
255
255
255
255
255
255
255
255
255
255
255
255
255
255
255
255
255
255
255
255
255
255
255
255
255
255
255
255
255
255
255
255
255
255
255
255
255
255
255
255
255
255
255
255
255
255
255
255
255
255
255
255
255
255
255
255
255
255
255
255
255
255
255
255
255
255
255
255
255
255
255
255
255
255
255
255
255
255
255
255
255
255
255
255
255
255
255
255
255
255
255
255
255
255
255
255
255
255
255
255
255
255
255
255
255
255
255
255
255
255
255
255
255
255
255
255
255
255
255
255
255
255
255
255
224
225
225
166
173
172
56
83
85
161
163
164
255
255
255
252
253
253
252
253
253
255
255
255
254
254
254
203
224
205
164
214
169
98
113
82
95
74
55
97
76
56
67
65
46
74
129
95
93
148
115
167
228
190
152
188
172
218
223
228
209
209
212
210
204
206
224
226
231
210
220
219
165
210
186
136
176
155
71
97
88
97
126
116
138
179
160
76
141
109
74
143
105
79
87
64
99
78
59
97
77
59
98
77
57
102
78
57
89
105
76
129
193
136
125
190
132
143
202
148
183
227
185
137
146
132
150
147
144
184
181
178
214
213
212
231
230
228
245
245
244
252
252
252
255
255
255
255
255
255
255
255
255
255
255
255
255
255
255
255
255
255
255
255
255
255
255
255
255
255
255
255
255
255
255
255
255
255
255
255
255
255
255
255
255
255
255
255
255
255
255
255
255
255
255
255
255
255
255
255
255
255
255
255
255
255
255
255
255
255
255
255
255
255
255
255
255
255
255
255
255
255
255
255
255
255
255
255
255
255
255
255
255
255
255
255
255
255
255
255
255
255
255
255
255
255
255
255
255
255
255
255
255
255
255
255
255
255
255
255
255
255
255
255
255
255
255
255
255
255
255
255
255
255
255
255
255
255
255
255
255
255
255
255
255
255
255
255
255
255
255
255
255
255
255
255
255
255
255
255
195
196
196
155
165
163
27
50
53
73
78
80
228
228
228
228
230
230
252
252
252
255
255
255
219
230
219
169
221
173
127
168
125
85
70
52
94
73
55
90
71
53
63
94
68
75
136
101
94
147
115
161
226
189
151
195
175
209
214
217
203
203
209
227
227
231
213
222
221
163
207
182
162
225
187
165
228
190
166
226
192
155
210
181
70
139
106
72
146
112
72
106
80
97
78
61
97
78
58
98
77
60
101
77
59
86
69
48
120
167
118
123
192
132
128
194
134
128
194
134
133
196
139
173
212
171
59
64
50
55
48
34
67
58
46
91
81
64
142
132
110
187
175
153
207
200
190
228
226
225
250
249
249
255
255
255
255
255
255
255
255
255
255
255
255
255
255
255
255
255
255
255
255
255
255
255
255
255
255
255
255
255
255
255
255
255
255
255
255
255
255
255
255
255
255
255
255
255
255
255
255
255
255
255
255
255
255
255
255
255
255
255
255
255
255
255
255
255
255
255
255
255
255
255
255
255
255
255
255
255
255
255
255
255
255
255
255
255
255
255
255
255
255
255
255
255
255
255
255
255
255
255
255
255
255
255
255
255
255
255
255
255
255
255
255
255
255
255
255
255
255
255
255
255
255
255
255
255
255
255
255
255
255
255
255
255
255
255
255
255
255
255
255
255
255
255
255
248
248
248
210
210
210
130
138
138
20
37
42
24
39
46
48
52
59
192
192
192
255
255
255
236
239
237
178
224
182
136
191
138
91
109
78
94
73
57
93
74
55
79
75
54
73
120
86
73
136
100
92
147
116
161
224
187
157
203
180
182
188
192
228
229
235
212
221
222
155
200
176
164
225
190
164
224
187
162
225
187
151
213
177
72
142
104
67
146
107
67
128
98
81
74
55
101
76
58
98
77
58
99
77
59
100
75
60
96
114
84
130
191
135
123
189
131
127
194
133
129
196
135
130
197
135
139
200
146
155
186
155
49
42
32
53
42
33
71
59
44
81
69
45
130
108
74
136
113
82
136
118
96
162
145
125
199
188
175
223
217
210
241
239
237
250
250
250
255
255
255
255
255
255
255
255
255
255
255
255
255
255
255
255
255
255
255
255
255
255
255
255
255
255
255
255
255
255
255
255
255
255
255
255
255
255
255
255
255
255
255
255
255
255
255
255
255
255
255
255
255
255
255
255
255
255
255
255
255
255
255
255
255
255
255
255
255
255
255
255
255
255
255
255
255
255
255
255
255
255
255
255
255
255
255
255
255
255
255
255
255
255
255
255
255
255
255
255
255
255
255
255
255
255
255
255
255
255
255
255
255
255
255
255
255
255
255
255
255
255
255
255
255
255
255
255
255
255
255
255
255
255
255
239
239
239
201
202
202
95
98
99
134
136
137
195
195
196
254
254
254
250
251
250
194
229
196
135
193
139
121
163
118
86
71
53
91
72
52
89
69
51
106
138
102
75
134
91
72
138
101
82
143
108
160
222
185
155
204
175
213
221
223
210
217
224
152
192
174
164
229
191
162
225
187
164
224
188
159
218
184
76
140
105
67
144
105
70
143
106
59
85
63
98
78
60
98
78
57
100
77
56
100
79
61
76
67
48
120
171
124
104
162
112
120
185
130
127
195
134
129
196
135
130
197
136
129
196
135
165
216
169
101
118
97
44
34
23
76
63
49
81
72
50
111
95
68
128
109
79
115
95
78
123
99
78
135
112
84
157
133
104
178
152
123
202
181
157
217
205
193
233
229
225
251
251
251
255
255
255
255
255
255
255
255
255
255
255
255
255
255
255
255
255
255
255
255
255
255
255
255
255
255
255
255
255
255
255
255
255
255
255
255
255
255
255
255
255
255
255
255
255
255
255
255
255
255
255
255
255
255
255
255
255
255
255
255
255
255
255
255
255
255
255
255
255
255
255
255
255
255
255
255
255
255
255
255
255
255
255
255
255
255
255
255
255
255
255
255
255
255
255
255
255
255
255
255
255
255
255
255
255
255
255
255
255
255
255
255
255
255
255
255
255
255
255
255
255
255
255
255
255
255
255
255
255
255
255
255
253
253
253
254
254
254
255
255
255
247
248
247
181
211
184
128
188
134
129
189
134
89
109
78
91
69
51
93
71
52
77
74
52
123
177
126
74
137
94
70
139
102
73
138
103
161
221
184
164
217
184
170
182
185
143
176
165
166
227
192
162
226
187
163
224
187
164
224
191
86
145
112
69
145
104
69
144
105
58
115
86
77
73
55
101
76
57
98
77
57
99
78
56
91
71
53
80
112
80
127
190
135
78
134
90
125
194
135
126
193
133
128
196
135
130
197
136
130
197
137
135
198
143
173
212
174
53
47
31
71
58
44
67
60
40
78
66
46
100
83
62
103
84
68
123
99
79
133
111
88
144
122
95
149
124
98
154
125
94
164
135
104
185
157
125
169
151
127
212
202
181
232
229
222
254
254
254
255
255
255
255
255
255
255
255
255
255
255
255
255
255
255
255
255
255
255
255
255
255
255
255
255
255
255
255
255
255
255
255
255
255
255
255
255
255
255
255
255
255
255
255
255
255
255
255
255
255
255
255
255
255
255
255
255
255
255
255
255
255
255
255
255
255
255
255
255
255
255
255
255
255
255
255
255
255
255
255
255
255
255
255
255
255
255
255
255
255
255
255
255
255
255
255
255
255
255
255
255
255
255
255
255
255
255
255
255
255
255
255
255
255
255
255
255
255
255
255
255
255
255
255
255
255
255
255
255
255
255
255
207
224
208
124
181
131
124
188
133
106
158
115
79
65
47
89
69
51
86
65
49
100
137
98
122
185
128
73
139
96
68
142
105
69
137
101
159
218
181
166
224
190
125
169
150
167
226
191
162
223
189
161
225
189
168
230
194
96
157
123
69
144
104
67
145
104
69
134
101
49
72
54
94
75
58
97
75
56
97
76
56
97
77
58
68
72
51
104
158
112
118
178
124
94
148
105
125
193
131
124
194
133
126
195
136
127
196
137
130
197
137
130
195
135
174
226
177
122
142
115
82
69
53
82
73
52
94
82
62
79
65
44
80
63
43
69
54
38
87
70
53
101
80
62
129
106
87
153
128
102
164
138
107
161
134
101
147
124
93
186
167
128
202
186
153
245
245
245
255
255
255
255
255
255
255
255
255
255
255
255
255
255
255
255
255
255
255
255
255
255
255
255
255
255
255
255
255
255
255
255
255
255
255
255
255
255
255
255
255
255
255
255
255
255
255
255
255
255
255
255
255
255
255
255
255
255
255
255
255
255
255
255
255
255
255
255
255
255
255
255
255
255
255
255
255
255
255
255
255
255
255
255
255
255
255
255
255
255
255
255
255
255
255
255
255
255
255
255
255
255
255
255
255
255
255
255
255
255
255
255
255
255
255
255
255
255
255
255
255
255
255
255
255
255
255
255
255
246
247
246
176
219
179
110
170
117
120
183
132
63
91
64
88
65
48
88
66
48
79
73
52
122
179
124
117
183
124
71
138
94
69
142
106
64
136
97
151
206
174
143
201
166
159
221
184
160
224
186
161
224
186
167
227
192
110
167
134
67
143
103
66
144
103
72
142
105
48
92
68
74
75
54
94
73
56
95
73
55
96
74
57
83
72
55
67
107
76
118
182
128
98
155
106
112
173
120
123
191
130
124
194
133
126
195
136
127
196
137
128
196
137
130
196
136
142
205
147
175
216
173
79
73
53
86
71
52
98
81
60
107
92
64
130
109
80
81
66
44
107
91
65
96
77
55
87
70
49
88
68
47
100
80
59
132
112
88
131
114
88
183
166
127
184
171
137
247
247
247
255
255
255
255
255
255
255
255
255
255
255
255
255
255
255
255
255
255
255
255
255
255
255
255
255
255
255
255
255
255
255
255
255
255
255
255
255
255
255
255
255
255
255
255
255
255
255
255
255
255
255
255
255
255
255
255
255
255
255
255
255
255
255
255
255
255
255
255
255
255
255
255
255
255
255
255
255
255
255
255
255
255
255
255
255
255
255
255
255
255
255
255
255
255
255
255
255
255
255
255
255
255
255
255
255
255
255
255
255
255
255
255
255
255
255
255
255
255
255
255
255
255
255
255
255
255
255
255
255
218
229
219
165
216
170
107
167
114
91
143
102
61
61
46
86
67
50
86
63
47
103
136
95
118
182
124
123
190
130
73
139
95
69
143
106
70
143
103
113
164
135
156
215
180
159
222
186
158
222
185
166
227
191
119
176
142
68
141
103
68
143
104
72
146
108
50
105
76
62
94
67
83
69
48
92
70
52
93
71
54
89
73
56
66
90
68
80
135
92
124
192
132
84
140
94
123
189
130
123
190
132
124
193
134
125
194
134
127
196
137
128
196
137
127
192
133
128
197
135
179
234
182
110
129
100
88
73
53
109
91
67
109
90
60
129
108
80
106
88
63
169
148
106
157
136
102
111
93
66
127
110
77
109
90
63
100
81
59
85
67
46
123
108
80
154
142
123
252
252
252
255
255
255
255
255
255
255
255
255
255
255
255
255
255
255
255
255
255
255
255
255
255
255
255
255
255
255
255
255
255
255
255
255
255
255
255
255
255
255
255
255
255
255
255
255
255
255
255
255
255
255
255
255
255
255
255
255
255
255
255
255
255
255
255
255
255
255
255
255
255
255
255
255
255
255
255
255
255
255
255
255
255
255
255
255
255
255
255
255
255
255
255
255
255
255
255
255
255
255
255
255
255
255
255
255
255
255
255
255
255
255
255
255
255
255
255
255
255
255
255
255
255
255
255
255
255
254
254
254
187
221
190
123
186
130
110
167
120
69
105
77
72
54
42
84
65
47
72
70
48
124
176
124
117
185
125
124
192
131
75
140
94
69
146
106
71
140
101
151
205
172
160
221
185
158
222
186
162
225
188
129
188
155
66
137
100
69
143
104
70
145
105
58
120
90
61
103
79
71
77
58
88
68
51
86
68
49
89
70
54
67
72
55
67
111
82
102
161
111
119
185
125
91
144
100
128
191
134
124
190
132
125
193
132
126
195
133
127
196
134
133
201
142
79
138
91
129
196
139
151
213
158
168
203
165
81
73
51
103
87
64
126
104
74
127
103
78
128
106
75
150
129
88
156
138
102
145
127
91
193
172
123
173
153
111
126
107
81
125
105
76
117
100
74
196
194
193
255
255
255
255
255
255
255
255
255
255
255
255
255
255
255
255
255
255
255
255
255
255
255
255
255
255
255
255
255
255
255
255
255
255
255
255
255
255
255
255
255
255
255
255
255
255
255
255
255
255
255
255
255
255
255
255
255
255
255
255
255
255
255
255
255
255
255
255
255
255
255
255
255
255
255
255
255
255
255
255
255
255
255
255
255
255
255
255
255
255
255
255
255
255
255
255
255
255
255
255
255
255
255
255
255
255
255
255
255
255
255
255
255
255
255
255
255
255
255
255
255
255
255
255
255
255
255
255
255
231
236
232
151
209
161
121
184
127
91
147
100
58
83
60
80
60
46
85
63
48
90
123
85
123
189
129
118
187
125
124
191
130
92
157
110
66
139
100
134
192
157
161
218
183
160
219
183
159
219
185
143
200
168
67
139
101
67
145
104
71
145
103
68
131
96
57
102
75
70
106
77
79
67
50
86
65
50
87
67
53
69
60
45
64
103
76
61
114
79
111
174
121
117
180
124
103
161
112
110
171
118
122
184
131
124
193
131
125
195
133
127
197
135
132
201
140
90
146
101
94
152
105
133
201
141
179
230
183
105
110
84
97
79
59
140
118
84
143
120
91
138
116
82
171
151
107
134
117
82
157
140
100
188
167
115
182
164
116
159
140
104
162
143
99
172
157
120
225
224
223
255
255
255
255
255
255
255
255
255
255
255
255
255
255
255
255
255
255
255
255
255
255
255
255
255
255
255
255
255
255
255
255
255
255
255
255
255
255
255
255
255
255
255
255
255
255
255
255
255
255
255
255
255
255
255
255
255
255
255
255
255
255
255
255
255
255
255
255
255
255
255
255
255
255
255
255
255
255
255
255
255
255
255
255
255
255
255
255
255
255
255
255
255
255
255
255
255
255
255
255
255
255
255
255
255
255
255
255
255
255
255
255
255
255
255
255
255
255
255
255
255
255
255
255
255
255
255
255
255
205
225
207
123
188
131
120
184
126
80
131
87
51
64
44
83
63
48
70
58
40
125
173
126
117
187
125
119
191
125
120
191
129
104
168
122
114
169
137
160
219
183
155
216
179
157
219
182
150
208
175
69
137
99
68
145
105
67
145
105
71
141
105
53
102
73
88
144
102
91
120
86
82
63
46
87
65
52
71
54
44
51
79
58
65
112
80
65
119
81
112
178
120
109
168
116
111
174
119
103
163
112
113
171
122
123
193
130
124
193
131
126
196
134
127
198
135
114
174
122
64
117
78
122
185
131
141
205
149
150
173
139
91
75
52
136
115
79
134
111
80
149
128
91
171
151
106
144
128
89
170
152
111
185
163
112
167
149
105
171
153
114
163
145
100
171
158
118
242
241
241
255
255
255
255
255
255
255
255
255
255
255
255
255
255
255
255
255
255
255
255
255
255
255
255
255
255
255
255
255
255
255
255
255
255
255
255
255
255
255
255
255
255
255
255
255
255
255
255
255
255
255
255
255
255
255
255
255
255
255
255
255
255
255
255
255
255
255
255
255
255
255
255
255
255
255
255
255
255
255
255
255
255
255
255
255
255
255
255
255
255
255
255
255
255
255
255
255
255
255
255
255
255
255
255
255
255
255
255
255
255
255
255
255
255
255
255
255
255
255
255
255
255
255
255
255
255
251
251
251
166
206
169
119
183
125
120
183
125
76
123
83
48
49
34
85
66
52
83
105
75
126
190
132
120
189
127
121
192
128
123
194
130
118
179
131
154
214
178
153
214
179
154
213
179
156
215
181
78
144
109
67
144
103
65
143
103
72
143
106
53
106
74
95
154
107
126
183
129
72
79
52
84
65
49
65
49
38
40
51
39
65
111
81
65
115
81
66
121
81
111
178
121
102
160
110
116
181
125
105
166
113
110
165
118
121
191
128
125
194
132
125
194
132
127
198
135
126
193
136
70
123
85
84
140
99
131
199
142
155
196
151
79
67
44
135
114
81
109
88
59
146
125
94
140
119
83
125
107
74
181
162
119
161
141
96
163
145
104
182
161
118
158
140
97
180
167
139
250
250
250
255
255
255
255
255
255
255
255
255
255
255
255
255
255
255
255
255
255
255
255
255
255
255
255
255
255
255
255
255
255
255
255
255
255
255
255
255
255
255
255
255
255
255
255
255
255
255
255
255
255
255
255
255
255
255
255
255
255
255
255
255
255
255
255
255
255
255
255
255
255
255
255
255
255
255
255
255
255
255
255
255
255
255
255
255
255
255
255
255
255
255
255
255
255
255
255
255
255
255
255
255
255
255
255
255
255
255
255
255
255
255
255
255
255
255
255
255
255
255
255
255
255
255
255
255
255
229
234
230
134
188
140
117
181
123
116
180
122
75
115
78
51
44
32
76
63
49
112
157
114
119
188
126
119
189
127
122
192
129
121
186
129
146
201
163
153
213
175
153
213
179
159
216
184
93
151
118
68
143
104
67
145
105
71
146
107
60
115
85
100
161
111
115
185
121
116
165
115
71
62
45
59
45
34
43
40
28
58
94
70
68
117
83
65
117
83
66
120
81
110
177
120
95
152
103
114
178
122
105
166
112
106
162
114
119
189
126
122
192
130
125
194
132
127
196
135
136
204
145
88
140
100
65
119
82
125
186
135
145
201
147
100
102
75
142
119
86
117
97
63
165
144
104
149
128
90
131
112
82
188
168
122
180
160
115
154
135
95
183
162
115
165
148
106
188
178
157
252
252
252
255
255
255
255
255
255
255
255
255
255
255
255
255
255
255
255
255
255
255
255
255
255
255
255
255
255
255
255
255
255
255
255
255
255
255
255
255
255
255
255
255
255
255
255
255
255
255
255
255
255
255
255
255
255
255
255
255
255
255
255
255
255
255
255
255
255
255
255
255
255
255
255
255
255
255
255
255
255
255
255
255
255
255
255
255
255
255
255
255
255
255
255
255
255
255
255
255
255
255
255
255
255
255
255
255
255
255
255
255
255
255
255
255
255
255
255
255
255
255
255
255
255
255
255
255
255
186
206
190
102
162
110
114
178
120
112
176
118
68
105
68
59
47
37
68
77
55
124
187
130
119
188
126
121
190
128
125
191
133
131
187
145
157
211
177
152
211
176
157
214
182
113
168
136
68
142
103
65
146
101
66
147
103
60
123
85
108
169
120
118
190
126
117
177
119
111
135
102
49
41
31
48
38
31
43
64
47
69
115
83
74
124
87
68
117
85
65
119
80
112
179
122
86
143
95
113
178
122
106
168
114
106
162
115
116
186
123
119
188
126
123
192
130
125
194
135
129
196
137
132
189
140
65
115
81
95
151
108
135
202
145
166
210
161
130
134
98
124
105
69
174
153
105
165
145
98
129
110
77
190
171
122
172
152
106
158
138
97
180
158
112
170
154
111
194
187
171
255
255
255
255
255
255
255
255
255
255
255
255
255
255
255
255
255
255
255
255
255
255
255
255
255
255
255
255
255
255
255
255
255
255
255
255
255
255
255
255
255
255
255
255
255
255
255
255
255
255
255
255
255
255
255
255
255
255
255
255
255
255
255
255
255
255
255
255
255
255
255
255
255
255
255
255
255
255
255
255
255
255
255
255
255
255
255
255
255
255
255
255
255
255
255
255
255
255
255
255
255
255
255
255
255
255
255
255
255
255
255
255
255
255
255
255
255
255
255
255
255
255
255
255
255
255
242
243
243
117
153
128
104
163
114
107
164
113
108
170
115
72
105
70
52
38
31
92
130
94
123
191
129
120
189
125
123
193
130
117
179
128
152
208
174
153
210
175
153
213
178
136
190
159
67
136
98
68
144
104
69
146
105
63
128
91
111
171
122
123
195
134
136
179
128
215
214
182
244
226
202
214
201
181
108
104
93
49
87
66
73
123
89
85
133
94
69
119
84
67
120
82
117
179
125
79
135
87
114
179
123
102
162
110
105
161
113
114
181
121
116
184
123
119
189
127
122
192
132
127
195
136
132
199
139
120
172
127
66
118
81
129
195
141
126
195
136
133
181
132
133
122
84
171
152
103
178
158
111
142
123
85
169
150
101
157
138
94
169
150
105
171
151
107
171
153
113
207
202
194
255
255
255
255
255
255
255
255
255
255
255
255
255
255
255
255
255
255
255
255
255
255
255
255
255
255
255
255
255
255
255
255
255
255
255
255
255
255
255
255
255
255
255
255
255
255
255
255
255
255
255
255
255
255
255
255
255
255
255
255
255
255
255
255
255
255
255
255
255
255
255
255
255
255
255
255
255
255
255
255
255
255
255
255
255
255
255
255
255
255
255
255
255
255
255
255
255
255
255
255
255
255
255
255
255
255
255
255
255
255
255
255
255
255
255
255
255
255
255
255
255
255
255
243
244
243
184
206
187
68
114
84
112
143
107
219
217
188
176
185
154
59
81
55
41
34
28
113
169
120
118
188
128
120
189
127
122
189
128
136
193
154
151
208
175
153
209
176
150
206
173
71
136
100
69
143
102
69
145
105
64
130
93
115
173
126
129
196
139
125
183
134
201
193
165
201
172
152
158
122
104
236
206
182
244
228
203
185
185
160
79
116
85
92
142
100
66
115
79
65
117
79
117
176
126
67
120
75
115
178
122
91
148
99
107
162
114
112
180
117
112
181
119
115
184
124
120
188
126
124
192
130
126
195
133
141
204
148
99
149
110
111
172
123
130
198
140
137
199
142
140
154
110
163
142
99
170
148
106
155
134
95
190
169
119
153
134
92
179
159
116
144
124
87
182
163
127
220
217
213
255
255
255
255
255
255
255
255
255
255
255
255
255
255
255
255
255
255
255
255
255
255
255
255
255
255
255
255
255
255
255
255
255
255
255
255
255
255
255
255
255
255
255
255
255
255
255
255
255
255
255
255
255
255
255
255
255
255
255
255
255
255
255
255
255
255
255
255
255
255
255
255
255
255
255
255
255
255
255
255
255
255
255
255
255
255
255
255
255
255
255
255
255
255
255
255
255
255
255
255
255
255
255
255
255
255
255
255
255
255
255
255
255
255
255
255
255
255
255
255
255
255
255
193
217
194
139
190
145
64
111
77
125
137
112
232
210
182
251
231
201
187
177
157
59
78
59
121
186
128
118
188
125
122
191
131
119
179
131
151
212
176
150
208
175
154
211
178
88
149
114
69
145
100
69
144
103
67
136
99
110
173
122
129
199
139
125
195
135
127
177
128
175
156
133
194
175
155
164
157
140
150
132
116
228
204
178
244
222
192
189
191
166
89
141
97
74
122
84
63
114
76
110
169
122
58
111
72
114
178
123
74
129
82
107
163
113
110
176
121
113
181
121
112
181
120
116
184
124
120
188
126
124
192
130
124
195
132
145
205
153
100
150
109
133
198
142
127
196
136
148
189
138
145
131
92
132
108
73
168
149
107
190
171
118
174
156
110
179
158
111
141
122
84
182
167
131
233
232
231
255
255
255
255
255
255
255
255
255
255
255
255
255
255
255
255
255
255
255
255
255
255
255
255
255
255
255
255
255
255
255
255
255
255
255
255
255
255
255
255
255
255
255
255
255
255
255
255
255
255
255
255
255
255
255
255
255
255
255
255
255
255
255
255
255
255
255
255
255
255
255
255
255
255
255
255
255
255
255
255
255
255
255
255
255
255
255
255
255
255
255
255
255
255
255
255
255
255
255
255
255
255
255
255
255
255
255
255
255
255
255
255
255
255
255
255
255
255
255
255
238
240
239
167
216
173
126
186
133
78
125
87
76
97
73
159
135
116
212
193
168
242
224
199
145
163
127
118
186
126
119
190
125
120
185
128
141
198
164
150
209
176
154
213
179
107
165
132
65
143
103
68
144
104
68
141
100
105
168
118
130
203
139
125
199
133
125
196
132
127
174
125
224
203
175
251
222
190
252
228
198
249
228
197
248
223
190
249
222
188
218
199
175
108
132
99
92
143
101
59
110
74
109
167
122
53
105
69
109
171
119
60
112
70
115
173
120
77
133
89
85
143
97
112
183
122
112
182
121
116
184
123
122
189
127
125
192
131
127
195
133
147
205
155
106
156
114
134
201
145
145
203
149
139
143
103
149
127
92
181
162
116
169
151
102
162
145
104
178
157
113
151
133
96
177
162
131
247
247
247
255
255
255
255
255
255
255
255
255
255
255
255
255
255
255
255
255
255
255
255
255
255
255
255
255
255
255
255
255
255
255
255
255
255
255
255
255
255
255
255
255
255
255
255
255
255
255
255
255
255
255
255
255
255
255
255
255
255
255
255
255
255
255
255
255
255
255
255
255
255
255
255
255
255
255
255
255
255
255
255
255
255
255
255
255
255
255
255
255
255
255
255
255
255
255
255
255
255
255
255
255
255
255
255
255
255
255
255
255
255
255
255
255
255
255
255
255
255
255
255
227
235
227
145
201
151
106
166
116
106
153
110
192
188
162
244
223
194
242
220
192
197
172
147
140
168
123
118
186
123
123
192
128
118
177
130
154
210
177
152
209
177
131
185
153
67
139
101
65
144
104
69
144
106
95
158
112
132
204
143
126
200
135
126
198
133
125
197
131
131
168
121
164
141
118
195
165
140
193
158
135
206
174
149
223
193
164
252
223
191
236
209
181
166
164
139
103
159
111
52
103
64
111
166
121
50
100
64
97
153
108
51
99
64
118
178
122
71
124
82
55
103
70
92
151
102
112
180
120
114
181
119
119
186
124
123
190
130
124
194
133
125
193
136
151
206
160
112
166
121
131
200
142
154
178
132
148
131
92
181
162
113
152
133
92
141
123
88
183
163
119
158
138
99
183
171
149
255
255
255
255
255
255
255
255
255
255
255
255
255
255
255
255
255
255
255
255
255
255
255
255
255
255
255
255
255
255
255
255
255
255
255
255
255
255
255
255
255
255
255
255
255
255
255
255
255
255
255
255
255
255
255
255
255
255
255
255
255
255
255
255
255
255
255
255
255
255
255
255
255
255
255
255
255
255
255
255
255
255
255
255
255
255
255
255
255
255
255
255
255
255
255
255
255
255
255
255
255
255
255
255
255
255
255
255
255
255
255
255
255
255
255
255
255
255
255
255
255
255
255
210
226
211
108
155
116
61
114
78
107
136
101
225
212
184
220
191
162
243
222
189
247
227
196
140
175
126
116
188
124
117
179
123
138
194
157
149
208
174
147
206
172
73
138
102
67
144
104
69
144
104
78
143
100
133
202
143
128
201
139
128
200
136
126
198
133
125
197
132
128
177
125
215
201
171
253
227
195
249
223
195
247
222
192
243
213
183
241
214
183
230
204
175
223
211
182
89
138
97
95
148
102
81
131
92
73
123
85
64
113
78
55
100
66
118
180
124
69
121
79
59
108
76
59
109
73
103
163
112
111
178
119
114
181
118
119
186
126
124
192
132
127
194
136
128
195
133
153
209
159
106
160
114
136
178
132
171
161
115
162
143
100
163
146
104
149
133
93
177
158
115
166
146
108
197
189
177
255
255
255
255
255
255
255
255
255
255
255
255
255
255
255
255
255
255
255
255
255
255
255
255
255
255
255
255
255
255
255
255
255
255
255
255
255
255
255
255
255
255
255
255
255
255
255
255
255
255
255
255
255
255
255
255
255
255
255
255
255
255
255
255
255
255
255
255
255
255
255
255
255
255
255
255
255
255
255
255
255
255
255
255
255
255
255
255
255
255
255
255
255
255
255
255
255
255
255
255
255
255
255
255
255
255
255
255
255
255
255
255
255
255
255
255
255
255
255
255
253
253
253
178
209
179
119
172
124
88
137
97
112
135
102
235
224
192
211
190
165
163
155
136
201
192
162
135
177
123
117
189
127
91
151
106
135
194
162
156
214
180
93
149
115
69
145
105
68
144
104
69
137
96
128
193
137
130
198
136
129
200
139
128
200
137
126
198
133
126
197
134
130
181
127
195
168
142
162
139
118
192
172
148
210
180
154
243
212
180
254
222
189
244
215
185
250
226
197
130
142
114
115
175
124
78
131
87
65
109
75
55
95
69
60
104
72
114
178
122
63
117
75
61
112
80
66
115
82
66
119
80
106
169
116
111
179
116
115
184
119
119
190
125
124
194
132
127
194
134
127
196
136
161
215
165
112
153
117
157
158
113
150
133
89
159
143
103
154
138
97
143
125
85
172
153
116
210
206
200
255
255
255
255
255
255
255
255
255
255
255
255
255
255
255
255
255
255
255
255
255
255
255
255
255
255
255
255
255
255
255
255
255
255
255
255
255
255
255
255
255
255
255
255
255
255
255
255
255
255
255
255
255
255
255
255
255
255
255
255
255
255
255
255
255
255
255
255
255
255
255
255
255
255
255
255
255
255
255
255
255
255
255
255
255
255
255
255
255
255
255
255
255
255
255
255
255
255
255
255
255
255
255
255
255
255
255
255
255
255
255
255
255
255
255
255
255
255
255
255
228
235
228
141
192
144
129
191
136
124
188
133
147
168
128
247
223
193
250
226
196
249
230
199
230
211
184
114
162
107
115
183
124
65
133
97
123
179
150
129
181
151
68
141
102
68
143
103
67
138
98
115
179
126
131
202
138
128
200
135
128
200
135
128
200
135
126
198
133
126
198
133
128
194
135
129
135
104
230
211
190
233
209
187
246
216
189
254
220
189
255
219
190
254
221
189
253
225
192
197
192
165
79
132
88
114
178
122
77
127
85
41
78
55
66
108
76
112
175
121
61
114
75
68
116
84
70
118
86
70
118
85
72
125
85
107
171
119
109
180
119
116
186
125
120
191
130
125
196
134
128
196
137
130
195
138
162
218
168
155
186
144
138
130
92
149
131
90
155
138
101
137
122
86
172
154
116
227
226
224
255
255
255
255
255
255
255
255
255
255
255
255
255
255
255
255
255
255
255
255
255
255
255
255
255
255
255
255
255
255
255
255
255
255
255
255
255
255
255
255
255
255
255
255
255
255
255
255
255
255
255
255
255
255
255
255
255
255
255
255
255
255
255
255
255
255
255
255
255
255
255
255
255
255
255
255
255
255
255
255
255
255
255
255
255
255
255
255
255
255
255
255
255
255
255
255
255
255
255
255
255
255
255
255
255
255
255
255
255
255
255
255
255
255
255
255
255
237
240
237
178
213
180
138
185
142
125
174
128
156
210
151
166
174
126
223
201
175
206
183
157
212
189
163
174
152
131
117
166
112
92
160
108
69
145
106
97
151
122
75
141
106
66
144
104
71
142
104
97
158
111
133
204
142
129
201
136
129
201
136
128
200
135
128
200
135
126
198
133
126
198
133
122
196
131
128
177
126
153
121
104
155
118
103
216
178
153
254
221
191
253
220
189
255
220
189
255
220
189
240
222
194
72
101
72
84
136
94
119
165
119
82
119
81
78
126
87
97
159
108
62
112
77
69
118
86
71
119
87
71
120
86
71
120
87
69
121
84
105
169
115
110
174
118
128
184
133
127
186
134
123
186
132
138
200
146
149
201
151
154
199
157
159
192
147
159
149
105
149
128
91
137
119
83
173
158
122
246
246
246
255
255
255
255
255
255
255
255
255
255
255
255
255
255
255
255
255
255
255
255
255
255
255
255
255
255
255
255
255
255
255
255
255
255
255
255
255
255
255
255
255
255
255
255
255
255
255
255
255
255
255
255
255
255
255
255
255
255
255
255
255
255
255
255
255
255
255
255
255
255
255
255
255
255
255
255
255
255
255
255
255
255
255
255
255
255
255
255
255
255
255
255
255
255
255
255
255
255
255
255
255
255
255
255
255
255
255
255
255
255
255
255
255
255
209
223
210
151
199
158
95
142
105
149
203
157
138
197
144
166
200
124
186
194
131
251
225
193
249
218
189
222
191
168
154
123
104
121
168
116
69
139
94
68
144
103
64
138
102
69
144
105
68
145
107
80
142
100
134
203
143
129
199
137
129
201
136
129
201
136
128
200
135
128
200
135
127
199
134
126
198
133
123
196
129
122
191
127
124
160
117
65
71
51
152
114
102
210
170
147
252
220
190
255
220
189
255
220
189
252
226
193
199
192
167
109
128
89
134
161
104
191
223
141
180
210
134
149
179
120
96
133
88
65
112
78
78
125
91
109
154
120
87
132
100
68
114
83
121
167
128
155
208
161
140
199
148
139
198
146
131
189
138
116
169
121
130
190
135
128
191
138
138
198
143
170
208
160
148
145
104
146
131
90
181
170
148
251
251
251
255
255
255
255
255
255
255
255
255
255
255
255
255
255
255
255
255
255
255
255
255
255
255
255
255
255
255
255
255
255
255
255
255
255
255
255
255
255
255
255
255
255
255
255
255
255
255
255
255
255
255
255
255
255
255
255
255
255
255
255
255
255
255
255
255
255
255
255
255
255
255
255
255
255
255
255
255
255
255
255
255
255
255
255
255
255
255
255
255
255
255
255
255
255
255
255
255
255
255
255
255
255
255
255
255
255
255
255
255
255
255
253
253
253
149
187
154
73
122
83
144
198
150
132
201
141
107
157
112
184
220
129
190
205
131
226
202
172
157
120
100
152
111
99
95
82
65
102
145
105
69
141
100
68
142
104
69
143
103
70
145
105
66
130
92
130
197
137
127
201
135
128
202
136
129
201
136
129
201
136
129
201
136
128
200
135
127
199
134
126
198
133
123
195
131
120
191
128
119
189
127
101
145
102
75
56
48
183
139
123
206
165
141
252
219
188
255
220
189
254
221
189
250
223
192
220
211
195
177
179
174
170
197
118
189
219
126
192
222
130
198
226
144
139
181
130
162
218
168
152
211
158
154
209
159
129
175
136
127
169
134
84
135
96
121
179
131
131
193
138
129
192
137
127
182
135
82
126
88
86
137
96
104
159
112
126
181
131
159
204
157
152
144
107
193
186
174
255
255
255
255
255
255
255
255
255
255
255
255
255
255
255
255
255
255
255
255
255
255
255
255
255
255
255
255
255
255
255
255
255
255
255
255
255
255
255
255
255
255
255
255
255
255
255
255
255
255
255
255
255
255
255
255
255
255
255
255
255
255
255
255
255
255
255
255
255
255
255
255
255
255
255
255
255
255
255
255
255
255
255
255
255
255
255
255
255
255
255
255
255
255
255
255
255
255
255
255
255
255
255
255
255
255
255
255
255
255
255
255
255
255
245
245
245
116
149
122
124
183
134
126
195
132
131
200
140
82
124
80
188
224
130
175
190
122
215
193
167
231
203
180
170
122
110
112
92
77
73
127
93
69
141
103
67
143
104
68
144
102
65
133
95
118
179
129
129
201
137
128
200
135
129
201
136
129
201
136
129
201
136
129
201
136
128
200
135
127
199
134
126
198
133
123
195
130
119
191
128
116
188
125
126
185
132
56
75
52
147
114
100
187
137
120
212
175
152
254
220
190
255
219
190
246
217
186
230
220
208
237
236
234
148
166
114
191
223
128
187
220
123
191
224
125
136
179
113
130
195
139
132
193
140
130
192
137
145
202
151
109
162
116
133
190
143
75
123
85
126
186
134
129
191
133
128
189
133
128
187
136
80
128
88
64
115
78
113
167
120
97
153
101
154
151
110
209
205
198
255
255
255
255
255
255
255
255
255
255
255
255
255
255
255
255
255
255
255
255
255
255
255
255
255
255
255
255
255
255
255
255
255
255
255
255
255
255
255
255
255
255
255
255
255
255
255
255
255
255
255
255
255
255
255
255
255
255
255
255
255
255
255
255
255
255
255
255
255
255
255
255
255
255
255
255
255
255
255
255
255
255
255
255
255
255
255
255
255
255
255
255
255
255
255
255
255
255
255
255
255
255
255
255
255
255
255
255
255
255
255
255
255
255
246
246
246
128
173
133
127
192
136
126
194
134
124
188
133
86
130
82
191
221
134
168
169
118
231
211
187
214
179
156
176
122
109
148
124
107
69
129
94
70
140
103
67
143
102
71
141
103
93
148
103
129
201
139
125
200
134
129
200
135
130
201
136
129
201
136
129
201
136
129
201
136
128
200
135
127
199
134
127
199
134
122
194
130
119
190
127
116
188
125
115
185
125
82
121
85
63
47
35
190
144
129
183
135
119
227
189
165
254
221
190
234
212
182
241
238
231
231
230
226
149
157
130
192
224
129
186
221
123
190
225
127
138
171
109
134
195
140
129
193
138
129
193
138
129
193
138
136
197
143
124
184
132
130
190
140
79
128
90
132
188
139
127
187
134
123
186
131
127
185
131
73
121
84
98
156
108
108
166
112
163
154
114
222
219
217
255
255
255
255
255
255
255
255
255
255
255
255
255
255
255
255
255
255
255
255
255
255
255
255
255
255
255
255
255
255
255
255
255
255
255
255
255
255
255
255
255
255
255
255
255
255
255
255
255
255
255
255
255
255
255
255
255
255
255
255
255
255
255
255
255
255
255
255
255
255
255
255
255
255
255
255
255
255
255
255
255
255
255
255
255
255
255
255
255
255
255
255
255
255
255
255
255
255
255
255
255
255
255
255
255
255
255
255
255
255
255
255
255
255
201
213
202
124
186
133
121
185
128
125
192
133
116
176
125
110
166
113
177
206
127
135
137
95
222
189
170
192
150
130
190
137
124
144
129
108
72
134
99
69
140
102
72
144
105
66
123
85
130
194
136
124
198
132
125
200
134
127
201
135
128
202
136
129
201
136
129
201
136
129
201
136
128
201
136
126
201
135
124
198
132
121
194
129
119
191
126
115
187
122
112
179
122
61
111
75
56
66
46
91
69
59
180
138
126
193
145
132
200
157
139
184
162
151
241
239
236
226
224
222
165
167
154
185
214
126
182
217
121
183
216
123
124
153
95
124
180
129
129
193
134
128
192
136
128
192
137
129
192
136
133
191
138
121
180
130
130
186
138
86
135
97
127
190
138
121
186
126
119
183
123
114
173
122
82
136
93
110
166
117
160
150
118
234
233
233
255
255
255
255
255
255
255
255
255
255
255
255
255
255
255
255
255
255
255
255
255
255
255
255
255
255
255
255
255
255
255
255
255
255
255
255
255
255
255
255
255
255
255
255
255
255
255
255
255
255
255
255
255
255
255
255
255
255
255
255
255
255
255
255
255
255
255
255
255
255
255
255
255
255
255
255
255
255
255
255
255
255
255
255
255
255
255
255
255
255
255
255
255
255
255
255
255
255
255
255
255
255
255
255
255
255
255
255
255
255
255
252
253
252
148
185
150
113
179
121
119
181
125
122
189
131
111
172
119
124
186
126
160
194
119
108
123
72
182
143
124
190
140
125
181
137
123
116
124
100
70
140
103
70
140
103
65
127
92
113
171
121
126
196
131
127
197
133
125
199
134
127
201
135
128
202
136
129
201
136
129
201
136
129
201
136
128
202
136
126
201
135
124
198
132
121
194
129
119
191
126
115
187
122
117
186
125
71
124
83
66
98
73
63
54
41
49
36
27
115
88
79
161
130
116
169
162
155
181
172
171
179
170
173
159
158
148
177
205
123
177
210
116
176
207
118
108
140
83
106
160
115
127
191
132
126
190
134
126
190
134
126
191
134
127
192
135
123
177
130
105
158
115
119
172
130
102
159
113
120
185
126
116
181
122
115
181
123
117
178
126
109
164
116
147
157
135
253
253
253
255
255
255
255
255
255
255
255
255
255
255
255
255
255
255
255
255
255
255
255
255
255
255
255
255
255
255
255
255
255
255
255
255
255
255
255
255
255
255
255
255
255
255
255
255
255
255
255
255
255
255
255
255
255
255
255
255
255
255
255
255
255
255
255
255
255
255
255
255
255
255
255
255
255
255
255
255
255
255
255
255
255
255
255
255
255
255
255
255
255
255
255
255
255
255
255
255
255
255
255
255
255
255
255
255
255
255
255
255
255
255
252
252
252
138
178
142
108
175
115
114
177
120
116
183
125
105
165
113
128
192
132
146
180
111
104
132
73
152
126
102
192
144
128
183
146
131
88
123
95
66
138
100
71
138
102
83
140
97
125
193
134
125
194
131
125
197
130
125
200
134
127
201
135
128
202
136
129
201
136
129
201
136
130
202
137
129
202
137
126
201
135
124
198
132
122
194
129
120
192
127
117
189
124
115
187
122
92
153
105
63
110
79
63
81
58
68
51
42
49
37
26
57
68
50
88
106
88
107
109
99
155
154
146
160
160
149
162
188
115
173
207
111
151
181
101
85
118
68
96
150
107
124
188
131
125
188
133
125
188
133
125
189
134
126
189
134
129
190
136
110
160
117
86
137
97
117
180
128
116
181
123
112
181
120
111
177
119
110
173
116
104
168
112
126
173
133
243
243
243
255
255
255
255
255
255
255
255
255
255
255
255
255
255
255
255
255
255
255
255
255
255
255
255
255
255
255
255
255
255
255
255
255
255
255
255
255
255
255
255
255
255
255
255
255
255
255
255
255
255
255
255
255
255
255
255
255
255
255
255
255
255
255
255
255
255
255
255
255
255
255
255
255
255
255
255
255
255
255
255
255
255
255
255
255
255
255
255
255
255
255
255
255
255
255
255
255
255
255
255
255
255
255
255
255
255
255
255
255
255
255
255
255
255
169
180
171
80
132
91
106
164
113
110
179
120
98
159
107
125
191
132
130
172
106
104
136
71
104
116
73
179
138
121
146
128
111
74
130
99
72
138
102
65
123
89
123
187
130
121
194
129
126
196
132
126
198
132
127
200
135
128
201
136
129
201
135
129
202
136
135
206
142
120
181
128
116
183
125
128
200
137
126
198
135
123
195
130
121
193
128
118
190
125
115
187
123
109
175
121
63
111
78
66
108
78
70
69
49
66
51
37
43
42
29
61
100
73
78
108
70
56
81
45
76
91
67
159
185
112
173
207
111
159
192
112
81
116
63
91
142
102
112
174
121
121
187
129
122
187
129
122
187
130
123
188
130
124
188
130
126
187
132
93
143
99
79
132
91
115
177
121
111
178
117
113
176
119
87
145
95
102
162
110
112
166
120
232
233
232
255
255
255
255
255
255
255
255
255
255
255
255
255
255
255
255
255
255
255
255
255
255
255
255
255
255
255
255
255
255
255
255
255
255
255
255
255
255
255
255
255
255
255
255
255
255
255
255
255
255
255
255
255
255
255
255
255
255
255
255
255
255
255
255
255
255
255
255
255
255
255
255
255
255
255
255
255
255
255
255
255
255
255
255
255
255
255
255
255
255
255
255
255
255
255
255
255
255
255
255
255
255
255
255
255
255
255
255
255
255
255
255
255
255
221
223
221
78
120
93
61
111
77
90
149
101
96
152
102
117
182
123
121
170
108
105
137
74
104
135
78
81
85
53
61
92
60
75
138
104
68
128
97
105
162
113
123
192
127
122
194
129
125
197
132
126
198
133
128
200
134
129
202
137
132
204
141
127
196
138
96
154
108
112
175
124
132
203
142
128
200
137
128
200
137
124
195
132
121
193
128
118
190
125
115
187
122
115
183
123
74
126
88
63
113
80
62
97
67
78
65
50
60
47
36
50
69
52
72
107
71
98
126
80
57
88
47
129
156
95
122
155
84
106
139
75
82
116
68
92
142
102
105
164
114
117
184
125
118
184
125
118
185
126
119
185
126
118
185
126
117
183
125
121
182
128
80
132
90
73
124
86
107
167
116
111
177
119
77
137
89
59
109
72
101
133
108
247
247
247
255
255
255
255
255
255
255
255
255
255
255
255
255
255
255
255
255
255
255
255
255
255
255
255
255
255
255
255
255
255
255
255
255
255
255
255
255
255
255
255
255
255
255
255
255
255
255
255
255
255
255
255
255
255
255
255
255
255
255
255
255
255
255
255
255
255
255
255
255
255
255
255
255
255
255
255
255
255
255
255
255
255
255
255
255
255
255
255
255
255
255
255
255
255
255
255
255
255
255
255
255
255
255
255
255
255
255
255
255
255
255
255
255
255
251
251
251
120
144
128
66
115
82
55
107
69
78
132
91
112
176
119
107
163
104
110
144
83
102
137
78
96
125
75
45
85
53
74
140
104
78
133
95
126
192
132
121
192
126
122
194
129
126
198
133
130
201
137
124
191
133
107
168
118
85
140
97
92
148
103
130
196
139
132
204
141
128
200
137
128
200
137
128
200
137
125
197
133
122
194
129
119
191
126
115
187
122
113
184
122
95
154
108
64
114
81
62
113
79
64
82
59
84
66
51
57
46
32
63
92
66
98
129
81
87
118
68
101
125
75
115
147
82
115
148
85
89
122
73
89
141
100
98
158
107
114
180
121
114
180
121
114
180
122
115
181
123
115
181
122
114
180
121
112
177
119
118
177
126
83
130
95
64
113
81
80
137
92
100
158
109
62
110
74
169
177
171
255
255
255
255
255
255
255
255
255
255
255
255
255
255
255
255
255
255
255
255
255
255
255
255
255
255
255
255
255
255
255
255
255
255
255
255
255
255
255
255
255
255
255
255
255
255
255
255
255
255
255
255
255
255
255
255
255
255
255
255
255
255
255
255
255
255
255
255
255
255
255
255
255
255
255
255
255
255
255
255
255
255
255
255
255
255
255
255
255
255
255
255
255
255
255
255
255
255
255
255
255
255
255
255
255
255
255
255
255
255
255
255
255
255
255
255
255
255
255
255
175
185
178
70
120
87
61
110
76
72
124
86
100
162
108
107
166
110
102
138
82
108
142
82
110
141
85
69
103
69
71
127
96
111
171
120
121
190
129
124
193
132
123
189
134
105
167
116
80
139
92
69
122
83
76
129
89
120
181
128
133
205
141
129
202
138
128
202
136
128
200
137
128
200
137
128
200
137
126
197
134
122
194
130
120
192
128
116
187
124
113
184
120
112
176
121
67
117
83
62
112
79
67
107
79
63
66
46
80
64
50
51
58
43
72
105
68
105
137
84
99
124
73
115
146
77
103
135
71
96
129
70
87
139
94
95
152
106
112
177
116
112
178
119
113
178
121
113
178
119
112
178
120
111
178
119
110
175
117
107
172
114
119
179
126
107
162
116
103
160
112
105
164
112
68
115
79
225
227
225
255
255
255
255
255
255
255
255
255
255
255
255
255
255
255
255
255
255
255
255
255
255
255
255
255
255
255
255
255
255
255
255
255
255
255
255
255
255
255
255
255
255
255
255
255
255
255
255
255
255
255
255
255
255
255
255
255
255
255
255
255
255
255
255
255
255
255
255
255
255
255
255
255
255
255
255
255
255
255
255
255
255
255
255
255
255
255
255
255
255
255
255
255
255
255
255
255
255
255
255
255
255
255
255
255
255
255
255
255
255
255
255
255
255
255
255
255
255
255
255
212
215
213
77
124
93
66
113
81
66
116
83
78
130
88
111
169
117
100
139
87
115
147
88
113
147
92
68
103
68
70
121
87
127
190
136
108
170
119
85
140
98
67
121
83
69
121
87
71
123
86
106
166
116
131
199
140
129
202
135
128
202
136
128
202
136
128
202
136
129
201
137
128
200
137
128
200
137
126
197
135
123
195
132
120
192
129
117
188
125
114
184
120
112
181
120
94
150
101
62
114
78
61
110
78
63
106
76
44
58
41
48
38
28
48
67
47
101
130
87
97
124
76
113
146
83
106
139
79
105
138
77
78
121
73
95
154
105
109
174
114
101
160
110
88
144
97
113
177
119
110
176
118
107
175
116
107
173
114
106
172
113
105
171
112
106
170
112
102
167
108
102
165
108
119
147
125
250
250
250
255
255
255
255
255
255
255
255
255
255
255
255
255
255
255
255
255
255
255
255
255
255
255
255
255
255
255
255
255
255
255
255
255
255
255
255
255
255
255
255
255
255
255
255
255
255
255
255
255
255
255
255
255
255
255
255
255
255
255
255
255
255
255
255
255
255
255
255
255
255
255
255
255
255
255
255
255
255
255
255
255
255
255
255
255
255
255
255
255
255
255
255
255
255
255
255
255
255
255
255
255
255
255
255
255
255
255
255
255
255
255
255
255
255
255
255
255
255
255
255
240
241
240
79
123
93
67
118
85
61
110
78
56
104
70
70
121
83
87
125
80
123
153
96
119
151
95
62
94
65
63
109
79
71
124
83
64
117
79
71
123
90
70
121
86
96
150
105
130
197
138
127
200
137
126
200
136
126
201
136
126
201
135
126
201
135
126
201
135
128
200
137
128
200
137
127
199
136
126
198
135
123
195
132
120
192
129
117
188
125
115
186
121
110
180
116
111
177
117
72
126
85
62
111
79
60
110
76
63
108
79
49
68
51
46
37
27
65
78
56
107
131
88
125
153
94
114
146
87
111
144
85
92
126
76
102
161
109
110
173
118
66
118
79
58
108
72
109
172
117
108
174
113
104
173
113
106
172
113
105
171
112
103
170
111
104
169
110
101
165
107
100
163
106
177
191
178
255
255
255
255
255
255
255
255
255
255
255
255
255
255
255
255
255
255
255
255
255
255
255
255
255
255
255
255
255
255
255
255
255
255
255
255
255
255
255
255
255
255
255
255
255
255
255
255
255
255
255
255
255
255
255
255
255
255
255
255
255
255
255
255
255
255
255
255
255
255
255
255
255
255
255
255
255
255
255
255
255
255
255
255
255
255
255
255
255
255
255
255
255
255
255
255
255
255
255
255
255
255
255
255
255
255
255
255
255
255
255
255
255
255
255
255
255
255
255
255
255
255
255
252
252
252
130
154
137
71
123
90
64
114
81
58
106
73
56
103
71
58
98
65
109
139
91
111
143
91
55
88
59
62
104
80
69
117
86
68
118
82
86
141
97
123
184
128
130
199
134
126
198
133
124
200
135
127
199
135
128
200
134
127
200
135
127
201
135
127
201
135
127
200
136
127
200
136
126
199
135
126
198
135
123
195
131
121
193
129
118
188
125
116
185
122
111
180
118
109
177
117
105
167
116
63
114
79
60
110
77
60
108
78
64
108
78
58
84
64
35
34
25
88
102
71
128
156
97
117
151
86
116
147
89
107
141
86
109
163
110
97
156
104
58
109
74
57
105
70
98
159
108
106
173
111
105
173
111
104
171
112
103
170
111
103
170
111
100
167
107
97
163
104
102
163
107
211
218
212
255
255
255
255
255
255
255
255
255
255
255
255
255
255
255
255
255
255
255
255
255
255
255
255
255
255
255
255
255
255
255
255
255
255
255
255
255
255
255
255
255
255
255
255
255
255
255
255
255
255
255
255
255
255
255
255
255
255
255
255
255
255
255
255
255
255
255
255
255
255
255
255
255
255
255
255
255
255
255
255
255
255
255
255
255
255
255
255
255
255
255
255
255
255
255
255
255
255
255
255
255
255
255
255
255
255
255
255
255
255
255
255
255
255
255
255
255
255
255
255
255
255
255
255
255
255
195
202
197
79
129
95
68
119
86
60
109
75
60
104
74
56
99
72
65
105
74
61
96
70
43
76
54
79
124
94
81
137
93
111
176
122
125
196
133
123
195
130
126
198
132
126
198
133
127
199
134
127
199
134
127
199
134
128
200
135
128
200
135
128
200
135
126
201
135
125
200
134
125
200
134
125
199
133
123
195
130
121
193
128
118
189
125
116
185
123
112
181
119
109
178
116
108
173
115
100
162
110
62
114
78
62
107
77
61
109
77
46
88
62
56
92
70
68
95
64
99
125
70
136
167
103
123
154
98
103
136
87
108
160
111
70
125
84
62
110
78
60
105
73
85
144
97
107
173
115
106
171
110
103
170
111
103
170
111
101
167
108
98
164
103
95
162
103
115
164
117
235
236
235
255
255
255
255
255
255
255
255
255
255
255
255
255
255
255
255
255
255
255
255
255
255
255
255
255
255
255
255
255
255
255
255
255
255
255
255
255
255
255
255
255
255
255
255
255
255
255
255
255
255
255
255
255
255
255
255
255
255
255
255
255
255
255
255
255
255
255
255
255
255
255
255
255
255
255
255
255
255
255
255
255
255
255
255
255
255
255
255
255
255
255
255
255
255
255
255
255
255
255
255
255
255
255
255
255
255
255
255
255
255
255
255
255
255
255
255
255
255
255
255
255
255
255
255
255
255
250
250
250
153
171
159
76
126
93
63
111
77
60
101
72
77
118
91
47
82
59
36
68
48
91
131
100
85
134
95
127
192
136
121
191
128
122
193
128
123
195
130
125
197
132
125
197
132
126
198
133
127
199
134
127
199
134
128
200
135
128
200
135
128
200
135
126
201
135
125
200
134
124
199
133
125
198
133
123
195
130
121
193
128
118
189
125
116
185
123
112
181
119
109
178
117
108
174
115
105
171
111
98
158
108
65
116
81
56
100
73
55
96
71
60
107
75
57
105
67
98
126
80
104
130
85
77
114
76
94
149
101
96
152
105
65
116
82
63
111
79
60
109
74
71
128
82
110
176
117
105
169
109
103
170
111
101
168
109
98
164
106
99
162
108
89
149
101
134
161
138
253
253
253
255
255
255
255
255
255
255
255
255
255
255
255
255
255
255
255
255
255
255
255
255
255
255
255
255
255
255
255
255
255
255
255
255
255
255
255
255
255
255
255
255
255
255
255
255
255
255
255
255
255
255
255
255
255
255
255
255
255
255
255
255
255
255
255
255
255
255
255
255
255
255
255
255
255
255
255
255
255
255
255
255
255
255
255
255
255
255
255
255
255
255
255
255
255
255
255
255
255
255
255
255
255
255
255
255
255
255
255
255
255
255
255
255
255
255
255
255
255
255
255
255
255
255
255
255
255
255
255
255
249
249
249
160
175
165
72
119
88
58
100
70
43
77
54
52
92
67
60
104
77
82
130
91
112
171
121
100
156
107
122
192
129
122
192
128
122
194
129
125
197
131
125
197
131
126
198
133
126
199
134
127
199
134
127
199
134
127
200
135
128
200
135
126
200
134
125
200
134
124
199
133
125
198
133
123
195
130
120
192
127
117
189
124
116
185
123
112
181
119
110
177
118
108
174
117
104
171
112
102
163
110
65
114
76
65
111
83
59
106
77
58
107
73
58
106
70
58
101
69
53
89
61
73
121
87
99
157
110
67
120
84
66
116
84
62
113
79
61
110
79
60
115
72
107
173
115
104
169
109
101
167
109
101
165
108
97
160
105
78
129
86
97
118
96
236
237
237
255
255
255
255
255
255
255
255
255
255
255
255
255
255
255
255
255
255
255
255
255
255
255
255
255
255
255
255
255
255
255
255
255
255
255
255
255
255
255
255
255
255
255
255
255
255
255
255
255
255
255
255
255
255
255
255
255
255
255
255
255
255
255
255
255
255
255
255
255
255
255
255
255
255
255
255
255
255
255
255
255
255
255
255
255
255
255
255
255
255
255
255
255
255
255
255
255
255
255
255
255
255
255
255
255
255
255
255
255
255
255
255
255
255
255
255
255
255
255
255
255
255
255
255
255
255
255
255
255
255
255
255
255
255
255
251
251
251
188
195
190
86
120
94
60
103
75
69
118
88
48
92
64
74
123
85
117
183
126
106
164
113
112
175
119
121
193
130
122
194
131
124
196
133
125
196
133
124
199
133
125
200
134
125
200
134
125
200
134
125
200
134
125
200
134
125
200
134
125
200
134
123
197
131
123
197
131
120
195
129
118
193
127
118
189
125
116
185
123
112
181
119
109
178
117
107
175
116
109
172
117
76
129
85
102
157
111
69
122
84
70
119
85
58
108
75
53
96
68
60
107
77
60
106
74
57
91
65
68
106
76
69
118
88
65
117
85
62
114
79
65
112
79
57
109
74
90
149
101
105
169
114
98
159
108
79
131
89
83
109
73
113
115
84
200
196
182
255
255
255
255
255
255
255
255
255
255
255
255
255
255
255
255
255
255
255
255
255
255
255
255
255
255
255
255
255
255
255
255
255
255
255
255
255
255
255
255
255
255
255
255
255
255
255
255
255
255
255
255
255
255
255
255
255
255
255
255
255
255
255
255
255
255
255
255
255
255
255
255
255
255
255
255
255
255
255
255
255
255
255
255
255
255
255
255
255
255
255
255
255
255
255
255
255
255
255
255
255
255
255
255
255
255
255
255
255
255
255
255
255
255
255
255
255
255
255
255
255
255
255
255
255
255
255
255
255
255
255
255
255
255
255
255
255
255
255
255
255
255
255
255
234
234
234
109
141
119
76
117
90
65
107
78
73
121
84
104
168
114
118
187
127
105
163
112
120
188
129
121
193
130
124
196
133
125
196
133
124
199
133
125
200
134
125
200
134
125
200
134
125
200
134
125
200
134
125
200
134
125
200
134
123
197
131
123
197
131
120
194
128
118
193
127
118
189
125
117
186
124
112
182
120
110
179
117
110
175
116
93
151
99
105
164
112
85
141
96
77
131
89
92
149
104
61
110
76
52
88
64
60
108
78
59
106
75
59
91
66
74
72
51
69
95
69
71
116
85
64
114
81
65
112
81
61
108
79
57
108
75
60
110
75
77
103
69
135
133
100
166
148
110
169
152
116
220
217
213
255
255
255
255
255
255
255
255
255
255
255
255
255
255
255
255
255
255
255
255
255
255
255
255
255
255
255
255
255
255
255
255
255
255
255
255
255
255
255
255
255
255
255
255
255
255
255
255
255
255
255
255
255
255
255
255
255
255
255
255
255
255
255
255
255
255
255
255
255
255
255
255
255
255
255
255
255
255
255
255
255
255
255
255
255
255
255
255
255
255
255
255
255
255
255
255
255
255
255
255
255
255
255
255
255
255
255
255
255
255
255
255
255
255
255
255
255
255
255
255
255
255
255
255
255
255
255
255
255
255
255
255
255
255
255
255
255
255
255
255
255
255
255
255
216
222
217
91
140
104
111
132
117
78
122
92
84
133
94
85
144
96
118
186
127
123
186
130
102
167
108
125
195
134
124
195
132
125
196
133
124
199
133
125
200
134
125
200
134
125
200
134
125
200
134
125
200
134
125
200
134
125
200
134
123
197
131
122
196
130
119
194
128
118
193
127
118
190
125
117
186
124
113
182
120
113
180
120
96
158
100
108
168
112
102
163
108
60
116
74
95
155
106
95
157
106
68
116
79
52
78
60
61
109
78
59
107
75
57
92
66
83
71
50
87
78
57
76
85
59
75
104
73
67
107
74
64
105
73
78
105
72
108
111
84
167
154
115
165
146
103
169
147
107
180
167
136
247
246
246
255
255
255
255
255
255
255
255
255
255
255
255
255
255
255
255
255
255
255
255
255
255
255
255
255
255
255
255
255
255
255
255
255
255
255
255
255
255
255
255
255
255
255
255
255
255
255
255
255
255
255
255
255
255
255
255
255
255
255
255
255
255
255
255
255
255
255
255
255
255
255
255
255
255
255
255
255
255
255
255
255
255
255
255
255
255
255
255
255
255
255
255
255
255
255
255
255
255
255
255
255
255
255
255
255
255
255
255
255
255
255
255
255
255
255
255
255
255
255
255
255
255
255
255
255
255
255
255
255
255
255
255
255
255
255
255
255
255
255
255
255
253
253
253
157
185
162
91
140
106
156
167
159
73
118
85
95
152
103
76
133
90
114
176
125
119
186
127
123
188
129
100
158
107
127
195
137
124
197
132
125
197
133
125
199
134
125
200
135
127
199
134
127
199
134
127
199
134
127
199
135
126
199
134
123
197
130
123
196
129
121
193
128
120
192
127
120
191
126
118
188
123
117
184
122
97
159
104
110
174
118
109
172
116
79
134
91
77
133
91
100
164
108
97
160
105
80
119
87
58
77
65
63
109
78
59
107
73
59
93
68
82
71
54
80
67
52
96
82
59
155
140
102
146
130
95
134
119
82
193
175
129
124
109
80
195
176
129
150
132
89
172
156
114
204
199
187
255
255
255
255
255
255
255
255
255
255
255
255
255
255
255
255
255
255
255
255
255
255
255
255
255
255
255
255
255
255
255
255
255
255
255
255
255
255
255
255
255
255
255
255
255
255
255
255
255
255
255
255
255
255
255
255
255
255
255
255
255
255
255
255
255
255
255
255
255
255
255
255
255
255
255
255
255
255
255
255
255
255
255
255
255
255
255
255
255
255
255
255
255
255
255
255
255
255
255
255
255
255
255
255
255
255
255
255
255
255
255
255
255
255
255
255
255
255
255
255
255
255
255
255
255
255
255
255
255
255
255
255
255
255
255
255
255
255
255
255
255
255
255
255
229
234
230
102
160
112
127
154
135
171
184
175
77
126
90
99
163
109
85
143
99
99
158
107
119
185
126
118
188
127
125
190
133
85
139
95
116
184
128
128
201
137
126
198
132
126
198
131
127
199
134
127
199
134
127
199
134
127
198
135
126
199
133
123
198
130
123
197
130
122
194
129
120
192
127
119
190
125
119
186
125
102
165
107
111
179
117
107
176
116
100
159
108
65
117
80
100
160
109
100
165
107
99
163
109
86
114
91
60
76
66
65
112
80
61
108
75
59
98
70
80
70
55
79
64
46
84
65
45
149
131
101
111
92
64
172
153
110
174
152
111
148
130
97
178
161
114
168
153
111
167
154
116
236
235
233
255
255
255
255
255
255
255
255
255
255
255
255
255
255
255
255
255
255
255
255
255
255
255
255
255
255
255
255
255
255
255
255
255
255
255
255
255
255
255
255
255
255
255
255
255
255
255
255
255
255
255
255
255
255
255
255
255
255
255
255
255
255
255
255
255
255
255
255
255
255
255
255
255
255
255
255
255
255
255
255
255
255
255
255
255
255
255
255
255
255
255
255
255
255
255
255
255
255
255
255
255
255
255
255
255
255
255
255
255
255
255
255
255
255
255
255
255
255
255
255
255
255
255
255
255
255
255
255
255
255
255
255
255
255
255
255
255
255
255
255
255
255
255
255
194
205
195
106
166
117
190
198
192
143
165
149
96
133
102
103
166
109
97
152
106
73
128
84
121
186
128
119
189
125
121
191
127
125
191
134
69
124
81
91
148
101
126
190
133
130
201
135
128
199
134
127
199
134
127
199
134
126
197
135
126
198
133
123
198
131
124
197
130
122
194
129
119
191
126
121
189
127
104
167
110
115
183
121
109
179
115
109
176
119
70
127
86
82
139
96
105
170
113
101
166
108
104
169
112
76
96
78
58
73
64
65
115
83
63
111
79
64
110
78
61
73
52
83
67
49
86
68
49
90
74
49
101
84
58
158
138
100
138
117
84
190
168
124
154
137
97
156
142
103
181
175
161
253
253
253
255
255
255
255
255
255
255
255
255
255
255
255
255
255
255
255
255
255
255
255
255
255
255
255
255
255
255
255
255
255
255
255
255
255
255
255
255
255
255
255
255
255
255
255
255
255
255
255
255
255
255
255
255
255
255
255
255
255
255
255
255
255
255
255
255
255
255
255
255
255
255
255
255
255
255
255
255
255
255
255
255
255
255
255
255
255
255
255
255
255
255
255
255
255
255
255
255
255
255
255
255
255
255
255
255
255
255
255
255
255
255
255
255
255
255
255
255
255
255
255
255
255
255
255
255
255
255
255
255
255
255
255
255
255
255
255
255
255
255
255
255
255
255
255
239
240
239
119
161
127
233
234
233
218
220
218
175
193
176
104
163
112
101
154
108
73
126
86
108
171
120
118
186
125
121
190
128
121
193
130
123
188
133
67
118
81
68
120
85
90
146
101
107
167
116
119
182
128
125
192
135
127
198
138
124
197
134
123
197
131
123
197
130
123
196
131
117
188
125
111
180
118
119
187
124
113
183
121
113
181
122
90
147
103
69
123
85
103
165
113
102
168
112
102
167
110
104
170
112
67
83
69
74
90
75
72
123
86
65
113
82
64
113
79
80
123
89
64
61
45
76
62
47
84
69
49
92
73
53
134
116
91
132
115
80
185
168
121
136
120
89
119
105
80
220
219
218
255
255
255
255
255
255
255
255
255
255
255
255
255
255
255
255
255
255
255
255
255
255
255
255
255
255
255
255
255
255
255
255
255
255
255
255
255
255
255
255
255
255
255
255
255
255
255
255
255
255
255
255
255
255
255
255
255
255
255
255
255
255
255
255
255
255
255
255
255
255
255
255
255
255
255
255
255
255
255
255
255
255
255
255
255
255
255
255
255
255
255
255
255
255
255
255
255
255
255
255
255
255
255
255
255
255
255
255
255
255
255
255
255
255
255
255
255
255
255
255
255
255
255
255
255
255
255
255
255
255
255
255
255
255
255
255
255
255
255
255
255
255
255
255
255
255
255
255
255
255
209
212
209
251
251
251
255
255
255
145
177
149
102
162
111
85
140
93
94
148
105
85
143
99
120
187
127
120
188
126
121
193
130
122
194
132
118
181
129
78
131
94
68
118
82
68
118
80
64
115
76
75
128
86
87
141
95
119
187
129
125
198
135
125
193
131
112
178
118
112
181
119
118
189
124
117
186
122
115
181
122
105
167
117
69
121
87
88
147
103
106
174
116
102
169
112
103
167
111
105
171
112
73
83
68
70
87
69
99
158
109
65
116
78
65
117
78
92
152
105
81
116
82
76
64
46
78
66
46
84
68
51
76
59
41
89
73
52
84
68
43
92
75
55
159
154
148
254
254
254
255
255
255
255
255
255
255
255
255
255
255
255
255
255
255
255
255
255
255
255
255
255
255
255
255
255
255
255
255
255
255
255
255
255
255
255
255
255
255
255
255
255
255
255
255
255
255
255
255
255
255
255
255
255
255
255
255
255
255
255
255
255
255
255
255
255
255
255
255
255
255
255
255
255
255
255
255
255
255
255
255
255
255
255
255
255
255
255
255
255
255
255
255
255
255
255
255
255
255
255
255
255
255
255
255
255
255
255
255
255
255
255
255
255
255
255
255
255
255
255
255
255
255
255
255
255
255
255
255
255
255
255
255
255
255
255
255
255
255
255
255
255
255
255
255
255
255
255
255
255
255
255
255
255
255
255
250
250
250
123
166
127
101
162
109
74
131
84
106
167
116
66
124
82
116
179
123
119
187
125
120
190
128
121
194
130
124
195
133
128
197
138
127
193
136
129
192
135
129
196
134
128
199
132
133
204
141
122
192
133
104
170
115
113
179
122
123
193
130
121
191
127
118
187
126
115
183
120
118
179
124
73
128
88
75
131
89
109
174
118
105
173
113
104
171
114
105
170
113
107
172
114
81
84
71
64
62
54
107
165
113
96
157
105
84
142
95
93
156
101
98
152
103
67
79
52
70
56
41
64
50
34
73
58
41
78
63
43
82
67
48
141
136
131
243
243
243
255
255
255
255
255
255
255
255
255
255
255
255
255
255
255
255
255
255
255
255
255
255
255
255
255
255
255
255
255
255
255
255
255
255
255
255
255
255
255
255
255
255
255
255
255
255
255
255
255
255
255
255
255
255
255
255
255
255
255
255
255
255
255
255
255
255
255
255
255
255
255
255
255
255
255
255
255
255
255
255
255
255
255
255
255
255
255
255
255
255
255
255
255
255
255
255
255
255
255
255
255
255
255
255
255
255
255
255
255
255
255
255
255
255
255
255
255
255
255
255
255
255
255
255
255
255
255
255
255
255
255
255
255
255
255
255
255
255
255
255
255
255
255
255
255
255
255
255
255
255
255
255
255
255
255
255
255
255
255
241
241
241
118
167
127
102
162
109
72
128
83
109
173
118
73
131
88
100
157
109
120
186
126
119
188
126
120
192
128
125
194
132
127
196
132
128
196
136
127
195
137
118
183
129
104
164
114
87
146
96
104
168
113
125
195
135
123
195
130
122
192
130
119
188
127
116
186
125
116
185
124
89
145
98
72
127
87
107
170
114
106
173
112
106
173
111
105
172
112
104
171
111
106
174
113
83
87
73
67
30
46
107
150
112
99
166
108
97
162
107
95
160
103
94
157
101
98
125
94
97
92
86
116
110
105
144
141
139
176
174
172
205
204
203
250
250
250
255
255
255
255
255
255
255
255
255
255
255
255
255
255
255
255
255
255
255
255
255
255
255
255
255
255
255
255
255
255
255
255
255
255
255
255
255
255
255
255
255
255
255
255
255
255
255
255
255
255
255
255
255
255
255
255
255
255
255
255
255
255
255
255
255
255
255
255
255
255
255
255
255
255
255
255
255
255
255
255
255
255
255
255
255
255
255
255
255
255
255
255
255
255
255
255
255
255
255
255
255
255
255
255
255
255
255
255
255
255
255
255
255
255
255
255
255
255
255
255
255
255
255
255
255
255
255
255
255
255
255
255
255
255
255
255
255
255
255
255
255
255
255
255
255
255
255
255
255
255
255
255
255
255
255
255
255
255
255
255
255
255
253
253
253
205
213
206
129
162
132
81
128
93
106
167
116
96
154
107
76
130
88
119
185
126
118
187
123
120
190
127
108
168
115
84
141
93
89
147
99
84
138
93
100
158
109
116
183
124
127
198
137
125
196
133
123
195
128
123
192
129
120
189
127
117
186
124
115
186
123
105
167
114
70
125
85
107
171
117
110
177
116
107
174
112
106
173
111
106
173
111
104
173
110
109
177
114
87
94
78
76
31
53
87
111
86
108
172
117
98
167
109
97
165
107
97
164
108
186
200
188
244
244
244
250
250
250
255
255
255
255
255
255
255
255
255
255
255
255
255
255
255
255
255
255
255
255
255
255
255
255
255
255
255
255
255
255
255
255
255
255
255
255
255
255
255
255
255
255
255
255
255
255
255
255
255
255
255
255
255
255
255
255
255
255
255
255
255
255
255
255
255
255
255
255
255
255
255
255
255
255
255
255
255
255
255
255
255
255
255
255
255
255
255
255
255
255
255
255
255
255
255
255
255
255
255
255
255
255
255
255
255
255
255
255
255
255
255
255
255
255
255
255
255
255
255
255
255
255
255
255
255
255
255
255
255
255
255
255
255
255
255
255
255
255
255
255
255
255
255
255
255
255
255
255
255
255
255
255
255
255
255
255
255
255
255
255
255
255
255
255
255
255
255
255
255
255
255
255
255
255
255
255
255
255
255
255
155
152
153
43
44
40
102
153
111
107
172
115
95
158
106
111
177
117
117
186
121
116
187
124
120
189
130
123
193
132
128
198
136
129
199
136
125
196
133
125
196
132
123
196
130
125
195
131
123
194
130
121
192
128
119
188
126
117
186
124
111
177
120
73
131
87
107
173
117
109
179
117
109
176
115
106
173
112
106
173
111
106
173
111
105
173
110
109
178
115
89
100
81
81
33
57
68
52
53
116
166
121
102
171
111
99
168
108
116
174
123
232
234
232
255
255
255
255
255
255
255
255
255
255
255
255
255
255
255
255
255
255
255
255
255
255
255
255
255
255
255
255
255
255
255
255
255
255
255
255
255
255
255
255
255
255
255
255
255
255
255
255
255
255
255
255
255
255
255
255
255
255
255
255
255
255
255
255
255
255
255
255
255
255
255
255
255
255
255
255
255
255
255
255
255
255
255
255
255
255
255
255
255
255
255
255
255
255
255
255
255
255
255
255
255
255
255
255
255
255
255
255
255
255
255
255
255
255
255
255
255
255
255
255
255
255
255
255
255
255
255
255
255
255
255
255
255
255
255
255
255
255
255
255
255
255
255
255
255
255
255
255
255
255
255
255
255
255
255
255
255
255
255
255
255
255
255
255
255
255
255
255
255
255
255
255
255
255
255
255
255
255
255
255
255
255
255
252
252
252
134
127
130
53
21
37
92
138
97
104
169
113
108
175
118
112
179
120
115
183
122
116
186
122
118
189
124
122
191
128
121
192
129
121
194
129
122
194
130
123
194
131
123
194
131
124
193
132
121
192
130
119
189
127
117
186
124
116
185
123
98
163
107
111
177
123
109
179
117
108
178
116
108
176
115
106
174
112
106
173
111
105
173
111
105
173
110
108
178
116
90
104
84
80
34
56
79
33
54
98
134
98
105
174
112
108
177
116
185
204
187
255
255
255
255
255
255
255
255
255
255
255
255
255
255
255
255
255
255
255
255
255
255
255
255
255
255
255
255
255
255
255
255
255
255
255
255
255
255
255
255
255
255
255
255
255
255
255
255
255
255
255
255
255
255
255
255
255
255
255
255
255
255
255
255
255
255
255
255
255
255
255
255
255
255
255
255
255
255
255
255
255
255
255
255
255
255
255
255
255
255
255
255
255
255
255
255
255
255
255
255
255
255
255
255
255
255
255
255
255
255
255
255
255
255
255
255
255
255
255
255
255
255
255
255
255
255
255
255
255
255
255
255
255
255
255
255
255
255
255
255
255
255
255
255
255
255
255
255
255
255
255
255
255
255
255
255
255
255
255
255
255
255
255
255
255
255
255
255
255
255
255
255
255
255
255
255
255
255
255
255
255
255
255
255
255
255
250
250
250
109
94
100
69
25
47
88
119
90
107
172
118
102
173
111
108
177
117
112
180
121
114
184
122
117
186
124
120
189
127
121
190
128
121
193
130
121
193
130
122
194
131
123
192
130
123
192
130
121
191
129
119
188
126
117
186
124
114
183
121
112
182
120
110
179
117
109
178
116
109
178
116
108
177
115
105
174
112
105
174
112
104
173
111
105
173
111
109
177
117
89
104
85
82
34
58
84
32
58
77
75
65
114
172
120
108
156
111
216
216
215
255
255
255
255
255
255
255
255
255
255
255
255
255
255
255
255
255
255
255
255
255
255
255
255
255
255
255
255
255
255
255
255
255
255
255
255
255
255
255
255
255
255
255
255
255
255
255
255
255
255
255
255
255
255
255
255
255
255
255
255
255
255
255
255
255
255
255
255
255
255
255
255
255
255
255
255
255
255
255
255
255
255
255
255
255
255
255
255
255
255
255
255
255
255
255
255
255
255
255
255
255
255
255
255
255
255
255
255
255
255
255
255
255
255
255
255
255
255
255
255
255
255
255
255
255
255
255
255
255
255
255
255
255
255
255
255
255
255
255
255
255
255
255
255
255
255
255
255
255
255
255
255
255
255
255
255
255
255
255
255
255
255
255
255
255
255
255
255
255
255
255
255
255
255
255
255
255
255
255
255
255
255
255
255
255
255
242
241
242
73
34
51
72
27
49
62
42
47
84
110
86
108
162
114
114
178
120
110
178
116
110
181
119
115
184
122
118
187
125
119
188
126
120
192
129
121
193
130
121
193
130
123
192
130
122
191
129
120
189
127
118
187
125
116
185
123
113
182
120
111
180
118
110
179
117
109
178
116
109
178
116
108
177
115
105
175
113
105
174
112
104
173
111
104
172
110
108
176
116
104
107
91
111
55
76
109
50
74
109
53
74
113
148
112
102
79
78
153
140
144
255
255
255
255
255
255
255
255
255
255
255
255
255
255
255
255
255
255
255
255
255
255
255
255
255
255
255
255
255
255
255
255
255
255
255
255
255
255
255
255
255
255
255
255
255
255
255
255
255
255
255
255
255
255
255
255
255
255
255
255
255
255
255
255
255
255
255
255
255
255
255
255
255
255
255
255
255
255
255
255
255
255
255
255
255
255
255
255
255
255
255
255
255
255
255
255
255
255
255
255
255
255
255
255
255
255
255
255
255
255
255
255
255
255
255
255
255
255
255
255
255
255
255
255
255
255
255
255
255
255
255
255
255
255
255
255
255
255
255
255
255
255
255
255
255
255
255
255
255
255
255
255
255
255
255
255
255
255
255
255
255
255
255
255
255
255
255
255
255
255
255
255
255
255
255
255
255
255
255
255
255
255
255
255
255
255
228
227
227
73
29
49
70
28
48
69
28
47
61
23
41
48
31
36
84
105
81
111
163
113
119
180
124
114
184
121
116
185
123
118
187
125
119
190
127
120
191
129
121
192
130
121
191
129
120
189
128
118
187
126
116
185
123
115
184
122
113
183
121
110
180
117
110
179
117
109
179
117
106
178
115
113
179
119
115
172
120
111
161
113
105
155
107
104
152
105
106
153
107
107
89
84
122
56
82
123
57
83
122
56
83
100
56
69
124
58
84
110
59
77
226
225
226
255
255
255
255
255
255
255
255
255
255
255
255
255
255
255
255
255
255
255
255
255
255
255
255
255
255
255
255
255
255
255
255
255
255
255
255
255
255
255
255
255
255
255
255
255
255
255
255
255
255
255
255
255
255
255
255
255
255
255
255
255
255
255
255
255
255
255
255
255
255
255
255
255
255
255
255
255
255
255
255
255
255
255
255
255
255
255
255
255
255
255
255
255
255
255
255
255
255
255
255
255
255
255
255
255
255
255
255
255
255
255
255
255
255
255
255
255
255
255
255
255
255
255
255
255
255
255
255
255
255
255
255
255
255
255
255
255
255
255
255
255
255
255
255
255
255
255
255
255
255
255
255
255
255
255
255
255
255
255
255
255
255
255
255
255
255
255
255
255
255
255
255
255
255
255
255
255
255
255
255
255
255
255
207
206
206
75
29
51
71
27
49
70
28
49
70
28
49
71
29
49
70
26
46
58
28
41
75
93
71
108
150
109
126
181
131
122
189
129
117
189
122
118
190
126
119
189
128
120
188
128
119
187
127
118
186
125
114
185
122
115
184
123
111
181
118
109
182
115
113
182
119
124
179
129
116
158
118
94
125
92
65
74
60
68
35
48
74
29
51
74
29
52
98
40
67
123
59
84
122
57
81
122
57
81
122
57
80
122
58
79
122
57
79
114
54
77
158
150
153
254
254
254
255
255
255
255
255
255
255
255
255
255
255
255
255
255
255
255
255
255
255
255
255
255
255
255
255
255
255
255
255
255
255
255
255
255
255
255
255
255
255
255
255
255
255
255
255
255
255
255
255
255
255
255
255
255
255
255
255
255
255
255
255
255
255
255
255
255
255
255
255
255
255
255
255
255
255
255
255
255
255
255
255
255
255
255
255
255
255
255
255
255
255
255
255
255
255
255
255
255
255
255
255
255
255
255
255
255
255
255
255
255
255
255
255
255
255
255
255
255
255
255
255
255
255
255
255
255
255
255
255
255
255
255
255
255
255
255
255
255
255
255
255
255
255
255
255
255
255
255
255
255
255
255
255
255
255
255
255
255
255
255
255
255
255
255
255
255
255
255
255
255
255
255
255
255
255
255
255
255
255
255
184
181
182
75
30
52
71
28
49
71
29
50
70
28
49
70
28
49
71
27
49
71
27
49
70
27
48
62
27
42
54
48
44
88
115
88
118
158
119
124
181
128
123
188
130
123
190
130
123
190
130
123
190
129
119
186
126
122
184
127
122
170
123
115
149
113
93
114
87
68
61
55
67
30
46
78
30
51
69
26
45
82
34
55
83
32
55
88
34
58
104
44
69
124
59
83
122
57
81
123
58
82
122
58
80
122
57
79
122
57
79
120
59
82
88
47
64
229
227
228
255
255
255
255
255
255
255
255
255
255
255
255
255
255
255
255
255
255
255
255
255
255
255
255
255
255
255
255
255
255
255
255
255
255
255
255
255
255
255
255
255
255
255
255
255
255
255
255
255
255
255
255
255
255
255
255
255
255
255
255
255
255
255
255
255
255
255
255
255
255
255
255
255
255
255
255
255
255
255
255
255
255
255
255
255
255
255
255
255
255
255
255
255
255
255
255
255
255
255
255
255
255
255
255
255
255
255
255
255
255
255
255
255
255
255
255
255
255
255
255
255
255
255
255
255
255
255
255
255
255
255
255
255
255
255
255
255
255
255
255
255
255
255
255
255
255
255
255
255
255
255
255
255
255
255
255
255
255
255
255
255
255
255
255
255
255
255
255
255
255
255
255
255
255
255
255
255
255
255
255
161
155
157
75
30
52
72
29
50
71
29
50
73
30
51
74
29
51
74
29
50
73
29
50
74
29
49
70
28
49
72
28
50
69
28
48
58
23
40
53
42
43
61
67
56
73
86
69
83
97
79
84
99
81
78
86
70
71
66
59
64
38
45
69
28
48
77
30
54
82
30
56
81
31
56
82
34
54
76
30
51
93
41
64
118
58
81
122
59
83
124
59
84
123
58
82
123
58
82
123
58
82
123
58
81
123
58
80
122
57
79
123
58
83
95
40
63
144
134
137
254
254
254
255
255
255
255
255
255
255
255
255
255
255
255
255
255
255
255
255
255
255
255
255
255
255
255
255
255
255
255
255
255
255
255
255
255
255
255
255
255
255
255
255
255
255
255
255
255
255
255
255
255
255
255
255
255
255
255
255
255
255
255
255
255
255
255
255
255
255
255
255
255
255
255
255
255
255
255
255
255
255
255
255
255
255
255
255
255
255
255
255
255
255
255
255
255
255
255
255
255
255
255
255
255
255
255
255
255
255
255
255
255
255
255
255
255
255
255
255
255
255
255
255
255
255
255
255
255
255
255
255
255
255
255
255
255
255
255
255
255
255
255
255
255
255
255
255
255
255
255
255
255
255
255
255
255
255
255
255
255
255
255
255
255
255
255
255
255
255
255
255
255
255
255
255
255
255
255
255
134
124
128
74
30
51
76
29
50
82
37
56
76
30
51
78
30
52
77
30
53
77
30
52
77
30
52
76
30
52
77
30
52
77
30
52
76
30
52
75
29
53
75
29
51
74
30
51
75
31
53
74
31
53
74
30
53
78
30
55
74
28
51
81
31
53
80
32
53
81
33
54
84
34
56
88
37
60
82
32
53
121
59
83
125
59
84
125
59
84
125
59
84
125
57
82
125
57
82
125
57
82
124
58
82
123
58
82
123
58
82
124
57
82
106
48
70
84
46
61
216
214
215
255
255
255
255
255
255
255
255
255
255
255
255
255
255
255
255
255
255
255
255
255
255
255
255
255
255
255
255
255
255
255
255
255
255
255
255
255
255
255
255
255
255
255
255
255
255
255
255
255
255
255
255
255
255
255
255
255
255
255
255
255
255
255
255
255
255
255
255
255
255
255
255
255
255
255
255
255
255
255
255
255
255
255
255
255
255
255
255
255
255
255
255
255
255
255
255
255
255
255
255
255
255
255
255
255
255
255
255
255
255
255
255
255
255
255
255
255
255
255
255
255
255
255
255
255
255
255
255
255
255
255
255
255
255
255
255
255
255
255
255
255
255
255
255
255
255
255
255
255
255
255
255
255
255
255
255
255
255
255
255
255
255
255
255
255
255
255
255
255
255
255
255
255
255
252
252
252
108
90
96
76
30
52
78
30
52
93
43
64
78
30
51
78
31
52
78
31
54
78
31
54
78
31
54
78
31
54
78
31
54
78
31
54
78
31
54
77
30
53
77
30
53
78
31
53
78
30
52
86
37
59
80
32
56
78
31
53
111
53
76
120
57
82
116
55
79
117
55
79
122
58
83
121
57
83
85
33
57
127
60
86
126
59
84
126
59
84
125
59
84
125
58
83
125
57
83
125
57
83
124
58
83
124
58
83
123
58
82
125
57
82
114
52
75
79
29
50
130
115
121
249
249
249
255
255
255
255
255
255
255
255
255
255
255
255
255
255
255
255
255
255
255
255
255
255
255
255
255
255
255
255
255
255
255
255
255
255
255
255
255
255
255
255
255
255
255
255
255
255
255
255
255
255
255
255
255
255
255
255
255
255
255
255
255
255
255
255
255
255
255
255
255
255
255
255
255
255
255
255
255
255
255
255
255
255
255
255
255
255
255
255
255
255
255
255
255
255
255
255
255
255
255
255
255
255
255
255
255
255
255
255
255
255
255
255
255
255
255
255
255
255
255
255
255
255
255
255
255
255
255
255
255
255
255
255
255
255
255
255
255
255
255
255
255
255
255
255
255
255
255
255
255
255
255
255
255
255
255
255
255
255
255
255
255
255
255
255
255
255
255
255
255
255
255
241
240
240
96
70
79
76
30
53
80
32
54
108
50
74
79
30
51
79
33
54
79
32
55
79
32
55
79
32
55
79
32
55
79
32
55
79
32
55
79
32
55
78
30
53
81
32
55
95
42
64
115
54
78
117
59
82
85
32
55
81
31
52
131
62
88
132
59
85
131
60
85
132
61
86
132
61
86
123
57
81
88
33
59
129
59
88
129
59
85
128
59
85
127
58
84
126
58
84
126
58
84
126
58
84
125
59
84
125
59
84
123
58
82
123
58
82
120
56
80
80
31
52
79
33
55
200
197
198
255
255
255
255
255
255
255
255
255
255
255
255
255
255
255
255
255
255
255
255
255
255
255
255
255
255
255
255
255
255
255
255
255
255
255
255
255
255
255
255
255
255
255
255
255
255
255
255
255
255
255
255
255
255
255
255
255
255
255
255
255
255
255
255
255
255
255
255
255
255
255
255
255
255
255
255
255
255
255
255
255
255
255
255
255
255
255
255
255
255
255
255
255
255
255
255
255
255
255
255
255
255
255
255
255
255
255
255
255
255
255
255
255
255
255
255
255
255
255
255
255
255
255
255
255
255
255
255
255
255
255
255
255
255
255
255
255
255
255
255
255
255
255
255
255
255
255
255
255
255
255
255
255
255
255
255
255
255
255
255
255
255
255
255
255
255
255
255
255
255
255
227
226
227
87
48
64
79
30
53
81
32
53
117
56
79
82
32
54
89
35
62
94
39
66
82
31
57
82
32
57
82
32
55
80
30
54
82
33
55
91
38
58
108
50
71
122
57
80
126
60
85
127
60
87
98
42
67
85
34
59
99
45
67
132
63
87
133
61
87
134
62
86
133
61
85
133
61
85
128
59
86
84
31
56
128
59
86
131
59
86
129
59
85
129
59
85
127
60
85
127
60
85
127
60
85
127
60
85
127
60
85
126
58
84
124
58
83
124
58
83
86
35
57
79
30
54
101
77
87
239
239
239
255
255
255
255
255
255
255
255
255
255
255
255
255
255
255
255
255
255
255
255
255
255
255
255
255
255
255
255
255
255
255
255
255
255
255
255
255
255
255
255
255
255
255
255
255
255
255
255
255
255
255
255
255
255
255
255
255
255
255
255
255
255
255
255
255
255
255
255
255
255
255
255
255
255
255
255
255
255
255
255
255
255
255
255
255
255
255
255
255
255
255
255
255
255
255
255
255
255
255
255
255
255
255
255
255
255
255
255
255
255
255
255
255
255
255
255
255
255
255
255
255
255
255
255
255
255
255
255
255
255
255
255
255
255
255
255
255
255
255
255
255
255
255
255
255
255
255
255
255
255
255
255
255
255
255
255
255
255
255
255
255
255
255
255
255
255
255
255
206
204
205
78
31
52
79
31
53
83
33
54
119
57
81
91
38
62
87
33
58
120
59
85
113
53
78
106
47
70
108
48
71
114
52
76
122
57
81
128
59
85
125
57
83
126
57
83
125
58
84
123
58
85
84
34
59
83
34
60
117
55
79
133
63
87
135
62
87
134
62
86
134
62
86
133
61
86
128
59
87
86
32
57
127
59
86
131
60
86
130
60
86
129
59
85
127
60
85
127
60
85
127
60
85
127
60
85
127
60
85
126
58
84
126
59
84
124
59
83
93
40
62
80
31
55
81
31
56
170
163
166
254
254
254
255
255
255
255
255
255
255
255
255
255
255
255
255
255
255
255
255
255
255
255
255
255
255
255
255
255
255
255
255
255
255
255
255
255
255
255
255
255
255
255
255
255
255
255
255
255
255
255
255
255
255
255
255
255
255
255
255
255
255
255
255
255
255
255
255
255
255
255
255
255
255
255
255
255
255
255
255
255
255
255
255
255
255
255
255
255
255
255
255
255
255
255
255
255
255
255
255
255
255
255
255
255
255
255
255
255
255
255
255
255
255
255
255
255
255
255
255
255
255
255
255
255
255
255
255
255
255
255
255
255
255
255
255
255
255
255
255
255
255
255
255
255
255
255
255
255
255
255
255
255
255
255
255
255
255
255
255
255
255
255
255
255
255
255
255
191
187
188
77
32
52
78
31
53
84
32
54
118
57
81
103
47
71
81
30
54
117
55
79
122
55
81
125
57
83
126
57
81
124
58
81
124
58
81
127
58
84
127
58
84
128
58
84
126
59
84
111
51
76
83
34
58
84
34
60
126
60
86
136
63
87
136
63
88
135
63
87
134
62
86
134
62
86
129
60
89
90
35
60
125
58
84
131
61
87
131
61
87
130
60
86
129
61
86
127
60
85
127
60
85
127
60
85
127
60
85
126
58
84
126
59
84
125
60
84
101
46
68
79
33
56
80
31
56
89
48
65
225
222
223
255
255
255
255
255
255
255
255
255
255
255
255
255
255
255
255
255
255
255
255
255
255
255
255
255
255
255
255
255
255
255
255
255
255
255
255
255
255
255
255
255
255
255
255
255
255
255
255
255
255
255
255
255
255
255
255
255
255
255
255
255
255
255
255
255
255
255
255
255
255
255
255
255
255
255
255
255
255
255
255
255
255
255
255
255
255
255
255
255
255
255
255
255
255
255
255
255
255
255
255
255
255
255
255
255
255
255
255
255
255
255
255
255
255
255
255
255
255
255
255
255
255
255
255
255
255
255
255
255
255
255
255
255
255
255
255
255
255
255
255
255
255
255
255
255
255
255
255
255
255
255
255
255
255
255
255
255
255
255
255
255
255
255
255
255
167
161
164
78
31
54
78
31
54
84
32
55
117
56
80
113
53
77
76
27
50
111
52
77
124
55
82
125
56
81
126
56
82
126
57
83
126
58
83
128
58
84
129
58
84
129
58
85
130
60
88
93
39
63
85
36
60
88
37
61
133
65
91
137
62
88
135
63
89
136
62
88
136
62
88
136
62
88
133
63
90
92
35
61
122
56
82
133
61
87
132
60
87
132
60
87
130
60
86
129
60
86
129
60
86
128
60
86
128
61
86
127
59
85
126
59
84
125
59
84
111
50
75
80
32
55
81
31
55
78
30
52
160
130
141
251
251
251
255
255
255
255
255
255
255
255
255
255
255
255
255
255
255
255
255
255
255
255
255
255
255
255
255
255
255
255
255
255
255
255
255
255
255
255
255
255
255
255
255
255
255
255
255
255
255
255
255
255
255
255
255
255
255
255
255
255
255
255
255
255
255
255
255
255
255
255
255
255
255
255
255
255
255
255
255
255
255
255
255
255
255
255
255
255
255
255
255
255
255
255
255
255
255
255
255
255
255
255
255
255
255
255
255
255
255
255
255
255
255
255
255
255
255
255
255
255
255
255
255
255
255
255
255
255
255
255
255
255
255
255
255
255
255
255
255
255
255
255
255
255
255
255
255
255
255
255
255
255
255
255
255
255
255
255
255
255
255
252
252
252
138
128
132
78
31
54
78
31
54
83
32
56
117
55
81
119
57
81
82
33
55
100
44
68
124
58
83
125
56
79
127
56
82
128
57
83
128
58
84
128
58
84
128
58
84
129
59
85
122
55
84
86
34
59
86
36
60
99
43
67
136
66
92
137
62
89
136
63
89
137
62
89
137
62
89
137
62
89
136
64
92
95
37
64
120
55
81
133
61
88
133
60
87
133
60
87
131
60
86
130
60
86
130
60
86
129
61
86
129
61
86
127
60
85
126
60
85
125
59
84
118
55
80
82
33
56
82
33
56
79
28
52
119
63
88
219
201
207
255
255
255
255
255
255
255
255
255
255
255
255
255
255
255
255
255
255
255
255
255
255
255
255
255
255
255
255
255
255
255
255
255
255
255
255
255
255
255
255
255
255
255
255
255
255
255
255
255
255
255
255
255
255
255
255
255
255
255
255
255
255
255
255
255
255
255
255
255
255
255
255
255
255
255
255
255
255
255
255
255
255
255
255
255
255
255
255
255
255
255
255
255
255
255
255
255
255
255
255
255
255
255
255
255
255
255
255
255
255
255
255
255
255
255
255
255
255
255
255
255
255
255
255
255
255
255
255
255
255
255
255
255
255
255
255
255
255
255
255
255
255
255
255
255
255
255
255
255
255
255
255
255
255
255
255
255
255
255
249
248
248
100
79
88
77
30
53
78
31
54
84
32
56
118
55
81
120
57
81
98
43
66
86
34
57
125
59
84
126
57
80
128
58
84
129
59
85
129
59
85
129
59
85
129
59
85
130
61
87
105
46
72
85
35
59
87
36
60
114
51
77
137
64
91
137
63
91
137
63
91
138
63
91
137
62
89
137
62
89
136
65
92
96
38
65
121
56
81
134
62
88
134
61
88
134
61
88
132
61
87
131
61
87
131
61
87
129
61
86
129
61
86
127
60
85
126
60
85
125
59
84
121
58
84
83
35
58
82
34
57
88
36
61
89
35
59
184
121
143
243
242
242
255
255
255
255
255
255
255
255
255
255
255
255
255
255
255
255
255
255
255
255
255
255
255
255
255
255
255
255
255
255
255
255
255
255
255
255
255
255
255
255
255
255
255
255
255
255
255
255
255
255
255
255
255
255
255
255
255
255
255
255
255
255
255
255
255
255
255
255
255
255
255
255
255
255
255
255
255
255
255
255
255
255
255
255
255
255
255
255
255
255
255
255
255
255
255
255
255
255
255
255
255
255
255
255
255
255
255
255
255
255
255
255
255
255
255
255
255
255
255
255
255
255
255
255
255
255
255
255
255
255
255
255
255
255
255
255
255
255
255
255
255
255
255
255
255
255
255
255
255
255
255
255
255
255
255
255
235
235
235
74
31
53
77
30
53
78
31
54
83
32
56
118
55
81
120
56
80
110
52
76
72
26
47
123
57
83
127
58
82
128
58
84
129
59
85
129
59
85
130
59
85
132
59
86
129
61
87
87
35
58
84
36
59
84
33
57
127
60
86
137
62
89
137
63
91
138
63
91
138
63
91
138
63
90
137
62
90
139
65
94
100
42
69
120
56
81
135
63
89
134
62
88
134
62
88
133
61
88
132
61
87
132
61
87
131
61
87
130
61
86
128
60
85
128
59
85
126
59
84
123
59
85
86
36
60
83
35
58
98
44
68
85
35
57
164
89
117
198
170
179
255
255
255
255
255
255
255
255
255
255
255
255
255
255
255
255
255
255
255
255
255
255
255
255
255
255
255
255
255
255
255
255
255
255
255
255
255
255
255
255
255
255
255
255
255
255
255
255
255
255
255
255
255
255
255
255
255
255
255
255
255
255
255
255
255
255
255
255
255
255
255
255
255
255
255
255
255
255
255
255
255
255
255
255
255
255
255
255
255
255
255
255
255
255
255
255
255
255
255
255
255
255
255
255
255
255
255
255
255
255
255
255
255
255
255
255
255
255
255
255
255
255
255
255
255
255
255
255
255
255
255
255
255
255
255
255
255
255
255
255
255
255
255
255
255
255
255
255
255
255
255
255
255
255
255
255
215
214
215
78
33
55
77
30
53
78
31
54
82
31
56
117
56
81
121
56
78
119
57
81
75
28
49
113
52
77
128
58
83
129
59
85
130
60
86
130
60
86
131
59
84
134
59
87
115
51
77
80
32
54
82
35
58
86
34
57
134
65
90
137
62
90
138
63
91
138
63
91
138
63
91
138
63
91
138
63
92
139
64
95
105
45
73
118
54
81
136
64
90
135
63
89
135
63
89
134
61
88
134
61
88
134
61
88
132
61
87
131
61
87
130
60
86
130
60
86
128
60
85
126
60
86
92
36
62
85
36
60
98
42
66
104
51
73
137
71
98
184
103
133
231
224
226
255
255
255
255
255
255
255
255
255
255
255
255
255
255
255
255
255
255
255
255
255
255
255
255
255
255
255
255
255
255
255
255
255
255
255
255
255
255
255
255
255
255
255
255
255
255
255
255
255
255
255
255
255
255
255
255
255
255
255
255
255
255
255
255
255
255
255
255
255
255
255
255
255
255
255
255
255
255
255
255
255
255
255
255
255
255
255
255
255
255
255
255
255
255
255
255
255
255
255
255
255
255
255
255
255
255
255
255
255
255
255
255
255
255
255
255
255
255
255
255
255
255
255
255
255
255
255
255
255
255
255
255
255
255
255
255
255
255
255
255
255
255
255
255
255
255
255
255
255
255
255
255
255
193
189
191
78
32
54
77
30
53
77
30
53
81
30
54
115
55
80
121
56
78
124
58
83
94
40
63
96
43
65
128
60
85
129
59
85
130
60
86
130
60
86
131
61
85
131
62
88
89
34
57
81
33
55
81
34
57
94
40
63
140
66
92
138
63
91
138
63
91
138
63
91
139
64
92
139
64
92
139
64
93
138
64
95
110
49
77
115
53
79
136
65
91
136
64
91
136
64
91
135
63
89
135
63
89
135
63
89
133
62
88
132
62
88
130
60
86
130
60
86
128
60
85
128
61
88
95
40
65
85
36
61
95
39
63
120
59
84
114
54
78
179
91
124
191
145
159
251
251
251
255
255
255
255
255
255
255
255
255
255
255
255
255
255
255
255
255
255
255
255
255
255
255
255
255
255
255
255
255
255
255
255
255
255
255
255
255
255
255
255
255
255
255
255
255
255
255
255
255
255
255
255
255
255
255
255
255
255
255
255
255
255
255
255
255
255
255
255
255
255
255
255
255
255
255
255
255
255
255
255
255
255
255
255
255
255
255
255
255
255
255
255
255
255
255
255
255
255
255
255
255
255
255
255
255
255
255
255
255
255
255
255
255
255
255
255
255
255
255
255
255
255
255
255
255
255
255
255
255
255
255
255
255
255
255
255
255
255
255
255
255
255
255
255
255
255
255
255
255
255
167
161
164
78
30
53
77
30
53
77
30
53
79
29
53
117
56
81
121
56
78
124
56
82
113
53
78
78
30
50
127
62
87
129
59
85
130
60
85
130
60
86
131
61
87
114
52
77
79
30
51
80
31
54
80
33
56
109
51
74
139
63
90
138
63
91
138
63
91
139
63
91
140
64
92
140
64
92
139
64
93
139
64
95
117
54
81
113
52
77
137
64
91
138
63
91
138
63
91
136
63
90
136
63
90
136
63
90
134
62
89
133
62
88
132
61
87
131
60
86
129
60
86
128
61
87
98
43
68
87
35
61
94
38
63
124
59
86
101
43
66
174
92
123
182
95
126
218
205
209
255
255
255
255
255
255
255
255
255
255
255
255
255
255
255
255
255
255
255
255
255
255
255
255
255
255
255
255
255
255
255
255
255
255
255
255
255
255
255
255
255
255
255
255
255
255
255
255
255
255
255
255
255
255
255
255
255
255
255
255
255
255
255
255
255
255
255
255
255
255
255
255
255
255
255
255
255
255
255
255
255
255
255
255
255
255
255
255
255
255
255
255
255
255
255
255
255
255
255
255
255
255
255
255
255
255
255
255
255
255
255
255
255
255
255
255
255
255
255
255
255
255
255
255
255
255
255
255
255
255
255
255
255
255
255
255
255
255
255
255
255
255
255
255
255
255
255
255
255
255
139
129
133
78
29
53
77
30
53
77
30
53
77
30
53
116
55
80
121
56
78
124
55
81
125
59
86
74
27
47
122
58
84
129
59
84
129
61
84
130
60
85
129
62
90
85
34
58
79
30
54
79
32
55
74
29
50
121
60
84
138
63
90
138
63
91
138
63
91
140
63
92
142
64
93
141
63
92
141
63
92
141
62
93
123
56
84
113
50
74
139
63
91
140
62
91
140
62
91
138
63
91
138
63
91
138
63
91
136
63
90
135
63
89
134
61
88
132
59
86
131
60
86
128
61
86
101
45
68
87
37
62
92
39
64
122
59
84
108
48
71
161
86
114
177
89
121
177
116
137
244
243
243
255
255
255
255
255
255
255
255
255
255
255
255
255
255
255
255
255
255
255
255
255
255
255
255
255
255
255
255
255
255
255
255
255
255
255
255
255
255
255
255
255
255
255
255
255
255
255
255
255
255
255
255
255
255
255
255
255
255
255
255
255
255
255
255
255
255
255
255
255
255
255
255
255
255
255
255
255
255
255
255
255
255
255
255
255
255
255
255
255
255
255
255
255
255
255
255
255
255
255
255
255
255
255
255
255
255
255
255
255
255
255
255
255
255
255
255
255
255
255
255
255
255
255
255
255
255
255
255
255
255
255
255
255
255
255
255
255
255
255
255
255
255
255
255
251
251
251
108
90
97
77
30
53
77
30
53
77
30
53
76
29
52
116
54
79
122
56
79
124
56
82
127
57
86
92
41
63
111
52
76
128
60
84
129
60
84
132
61
86
105
47
72
78
30
53
80
31
55
81
33
56
74
31
51
135
64
91
138
63
90
138
63
91
139
64
92
140
64
92
142
64
93
142
64
93
142
64
93
143
62
94
127
58
87
106
47
70
139
64
92
140
62
91
141
63
92
139
63
92
139
64
92
138
63
91
136
63
90
135
63
89
134
62
88
132
60
87
131
61
87
129
62
87
105
48
71
88
37
62
92
39
64
122
58
84
117
55
78
142
72
98
179
90
123
144
68
96
196
178
183
255
255
255
255
255
255
255
255
255
255
255
255
255
255
255
255
255
255
255
255
255
255
255
255
255
255
255
255
255
255
255
255
255
255
255
255
255
255
255
255
255
255
255
255
255
255
255
255
255
255
255
255
255
255
255
255
255
255
255
255
255
255
255
255
255
255
255
255
255
255
255
255
255
255
255
255
255
255
255
255
255
255
255
255
255
255
255
255
255
255
255
255
255
255
255
255
255
255
255
255
255
255
255
255
255
255
255
255
255
255
255
255
255
255
255
255
255
255
255
255
255
255
255
255
255
255
255
255
255
255
255
255
255
255
255
255
255
255
255
255
255
255
255
255
240
240
240
94
70
80
76
30
52
77
30
53
77
30
53
76
29
52
116
54
79
122
57
79
124
56
82
125
57
85
118
56
81
82
33
53
128
62
85
132
61
85
118
55
78
78
31
53
80
32
55
80
32
55
81
34
57
84
39
59
139
63
92
139
63
91
138
63
91
140
64
92
140
64
92
142
64
93
142
64
93
143
64
93
144
62
94
133
62
90
102
44
67
142
66
94
142
64
93
141
63
92
139
64
92
139
64
92
138
63
91
137
64
91
135
63
89
134
62
88
132
61
87
130
62
87
131
62
87
110
50
74
88
37
62
93
38
64
122
58
84
121
59
82
124
55
80
178
91
123
147
73
100
135
77
98
237
234
235
255
255
255
255
255
255
255
255
255
255
255
255
255
255
255
255
255
255
255
255
255
255
255
255
255
255
255
255
255
255
255
255
255
255
255
255
255
255
255
255
255
255
255
255
255
255
255
255
255
255
255
255
255
255
255
255
255
255
255
255
255
255
255
255
255
255
255
255
255
255
255
255
255
255
255
255
255
255
255
255
255
255
255
255
255
255
255
255
255
255
255
255
255
255
255
255
255
255
255
255
255
255
255
255
255
255
255
255
255
255
255
255
255
255
255
255
255
255
255
255
255
255
255
255
255
255
255
255
255
255
255
255
255
255
255
255
255
255
255
255
255
228
227
227
83
48
64
76
30
52
77
30
53
77
30
53
75
28
51
113
51
76
122
57
79
124
57
81
123
58
82
128
61
86
79
32
51
94
40
63
112
53
76
81
31
54
81
33
56
82
33
56
83
34
57
72
30
52
107
54
76
137
64
91
138
62
91
140
62
91
142
63
92
142
64
92
142
65
91
142
65
91
143
65
92
145
65
94
137
63
91
105
44
70
145
67
96
143
64
93
141
65
93
142
64
93
140
65
93
137
65
92
136
64
91
136
64
90
135
63
89
133
61
88
132
61
87
131
61
87
112
50
75
89
37
62
96
39
65
124
59
84
122
58
82
116
51
75
171
88
119
157
79
108
119
55
79
177
150
158
255
255
255
255
255
255
255
255
255
255
255
255
255
255
255
255
255
255
255
255
255
255
255
255
255
255
255
255
255
255
255
255
255
255
255
255
255
255
255
255
255
255
255
255
255
255
255
255
255
255
255
255
255
255
255
255
255
255
255
255
255
255
255
255
255
255
255
255
255
255
255
255
255
255
255
255
255
255
255
255
255
255
255
255
255
255
255
255
255
255
255
255
255
255
255
255
255
255
255
255
255
255
255
255
255
255
255
255
255
255
255
255
255
255
255
255
255
255
255
255
255
255
255
255
255
255
255
255
255
255
255
255
255
255
255
255
255
255
255
255
255
210
208
209
76
31
52
76
30
53
77
30
53
77
30
53
76
29
52
113
51
76
122
57
79
124
57
82
125
58
83
128
58
84
108
52
73
79
31
53
80
32
54
82
34
56
83
34
57
83
34
57
84
36
59
66
27
48
132
64
92
139
62
92
139
62
91
134
60
87
136
62
89
142
65
93
142
65
91
142
65
91
143
65
92
145
65
95
143
67
96
106
46
72
145
68
97
144
65
94
141
65
93
142
64
93
140
65
93
138
65
92
136
64
91
136
64
91
135
63
89
133
62
88
133
61
88
132
61
88
114
50
76
89
37
63
96
39
65
124
58
84
123
57
82
116
54
77
158
80
108
166
83
113
117
54
77
133
72
94
226
219
221
255
255
255
255
255
255
255
255
255
255
255
255
255
255
255
255
255
255
255
255
255
255
255
255
255
255
255
255
255
255
255
255
255
255
255
255
255
255
255
255
255
255
255
255
255
255
255
255
255
255
255
255
255
255
255
255
255
255
255
255
255
255
255
255
255
255
255
255
255
255
255
255
255
255
255
255
255
255
255
255
255
255
255
255
255
255
255
255
255
255
255
255
255
255
255
255
255
255
255
255
255
255
255
255
255
255
255
255
255
255
255
255
255
255
255
255
255
255
255
255
255
255
255
255
255
255
255
255
255
255
255
255
255
255
255
255
255
255
193
189
191
77
30
52
76
30
52
77
30
53
77
30
53
76
29
52
110
48
73
122
57
80
125
57
82
127
58
84
129
57
84
127
59
84
80
33
53
84
33
58
85
34
56
84
35
59
85
36
59
85
36
59
84
36
60
138
65
95
139
62
92
141
63
93
131
61
87
126
57
82
143
66
93
143
66
92
143
66
92
144
66
93
145
66
95
145
68
98
108
48
74
146
69
98
144
65
94
141
65
93
142
64
93
140
65
93
139
66
93
138
65
92
136
64
91
136
64
91
135
63
89
134
62
88
132
62
88
114
51
76
90
37
63
99
42
68
125
58
84
123
58
82
121
59
82
141
68
94
171
87
118
121
55
79
120
55
79
166
130
141
252
251
251
255
255
255
255
255
255
255
255
255
255
255
255
255
255
255
255
255
255
255
255
255
255
255
255
255
255
255
255
255
255
255
255
255
255
255
255
255
255
255
255
255
255
255
255
255
255
255
255
255
255
255
255
255
255
255
255
255
255
255
255
255
255
255
255
255
255
255
255
255
255
255
255
255
255
255
255
255
255
255
255
255
255
255
255
255
255
255
255
255
255
255
255
255
255
255
255
255
255
255
255
255
255
255
255
255
255
255
255
255
255
255
255
255
255
255
255
255
255
255
255
255
255
255
255
255
255
255
255
255
255
255
255
255
255
255
169
164
166
76
31
53
79
32
55
75
30
52
76
30
53
74
30
51
107
47
71
123
57
80
126
56
82
128
58
84
129
57
84
128
59
85
96
42
65
84
36
58
85
36
60
85
35
64
86
35
63
79
35
58
110
50
74
137
63
90
140
63
92
141
64
92
133
63
87
115
54
77
144
66
92
145
65
92
146
66
93
146
66
93
145
66
96
148
67
99
114
48
75
147
68
97
144
66
94
142
66
94
142
64
93
142
64
93
142
64
93
140
64
92
139
64
92
138
64
92
138
63
91
135
63
89
133
63
89
116
52
78
87
37
63
102
43
68
125
58
83
125
57
82
125
57
82
123
57
81
175
90
121
124
58
82
120
56
80
128
61
85
216
204
207
255
255
255
255
255
255
255
255
255
255
255
255
255
255
255
255
255
255
255
255
255
255
255
255
255
255
255
255
255
255
255
255
255
255
255
255
255
255
255
255
255
255
255
255
255
255
255
255
255
255
255
255
255
255
255
255
255
255
255
255
255
255
255
255
255
255
255
255
255
255
255
255
255
255
255
255
255
255
255
255
255
255
255
255
255
255
255
255
255
255
255
255
255
255
255
255
255
255
255
255
255
255
255
255
255
255
255
255
255
255
255
255
255
255
255
255
255
255
255
255
255
255
255
255
255
255
255
255
255
255
255
255
252
252
252
139
129
132
73
30
51
82
35
57
75
30
52
76
30
53
74
30
52
103
45
69
124
57
80
126
57
82
128
58
84
129
57
84
128
58
85
113
52
77
84
35
58
86
36
62
87
35
64
89
36
63
74
30
52
126
62
86
139
61
90
142
62
92
141
63
91
134
63
88
106
48
70
145
67
92
145
65
92
146
66
93
146
66
93
146
66
94
148
67
96
122
53
78
147
68
97
144
66
94
142
66
94
143
66
94
142
64
93
142
64
93
141
64
93
139
64
92
139
64
92
139
64
92
136
63
90
133
63
89
117
52
78
87
37
64
105
45
70
128
61
85
126
57
83
126
57
83
116
52
76
165
86
115
133
63
89
121
56
80
118
55
78
157
110
126
247
246
246
255
255
255
255
255
255
255
255
255
255
255
255
255
255
255
255
255
255
255
255
255
255
255
255
255
255
255
255
255
255
255
255
255
255
255
255
255
255
255
255
255
255
255
255
255
255
255
255
255
255
255
255
255
255
255
255
255
255
255
255
255
255
255
255
255
255
255
255
255
255
255
255
255
255
255
255
255
255
255
255
255
255
255
255
255
255
255
255
255
255
255
255
255
255
255
255
255
255
255
255
255
255
255
255
255
255
255
255
255
255
255
255
255
255
255
255
255
255
255
255
255
255
255
255
255
255
255
255
255
251
251
251
115
99
105
72
29
50
85
38
60
75
30
52
76
30
53
75
30
53
98
44
66
117
56
77
115
53
76
127
57
83
129
57
84
128
58
84
125
60
87
84
33
56
87
37
62
88
36
63
90
39
64
79
33
52
133
66
91
138
63
91
140
62
91
141
64
91
136
64
89
100
43
65
145
67
92
145
65
92
146
66
93
146
66
93
147
65
93
147
67
94
137
63
88
146
65
95
145
66
95
143
68
95
143
67
95
143
66
94
142
64
93
141
65
93
140
65
93
139
64
92
139
64
92
137
64
91
134
63
90
118
53
79
88
38
65
107
47
73
129
61
86
127
58
84
127
58
84
121
57
81
146
74
100
145
70
98
121
56
80
121
56
80
127
60
85
209
192
196
255
255
255
255
255
255
255
255
255
255
255
255
255
255
255
255
255
255
255
255
255
255
255
255
255
255
255
255
255
255
255
255
255
255
255
255
255
255
255
255
255
255
255
255
255
255
255
255
255
255
255
255
255
255
255
255
255
255
255
255
255
255
255
255
255
255
255
255
255
255
255
255
255
255
255
255
255
255
255
255
255
255
255
255
255
255
255
255
255
255
255
255
255
255
255
255
255
255
255
255
255
255
255
255
255
255
255
255
255
255
255
255
255
255
255
255
255
255
255
255
255
255
255
255
255
255
255
255
255
245
245
245
82
48
62
72
28
50
90
41
64
77
31
53
76
31
53
77
29
52
94
40
62
112
55
76
99
45
66
126
58
83
128
57
84
128
58
84
129
60
88
99
42
65
87
37
63
88
37
63
71
29
50
104
47
71
137
63
90
138
62
90
140
62
91
139
63
91
138
64
91
95
40
62
142
67
94
145
65
93
146
66
94
146
66
94
147
65
95
148
66
94
145
65
92
147
66
94
147
67
95
146
67
94
145
66
95
145
66
95
144
65
94
142
64
93
141
64
93
141
64
93
140
64
91
138
64
90
136
64
89
120
54
79
86
38
64
112
51
76
131
62
87
129
59
85
128
58
84
127
59
84
120
56
80
156
80
108
121
55
80
119
56
80
121
54
79
159
106
123
245
243
243
255
255
255
255
255
255
255
255
255
255
255
255
255
255
255
255
255
255
255
255
255
255
255
255
255
255
255
255
255
255
255
255
255
255
255
255
255
255
255
255
255
255
255
255
255
255
255
255
255
255
255
255
255
255
255
255
255
255
255
255
255
255
255
255
255
255
255
255
255
255
255
255
255
255
255
255
255
255
255
255
255
255
255
255
255
255
255
255
255
255
255
255
255
255
255
255
255
255
255
255
255
255
255
255
255
255
255
255
255
255
255
255
255
255
255
255
255
255
255
255
255
255
255
255
255
255
232
232
232
76
32
52
73
28
50
93
41
65
79
31
54
76
31
53
78
30
53
88
35
57
115
55
78
84
32
55
125
60
84
127
58
83
128
58
84
130
60
86
108
48
70
82
37
60
73
32
54
55
17
36
126
61
87
138
61
89
138
61
89
140
62
91
139
63
91
138
64
92
91
37
60
141
68
94
145
65
94
146
66
95
146
66
95
147
65
96
148
66
94
149
67
94
147
67
94
147
67
94
147
67
94
146
66
95
146
66
95
146
66
95
143
64
93
142
64
93
142
64
93
140
64
91
139
64
90
138
65
90
122
56
80
88
37
64
117
53
78
133
63
89
130
60
86
129
59
85
128
58
84
113
50
73
153
77
105
122
56
81
122
57
81
120
56
80
131
64
89
203
183
189
255
255
255
255
255
255
255
255
255
255
255
255
255
255
255
255
255
255
255
255
255
255
255
255
255
255
255
255
255
255
255
255
255
255
255
255
255
255
255
255
255
255
255
255
255
255
255
255
255
255
255
255
255
255
255
255
255
255
255
255
255
255
255
255
255
255
255
255
255
255
255
255
255
255
255
255
255
255
255
255
255
255
255
255
255
255
255
255
255
255
255
255
255
255
255
255
255
255
255
255
255
255
255
255
255
255
255
255
255
255
255
255
255
255
255
255
255
255
255
255
255
255
255
255
255
255
218
217
217
77
32
53
74
28
51
96
44
69
82
35
57
76
31
53
78
30
53
84
33
54
118
56
80
77
27
50
119
56
79
126
58
84
128
58
84
131
58
84
133
61
87
86
39
58
48
19
34
81
33
53
136
64
90
137
62
89
138
61
89
140
62
91
139
62
91
140
65
94
89
35
58
139
66
92
145
65
94
145
65
94
146
66
95
147
65
96
148
66
94
149
67
94
147
67
94
147
68
94
148
69
95
147
67
96
147
67
96
146
66
95
144
66
94
142
64
93
142
64
93
141
64
92
139
64
90
137
65
89
123
57
81
88
34
62
123
56
82
134
61
87
130
60
86
130
60
86
128
59
85
120
55
79
139
71
96
124
57
81
122
56
80
120
56
80
117
54
78
166
100
123
239
236
237
255
255
255
255
255
255
255
255
255
255
255
255
255
255
255
255
255
255
255
255
255
255
255
255
255
255
255
255
255
255
255
255
255
255
255
255
255
255
255
255
255
255
255
255
255
255
255
255
255
255
255
255
255
255
255
255
255
255
255
255
255
255
255
255
255
255
255
255
255
255
255
255
255
255
255
255
255
255
255
255
255
255
255
255
255
255
255
255
255
255
255
255
255
255
255
255
255
255
255
255
255
255
255
255
255
255
255
255
255
255
255
255
255
255
255
255
255
255
255
255
255
255
255
201
198
199
78
32
54
74
30
51
98
44
67
85
36
58
77
31
54
78
31
54
81
30
53
119
56
80
78
31
53
99
43
66
128
60
85
129
58
84
132
57
83
132
58
83
128
57
83
95
40
63
112
51
74
137
61
88
138
61
88
138
61
88
139
62
89
141
63
90
143
67
94
91
37
59
135
64
90
145
65
94
146
64
94
146
65
95
147
65
96
149
66
96
149
67
96
149
67
96
149
67
96
149
67
96
147
67
96
147
67
96
146
66
95
145
66
94
143
65
92
143
64
92
142
64
92
140
63
91
138
64
91
125
57
83
90
36
63
128
61
86
133
61
86
131
61
87
130
60
86
129
59
85
128
60
85
121
59
82
129
58
84
123
57
81
121
57
80
119
56
80
142
68
95
202
175
183
254
254
254
255
255
255
255
255
255
255
255
255
255
255
255
255
255
255
255
255
255
255
255
255
255
255
255
255
255
255
255
255
255
255
255
255
255
255
255
255
255
255
255
255
255
255
255
255
255
255
255
255
255
255
255
255
255
255
255
255
255
255
255
255
255
255
255
255
255
255
255
255
255
255
255
255
255
255
255
255
255
255
255
255
255
255
255
255
255
255
255
255
255
255
255
255
255
255
255
255
255
255
255
255
255
255
255
255
255
255
255
255
255
255
255
255
255
255
255
255
255
255
255
182
177
179
77
31
53
74
30
52
99
44
67
91
40
62
78
31
55
78
31
55
79
30
54
119
57
82
81
33
54
84
33
55
125
58
84
130
58
85
131
58
83
131
58
83
133
61
86
112
50
74
129
59
86
136
60
88
138
61
87
137
61
86
147
72
98
144
62
90
145
67
93
97
40
63
133
63
90
146
64
94
146
64
94
147
65
95
148
65
95
150
67
97
150
67
97
150
67
97
150
67
97
149
66
96
147
67
96
147
67
96
146
66
95
146
66
94
145
65
92
144
65
92
143
64
92
141
63
92
139
64
92
127
57
84
94
36
64
132
64
90
133
62
86
131
61
87
131
61
87
130
60
86
129
61
86
110
52
73
132
62
88
125
56
82
122
57
81
120
57
81
122
55
80
174
102
127
239
236
237
255
255
255
255
255
255
255
255
255
255
255
255
255
255
255
255
255
255
255
255
255
255
255
255
255
255
255
255
255
255
255
255
255
255
255
255
255
255
255
255
255
255
255
255
255
255
255
255
255
255
255
255
255
255
255
255
255
255
255
255
255
255
255
255
255
255
255
255
255
255
255
255
255
255
255
255
255
255
255
255
255
255
255
255
255
255
255
255
255
255
255
255
255
255
255
255
255
255
255
255
255
255
255
255
255
255
255
255
255
255
255
255
255
255
255
255
255
255
255
255
159
152
155
78
32
54
75
31
52
96
43
65
100
45
68
78
30
54
78
32
55
76
29
53
115
54
78
89
37
59
79
30
52
112
51
75
129
59
84
130
58
83
131
58
83
131
61
86
100
41
64
136
61
89
134
60
88
138
61
87
137
61
87
155
81
106
143
61
89
143
65
93
101
42
64
128
59
87
146
64
94
146
64
94
147
65
95
149
66
96
150
67
97
150
67
97
150
67
97
150
67
97
150
67
97
147
67
96
147
67
96
146
66
95
146
66
94
146
66
93
145
65
92
144
65
92
142
64
93
140
65
93
126
57
85
100
39
67
137
64
91
135
63
87
131
61
87
131
61
87
130
60
86
130
61
86
111
48
71
126
61
85
125
56
81
122
57
81
120
58
81
119
55
79
155
78
106
198
170
179
255
255
255
255
255
255
255
255
255
255
255
255
255
255
255
255
255
255
255
255
255
255
255
255
255
255
255
255
255
255
255
255
255
255
255
255
255
255
255
255
255
255
255
255
255
255
255
255
255
255
255
255
255
255
255
255
255
255
255
255
255
255
255
255
255
255
255
255
255
255
255
255
255
255
255
255
255
255
255
255
255
255
255
255
255
255
255
255
255
255
255
255
255
255
255
255
255
255
255
255
255
255
255
255
255
255
255
255
255
255
255
255
255
255
255
255
255
255
255
255
139
129
133
77
31
53
74
30
52
92
39
62
104
48
71
79
30
55
77
32
56
76
30
54
111
51
75
99
44
67
79
30
54
90
36
59
129
60
84
130
59
83
132
59
84
117
53
76
115
52
77
135
60
88
135
60
88
138
61
87
135
58
84
162
85
111
140
61
87
143
65
93
113
50
73
124
56
84
146
64
94
146
64
94
147
65
95
149
66
96
150
67
97
150
67
97
150
67
97
150
67
97
150
67
97
148
67
96
147
66
95
146
66
95
146
66
94
146
66
94
145
65
93
144
65
93
142
64
93
141
64
93
127
58
85
110
46
75
139
64
92
137
62
87
133
62
88
132
61
87
131
60
86
130
60
85
119
54
78
110
51
74
125
57
83
123
57
81
121
58
81
119
57
80
129
60
85
181
107
133
237
234
234
255
255
255
255
255
255
255
255
255
255
255
255
255
255
255
255
255
255
255
255
255
255
255
255
255
255
255
255
255
255
255
255
255
255
255
255
255
255
255
255
255
255
255
255
255
255
255
255
255
255
255
255
255
255
255
255
255
255
255
255
255
255
255
255
255
255
255
255
255
255
255
255
255
255
255
255
255
255
255
255
255
255
255
255
255
255
255
255
255
255
255
255
255
255
255
255
255
255
255
255
255
255
255
255
255
255
255
255
255
255
255
255
255
255
253
253
253
112
95
102
78
31
54
75
30
52
91
38
61
110
51
74
79
30
55
79
32
56
78
32
56
104
47
71
108
49
72
79
31
55
81
30
54
118
55
81
129
59
86
131
61
86
97
40
61
133
60
87
136
59
87
137
60
88
137
60
87
136
61
86
162
80
108
141
62
90
142
63
91
120
54
79
116
51
78
147
65
95
147
65
95
147
65
95
149
66
96
150
67
97
150
67
97
151
67
97
151
67
97
151
67
97
149
66
96
149
66
96
147
65
95
146
66
95
146
66
95
145
65
94
144
65
94
143
64
93
141
63
92
130
58
86
121
53
81
138
63
90
137
63
86
135
63
89
133
60
87
133
60
87
130
60
85
124
61
85
93
38
61
126
60
86
124
57
82
122
57
81
121
58
81
119
54
78
165
84
113
201
171
180
254
254
254
255
255
255
255
255
255
255
255
255
255
255
255
255
255
255
255
255
255
255
255
255
255
255
255
255
255
255
255
255
255
255
255
255
255
255
255
255
255
255
255
255
255
255
255
255
255
255
255
255
255
255
255
255
255
255
255
255
255
255
255
255
255
255
255
255
255
255
255
255
255
255
255
255
255
255
255
255
255
255
255
255
255
255
255
255
255
255
255
255
255
255
255
255
255
255
255
255
255
255
255
255
255
255
255
255
255
255
255
255
255
255
246
246
246
104
83
92
78
31
54
75
30
52
88
37
59
113
52
76
78
30
54
79
32
56
79
32
56
96
42
65
116
55
79
79
31
54
81
32
56
88
35
60
131
60
87
114
54
77
99
42
63
135
61
88
136
59
87
137
60
88
137
60
86
142
67
92
158
76
104
141
63
90
141
64
91
127
57
84
111
47
74
147
65
95
147
65
95
147
65
95
149
66
96
150
67
97
150
67
97
152
68
98
152
68
98
152
68
98
150
67
97
150
67
97
148
66
96
146
66
95
146
66
95
145
65
94
145
65
94
143
64
93
141
63
92
139
63
92
137
64
93
136
63
90
135
63
87
135
63
89
134
62
88
133
60
87
132
60
85
129
62
88
90
35
58
120
58
82
124
56
81
122
57
81
121
58
81
120
56
80
139
67
93
177
102
128
240
237
238
255
255
255
255
255
255
255
255
255
255
255
255
255
255
255
255
255
255
255
255
255
255
255
255
255
255
255
255
255
255
255
255
255
255
255
255
255
255
255
255
255
255
255
255
255
255
255
255
255
255
255
255
255
255
255
255
255
255
255
255
255
255
255
255
255
255
255
255
255
255
255
255
255
255
255
255
255
255
255
255
255
255
255
255
255
255
255
255
255
255
255
255
255
255
255
255
255
255
255
255
255
255
255
255
255
255
255
255
255
255
255
238
238
238
95
68
80
79
32
55
77
32
54
87
36
59
116
53
78
80
31
56
81
33
57
80
33
57
90
36
59
123
58
82
85
34
56
82
33
57
81
31
57
91
37
59
81
31
52
119
54
78
135
59
87
136
60
87
136
60
87
139
62
88
145
70
95
153
72
99
141
62
90
141
64
90
134
61
88
104
43
68
148
67
96
147
65
95
147
65
95
149
66
96
150
67
97
151
67
97
153
68
99
153
68
99
153
68
99
151
67
98
150
67
97
150
67
97
148
66
96
147
66
95
146
66
95
145
65
94
144
64
93
142
64
93
142
64
93
142
63
92
138
62
90
136
63
89
135
63
89
135
63
89
134
61
88
132
59
85
131
62
88
98
43
65
109
50
73
125
57
83
122
57
81
119
58
81
120
58
81
124
56
81
173
89
120
199
174
182
255
255
255
255
255
255
255
255
255
255
255
255
255
255
255
255
255
255
255
255
255
255
255
255
255
255
255
255
255
255
255
255
255
255
255
255
255
255
255
255
255
255
255
255
255
255
255
255
255
255
255
255
255
255
255
255
255
255
255
255
255
255
255
255
255
255
255
255
255
255
255
255
255
255
255
255
255
255
255
255
255
255
255
255
255
255
255
255
255
255
255
255
255
255
255
255
255
255
255
255
255
255
255
255
255
255
255
255
255
255
255
233
232
232
92
58
73
80
32
55
78
32
55
85
33
58
116
55
80
83
31
55
82
33
56
81
33
56
85
33
55
125
58
82
96
41
63
80
33
57
84
32
56
83
32
55
87
32
55
131
62
88
134
60
85
134
60
85
135
61
86
136
60
85
155
79
105
143
63
90
142
63
90
142
63
90
139
64
92
97
38
61
146
66
95
148
64
95
147
65
95
149
66
96
152
68
98
154
67
99
153
68
99
153
68
99
153
68
99
151
69
99
151
69
99
150
67
97
149
66
96
149
66
96
146
66
95
146
66
95
145
65
94
143
64
93
143
64
93
140
62
91
140
62
91
139
62
90
135
63
89
135
63
89
134
61
88
131
61
87
130
60
86
111
52
74
92
38
62
127
59
86
124
57
82
122
58
82
120
58
81
121
57
80
154
77
105
179
105
131
239
236
236
255
255
255
255
255
255
255
255
255
255
255
255
255
255
255
255
255
255
255
255
255
255
255
255
255
255
255
255
255
255
255
255
255
255
255
255
255
255
255
255
255
255
255
255
255
255
255
255
255
255
255
255
255
255
255
255
255
255
255
255
255
255
255
255
255
255
255
255
255
255
255
255
255
255
255
255
255
255
255
255
255
255
255
255
255
255
255
255
255
255
255
255
255
255
255
255
255
255
255
255
255
255
255
255
255
255
255
255
228
227
227
86
46
65
95
42
67
79
31
54
80
29
54
117
56
81
85
31
56
83
33
56
82
34
57
81
32
53
119
56
78
112
52
76
82
31
56
83
32
56
83
32
55
104
44
68
135
61
89
135
60
86
135
61
86
136
61
86
131
58
82
162
83
109
140
60
87
141
63
89
144
62
90
142
64
93
96
38
61
143
66
94
147
64
94
147
65
95
149
66
96
152
68
98
154
67
99
153
68
99
153
68
99
153
68
99
151
69
99
151
69
99
150
67
97
149
66
96
149
66
96
146
66
95
146
66
95
145
65
94
143
64
93
143
64
93
141
63
92
140
62
91
139
62
91
136
63
89
135
63
89
134
61
88
132
61
87
130
60
86
120
57
80
82
29
53
122
58
84
123
58
82
123
57
81
122
57
81
120
57
80
133
64
89
178
91
122
208
186
193
255
255
255
255
255
255
255
255
255
255
255
255
255
255
255
255
255
255
255
255
255
255
255
255
255
255
255
255
255
255
255
255
255
255
255
255
255
255
255
255
255
255
255
255
255
255
255
255
255
255
255
255
255
255
255
255
255
255
255
255
255
255
255
255
255
255
255
255
255
255
255
255
255
255
255
255
255
255
255
255
255
255
255
255
255
255
255
255
255
255
255
255
255
255
255
255
255
255
255
255
255
255
255
255
255
255
255
255
216
214
215
81
32
55
108
51
77
82
32
55
77
30
54
116
55
80
89
35
59
84
34
57
83
34
57
81
34
54
109
51
72
124
58
83
85
31
57
82
32
56
79
29
52
121
55
82
135
59
88
136
61
86
136
61
86
136
61
86
130
59
83
166
83
111
139
61
87
142
63
89
142
63
90
141
65
93
100
39
63
138
65
92
147
64
94
147
65
95
149
66
96
152
68
98
154
67
99
153
68
99
153
68
99
153
68
99
151
69
99
151
69
99
150
68
98
149
66
96
149
66
96
146
66
95
146
66
95
145
65
94
143
64
93
143
64
93
141
63
92
140
62
91
140
62
91
136
63
89
135
63
89
134
61
88
133
60
87
131
61
87
126
59
85
81
27
52
113
52
77
123
58
82
122
58
81
122
57
81
121
57
81
120
56
80
166
85
114
179
112
134
248
247
247
255
255
255
255
255
255
255
255
255
255
255
255
255
255
255
255
255
255
255
255
255
255
255
255
255
255
255
255
255
255
255
255
255
255
255
255
255
255
255
255
255
255
255
255
255
255
255
255
255
255
255
255
255
255
255
255
255
255
255
255
255
255
255
255
255
255
255
255
255
255
255
255
255
255
255
255
255
255
255
255
255
255
255
255
255
255
255
255
255
255
255
255
255
255
255
255
255
255
255
255
255
255
255
255
255
206
204
205
82
32
55
114
53
77
86
34
57
73
27
49
116
54
79
96
39
62
83
34
57
83
34
57
82
33
56
98
42
65
125
60
83
103
47
70
82
31
54
95
42
62
132
63
88
135
60
87
137
60
88
137
60
88
137
60
88
132
61
87
165
82
112
139
61
86
142
62
88
142
63
90
143
66
92
108
44
67
133
64
92
148
64
95
150
64
96
150
66
95
152
68
96
153
68
97
152
68
99
151
69
100
151
69
99
153
68
99
153
68
99
152
68
98
150
66
96
149
66
96
148
65
95
147
65
95
146
66
95
145
65
94
144
65
94
142
64
93
141
63
92
141
63
92
137
62
89
136
62
89
133
62
88
133
60
87
131
61
87
131
64
89
84
32
55
95
42
64
127
60
85
124
57
82
122
57
81
121
58
81
119
57
80
151
73
101
183
93
125
214
200
204
255
255
255
255
255
255
255
255
255
255
255
255
255
255
255
255
255
255
255
255
255
255
255
255
255
255
255
255
255
255
255
255
255
255
255
255
255
255
255
255
255
255
255
255
255
255
255
255
255
255
255
255
255
255
255
255
255
255
255
255
255
255
255
255
255
255
255
255
255
255
255
255
255
255
255
255
255
255
255
255
255
255
255
255
255
255
255
255
255
255
255
255
255
255
255
255
255
255
255
255
255
255
255
255
255
197
193
195
84
33
57
116
54
78
87
35
58
74
27
50
114
52
77
101
43
67
82
34
57
83
34
57
82
33
56
86
33
56
123
60
84
112
51
75
106
45
69
126
58
84
133
59
87
134
60
87
137
60
88
137
60
88
138
61
89
145
73
99
152
73
101
141
62
87
141
63
88
142
63
90
143
65
91
117
51
76
128
59
87
148
64
95
149
64
97
151
66
95
152
68
96
153
68
97
139
62
88
139
65
93
153
68
98
153
68
99
153
68
99
152
68
98
150
67
97
149
66
96
149
66
96
147
66
95
146
66
95
145
65
94
144
65
94
142
64
93
141
63
92
141
63
92
137
62
89
136
62
89
134
63
89
133
61
88
131
62
87
131
63
88
92
39
62
83
33
54
125
59
84
124
57
82
123
57
81
121
58
81
120
58
81
130
60
86
174
88
119
185
136
151
252
252
252
255
255
255
255
255
255
255
255
255
255
255
255
255
255
255
255
255
255
255
255
255
255
255
255
255
255
255
255
255
255
255
255
255
255
255
255
255
255
255
255
255
255
255
255
255
255
255
255
255
255
255
255
255
255
255
255
255
255
255
255
255
255
255
255
255
255
255
255
255
255
255
255
255
255
255
255
255
255
255
255
255
255
255
255
255
255
255
255
255
255
255
255
255
255
255
255
255
255
255
255
255
255
183
178
180
86
35
59
117
56
79
89
37
60
75
29
51
112
51
75
105
47
71
83
34
57
83
34
57
82
33
56
80
31
54
112
52
78
127
59
85
129
59
84
131
59
86
132
60
87
133
60
87
137
60
88
137
60
88
136
59
87
146
74
100
141
65
92
141
62
87
141
63
88
141
64
90
143
63
90
125
57
83
118
52
79
147
66
95
148
65
97
151
67
96
153
68
97
153
68
97
144
67
93
112
47
74
153
71
100
153
68
99
153
68
99
152
68
98
150
67
97
150
67
97
149
66
96
148
66
96
146
66
95
146
66
95
145
65
94
142
65
93
142
64
93
141
63
92
137
62
90
136
62
89
134
63
89
133
61
88
131
61
87
129
62
87
98
47
70
79
31
52
115
55
77
127
59
84
122
57
81
121
58
81
120
59
82
119
56
80
164
83
113
178
97
126
228
222
224
255
255
255
255
255
255
255
255
255
255
255
255
255
255
255
255
255
255
255
255
255
255
255
255
255
255
255
255
255
255
255
255
255
255
255
255
255
255
255
255
255
255
255
255
255
255
255
255
255
255
255
255
255
255
255
255
255
255
255
255
255
255
255
255
255
255
255
255
255
255
255
255
255
255
255
255
255
255
255
255
255
255
255
255
255
255
255
255
255
255
255
255
255
255
255
255
255
255
255
255
255
255
176
170
172
89
38
62
119
56
80
96
40
63
72
28
50
109
50
74
113
50
74
82
32
55
82
33
56
82
33
56
82
33
56
93
37
61
130
58
87
129
57
84
131
58
85
132
59
86
133
60
87
136
61
88
137
61
88
130
61
86
149
74
101
138
60
88
141
61
90
141
62
91
142
63
92
145
63
93
133
63
89
112
47
72
149
67
97
150
65
96
152
67
97
153
68
99
153
68
98
150
69
98
95
34
62
146
69
98
154
67
99
153
68
99
152
68
99
151
69
99
151
68
98
150
67
97
149
67
96
148
67
94
147
67
94
145
66
93
143
66
92
142
65
91
141
64
91
139
62
91
138
62
90
135
63
89
133
62
88
131
61
87
131
62
87
106
52
73
80
33
54
103
47
70
127
59
85
123
58
82
121
57
81
121
58
81
119
58
81
151
74
102
176
89
120
199
170
178
254
254
254
255
255
255
255
255
255
255
255
255
255
255
255
255
255
255
255
255
255
255
255
255
255
255
255
255
255
255
255
255
255
255
255
255
255
255
255
255
255
255
255
255
255
255
255
255
255
255
255
255
255
255
255
255
255
255
255
255
255
255
255
255
255
255
255
255
255
255
255
255
255
255
255
255
255
255
255
255
255
255
255
255
255
255
255
255
255
255
255
255
255
255
255
255
255
255
255
254
254
254
158
150
153
90
38
63
119
54
79
102
45
69
72
29
51
102
45
69
119
55
79
83
31
54
82
33
56
82
33
56
81
33
56
80
30
53
123
57
83
129
58
85
131
58
85
132
59
86
134
61
88
137
60
88
138
63
90
106
48
70
153
79
106
140
59
89
140
62
91
141
62
92
142
62
92
146
63
93
140
66
94
106
42
66
149
67
97
150
65
96
152
67
98
153
68
99
153
68
99
153
71
100
105
43
70
125
55
84
155
69
100
153
68
99
152
68
99
151
69
99
151
69
99
150
67
97
150
67
96
149
67
94
147
67
94
146
66
93
143
66
92
142
65
91
142
65
91
140
62
91
139
62
90
136
63
89
132
62
88
132
62
88
131
61
87
113
55
77
79
30
53
91
36
60
125
61
85
123
58
82
122
57
81
120
57
81
120
57
80
133
63
89
176
88
119
175
106
128
247
246
246
255
255
255
255
255
255
255
255
255
255
255
255
255
255
255
255
255
255
255
255
255
255
255
255
255
255
255
255
255
255
255
255
255
255
255
255
255
255
255
255
255
255
255
255
255
255
255
255
255
255
255
255
255
255
255
255
255
255
255
255
255
255
255
255
255
255
255
255
255
255
255
255
255
255
255
255
255
255
255
255
255
255
255
255
255
255
255
255
255
255
255
255
255
255
255
255
252
252
252
134
121
126
93
41
65
118
53
78
108
50
75
74
29
53
97
41
65
119
57
81
86
33
57
82
33
56
82
33
56
80
31
55
77
30
52
99
43
66
131
61
87
131
58
85
132
59
86
133
60
87
137
61
89
132
63
89
82
32
51
154
80
107
140
59
89
140
62
91
141
62
92
142
62
92
145
63
93
146
68
96
103
40
63
147
68
97
150
65
96
152
67
98
153
68
99
153
68
99
152
70
98
120
52
77
101
40
68
154
71
103
153
68
99
152
68
99
151
69
99
151
69
99
150
67
97
150
67
96
149
67
94
147
67
94
146
66
93
143
66
92
143
66
92
143
66
92
141
63
92
140
63
92
137
64
91
134
63
89
132
62
88
131
61
87
122
59
83
79
30
53
82
30
54
120
59
82
123
58
82
122
57
81
121
56
80
120
56
80
121
56
80
170
84
115
181
93
123
215
204
207
255
255
255
255
255
255
255
255
255
255
255
255
255
255
255
255
255
255
255
255
255
255
255
255
255
255
255
255
255
255
255
255
255
255
255
255
255
255
255
255
255
255
255
255
255
255
255
255
255
255
255
255
255
255
255
255
255
255
255
255
255
255
255
255
255
255
255
255
255
255
255
255
255
255
255
255
255
255
255
255
255
255
255
255
255
255
255
255
255
255
255
255
255
255
255
255
251
251
251
114
96
103
99
45
67
119
53
78
113
53
76
79
32
54
89
38
61
122
59
84
93
38
62
83
33
56
80
32
55
77
30
53
77
30
52
75
28
50
125
58
85
131
58
85
131
60
86
132
60
86
135
63
89
106
47
70
90
41
59
152
79
104
139
60
88
140
62
89
141
62
91
142
62
92
144
63
93
148
68
97
108
44
67
147
68
97
150
65
97
152
67
98
153
68
99
153
68
99
153
69
98
134
62
88
86
32
58
141
64
95
153
68
99
154
67
98
151
68
98
150
68
98
150
67
97
150
67
96
149
66
95
147
67
95
146
66
94
144
65
93
143
66
93
143
66
93
141
63
92
140
63
92
137
64
91
135
63
89
133
62
87
132
62
87
128
61
85
80
31
53
79
31
54
111
52
75
124
58
83
123
57
82
121
56
80
120
56
80
119
54
78
157
77
106
176
86
118
188
148
160
255
255
255
255
255
255
255
255
255
255
255
255
255
255
255
255
255
255
255
255
255
255
255
255
255
255
255
255
255
255
255
255
255
255
255
255
255
255
255
255
255
255
255
255
255
255
255
255
255
255
255
255
255
255
255
255
255
255
255
255
255
255
255
255
255
255
255
255
255
255
255
255
255
255
255
255
255
255
255
255
255
255
255
255
255
255
255
255
255
255
255
255
255
255
255
255
250
250
250
106
85
94
102
45
68
118
53
77
117
55
78
81
32
55
85
35
58
122
58
83
102
45
69
81
31
55
79
32
55
76
31
53
77
30
53
72
28
50
93
40
64
131
61
87
129
60
86
131
59
86
127
59
84
73
28
47
107
50
71
150
76
101
139
62
88
140
62
88
141
62
90
142
62
92
143
64
93
147
66
96
110
47
71
145
66
95
150
65
97
152
67
98
153
68
99
153
68
99
154
66
99
145
69
96
87
32
58
119
53
82
155
70
102
154
67
98
151
67
98
150
67
97
150
67
97
150
67
97
149
66
96
147
67
96
146
66
95
146
65
94
144
66
94
143
66
94
142
65
93
140
64
92
137
64
91
137
63
88
134
62
86
133
62
86
130
63
86
82
32
55
79
32
56
101
44
69
124
60
83
124
57
82
121
57
81
119
56
80
120
56
80
140
66
93
177
88
121
179
105
131
239
236
237
255
255
255
255
255
255
255
255
255
255
255
255
255
255
255
255
255
255
255
255
255
255
255
255
255
255
255
255
255
255
255
255
255
255
255
255
255
255
255
255
255
255
255
255
255
255
255
255
255
255
255
255
255
255
255
255
255
255
255
255
255
255
255
255
255
255
255
255
255
255
255
255
255
255
255
255
255
255
255
255
255
255
255
255
255
255
255
255
255
255
255
255
255
250
250
250
103
82
91
104
45
69
116
54
78
118
56
79
86
34
58
80
32
54
119
56
81
112
53
78
80
30
54
79
32
55
76
31
53
76
30
53
73
29
50
71
28
49
113
54
76
131
62
88
130
61
86
82
32
50
70
29
47
125
60
84
147
69
95
140
62
88
140
62
88
141
62
90
142
62
92
143
64
93
146
65
95
109
49
72
139
63
91
150
66
98
152
67
98
153
68
99
153
68
99
154
67
99
152
73
102
98
38
64
93
37
63
153
71
101
153
68
98
151
67
98
150
67
97
150
67
97
150
67
97
149
66
96
147
67
96
146
66
95
146
65
94
144
66
94
143
66
94
142
64
93
141
64
93
138
65
92
138
64
89
135
63
87
133
63
86
131
64
87
83
34
56
79
32
56
89
37
60
123
60
84
123
58
82
120
58
81
120
56
80
119
56
80
126
58
83
174
87
119
177
88
121
216
203
207
255
255
255
255
255
255
255
255
255
255
255
255
255
255
255
255
255
255
255
255
255
255
255
255
255
255
255
255
255
255
255
255
255
255
255
255
255
255
255
255
255
255
255
255
255
255
255
255
255
255
255
255
255
255
255
255
255
255
255
255
255
255
255
255
255
255
255
255
255
255
255
255
255
255
255
255
255
255
255
255
255
255
255
255
255
255
255
255
255
255
255
255
255
250
250
250
104
82
90
104
45
69
117
55
78
120
57
81
92
39
61
74
29
50
119
57
82
118
57
81
83
31
55
79
32
56
77
31
53
76
30
53
74
29
50
73
28
50
74
28
48
100
45
67
83
33
54
71
28
45
68
27
46
133
68
92
139
61
88
138
62
88
139
62
88
141
62
90
142
62
92
143
64
93
146
64
95
108
48
73
131
59
86
150
67
98
152
68
98
153
68
99
153
68
99
153
67
99
155
70
100
114
49
75
86
33
59
137
63
91
153
69
98
152
67
98
151
67
98
150
67
97
150
67
97
149
66
96
147
67
96
146
66
95
146
65
94
144
65
94
143
66
94
142
64
93
141
64
93
139
64
92
138
63
90
135
63
88
133
62
87
133
64
89
89
39
60
80
32
56
80
32
54
121
59
83
123
58
82
122
57
81
120
56
81
119
56
81
120
55
80
165
83
113
175
87
119
190
153
165
253
253
253
255
255
255
255
255
255
255
255
255
255
255
255
255
255
255
255
255
255
255
255
255
255
255
255
255
255
255
255
255
255
255
255
255
255
255
255
255
255
255
255
255
255
255
255
255
255
255
255
255
255
255
255
255
255
255
255
255
255
255
255
255
255
255
255
255
255
255
255
255
255
255
255
255
255
255
255
255
255
255
255
255
255
255
255
255
255
255
255
255
255
250
250
250
104
84
91
99
43
66
119
55
79
120
56
79
94
39
61
72
27
49
118
57
81
122
60
83
86
34
58
79
32
57
77
30
53
77
30
53
76
29
51
75
28
50
72
27
49
72
27
49
72
27
49
73
27
47
67
23
44
145
78
103
136
58
86
136
61
88
137
62
89
140
61
90
141
61
91
143
64
93
146
65
96
109
48
74
118
53
79
149
67
96
153
68
99
153
68
99
153
68
99
153
67
101
154
68
98
130
63
89
86
32
59
114
50
76
156
71
98
154
67
98
153
68
99
151
68
98
150
67
97
149
66
96
147
67
96
147
66
96
146
65
94
145
65
94
143
66
94
143
64
93
141
64
93
139
64
92
138
63
91
136
64
90
133
62
88
135
62
89
93
40
61
81
33
57
79
30
55
115
54
79
123
58
82
122
57
81
120
56
82
120
56
82
120
55
81
152
78
105
175
87
119
175
97
125
243
242
242
255
255
255
255
255
255
255
255
255
255
255
255
255
255
255
255
255
255
255
255
255
255
255
255
255
255
255
255
255
255
255
255
255
255
255
255
255
255
255
255
255
255
255
255
255
255
255
255
255
255
255
255
255
255
255
255
255
255
255
255
255
255
255
255
255
255
255
255
255
255
255
255
255
255
255
255
255
255
255
255
255
255
255
255
255
255
255
255
255
255
250
250
250
106
85
93
94
41
63
120
55
80
121
55
79
96
41
64
75
29
51
114
55
78
122
59
82
94
42
65
79
32
56
77
30
53
77
30
53
76
29
51
76
29
51
73
28
50
72
27
49
72
27
49
73
28
48
69
24
45
145
78
104
135
58
86
136
61
88
137
62
89
140
61
90
141
61
91
142
62
92
145
65
96
108
48
73
101
45
68
153
69
99
153
68
99
153
68
99
153
68
99
153
67
101
151
69
97
144
69
98
86
33
57
95
38
63
152
71
99
153
67
98
153
68
99
151
69
99
150
68
98
150
67
97
147
67
96
147
67
96
146
65
94
145
65
94
143
66
94
143
64
93
141
64
93
139
64
92
138
63
91
136
64
90
133
62
88
132
62
88
103
48
69
80
32
57
80
31
56
106
49
73
123
59
83
121
58
81
120
56
82
120
56
82
120
56
82
140
70
96
175
87
119
182
93
125
215
205
207
255
255
255
255
255
255
255
255
255
255
255
255
255
255
255
255
255
255
255
255
255
255
255
255
255
255
255
255
255
255
255
255
255
255
255
255
255
255
255
255
255
255
255
255
255
255
255
255
255
255
255
255
255
255
255
255
255
255
255
255
255
255
255
255
255
255
255
255
255
255
255
255
255
255
255
255
255
255
255
255
255
255
255
255
255
255
255
255
255
255
251
251
251
111
93
100
88
37
58
119
56
80
122
56
79
100
44
67
77
31
53
109
52
75
122
59
82
104
50
73
79
32
56
77
30
53
77
30
53
76
29
51
76
29
51
73
28
50
73
28
50
72
27
49
73
29
49
75
26
48
147
79
104
136
60
87
137
62
89
137
62
89
139
62
90
141
61
91
142
62
92
145
66
96
104
44
70
86
37
58
154
70
100
153
68
99
153
68
99
153
68
99
153
68
99
152
69
98
153
72
101
99
41
66
87
31
58
139
67
92
154
68
99
153
68
99
151
69
99
150
68
98
150
67
97
148
67
97
147
67
96
145
65
94
145
65
94
143
66
94
143
64
93
141
64
92
139
64
92
138
63
91
136
64
90
133
62
88
131
62
88
106
48
70
79
31
56
80
32
56
96
43
66
123
59
84
121
58
81
120
57
82
120
56
82
120
56
81
130
59
85
175
88
119
176
87
119
191
153
165
255
255
255
255
255
255
255
255
255
255
255
255
255
255
255
255
255
255
255
255
255
255
255
255
255
255
255
255
255
255
255
255
255
255
255
255
255
255
255
255
255
255
255
255
255
255
255
255
255
255
255
255
255
255
255
255
255
255
255
255
255
255
255
255
255
255
255
255
255
255
255
255
255
255
255
255
255
255
255
255
255
255
255
255
255
255
255
255
255
255
251
251
251
121
106
112
84
32
54
118
56
79
121
55
79
101
45
68
79
31
54
101
48
69
122
58
82
115
55
79
78
30
53
78
31
54
77
30
53
76
29
52
76
29
51
74
29
51
73
28
50
73
28
50
72
29
50
88
37
57
147
76
101
136
61
88
137
62
89
137
62
89
138
63
90
140
62
91
142
62
92
145
66
95
104
43
68
75
28
51
150
68
99
153
68
97
153
68
97
153
68
97
153
68
97
153
68
97
155
71
100
117
52
79
85
34
60
123
55
82
155
69
101
151
69
99
151
69
99
149
68
98
150
67
97
148
67
97
147
67
96
144
67
95
144
67
95
144
67
95
143
66
92
142
65
91
141
64
90
138
63
91
136
64
90
133
62
88
133
62
88
116
55
79
79
30
54
81
31
56
87
35
60
125
58
85
124
56
81
121
57
80
120
56
80
120
56
80
122
54
79
169
86
116
175
86
118
182
111
135
241
240
241
255
255
255
255
255
255
255
255
255
255
255
255
255
255
255
255
255
255
255
255
255
255
255
255
255
255
255
255
255
255
255
255
255
255
255
255
255
255
255
255
255
255
255
255
255
255
255
255
255
255
255
255
255
255
255
255
255
255
255
255
255
255
255
255
255
255
255
255
255
255
255
255
255
255
255
255
255
255
255
255
255
255
255
255
255
255
255
252
252
252
132
119
124
81
29
51
117
55
78
121
55
79
102
46
69
81
32
55
95
43
64
123
58
82
123
59
84
84
32
56
79
32
54
78
31
54
77
30
53
76
29
51
74
30
51
74
30
51
74
29
51
73
28
50
102
47
68
148
73
99
137
62
89
137
62
89
137
62
89
137
62
89
139
62
90
142
62
92
145
67
96
103
41
67
69
25
46
143
67
96
153
68
97
153
68
97
153
68
97
154
69
98
153
68
97
154
70
99
138
63
93
83
32
58
101
40
68
153
72
103
151
69
99
151
69
99
149
68
98
150
67
97
148
67
97
147
67
96
144
67
95
144
67
95
144
67
95
143
66
92
142
65
91
141
64
90
138
63
91
136
64
90
133
62
88
132
61
88
118
56
81
79
31
54
81
31
56
81
31
55
122
56
83
122
58
81
120
57
80
120
56
80
120
56
80
118
54
78
160
81
110
173
85
117
177
90
121
221
211
214
255
255
255
255
255
255
255
255
255
255
255
255
255
255
255
255
255
255
255
255
255
255
255
255
255
255
255
255
255
255
255
255
255
255
255
255
255
255
255
255
255
255
255
255
255
255
255
255
255
255
255
255
255
255
255
255
255
255
255
255
255
255
255
255
255
255
255
255
255
255
255
255
255
255
255
255
255
255
255
255
255
255
255
255
255
255
255
252
252
252
136
125
130
80
29
51
110
50
72
121
56
80
102
47
69
82
31
55
89
38
59
124
59
83
125
59
84
95
40
64
79
31
55
78
31
54
77
30
53
76
30
52
74
30
51
74
30
51
74
30
51
73
28
49
117
59
81
142
64
91
137
62
88
137
62
89
137
62
89
137
62
89
138
61
89
142
62
92
145
66
95
99
39
65
69
27
48
128
59
85
153
68
97
153
68
97
153
68
97
154
69
98
154
69
98
154
69
98
153
71
101
91
35
61
86
32
59
144
69
99
152
69
99
151
69
99
149
68
98
150
67
97
148
67
97
147
67
96
144
67
95
144
67
95
144
67
95
143
66
92
142
65
91
141
64
90
138
63
91
136
64
90
133
61
88
132
60
87
120
57
82
79
31
54
81
31
56
78
30
53
116
54
79
121
57
81
120
57
80
120
56
80
120
56
80
118
55
78
148
74
101
173
86
117
174
88
119
199
171
180
255
255
255
255
255
255
255
255
255
255
255
255
255
255
255
255
255
255
255
255
255
255
255
255
255
255
255
255
255
255
255
255
255
255
255
255
255
255
255
255
255
255
255
255
255
255
255
255
255
255
255
255
255
255
255
255
255
255
255
255
255
255
255
255
255
255
255
255
255
255
255
255
255
255
255
255
255
255
255
255
255
255
255
255
255
255
255
253
253
253
142
133
136
78
31
53
98
44
66
121
56
81
101
46
70
79
32
52
87
35
59
122
60
85
122
57
80
107
48
71
76
30
53
77
30
53
77
30
53
76
30
52
74
30
49
76
29
49
74
30
49
73
27
48
124
67
89
138
61
88
136
61
86
136
61
86
137
62
87
138
61
87
138
61
87
140
62
88
144
67
94
95
38
63
75
31
52
111
52
74
154
69
100
153
67
98
154
67
99
154
69
100
154
69
100
154
69
100
156
71
103
112
48
74
83
34
58
129
59
87
152
70
100
151
69
99
151
68
98
150
67
97
148
67
97
147
67
96
147
67
96
146
66
95
146
66
95
143
66
94
142
64
93
141
63
92
140
62
91
138
63
90
135
61
88
132
61
88
125
60
83
80
31
54
82
32
56
79
31
54
108
50
74
123
57
81
121
57
80
120
56
80
120
56
80
119
55
79
137
65
91
173
87
118
175
84
117
178
119
138
251
251
251
255
255
255
255
255
255
255
255
255
255
255
255
255
255
255
255
255
255
255
255
255
255
255
255
255
255
255
255
255
255
255
255
255
255
255
255
255
255
255
255
255
255
255
255
255
255
255
255
255
255
255
255
255
255
255
255
255
255
255
255
255
255
255
255
255
255
255
255
255
255
255
255
255
255
255
255
255
255
255
255
255
255
255
255
254
254
254
150
142
146
79
32
55
86
36
57
120
57
82
101
47
71
78
31
52
109
52
76
115
58
82
122
57
80
118
56
80
78
29
52
77
30
53
77
30
53
76
30
52
75
30
49
76
29
49
75
30
49
74
27
49
133
72
96
139
60
88
137
61
86
136
61
86
137
62
87
137
61
87
138
61
87
140
62
88
143
66
92
93
36
61
74
31
52
96
42
63
153
70
100
152
67
98
153
68
99
154
69
100
154
69
100
154
69
100
155
69
100
133
62
90
83
33
58
111
48
74
152
71
101
153
68
99
152
68
98
150
67
97
148
67
97
147
67
96
147
67
96
147
67
96
146
66
95
143
66
94
142
64
93
141
63
92
140
62
91
138
63
90
135
61
88
133
62
88
126
60
84
80
31
53
82
33
56
80
32
55
98
44
67
123
59
83
120
57
80
120
56
80
120
56
80
118
56
79
126
58
83
170
85
116
174
84
116
175
92
122
229
225
226
255
255
255
255
255
255
255
255
255
255
255
255
255
255
255
255
255
255
255
255
255
255
255
255
255
255
255
255
255
255
255
255
255
255
255
255
255
255
255
255
255
255
255
255
255
255
255
255
255
255
255
255
255
255
255
255
255
255
255
255
255
255
255
255
255
255
255
255
255
255
255
255
255
255
255
255
255
255
255
255
255
255
255
255
255
255
255
169
164
166
78
34
55
78
32
52
114
55
78
101
47
70
80
32
54
121
61
86
102
46
70
124
58
81
123
58
83
83
30
54
77
30
53
77
30
53
76
30
52
75
30
49
76
29
49
74
30
49
75
27
50
139
73
98
140
61
89
138
61
87
137
62
87
136
61
86
137
61
87
138
61
87
140
62
88
141
65
91
90
34
59
75
31
53
80
32
51
151
70
100
151
68
99
153
69
100
155
70
101
152
67
98
153
68
99
155
70
101
144
66
97
84
33
57
93
38
61
151
71
100
154
67
99
152
68
98
150
67
97
148
67
97
147
67
96
147
67
96
147
67
96
146
66
95
144
67
95
142
65
93
141
63
92
141
63
92
138
63
90
135
61
88
132
61
88
126
60
83
79
30
52
81
33
56
80
32
55
90
38
60
123
60
83
120
57
80
120
56
80
120
56
80
117
56
79
119
55
79
168
83
114
174
83
116
177
90
121
204
186
191
255
255
255
255
255
255
255
255
255
255
255
255
255
255
255
255
255
255
255
255
255
255
255
255
255
255
255
255
255
255
255
255
255
255
255
255
255
255
255
255
255
255
255
255
255
255
255
255
255
255
255
255
255
255
255
255
255
255
255
255
255
255
255
255
255
255
255
255
255
255
255
255
255
255
255
255
255
255
255
255
255
255
255
255
255
255
255
187
183
185
80
33
57
78
31
53
105
48
71
100
46
69
80
31
54
134
71
94
84
32
54
123
57
84
125
59
86
90
38
60
75
31
53
75
31
53
76
30
51
76
29
49
75
29
49
74
30
49
74
26
49
143
75
100
139
64
91
138
61
87
137
61
87
136
61
86
136
61
87
136
61
88
138
62
89
139
65
94
87
32
57
75
31
52
72
26
46
143
69
96
152
68
98
151
69
99
169
81
113
153
68
99
154
67
99
154
68
99
152
71
100
95
39
62
83
33
56
141
64
93
153
67
100
153
68
98
151
67
97
150
67
97
149
67
96
147
67
94
147
67
94
146
66
94
144
67
95
143
65
94
142
64
93
139
64
92
136
63
90
134
61
88
132
62
88
127
62
85
78
30
52
81
32
56
81
31
57
87
34
58
122
59
84
121
58
81
120
56
80
119
56
80
118
55
79
118
54
78
162
80
110
172
82
115
174
83
116
185
140
155
255
255
255
255
255
255
255
255
255
255
255
255
255
255
255
255
255
255
255
255
255
255
255
255
255
255
255
255
255
255
255
255
255
255
255
255
255
255
255
255
255
255
255
255
255
255
255
255
255
255
255
255
255
255
255
255
255
255
255
255
255
255
255
255
255
255
255
255
255
255
255
255
255
255
255
255
255
255
255
255
255
255
255
255
255
255
255
207
205
206
81
32
57
80
32
54
90
36
58
100
46
70
81
31
54
140
74
97
81
29
52
113
52
77
122
58
84
100
46
68
75
31
52
75
31
52
75
29
51
77
28
49
75
30
49
74
30
50
78
30
53
149
77
103
140
64
91
138
62
88
137
60
86
136
61
86
136
61
87
136
61
88
137
62
89
138
65
95
86
32
57
74
30
52
70
24
46
131
63
88
150
67
97
150
68
98
176
87
119
152
67
98
154
67
99
153
68
99
155
72
101
118
52
78
82
35
58
122
56
83
152
69
101
153
68
99
152
67
98
150
67
97
149
67
96
147
67
94
147
67
94
146
66
93
144
67
95
143
65
94
142
64
93
139
64
92
136
64
91
133
62
88
132
62
88
128
62
86
80
31
54
82
32
57
81
31
57
84
31
56
120
58
83
121
58
81
120
57
80
118
55
79
118
55
79
117
55
78
154
75
104
172
82
115
173
84
116
177
109
132
240
239
239
255
255
255
255
255
255
255
255
255
255
255
255
255
255
255
255
255
255
255
255
255
255
255
255
255
255
255
255
255
255
255
255
255
255
255
255
255
255
255
255
255
255
255
255
255
255
255
255
255
255
255
255
255
255
255
255
255
255
255
255
255
255
255
255
255
255
255
255
255
255
255
255
255
255
255
255
255
255
255
255
255
255
255
255
227
226
226
87
46
66
81
33
55
81
33
53
88
37
60
83
33
56
147
77
101
90
36
59
90
38
60
123
59
85
109
51
75
74
30
52
74
30
52
75
29
51
77
28
49
75
30
49
74
30
50
83
34
57
153
76
104
141
63
91
140
62
89
138
61
87
136
61
86
135
60
87
134
59
87
137
62
89
136
65
94
84
31
56
74
30
51
72
25
47
122
59
82
151
68
98
150
65
96
179
90
122
153
68
99
154
67
99
153
68
99
155
68
98
139
68
96
81
33
55
96
41
66
153
73
102
153
68
99
152
67
98
150
67
97
149
67
96
147
67
94
147
67
94
146
66
93
144
67
95
143
65
94
142
64
93
139
64
92
136
64
91
134
63
89
131
61
87
129
64
88
81
32
55
82
33
57
82
32
58
82
30
54
118
55
80
121
58
81
120
57
80
118
55
79
119
55
79
116
55
78
146
70
98
172
83
116
171
84
116
176
91
122
223
216
218
255
255
255
255
255
255
255
255
255
255
255
255
255
255
255
255
255
255
255
255
255
255
255
255
255
255
255
255
255
255
255
255
255
255
255
255
255
255
255
255
255
255
255
255
255
255
255
255
255
255
255
255
255
255
255
255
255
255
255
255
255
255
255
255
255
255
255
255
255
255
255
255
255
255
255
255
255
255
255
255
255
255
255
255
234
234
234
94
61
75
81
33
58
82
34
56
83
33
56
87
34
58
153
78
105
101
45
69
77
31
52
109
48
73
119
56
80
76
28
51
76
30
52
74
30
51
76
29
49
74
30
49
74
30
49
90
38
59
153
73
102
143
63
92
141
63
91
138
61
89
136
61
87
135
60
87
134
59
87
137
62
89
136
65
92
84
31
55
75
30
52
73
28
48
105
46
69
151
68
99
150
66
96
180
91
123
156
71
102
153
67
98
153
68
99
154
68
99
152
73
102
93
36
62
85
34
58
143
67
94
151
68
97
151
67
97
150
67
97
150
67
97
148
66
95
148
66
95
147
66
94
145
66
95
143
65
94
142
64
93
140
64
91
137
63
89
136
63
88
132
61
87
131
63
88
82
32
55
84
33
58
82
33
57
81
31
54
111
53
77
121
58
81
120
56
80
118
55
79
119
55
79
117
54
78
135
65
91
172
85
117
173
84
116
175
87
119
199
175
182
255
255
255
255
255
255
255
255
255
255
255
255
255
255
255
255
255
255
255
255
255
255
255
255
255
255
255
255
255
255
255
255
255
255
255
255
255
255
255
255
255
255
255
255
255
255
255
255
255
255
255
255
255
255
255
255
255
255
255
255
255
255
255
255
255
255
255
255
255
255
255
255
255
255
255
255
255
255
255
255
255
255
255
255
251
251
251
111
94
101
83
33
59
83
34
58
83
34
57
91
36
61
158
81
110
111
54
76
78
31
54
85
32
55
117
58
82
80
29
53
77
29
52
74
30
51
75
29
49
73
31
49
73
31
49
101
47
68
154
75
104
143
64
93
142
64
93
140
62
91
137
62
89
135
60
87
135
60
87
136
61
88
135
64
90
86
32
55
77
30
53
75
30
50
88
33
57
150
70
100
150
66
96
177
88
120
165
79
110
153
67
98
153
68
99
153
68
99
154
70
101
118
54
81
84
32
58
125
57
82
152
69
98
150
67
97
150
67
97
150
67
97
149
66
96
149
66
96
147
65
95
146
66
95
144
65
94
142
65
93
141
64
90
138
63
88
136
63
87
133
60
86
131
63
88
83
32
56
84
32
57
83
33
56
81
31
55
106
50
75
121
58
81
120
56
80
118
55
79
119
55
79
119
55
79
126
60
84
171
86
117
173
84
116
173
84
117
180
130
146
253
252
252
255
255
255
255
255
255
255
255
255
255
255
255
255
255
255
255
255
255
255
255
255
255
255
255
255
255
255
255
255
255
255
255
255
255
255
255
255
255
255
255
255
255
255
255
255
255
255
255
255
255
255
255
255
255
255
255
255
255
255
255
255
255
255
255
255
255
255
255
255
255
255
255
255
255
255
255
255
255
255
255
255
255
255
255
160
154
157
86
36
62
85
35
59
84
35
58
95
40
64
162
84
113
116
56
79
82
32
54
79
32
54
97
46
69
82
31
55
78
30
53
74
30
51
75
29
49
73
31
49
73
31
49
110
54
76
156
76
105
141
64
93
141
64
93
140
63
91
137
62
90
136
61
88
134
59
87
136
61
88
135
64
90
86
32
56
76
30
52
75
30
50
71
23
45
144
70
98
151
66
97
170
82
114
176
86
119
152
66
97
153
68
99
153
68
99
154
69
100
140
68
95
86
32
58
104
44
70
152
70
100
150
67
97
150
67
97
150
67
97
149
66
96
149
66
96
149
66
96
146
66
95
144
65
94
142
65
93
141
64
90
138
63
88
136
63
87
134
61
87
132
65
89
84
33
57
83
32
57
83
32
56
82
31
55
103
49
73
121
58
81
120
56
80
120
56
80
118
55
79
118
55
79
120
56
80
169
84
115
172
83
115
174
85
117
172
91
121
240
238
239
255
255
255
255
255
255
255
255
255
255
255
255
255
255
255
255
255
255
255
255
255
255
255
255
255
255
255
255
255
255
255
255
255
255
255
255
255
255
255
255
255
255
255
255
255
255
255
255
255
255
255
255
255
255
255
255
255
255
255
255
255
255
255
255
255
255
255
255
255
255
255
255
255
255
255
255
255
255
255
255
255
255
255
255
209
208
208
85
37
61
86
35
60
85
35
59
96
40
65
163
86
115
121
57
81
89
37
58
79
34
56
81
32
56
80
31
55
78
30
53
76
30
52
76
29
50
75
30
50
73
30
49
124
66
88
152
73
101
140
65
93
142
64
93
141
63
92
138
62
90
137
61
88
135
60
87
135
60
87
134
63
89
85
31
55
76
30
52
76
29
50
66
23
43
136
67
93
151
67
97
163
76
108
185
93
127
151
66
97
153
68
99
153
68
99
153
68
99
153
71
100
94
39
62
87
33
58
144
67
96
151
67
97
150
67
97
149
66
96
149
66
96
148
66
96
148
66
96
146
66
95
144
65
94
142
65
93
141
64
91
138
63
89
136
63
89
134
61
87
132
65
89
84
33
56
83
32
56
82
33
56
82
32
55
99
46
70
121
57
81
121
57
81
120
56
80
118
55
79
118
55
79
117
54
78
168
82
113
173
84
116
174
85
117
180
94
124
213
204
207
255
255
255
255
255
255
255
255
255
255
255
255
255
255
255
255
255
255
255
255
255
255
255
255
255
255
255
255
255
255
255
255
255
255
255
255
255
255
255
255
255
255
255
255
255
255
255
255
255
255
255
255
255
255
255
255
255
255
255
255
255
255
255
255
255
255
255
255
255
255
255
255
255
255
255
255
255
255
255
255
255
255
255
255
245
245
245
98
71
83
86
35
62
87
35
61
96
40
65
165
88
116
121
55
80
96
43
65
80
34
56
81
32
55
78
31
54
77
30
53
77
30
53
76
29
51
76
29
51
74
28
50
134
73
95
148
70
99
142
64
93
142
64
93
142
64
93
139
62
90
137
61
87
136
61
86
135
61
86
135
64
89
86
32
56
77
31
53
76
29
49
67
26
46
120
56
80
151
69
99
156
70
102
192
98
132
153
67
99
153
67
99
154
67
99
154
67
99
156
70
101
119
55
78
82
32
54
128
57
86
154
67
99
149
68
97
149
67
97
149
66
96
148
65
95
147
65
95
146
66
95
144
65
94
142
65
93
141
63
92
138
63
91
136
63
90
134
61
88
132
65
89
84
33
56
83
33
56
82
33
56
82
32
56
97
42
66
121
58
82
120
57
80
120
56
80
119
55
79
118
55
79
117
54
77
163
80
110
173
85
116
174
85
117
175
88
118
193
163
171
255
255
255
255
255
255
255
255
255
255
255
255
255
255
255
255
255
255
255
255
255
255
255
255
255
255
255
255
255
255
255
255
255
255
255
255
255
255
255
255
255
255
255
255
255
255
255
255
255
255
255
255
255
255
255
255
255
255
255
255
255
255
255
255
255
255
255
255
255
255
255
255
255
255
255
255
255
255
255
255
255
255
255
255
254
254
254
161
154
157
90
37
64
89
36
62
96
40
65
167
90
119
120
55
79
106
49
72
81
32
55
81
32
55
79
31
54
78
31
54
78
31
54
77
29
52
77
29
51
72
25
47
152
84
109
146
67
96
142
64
93
142
64
93
142
64
93
139
62
90
137
61
88
137
62
87
136
61
86
136
65
89
87
33
57
77
31
53
76
29
49
70
29
49
103
46
67
151
70
99
152
67
98
193
99
133
162
74
106
154
67
99
154
67
99
154
67
99
154
68
99
146
68
97
83
33
55
104
42
68
153
70
100
150
67
97
148
67
97
149
66
96
148
66
96
147
65
95
146
66
95
144
65
94
142
65
93
141
63
92
138
63
91
136
63
90
134
61
88
131
63
87
82
31
54
83
33
56
82
33
56
82
33
56
95
40
64
121
58
82
120
57
80
120
56
80
119
55
79
118
55
79
117
54
77
155
77
106
173
85
117
173
86
117
174
86
116
180
123
139
249
249
249
255
255
255
255
255
255
255
255
255
255
255
255
255
255
255
255
255
255
255
255
255
255
255
255
255
255
255
255
255
255
255
255
255
255
255
255
255
255
255
255
255
255
255
255
255
255
255
255
255
255
255
255
255
255
255
255
255
255
255
255
255
255
255
255
255
255
255
255
255
255
255
255
255
255
255
255
255
255
255
255
255
255
255
255
218
217
217
88
47
69
89
36
63
95
40
65
168
90
119
118
54
78
117
56
80
84
33
56
82
32
55
79
32
55
78
31
54
78
31
54
77
30
53
76
29
51
69
23
45
167
91
118
146
66
95
142
64
93
142
64
93
142
64
93
140
62
91
138
62
88
137
62
88
136
61
87
136
65
90
88
34
56
77
31
53
75
29
50
72
30
51
81
32
51
150
69
99
150
66
96
188
95
128
176
85
118
153
66
98
154
67
99
154
67
99
152
69
99
153
72
102
105
45
69
85
34
56
145
67
96
153
66
97
150
67
97
149
66
96
149
66
96
147
65
95
146
66
95
144
65
94
142
65
93
141
63
92
138
63
91
136
63
90
134
61
88
128
61
85
81
31
54
83
33
56
81
33
56
81
33
56
93
39
63
122
59
83
120
56
80
119
55
79
119
55
79
118
55
79
117
54
78
146
72
99
174
85
117
174
85
117
174
86
117
180
98
126
234
231
232
255
255
255
255
255
255
255
255
255
255
255
255
255
255
255
255
255
255
255
255
255
255
255
255
255
255
255
255
255
255
255
255
255
255
255
255
255
255
255
255
255
255
255
255
255
255
255
255
255
255
255
255
255
255
255
255
255
255
255
255
255
255
255
255
255
255
255
255
255
255
255
255
255
255
255
255
255
255
255
255
255
255
255
255
253
253
253
122
111
116
90
38
66
94
39
65
168
90
118
120
55
78
123
58
82
88
37
58
83
33
56
82
32
55
79
31
54
78
31
54
76
31
53
76
30
52
71
25
47
178
94
125
146
64
94
142
64
93
142
64
93
142
64
93
141
63
92
138
62
90
137
62
89
136
61
88
137
65
92
91
36
57
77
31
53
74
30
51
74
28
51
67
23
45
144
67
96
150
66
96
181
88
121
187
92
126
151
65
96
153
68
99
153
68
99
152
68
99
152
69
99
134
62
88
82
34
55
128
56
84
152
68
98
149
67
99
149
66
96
149
66
96
147
65
95
146
66
95
144
65
94
142
65
93
141
63
92
138
63
91
136
63
90
133
62
88
125
60
84
79
30
53
81
33
56
80
33
56
80
33
56
89
36
59
121
58
82
119
56
80
120
56
80
118
55
79
119
55
79
119
55
79
140
67
94
176
87
119
175
85
117
174
85
117
176
90
121
221
211
214
255
255
255
255
255
255
255
255
255
255
255
255
255
255
255
255
255
255
255
255
255
255
255
255
255
255
255
255
255
255
255
255
255
255
255
255
255
255
255
255
255
255
255
255
255
255
255
255
255
255
255
255
255
255
255
255
255
255
255
255
255
255
255
255
255
255
255
255
255
255
255
255
255
255
255
255
255
255
255
255
255
255
255
255
255
255
255
198
197
198
79
35
61
90
37
63
167
91
119
121
55
78
123
57
82
99
43
66
83
34
57
82
33
56
79
32
55
78
31
54
76
31
53
76
30
52
73
26
48
182
95
127
149
64
95
145
64
94
142
64
93
142
64
93
141
63
92
139
62
91
138
63
90
137
62
89
138
66
92
94
38
60
78
31
54
74
30
51
75
28
51
61
23
43
127
59
85
150
68
98
171
80
113
197
98
134
154
67
99
152
67
98
153
68
99
152
69
99
153
68
99
150
71
100
92
37
60
105
44
69
149
69
98
148
67
99
149
66
96
149
66
96
148
66
96
146
66
95
144
65
94
142
65
93
141
63
92
138
63
91
136
63
90
132
61
87
125
59
83
79
31
53
82
34
56
81
34
57
81
34
57
89
36
60
121
58
82
120
56
80
120
56
80
118
55
79
119
55
79
119
55
79
134
63
89
175
86
118
174
85
117
174
85
117
176
90
121
201
182
188
255
255
255
255
255
255
255
255
255
255
255
255
255
255
255
255
255
255
255
255
255
255
255
255
255
255
255
255
255
255
255
255
255
255
255
255
255
255
255
255
255
255
255
255
255
255
255
255
255
255
255
255
255
255
255
255
255
255
255
255
255
255
255
255
255
255
255
255
255
255
255
255
255
255
255
255
255
255
255
255
255
255
255
255
255
255
255
248
248
248
102
93
98
65
26
45
168
92
120
123
55
79
124
56
81
112
51
76
82
32
56
82
33
56
80
33
56
78
31
54
77
32
54
76
31
53
80
32
54
188
100
132
150
64
96
147
64
94
143
64
93
142
64
93
141
63
92
139
62
91
138
63
91
137
62
89
137
65
91
96
40
61
77
31
53
74
30
51
74
29
51
66
27
48
99
45
66
150
72
101
158
69
102
202
102
138
165
76
108
151
66
97
153
68
99
153
68
99
154
67
99
154
72
102
118
53
79
87
34
57
143
68
95
150
67
98
149
66
96
149
66
96
149
66
96
146
66
95
144
66
94
142
65
93
142
64
93
139
64
92
136
63
90
132
61
87
125
59
82
79
31
53
82
34
57
82
35
57
82
35
57
90
37
60
121
58
82
120
57
80
120
56
80
118
55
79
119
55
79
119
55
79
129
59
85
173
86
117
173
86
117
173
86
117
176
87
119
184
147
158
254
254
254
255
255
255
255
255
255
255
255
255
255
255
255
255
255
255
255
255
255
255
255
255
255
255
255
255
255
255
255
255
255
255
255
255
255
255
255
255
255
255
255
255
255
255
255
255
255
255
255
255
255
255
255
255
255
255
255
255
255
255
255
255
255
255
255
255
255
255
255
255
255
255
255
255
255
255
255
255
255
255
255
255
255
255
255
255
255
255
191
190
191
57
24
41
167
94
123
124
55
81
122
57
81
121
56
80
84
35
56
82
35
57
80
33
56
79
32
55
76
32
54
77
31
53
88
39
58
191
103
135
150
65
96
147
64
94
144
64
93
143
64
93
142
62
92
140
62
91
140
62
91
137
62
89
138
63
91
101
42
65
76
32
54
75
31
52
74
29
50
70
29
50
72
27
46
149
69
98
151
66
97
196
100
134
177
86
119
149
66
96
152
68
98
153
68
99
153
68
99
153
68
99
143
70
97
83
30
56
126
60
84
149
68
97
149
66
96
149
66
96
149
66
96
146
66
93
145
66
93
143
66
92
142
64
93
139
64
92
136
63
90
132
61
88
121
58
80
79
31
54
83
35
59
84
35
60
83
34
60
94
39
64
121
58
82
120
56
80
120
56
80
118
55
79
119
55
79
119
55
79
125
58
83
172
86
117
172
84
116
173
86
117
174
86
118
174
117
136
253
252
252
255
255
255
255
255
255
255
255
255
255
255
255
255
255
255
255
255
255
255
255
255
255
255
255
255
255
255
255
255
255
255
255
255
255
255
255
255
255
255
255
255
255
255
255
255
255
255
255
255
255
255
255
255
255
255
255
255
255
255
255
255
255
255
255
255
255
255
255
255
255
255
255
255
255
255
255
255
255
255
255
255
255
255
255
255
255
255
245
245
245
95
83
87
167
94
121
125
56
80
123
57
81
123
57
82
93
40
62
81
34
57
80
33
56
79
32
55
78
31
54
78
32
53
99
45
65
192
103
135
149
64
95
147
64
94
144
64
93
143
64
93
142
62
92
140
62
91
140
62
91
137
62
89
138
63
91
105
46
69
76
32
53
76
31
53
76
29
50
74
29
51
57
20
37
138
64
91
147
64
95
188
97
130
190
95
129
152
65
96
151
68
98
152
68
99
153
68
99
153
68
99
153
71
101
108
48
73
102
44
69
152
70
100
149
66
96
149
66
96
149
66
96
146
66
93
145
66
93
143
66
92
142
64
93
139
64
91
136
62
89
132
61
87
119
56
78
80
32
54
83
35
59
84
35
60
84
34
60
96
41
66
121
58
81
120
56
80
120
56
80
118
55
79
119
55
79
119
55
79
122
56
80
171
84
116
173
84
116
173
86
117
174
85
118
169
91
120
246
245
245
255
255
255
255
255
255
255
255
255
255
255
255
255
255
255
255
255
255
255
255
255
255
255
255
255
255
255
255
255
255
255
255
255
255
255
255
255
255
255
255
255
255
255
255
255
255
255
255
255
255
255
255
255
255
255
255
255
255
255
255
255
255
255
255
255
255
255
255
255
255
255
255
255
255
255
255
255
255
255
255
255
255
255
255
255
255
255
255
255
255
195
192
193
169
94
120
130
59
84
123
56
81
123
58
82
104
47
71
81
34
56
80
33
56
79
32
55
79
31
54
77
31
52
118
59
81
191
100
133
148
64
95
147
64
94
144
64
93
143
64
93
142
62
92
140
62
91
140
62
91
137
62
90
138
63
90
110
50
74
76
31
53
75
31
53
75
30
51
73
29
50
60
24
41
112
52
75
151
66
97
179
88
121
200
100
136
159
69
101
152
67
97
152
68
99
153
68
99
153
68
99
155
69
99
137
65
90
86
31
57
146
67
97
149
66
96
149
66
96
149
66
96
146
66
93
145
66
93
143
66
92
141
64
92
138
63
90
135
61
88
132
61
87
117
54
76
82
33
56
84
35
59
84
35
60
84
35
61
99
44
68
120
56
80
120
56
80
120
56
80
119
56
80
119
55
79
119
55
79
120
54
79
170
84
115
172
84
116
174
85
117
175
84
117
171
93
122
232
231
231
255
255
255
255
255
255
255
255
255
255
255
255
255
255
255
255
255
255
255
255
255
255
255
255
255
255
255
255
255
255
255
255
255
255
255
255
255
255
255
255
255
255
255
255
255
255
255
255
255
255
255
255
255
255
255
255
255
255
255
255
255
255
255
255
255
255
255
255
255
255
255
255
255
255
255
255
255
255
255
255
255
255
255
255
255
255
255
255
255
255
247
247
247
176
117
137
133
61
86
121
56
80
124
56
81
116
54
79
83
33
56
82
33
56
80
33
56
79
31
54
77
30
52
133
67
91
191
98
132
149
65
95
147
63
94
144
64
93
143
64
93
143
63
93
141
61
91
140
62
91
139
62
91
138
62
90
115
53
77
80
30
53
78
31
54
78
30
51
74
29
50
65
26
44
87
37
58
149
70
100
170
80
112
200
101
137
175
80
114
151
66
97
152
68
97
153
68
97
153
68
97
153
68
98
152
70
100
98
40
63
127
58
86
151
67
97
148
67
96
149
66
96
146
66
93
145
66
93
143
66
92
140
64
92
136
63
90
134
62
89
131
62
88
105
49
72
84
34
60
87
35
61
87
35
63
87
35
62
102
47
70
120
56
80
120
56
80
120
56
80
119
56
80
118
55
79
118
55
79
119
53
78
167
81
113
172
82
115
174
83
116
174
83
116
177
94
124
223
219
220
255
255
255
255
255
255
255
255
255
255
255
255
255
255
255
255
255
255
255
255
255
255
255
255
255
255
255
255
255
255
255
255
255
255
255
255
255
255
255
255
255
255
255
255
255
255
255
255
255
255
255
255
255
255
255
255
255
255
255
255
255
255
255
255
255
255
255
255
255
255
255
255
255
255
255
255
255
255
255
255
255
255
255
255
255
255
255
255
255
255
251
251
251
185
136
151
138
65
90
121
56
80
124
56
81
123
58
85
90
36
61
83
33
56
81
33
56
81
31
55
76
30
51
150
76
103
192
97
131
150
66
97
147
63
94
145
63
93
143
64
93
143
63
93
142
62
92
141
62
91
140
62
91
139
63
91
120
57
81
81
30
53
79
32
54
78
30
51
75
29
51
71
31
50
65
23
43
143
67
96
160
74
105
196
99
134
187
90
125
151
66
96
152
67
97
153
68
97
153
68
97
154
68
98
154
68
100
132
62
89
103
43
69
149
69
99
150
67
97
147
67
96
147
67
94
145
66
93
142
65
91
139
64
92
135
63
90
133
62
88
131
63
88
98
44
67
87
35
63
87
35
61
87
36
64
88
36
62
110
52
76
120
56
80
120
56
80
120
56
80
119
56
80
118
55
79
118
55
79
119
54
78
166
80
112
172
82
115
173
84
116
174
84
116
182
94
126
218
210
212
255
255
255
255
255
255
255
255
255
255
255
255
255
255
255
255
255
255
255
255
255
255
255
255
255
255
255
255
255
255
255
255
255
255
255
255
255
255
255
255
255
255
255
255
255
255
255
255
255
255
255
255
255
255
255
255
255
255
255
255
255
255
255
255
255
255
255
255
255
255
255
255
255
255
255
255
255
255
255
255
255
255
255
255
255
255
255
255
255
255
252
252
252
192
149
162
144
70
96
121
56
80
124
56
81
125
57
84
104
46
72
82
32
56
82
33
56
81
31
55
76
31
52
160
80
109
194
97
132
153
68
99
147
64
94
145
63
93
143
64
93
142
62
92
142
62
92
141
63
92
140
62
91
138
63
91
123
59
84
81
31
54
80
33
55
76
31
52
75
30
51
73
31
50
54
20
37
129
61
87
152
66
97
194
98
132
193
96
131
153
67
98
152
67
97
153
68
97
154
69
98
154
69
99
152
69
99
151
72
103
92
35
60
142
68
96
151
67
97
149
66
96
147
67
94
145
66
93
142
65
91
139
64
92
135
63
89
133
61
88
133
64
90
91
39
62
90
36
64
88
37
63
88
37
65
87
37
62
118
56
81
120
56
80
120
56
80
120
56
80
119
56
80
118
55
79
118
55
79
119
54
78
166
80
111
173
84
116
176
84
117
177
84
118
183
94
126
215
205
208
255
255
255
255
255
255
255
255
255
255
255
255
255
255
255
255
255
255
255
255
255
255
255
255
255
255
255
255
255
255
255
255
255
255
255
255
255
255
255
255
255
255
255
255
255
255
255
255
255
255
255
255
255
255
255
255
255
255
255
255
255
255
255
255
255
255
255
255
255
255
255
255
255
255
255
255
255
255
255
255
255
255
255
255
255
255
255
255
255
255
254
254
254
195
157
168
154
76
103
122
56
81
123
57
81
123
56
81
117
55
80
82
32
54
81
33
56
83
32
56
79
30
52
167
85
115
193
97
132
156
70
101
148
64
95
146
64
94
144
63
93
142
62
92
142
62
91
142
63
91
140
62
89
140
62
90
128
60
86
83
33
56
81
33
56
78
32
53
77
29
52
74
30
50
61
24
43
106
48
70
150
67
97
190
94
128
197
97
133
162
73
105
152
68
98
153
68
98
154
69
99
154
69
99
153
69
99
152
69
99
125
56
82
123
57
83
152
67
98
149
65
96
146
66
94
144
66
94
142
64
92
139
64
92
135
63
89
133
61
88
131
62
88
89
37
60
89
37
64
89
38
64
89
36
63
100
44
69
121
57
83
120
56
80
120
56
80
120
56
80
119
56
80
119
55
79
119
55
79
122
59
81
171
122
137
194
164
173
201
177
184
192
162
170
192
160
170
239
237
237
255
255
255
255
255
255
255
255
255
255
255
255
255
255
255
255
255
255
255
255
255
255
255
255
255
255
255
255
255
255
255
255
255
255
255
255
255
255
255
255
255
255
255
255
255
255
255
255
255
255
255
255
255
255
255
255
255
255
255
255
255
255
255
255
255
255
255
255
255
255
255
255
255
255
255
255
255
255
255
255
255
255
255
255
255
255
255
255
255
255
255
255
255
203
172
181
161
81
109
120
55
79
122
57
81
122
57
81
122
58
82
90
38
59
81
33
56
83
33
56
80
29
52
173
89
120
191
96
130
158
71
103
148
65
95
147
65
95
146
64
94
143
63
93
142
63
91
142
63
90
140
62
88
139
62
89
133
62
90
86
34
58
84
36
58
80
34
55
79
30
53
76
30
50
67
27
47
78
29
48
146
68
97
183
89
123
198
99
134
175
83
116
152
67
98
153
68
99
154
69
100
154
69
99
154
69
98
152
68
96
145
69
97
102
39
64
150
70
99
149
66
96
146
66
95
144
65
94
141
63
92
139
64
92
135
63
89
133
61
88
128
62
87
88
37
61
89
37
64
89
38
63
90
36
61
118
56
82
121
56
81
120
56
80
120
56
80
120
56
80
119
56
80
119
57
80
141
105
117
214
210
211
249
249
249
255
255
255
255
255
255
255
255
255
254
254
254
255
255
255
255
255
255
255
255
255
255
255
255
255
255
255
255
255
255
255
255
255
255
255
255
255
255
255
255
255
255
255
255
255
255
255
255
255
255
255
255
255
255
255
255
255
255
255
255
255
255
255
255
255
255
255
255
255
255
255
255
255
255
255
255
255
255
255
255
255
255
255
255
255
255
255
255
255
255
255
255
255
255
255
255
255
255
255
255
255
255
255
255
255
255
255
255
209
188
194
169
89
117
119
54
78
122
57
81
122
57
81
123
57
82
104
48
70
82
33
56
81
33
56
83
32
54
182
95
127
190
95
130
160
73
105
149
66
96
147
65
95
146
64
94
143
64
93
143
64
91
142
63
90
141
64
90
139
64
91
135
64
92
89
36
60
84
37
59
82
35
56
80
31
54
77
30
52
71
29
50
57
19
35
136
66
92
173
81
114
197
98
133
188
94
128
150
65
96
153
68
99
154
69
100
154
69
99
154
69
98
153
68
97
153
71
100
113
48
74
135
63
91
148
67
95
146
66
95
144
64
93
141
63
92
139
64
92
135
62
89
133
62
88
121
58
82
89
35
60
90
36
64
90
37
63
107
50
74
122
58
82
121
56
80
120
56
80
120
56
80
120
56
80
123
60
83
178
163
168
242
242
242
255
255
255
255
255
255
255
255
255
255
255
255
255
255
255
255
255
255
255
255
255
255
255
255
255
255
255
255
255
255
255
255
255
255
255
255
255
255
255
255
255
255
255
255
255
255
255
255
255
255
255
255
255
255
255
255
255
255
255
255
255
255
255
255
255
255
255
255
255
255
255
255
255
255
255
255
255
255
255
255
255
255
255
255
255
255
255
255
255
255
255
255
255
255
255
255
255
255
255
255
255
255
255
255
255
255
255
255
255
255
255
255
255
255
214
200
204
175
94
123
122
54
79
123
57
81
123
56
81
123
56
82
119
57
81
84
33
57
80
33
56
87
36
59
184
97
129
189
94
129
162
74
106
150
66
96
148
66
95
146
65
94
144
64
92
143
64
91
142
63
90
142
63
90
140
64
90
140
65
92
94
38
64
86
35
61
84
34
58
80
31
55
77
30
52
73
31
51
53
20
35
118
55
79
160
73
105
197
99
134
194
99
133
154
68
99
152
69
99
154
69
100
154
69
99
153
70
98
152
69
97
153
68
97
143
70
98
117
51
76
147
68
96
145
65
94
143
64
93
140
64
92
137
63
90
134
61
88
133
62
88
118
56
80
90
36
61
90
36
64
99
43
68
121
59
84
122
57
81
122
56
80
120
56
80
120
56
80
133
89
104
210
204
206
253
253
253
255
255
255
255
255
255
255
255
255
255
255
255
255
255
255
255
255
255
255
255
255
255
255
255
255
255
255
255
255
255
255
255
255
255
255
255
255
255
255
255
255
255
255
255
255
255
255
255
255
255
255
255
255
255
255
255
255
255
255
255
255
255
255
255
255
255
255
255
255
255
255
255
255
255
255
255
255
255
255
255
255
255
255
255
255
255
255
255
255
255
255
255
255
255
255
255
255
255
255
255
255
255
255
255
255
255
255
255
255
255
255
255
255
255
255
255
255
224
217
219
181
100
130
126
55
81
122
57
81
122
57
81
123
56
81
124
58
83
97
44
69
77
31
53
96
42
63
187
99
132
189
95
129
164
75
107
150
67
97
148
66
94
147
65
93
146
64
92
144
64
91
143
64
91
142
63
90
142
63
89
141
63
90
101
42
69
89
34
63
86
34
62
81
32
55
77
30
53
74
32
51
58
23
39
93
41
62
150
69
99
196
98
133
196
100
135
165
79
110
151
69
99
154
69
100
153
69
99
152
70
98
151
69
97
151
68
97
152
70
100
114
50
73
144
69
96
144
65
94
141
65
93
138
65
92
137
63
90
134
61
88
133
62
88
110
50
76
90
37
62
96
40
66
121
58
84
122
57
81
122
57
81
122
57
81
123
58
82
155
130
138
233
231
231
255
255
255
255
255
255
255
255
255
255
255
255
255
255
255
255
255
255
255
255
255
255
255
255
255
255
255
255
255
255
255
255
255
255
255
255
255
255
255
255
255
255
255
255
255
255
255
255
255
255
255
255
255
255
255
255
255
255
255
255
255
255
255
255
255
255
255
255
255
255
255
255
255
255
255
255
255
255
255
255
255
255
255
255
255
255
255
255
255
255
255
255
255
255
255
255
255
255
255
255
255
255
255
255
255
255
255
255
255
255
255
255
255
255
255
255
255
255
255
255
255
255
255
237
236
236
187
117
142
135
65
91
121
57
81
124
58
82
125
59
83
133
86
102
114
66
73
128
81
73
135
75
81
186
97
128
190
96
130
166
77
109
150
67
97
149
67
95
149
67
94
147
65
93
145
64
92
143
64
91
142
63
90
142
64
90
142
64
91
107
46
74
90
37
64
86
35
62
81
32
55
78
30
54
76
32
52
75
47
59
77
47
58
142
66
94
187
92
126
197
98
133
178
89
121
151
67
97
151
69
99
151
69
99
152
70
98
151
69
97
151
68
97
150
67
97
134
63
89
128
60
85
144
66
94
141
65
93
137
64
91
137
62
89
134
61
88
134
63
89
102
45
70
93
39
64
123
59
83
124
58
82
123
58
82
122
57
81
130
76
95
190
178
182
248
248
248
255
255
255
255
255
255
255
255
255
255
255
255
255
255
255
255
255
255
255
255
255
255
255
255
255
255
255
255
255
255
255
255
255
255
255
255
255
255
255
255
255
255
255
255
255
255
255
255
255
255
255
255
255
255
255
255
255
255
255
255
255
255
255
255
255
255
255
255
255
255
255
255
255
255
255
255
255
255
255
255
255
255
255
255
255
255
255
255
255
255
255
255
255
255
255
255
255
255
255
255
255
255
255
255
255
255
255
255
255
255
255
255
255
255
255
255
255
255
255
255
255
255
255
255
255
255
255
255
255
224
216
218
176
156
162
151
124
132
164
145
150
204
196
198
225
224
224
157
111
102
148
94
79
146
77
86
188
98
131
189
96
130
169
79
112
150
67
97
149
67
95
149
67
94
147
65
93
146
64
93
143
63
91
142
63
91
142
63
91
141
64
91
115
52
80
88
36
65
87
35
63
83
35
57
111
92
100
194
191
192
228
227
228
198
196
197
130
61
87
172
81
114
199
98
134
189
96
130
151
67
98
150
69
99
150
69
99
152
70
98
151
69
97
150
69
97
148
67
97
149
69
98
111
48
71
146
69
97
140
64
92
137
63
91
136
61
88
133
61
88
132
62
88
102
43
68
122
60
86
126
59
83
125
59
83
124
61
84
160
136
143
229
226
227
255
255
255
255
255
255
255
255
255
255
255
255
255
255
255
255
255
255
255
255
255
255
255
255
255
255
255
255
255
255
255
255
255
255
255
255
255
255
255
255
255
255
255
255
255
255
255
255
255
255
255
255
255
255
255
255
255
255
255
255
255
255
255
255
255
255
255
255
255
255
255
255
255
255
255
255
255
255
255
255
255
255
255
255
255
255
255
255
255
255
255
255
255
255
255
255
255
255
255
255
255
255
255
255
255
255
255
255
255
255
255
255
255
255
255
255
255
255
255
255
255
255
255
255
255
255
255
255
255
255
255
255
255
255
255
255
255
255
254
254
254
252
252
252
253
253
253
255
255
255
208
199
197
158
104
90
153
101
85
150
80
92
191
99
132
190
96
130
173
82
115
150
66
97
150
68
95
149
67
94
149
67
94
148
65
94
147
64
94
143
63
93
142
62
92
142
63
92
131
59
88
91
36
65
93
45
69
160
151
154
244
243
243
255
255
255
255
255
255
239
239
239
119
79
92
163
74
106
198
98
133
196
99
134
157
72
103
149
69
99
150
69
99
152
70
98
151
69
97
151
69
98
149
68
98
148
68
97
128
61
85
136
61
89
140
63
92
138
63
91
136
61
88
132
62
88
132
63
88
132
62
88
129
60
86
129
62
87
143
107
119
205
199
201
251
251
251
255
255
255
255
255
255
255
255
255
255
255
255
255
255
255
255
255
255
255
255
255
255
255
255
255
255
255
255
255
255
255
255
255
255
255
255
255
255
255
255
255
255
255
255
255
255
255
255
255
255
255
255
255
255
255
255
255
255
255
255
255
255
255
255
255
255
255
255
255
255
255
255
255
255
255
255
255
255
255
255
255
255
255
255
255
255
255
255
255
255
255
255
255
255
255
255
255
255
255
255
255
255
255
255
255
255
255
255
255
255
255
255
255
255
255
255
255
255
255
255
255
255
255
255
255
255
255
255
255
255
255
255
255
255
255
255
255
255
255
255
255
255
255
255
255
255
255
255
255
255
244
243
243
168
130
120
160
107
93
158
107
91
152
81
93
191
100
133
189
95
129
177
86
119
150
66
96
150
67
95
150
68
95
149
67
94
149
66
95
147
65
95
144
64
93
142
62
92
143
63
91
143
66
95
118
79
94
202
198
200
253
253
253
255
255
255
255
255
255
255
255
255
254
254
254
141
129
133
149
68
98
193
96
131
196
99
134
172
82
115
150
68
98
151
69
98
151
69
97
151
69
97
150
69
97
148
68
97
147
66
95
144
66
95
142
65
93
138
64
92
135
64
90
135
61
88
136
63
90
136
66
92
130
64
89
149
116
127
199
189
192
245
245
245
255
255
255
255
255
255
255
255
255
255
255
255
255
255
255
255
255
255
255
255
255
255
255
255
255
255
255
255
255
255
255
255
255
255
255
255
255
255
255
255
255
255
255
255
255
255
255
255
255
255
255
255
255
255
255
255
255
255
255
255
255
255
255
255
255
255
255
255
255
255
255
255
255
255
255
255
255
255
255
255
255
255
255
255
255
255
255
255
255
255
255
255
255
255
255
255
255
255
255
255
255
255
255
255
255
255
255
255
255
255
255
255
255
255
255
255
255
255
255
255
255
255
255
255
255
255
255
255
255
255
255
255
255
255
255
255
255
255
255
255
255
255
255
255
255
255
255
255
255
255
255
255
255
255
255
255
194
177
173
169
114
100
165
111
97
164
112
96
151
80
92
192
100
133
189
95
129
181
90
123
151
65
97
151
68
96
150
68
95
150
68
95
149
66
95
148
65
95
144
64
94
144
63
93
147
71
98
175
148
155
239
237
238
255
255
255
255
255
255
255
255
255
255
255
255
255
255
255
255
255
255
187
183
184
130
60
86
181
90
123
194
97
132
190
95
130
150
65
96
151
69
98
151
69
97
151
69
97
149
69
97
148
68
96
147
67
96
150
85
107
166
138
146
163
136
144
158
132
140
166
143
150
184
170
174
208
202
204
233
232
232
251
251
251
255
255
255
255
255
255
255
255
255
255
255
255
255
255
255
255
255
255
255
255
255
255
255
255
255
255
255
255
255
255
255
255
255
255
255
255
255
255
255
255
255
255
255
255
255
255
255
255
255
255
255
255
255
255
255
255
255
255
255
255
255
255
255
255
255
255
255
255
255
255
255
255
255
255
255
255
255
255
255
255
255
255
255
255
255
255
255
255
255
255
255
255
255
255
255
255
255
255
255
255
255
255
255
255
255
255
255
255
255
255
255
255
255
255
255
255
255
255
255
255
255
255
255
255
255
255
255
255
255
255
255
255
255
255
255
255
255
255
255
255
255
255
255
255
255
255
255
255
255
255
255
255
255
255
255
255
255
255
255
222
216
215
172
124
110
167
115
99
165
111
96
167
113
100
152
83
92
199
103
136
191
94
130
186
92
128
153
65
98
152
66
95
152
67
95
150
68
95
151
66
96
150
65
96
149
71
100
164
126
137
220
213
215
253
253
253
255
255
255
255
255
255
255
255
255
255
255
255
255
255
255
255
255
255
255
255
255
229
228
228
107
51
72
169
80
112
197
99
134
197
100
135
165
76
108
150
68
98
151
69
98
151
69
97
149
69
98
146
69
97
139
92
106
227
223
224
255
255
255
255
255
255
255
255
255
255
255
255
255
255
255
255
255
255
255
255
255
255
255
255
255
255
255
255
255
255
255
255
255
255
255
255
255
255
255
255
255
255
255
255
255
255
255
255
255
255
255
255
255
255
255
255
255
255
255
255
255
255
255
255
255
255
255
255
255
255
255
255
255
255
255
255
255
255
255
255
255
255
255
255
255
255
255
255
255
255
255
255
255
255
255
255
255
255
255
255
255
255
255
255
255
255
255
255
255
255
255
255
255
255
255
255
255
255
255
255
255
255
255
255
255
255
255
255
255
255
255
255
255
255
255
255
255
255
255
255
255
255
255
255
255
255
255
255
255
255
255
255
255
255
255
255
255
255
255
255
255
255
255
255
255
255
255
255
255
255
255
255
255
255
255
255
255
255
255
255
234
231
231
175
138
128
173
123
105
212
167
142
237
191
164
188
142
125
123
87
83
130
79
100
168
100
126
188
101
134
158
74
105
154
70
99
155
74
100
155
90
110
158
108
124
181
155
163
216
209
211
250
250
250
255
255
255
255
255
255
255
255
255
255
255
255
255
255
255
255
255
255
255
255
255
255
255
255
255
255
255
253
253
253
146
136
139
158
86
112
197
106
139
197
110
141
187
108
136
149
81
105
142
69
94
138
66
86
134
70
81
135
76
79
129
87
83
223
223
223
255
255
255
255
255
255
255
255
255
255
255
255
255
255
255
255
255
255
255
255
255
255
255
255
255
255
255
255
255
255
255
255
255
255
255
255
255
255
255
255
255
255
255
255
255
255
255
255
255
255
255
255
255
255
255
255
255
255
255
255
255
255
255
255
255
255
255
255
255
255
255
255
255
255
255
255
255
255
255
255
255
255
255
255
255
255
255
255
255
255
255
255
255
255
255
255
255
255
255
255
255
255
255
255
255
255
255
255
255
255
255
255
255
255
255
255
255
255
255
255
255
255
255
255
255
255
255
255
255
255
255
255
255
255
255
255
255
255
255
255
255
255
255
255
255
255
255
255
255
255
255
255
255
255
255
255
255
255
255
255
255
255
255
255
255
255
255
255
255
255
255
255
255
255
254
254
254
232
226
223
181
145
130
200
156
133
236
198
168
241
202
171
237
204
175
162
146
131
27
49
53
22
47
52
29
41
46
66
44
57
134
123
127
221
215
217
230
226
227
237
236
236
248
248
248
255
255
255
255
255
255
255
255
255
255
255
255
255
255
255
255
255
255
255
255
255
255
255
255
255
255
255
255
255
255
255
255
255
255
255
255
255
255
255
251
251
251
234
232
232
232
227
228
235
231
232
235
233
233
206
204
204
106
67
64
147
94
87
154
99
88
157
103
90
157
105
93
150
143
141
255
255
255
255
255
255
255
255
255
255
255
255
255
255
255
255
255
255
255
255
255
255
255
255
255
255
255
255
255
255
255
255
255
255
255
255
255
255
255
255
255
255
255
255
255
255
255
255
255
255
255
255
255
255
255
255
255
255
255
255
255
255
255
255
255
255
255
255
255
255
255
255
255
255
255
255
255
255
255
255
255
255
255
255
255
255
255
255
255
255
255
255
255
255
255
255
255
255
255
255
255
255
255
255
255
255
255
255
255
255
255
255
255
255
255
255
255
255
255
255
255
255
255
255
255
255
255
255
255
255
255
255
255
255
255
255
255
255
255
255
255
255
255
255
255
255
255
255
255
255
255
255
255
255
255
255
255
255
255
255
255
255
255
255
255
255
255
255
255
255
255
252
252
252
206
201
196
232
202
171
239
202
169
241
201
171
237
202
170
233
205
176
149
142
125
31
68
66
31
68
69
18
45
48
17
39
42
37
45
47
194
194
194
255
255
255
255
255
255
255
255
255
255
255
255
255
255
255
255
255
255
255
255
255
255
255
255
255
255
255
255
255
255
255
255
255
255
255
255
255
255
255
255
255
255
255
255
255
255
255
255
255
255
255
255
255
255
255
255
255
255
255
255
255
255
255
255
255
255
250
250
250
99
92
91
156
107
95
162
109
95
162
111
93
189
145
121
205
177
151
216
216
216
255
255
255
255
255
255
255
255
255
255
255
255
255
255
255
255
255
255
255
255
255
255
255
255
255
255
255
255
255
255
255
255
255
255
255
255
255
255
255
255
255
255
255
255
255
255
255
255
255
255
255
255
255
255
255
255
255
255
255
255
255
255
255
255
255
255
255
255
255
255
255
255
255
255
255
255
255
255
255
255
255
255
255
255
255
255
255
255
255
255
255
255
255
255
255
255
255
255
255
255
255
255
255
255
255
255
255
255
255
255
255
255
255
255
255
255
255
255
255
255
255
255
255
255
255
255
255
255
255
255
255
255
255
255
255
255
255
255
255
255
255
255
255
255
255
255
255
255
255
255
255
255
255
255
255
255
255
255
255
255
255
255
255
255
255
243
243
243
149
158
158
152
147
130
229
203
174
242
209
177
235
208
176
200
184
156
107
108
95
30
68
67
26
64
63
32
52
51
68
74
73
144
145
145
208
208
208
251
251
251
255
255
255
255
255
255
255
255
255
255
255
255
255
255
255
255
255
255
255
255
255
255
255
255
255
255
255
255
255
255
255
255
255
255
255
255
255
255
255
255
255
255
255
255
255
255
255
255
255
255
255
255
255
255
255
255
255
255
255
255
255
255
255
255
255
255
254
254
254
151
151
152
153
101
92
168
114
101
184
137
117
240
199
170
235
200
165
166
158
147
250
250
250
255
255
255
255
255
255
255
255
255
255
255
255
255
255
255
255
255
255
255
255
255
255
255
255
255
255
255
255
255
255
255
255
255
255
255
255
255
255
255
255
255
255
255
255
255
255
255
255
255
255
255
255
255
255
255
255
255
255
255
255
255
255
255
255
255
255
255
255
255
255
255
255
255
255
255
255
255
255
255
255
255
255
255
255
255
255
255
255
255
255
255
255
255
255
255
255
255
255
255
255
255
255
255
255
255
255
255
255
255
255
255
255
255
255
255
255
255
255
255
255
255
255
255
255
255
255
255
255
255
255
255
255
255
255
255
255
255
255
255
255
255
255
255
255
255
255
255
255
255
255
255
255
255
255
255
255
255
255
255
235
235
235
109
127
127
43
94
92
44
87
83
80
94
83
109
110
94
85
94
82
37
70
66
29
72
73
29
56
57
106
107
108
201
201
201
244
244
243
254
254
254
255
255
255
255
255
255
255
255
255
255
255
255
255
255
255
255
255
255
255
255
255
255
255
255
255
255
255
255
255
255
255
255
255
255
255
255
255
255
255
255
255
255
255
255
255
255
255
255
255
255
255
255
255
255
255
255
255
255
255
255
255
255
255
255
255
255
255
255
255
255
255
255
255
255
255
191
191
192
128
89
82
174
127
108
238
197
169
235
199
166
235
199
163
202
179
151
196
197
196
255
255
255
255
255
255
255
255
255
255
255
255
255
255
255
255
255
255
255
255
255
255
255
255
255
255
255
255
255
255
255
255
255
255
255
255
255
255
255
255
255
255
255
255
255
255
255
255
255
255
255
255
255
255
255
255
255
255
255
255
255
255
255
255
255
255
255
255
255
255
255
255
255
255
255
255
255
255
255
255
255
255
255
255
255
255
255
255
255
255
255
255
255
255
255
255
255
255
255
255
255
255
255
255
255
255
255
255
255
255
255
255
255
255
255
255
255
255
255
255
255
255
255
255
255
255
255
255
255
255
255
255
255
255
255
255
255
255
255
255
255
255
255
255
255
255
255
255
255
255
255
255
255
255
255
255
251
252
252
128
142
142
46
95
95
45
93
93
46
92
92
43
91
91
39
85
86
33
78
78
27
70
68
24
50
50
170
170
170
245
245
245
255
255
255
255
255
255
255
255
255
255
255
255
255
255
255
255
255
255
255
255
255
255
255
255
255
255
255
255
255
255
255
255
255
255
255
255
255
255
255
255
255
255
255
255
255
255
255
255
255
255
255
255
255
255
255
255
255
255
255
255
255
255
255
255
255
255
255
255
255
255
255
255
255
255
255
255
255
255
255
255
255
255
255
255
220
220
220
86
70
61
231
194
165
238
201
169
238
202
170
237
201
166
227
198
170
102
104
98
240
240
240
255
255
255
255
255
255
255
255
255
255
255
255
255
255
255
255
255
255
255
255
255
255
255
255
255
255
255
255
255
255
255
255
255
255
255
255
255
255
255
255
255
255
255
255
255
255
255
255
255
255
255
255
255
255
255
255
255
255
255
255
255
255
255
255
255
255
255
255
255
255
255
255
255
255
255
255
255
255
255
255
255
255
255
255
255
255
255
255
255
255
255
255
255
255
255
255
255
255
255
255
255
255
255
255
255
255
255
255
255
255
255
255
255
255
255
255
255
255
255
255
255
255
255
255
255
255
255
255
255
255
255
255
255
255
255
255
255
255
255
255
255
255
255
255
255
255
255
255
255
255
255
255
255
220
221
221
49
94
93
47
94
94
47
92
93
46
90
91
42
86
87
35
78
80
29
64
68
71
80
80
207
207
207
254
254
254
255
255
255
255
255
255
255
255
255
255
255
255
255
255
255
255
255
255
255
255
255
255
255
255
255
255
255
255
255
255
255
255
255
255
255
255
255
255
255
255
255
255
255
255
255
255
255
255
255
255
255
255
255
255
255
255
255
255
255
255
255
255
255
255
255
255
255
255
255
255
255
255
255
255
255
255
255
255
255
255
255
255
255
255
255
255
255
237
237
237
83
87
83
227
199
169
237
201
168
239
201
170
238
200
170
231
205
175
91
97
83
170
175
175
255
255
255
255
255
255
255
255
255
255
255
255
255
255
255
255
255
255
255
255
255
255
255
255
255
255
255
255
255
255
255
255
255
255
255
255
255
255
255
255
255
255
255
255
255
255
255
255
255
255
255
255
255
255
255
255
255
255
255
255
255
255
255
255
255
255
255
255
255
255
255
255
255
255
255
255
255
255
255
255
255
255
255
255
255
255
255
255
255
255
255
255
255
255
255
255
255
255
255
255
255
255
255
255
255
255
255
255
255
255
255
255
255
255
255
255
255
255
255
255
255
255
255
255
255
255
255
255
255
255
255
255
255
255
255
255
255
255
255
255
255
255
255
255
255
255
255
255
255
255
255
255
255
175
178
178
41
86
84
41
89
89
40
86
86
36
82
83
32
74
75
31
61
61
109
113
113
226
226
226
255
255
255
255
255
255
255
255
255
255
255
255
255
255
255
255
255
255
255
255
255
255
255
255
255
255
255
255
255
255
255
255
255
255
255
255
255
255
255
255
255
255
255
255
255
255
255
255
255
255
255
255
255
255
255
255
255
255
255
255
255
255
255
255
255
255
255
255
255
255
255
255
255
255
255
255
255
255
255
255
255
255
255
255
255
255
255
255
255
255
255
255
255
254
254
254
119
127
127
116
113
100
215
193
165
230
202
174
217
194
170
154
146
125
41
76
72
73
94
94
242
242
242
255
255
255
255
255
255
255
255
255
255
255
255
255
255
255
255
255
255
255
255
255
255
255
255
255
255
255
255
255
255
255
255
255
255
255
255
255
255
255
255
255
255
255
255
255
255
255
255
255
255
255
255
255
255
255
255
255
255
255
255
255
255
255
255
255
255
255
255
255
255
255
255
255
255
255
255
255
255
255
255
255
255
255
255
255
255
255
255
255
255
255
255
255
255
255
255
255
255
255
255
255
255
255
255
255
255
255
255
255
255
255
255
255
255
255
255
255
255
255
255
255
255
255
255
255
255
255
255
255
255
255
255
255
255
255
255
255
255
255
255
255
255
255
255
255
255
255
255
255
255
228
229
229
115
122
123
58
74
75
50
72
72
54
71
73
107
112
114
180
181
182
246
246
246
255
255
255
255
255
255
255
255
255
255
255
255
255
255
255
255
255
255
255
255
255
255
255
255
255
255
255
255
255
255
255
255
255
255
255
255
255
255
255
255
255
255
255
255
255
255
255
255
255
255
255
255
255
255
255
255
255
255
255
255
255
255
255
255
255
255
255
255
255
255
255
255
255
255
255
255
255
255
255
255
255
255
255
255
255
255
255
255
255
255
255
255
255
255
255
255
255
255
255
186
188
188
34
76
77
48
74
70
69
83
74
50
78
75
42
84
85
41
85
84
39
81
81
185
187
187
255
255
255
255
255
255
255
255
255
255
255
255
255
255
255
255
255
255
255
255
255
255
255
255
255
255
255
255
255
255
255
255
255
255
255
255
255
255
255
255
255
255
255
255
255
255
255
255
255
255
255
255
255
255
255
255
255
255
255
255
255
255
255
255
255
255
255
255
255
255
255
255
255
255
255
255
255
255
255
255
255
255
255
255
255
255
255
255
255
255
255
255
255
255
255
255
255
255
255
255
255
255
255
255
255
255
255
255
255
255
255
255
255
255
255
255
255
255
255
255
255
255
255
255
255
255
255
255
255
255
255
255
255
255
255
255
255
255
255
255
255
255
255
255
255
255
255
255
255
255
255
255
255
246
246
246
221
221
221
216
216
216
230
230
230
246
246
246
255
255
255
255
255
255
255
255
255
255
255
255
255
255
255
255
255
255
255
255
255
255
255
255
255
255
255
255
255
255
255
255
255
255
255
255
255
255
255
255
255
255
255
255
255
255
255
255
255
255
255
255
255
255
255
255
255
255
255
255
255
255
255
255
255
255
255
255
255
255
255
255
255
255
255
255
255
255
255
255
255
255
255
255
255
255
255
255
255
255
255
255
255
255
255
255
255
255
255
255
255
255
255
255
255
229
229
229
34
66
69
37
81
85
43
86
89
48
94
93
47
92
93
44
89
90
38
83
84
120
128
129
255
255
255
255
255
255
255
255
255
255
255
255
255
255
255
255
255
255
255
255
255
255
255
255
255
255
255
255
255
255
255
255
255
255
255
255
255
255
255
255
255
255
255
255
255
255
255
255
255
255
255
255
255
255
255
255
255
255
255
255
255
255
255
255
255
255
255
255
255
255
255
255
255
255
255
255
255
255
255
255
255
255
255
255
255
255
255
255
255
255
255
255
255
255
255
255
255
255
255
255
255
255
255
255
255
255
255
255
255
255
255
255
255
255
255
255
255
255
255
255
255
255
255
255
255
255
255
255
255
255
255
255
255
255
255
255
255
255
255
255
255
255
255
255
255
255
255
255
255
255
255
255
255
255
255
255
255
255
255
255
255
255
255
255
255
255
255
255
255
255
255
255
255
255
255
255
255
255
255
255
255
255
255
255
255
255
255
255
255
255
255
255
255
255
255
255
255
255
255
255
255
255
255
255
255
255
255
255
255
255
255
255
255
255
255
255
255
255
255
255
255
255
255
255
255
255
255
255
255
255
255
255
255
255
255
255
255
255
255
255
255
255
255
255
255
255
255
255
255
255
255
255
255
255
255
255
255
255
255
255
255
255
255
255
255
255
255
255
255
255
255
255
255
252
252
252
128
130
130
35
69
71
43
89
88
44
96
94
47
95
95
45
92
92
39
86
86
107
119
119
255
255
255
255
255
255
255
255
255
255
255
255
255
255
255
255
255
255
255
255
255
255
255
255
255
255
255
255
255
255
255
255
255
255
255
255
255
255
255
255
255
255
255
255
255
255
255
255
255
255
255
255
255
255
255
255
255
255
255
255
255
255
255
255
255
255
255
255
255
255
255
255
255
255
255
255
255
255
255
255
255
255
255
255
255
255
255
255
255
255
255
255
255
255
255
255
255
255
255
255
255
255
255
255
255
255
255
255
255
255
255
255
255
255
255
255
255
255
255
255
255
255
255
255
255
255
255
255
255
255
255
255
255
255
255
255
255
255
255
255
255
255
255
255
255
255
255
255
255
255
255
255
255
255
255
255
255
255
255
255
255
255
255
255
255
255
255
255
255
255
255
255
255
255
255
255
255
255
255
255
255
255
255
255
255
255
255
255
255
255
255
255
255
255
255
255
255
255
255
255
255
255
255
255
255
255
255
255
255
255
255
255
255
255
255
255
255
255
255
255
255
255
255
255
255
255
255
255
255
255
255
255
255
255
255
255
255
255
255
255
255
255
255
255
255
255
255
255
255
255
255
255
255
255
255
255
255
255
255
255
255
255
255
255
255
255
255
255
255
255
255
255
255
255
255
255
240
240
240
120
121
122
28
59
58
37
84
83
42
91
90
40
90
89
33
81
80
120
126
126
255
255
255
255
255
255
255
255
255
255
255
255
255
255
255
255
255
255
255
255
255
255
255
255
255
255
255
255
255
255
255
255
255
255
255
255
255
255
255
255
255
255
255
255
255
255
255
255
255
255
255
255
255
255
255
255
255
255
255
255
255
255
255
255
255
255
255
255
255
255
255
255
255
255
255
255
255
255
255
255
255
255
255
255
255
255
255
255
255
255
255
255
255
255
255
255
255
255
255
255
255
255
255
255
255
255
255
255
255
255
255
255
255
255
255
255
255
255
255
255
255
255
255
255
255
255
255
255
255
255
255
255
255
255
255
255
255
255
255
255
255
255
255
255
255
255
255
255
255
255
255
255
255
255
255
255
255
255
255
255
255
255
255
255
255
255
255
255
255
255
255
255
255
255
255
255
255
255
255
255
255
255
255
255
255
255
255
255
255
255
255
255
255
255
255
255
255
255
255
255
255
255
255
255
255
255
255
255
255
255
255
255
255
255
255
255
255
255
255
255
255
255
255
255
255
255
255
255
255
255
255
255
255
255
255
255
255
255
255
255
255
255
255
255
255
255
255
255
255
255
255
255
255
255
255
255
255
255
255
255
255
255
255
255
255
255
255
255
255
255
255
255
255
255
255
255
255
255
255
247
247
247
178
178
178
89
93
94
52
69
70
42
69
69
74
89
89
211
212
212
255
255
255
255
255
255
255
255
255
255
255
255
255
255
255
255
255
255
255
255
255
255
255
255
255
255
255
255
255
255
255
255
255
255
255
255
255
255
255
255
255
255
255
255
255
255
255
255
255
255
255
255
255
255
255
255
255
255
255
255
255
255
255
255
255
255
255
255
255
255
255
255
255
255
255
255
255
255
255
255
255
255
255
255
255
255
255
255
255
255
255
255
255
255
255
255
255
255
255
255
255
255
255
255
255
255
255
255
255
255
255
255
255
255
255
255
255
255
255
255
255
255
255
255
255
255
255
255
255
255
255
255
255
255
255
255
255
255
255
255
255
255
255
255
255
255
255
255
255
255
255
255
255
255
255
255
255
255
255
255
255
255
255
255
255
255
255
255
255
255
255
255
255
255
255
255
255
255
255
255
255
255
255
255
255
255
255
255
255
255
255
255
255
255
255
255
255
255
255
255
255
255
255
255
255
255
255
255
255
255
255
255
255
255
255
255
255
255
255
255
255
255
255
255
255
255
255
255
255
255
255
255
255
255
255
255
255
255
255
255
255
255
255
255
255
255
255
255
255
255
255
255
255
255
255
255
255
255
255
255
255
255
255
255
255
255
255
255
255
255
255
255
255
255
255
255
255
255
255
255
255
255
255
255
255
237
237
237
200
200
201
188
189
189
223
223
223
254
254
254
255
255
255
255
255
255
255
255
255
255
255
255
255
255
255
255
255
255
255
255
255
255
255
255
255
255
255
255
255
255
255
255
255
255
255
255
255
255
255
255
255
255
255
255
255
255
255
255
255
255
255
255
255
255
255
255
255
255
255
255
255
255
255
255
255
255
255
255
255
255
255
255
255
255
255
255
255
255
255
255
255
255
255
255
255
255
255
