P3
# Created by GIMP version 3.0.2 PNM plug-in
113 200
255
238
251
210
237
252
210
236
253
216
237
253
213
236
253
210
237
252
213
236
253
208
235
252
208
233
252
208
232
253
204
233
246
197
195
168
142
168
101
100
160
88
92
155
78
86
150
72
79
145
65
75
139
56
69
140
52
69
143
49
65
142
45
64
142
45
64
142
45
64
139
44
62
136
45
63
111
42
59
85
35
56
83
34
57
86
38
56
90
45
55
95
47
57
102
52
60
105
60
63
112
72
71
141
111
100
219
224
194
236
252
213
241
253
219
242
253
222
241
253
222
241
254
226
241
254
227
241
254
224
241
254
224
238
253
219
238
253
218
239
254
219
238
253
221
238
253
221
239
254
222
237
253
217
237
252
214
237
252
214
236
252
213
237
253
214
240
252
211
242
253
214
242
253
220
242
253
223
241
252
214
241
252
214
243
253
218
242
254
217
238
252
216
238
253
217
242
255
220
242
253
216
242
253
215
242
253
217
241
254
217
244
253
222
244
253
226
243
254
220
242
254
220
241
253
222
241
253
222
239
253
218
235
239
195
200
184
126
186
164
97
182
157
91
172
147
84
168
144
76
166
137
70
161
132
66
164
134
69
158
129
64
157
125
60
157
124
58
155
122
55
152
118
50
156
122
51
163
128
55
156
120
50
156
124
55
130
101
52
68
42
23
61
37
25
60
39
25
60
39
25
61
36
24
58
38
24
60
41
24
59
40
22
66
43
23
58
29
26
47
9
20
47
10
20
45
12
21
44
13
21
45
12
21
45
12
21
45
12
21
235
253
205
233
253
207
233
253
208
234
252
209
234
252
209
236
253
211
235
253
205
233
251
198
230
250
193
228
251
192
231
247
193
197
173
144
167
100
100
160
88
92
154
78
86
149
72
79
147
62
74
141
56
69
141
51
68
143
48
65
142
45
64
142
45
64
141
44
63
138
44
62
135
44
62
111
41
59
85
33
56
82
34
57
86
39
56
91
44
55
95
48
58
102
55
62
105
61
63
114
74
73
142
111
101
218
223
193
235
251
212
236
252
213
238
253
217
239
253
218
239
253
218
238
253
217
238
253
216
238
253
216
233
253
212
233
253
212
235
252
212
236
252
213
236
253
213
236
253
214
234
253
210
234
252
207
234
253
208
233
253
208
234
252
211
236
252
210
237
252
210
237
253
213
236
253
217
235
253
212
236
253
213
238
253
220
239
254
220
237
252
214
239
252
216
242
254
218
243
254
216
243
253
216
243
254
219
242
253
219
242
253
223
242
253
222
241
254
215
242
253
216
243
255
219
242
254
218
238
251
213
225
224
176
192
174
109
184
161
92
180
154
87
169
142
81
162
136
71
159
128
63
156
124
60
157
124
60
158
128
61
161
129
62
158
124
57
158
122
56
158
122
56
158
126
52
160
128
52
157
122
49
156
124
62
110
82
44
65
38
22
63
40
24
62
41
26
60
40
25
62
36
23
60
37
22
62
38
25
60
39
25
66
43
27
49
18
19
43
8
18
45
10
20
45
12
21
44
13
21
45
12
21
45
12
21
45
12
21
234
254
199
233
253
203
233
253
206
234
252
208
234
252
209
235
253
210
235
254
210
234
253
204
234
252
204
233
252
205
232
246
203
197
175
151
167
101
100
159
87
91
154
79
85
149
70
77
147
62
74
142
57
70
141
51
69
143
47
64
143
46
65
141
44
63
141
44
63
138
43
61
135
43
61
113
42
60
85
33
56
86
34
59
88
38
56
91
42
56
95
48
60
100
53
61
105
61
64
115
74
73
141
110
100
217
222
190
236
252
209
236
251
209
237
253
213
237
253
214
236
252
211
235
252
206
235
253
202
234
252
203
235
252
207
236
252
208
236
252
207
233
252
204
234
253
205
234
253
206
232
252
205
230
251
203
223
246
200
214
239
194
216
238
198
220
240
199
226
244
202
231
250
207
233
252
209
232
253
208
233
253
211
235
252
216
237
253
218
236
254
213
237
253
210
238
252
210
238
253
210
239
253
213
239
252
215
241
253
214
238
253
215
241
252
219
241
252
215
242
252
216
243
254
219
241
253
217
239
248
207
210
204
150
188
168
100
183
157
90
177
149
82
167
140
78
160
133
69
158
125
61
157
123
60
158
124
60
161
131
62
157
126
57
158
125
55
159
123
54
159
124
54
157
125
52
159
127
53
158
123
52
149
119
61
86
60
34
65
39
25
64
41
26
62
40
26
61
39
24
62
37
22
62
36
22
63
36
25
61
39
26
63
38
27
45
13
18
43
10
19
43
11
20
45
12
21
45
12
21
45
12
21
45
12
21
45
12
21
226
252
195
231
253
201
233
253
206
232
253
206
233
253
204
236
252
203
235
253
205
232
253
198
230
252
198
230
251
199
230
247
200
198
179
150
168
102
99
159
87
91
152
79
84
148
69
77
148
62
74
143
58
71
142
52
69
141
47
64
142
45
64
141
44
63
141
44
63
140
43
62
137
42
61
115
42
61
84
33
56
85
33
58
85
36
54
89
42
56
95
47
59
99
52
60
102
60
62
115
73
71
137
108
96
213
220
186
233
252
204
235
252
204
237
253
208
237
253
208
237
254
208
235
253
206
235
253
203
233
252
199
234
252
203
234
253
204
234
254
204
230
252
201
229
251
200
228
251
201
219
244
199
179
213
176
149
192
160
133
182
152
128
177
148
136
180
152
147
187
159
166
196
164
202
223
186
227
247
211
232
252
214
235
253
212
237
253
212
237
253
210
236
253
211
236
253
211
235
252
210
234
252
210
236
253
212
237
253
211
236
253
211
236
252
211
236
253
209
237
253
209
237
253
210
236
252
208
230
237
186
196
186
125
186
166
98
180
153
88
177
150
84
170
146
80
167
140
73
164
133
67
161
130
67
160
129
63
162
132
62
159
129
59
159
129
55
160
128
53
161
127
53
157
125
50
158
127
51
158
128
55
135
107
56
69
42
24
66
39
29
62
37
25
61
38
24
62
39
23
61
38
21
61
36
25
63
36
25
63
39
23
59
32
24
43
11
18
45
12
21
43
12
21
44
11
20
45
12
21
45
12
21
45
12
21
45
12
21
228
252
197
230
252
202
229
252
203
227
251
200
227
251
198
229
252
197
226
252
194
225
252
195
225
253
193
224
251
191
223
247
186
199
183
146
169
101
100
159
87
91
154
79
85
147
71
78
146
63
74
144
55
70
142
52
69
141
48
65
141
44
63
140
43
62
141
44
63
141
44
63
140
44
63
117
43
62
85
33
55
85
36
60
85
38
55
89
42
56
95
47
57
98
51
58
102
61
63
115
73
71
136
107
95
210
221
184
229
252
202
235
252
198
231
252
198
229
253
197
229
253
199
230
252
203
231
252
205
229
253
200
230
251
200
229
250
199
229
251
198
226
250
198
223
247
198
191
220
178
130
178
147
105
167
143
87
148
129
69
125
112
63
117
105
61
119
106
74
134
119
95
152
133
110
157
136
137
173
148
192
221
188
217
241
201
229
251
203
231
252
204
234
252
209
235
252
208
236
252
211
236
252
210
236
253
208
235
253
210
236
253
211
236
253
208
235
253
205
235
253
203
234
253
202
232
251
200
219
222
164
190
174
108
184
165
94
178
151
85
177
150
84
172
147
79
168
140
71
166
136
66
160
129
63
158
127
59
158
127
57
156
125
56
159
130
56
159
128
54
158
126
53
157
124
50
157
129
52
153
128
52
107
82
40
63
36
22
65
39
27
63
39
27
63
40
26
64
41
25
62
40
23
60
37
24
60
36
23
65
39
22
53
26
19
43
10
21
44
12
21
44
13
21
45
12
21
45
12
21
45
12
21
45
12
21
45
12
21
228
252
199
228
252
199
228
252
199
228
251
199
230
252
198
227
252
193
222
251
182
221
251
184
221
251
188
222
251
191
218
247
182
198
184
146
168
103
101
159
88
92
154
78
85
149
70
80
145
63
75
146
55
71
144
52
70
141
48
66
141
47
65
140
45
63
141
44
63
142
45
64
140
45
65
119
43
63
86
32
56
86
36
59
85
37
53
89
40
56
95
46
58
100
51
59
103
58
64
112
71
71
134
106
96
210
218
182
228
251
199
230
251
197
226
252
196
225
253
197
225
252
198
225
252
200
224
252
201
224
252
203
225
252
201
225
252
198
224
251
195
218
245
195
164
198
162
112
172
146
81
142
124
61
118
106
52
105
100
51
101
98
51
103
97
49
103
96
48
102
96
50
100
93
56
106
95
71
123
104
92
142
116
133
177
144
177
209
168
225
246
199
230
250
197
230
251
198
234
253
202
236
253
205
236
253
202
234
253
203
235
252
207
236
253
206
235
253
202
234
252
199
230
252
196
229
247
190
209
202
143
188
168
100
185
163
92
177
153
83
173
149
79
170
144
75
167
138
70
165
133
65
163
130
62
162
129
58
161
126
55
157
123
56
156
127
51
155
123
50
158
121
53
158
122
49
159
129
53
147
121
54
81
59
26
61
36
22
61
37
25
65
39
27
68
41
29
66
41
27
61
40
25
59
39
23
62
37
22
67
39
26
49
19
18
43
10
21
44
11
20
45
12
21
44
13
21
44
13
21
45
12
21
45
12
21
45
12
21
225
252
196
225
251
196
225
251
194
225
251
189
223
250
186
223
251
178
219
250
171
218
250
173
218
250
177
218
250
181
216
248
177
199
187
149
163
103
100
157
86
90
153
78
85
148
70
80
145
63
74
146
55
71
145
52
69
141
48
66
140
46
64
140
44
62
142
45
64
142
45
64
140
45
64
119
42
62
87
33
56
87
35
58
87
37
52
90
40
57
96
45
60
99
50
60
103
57
64
111
68
69
130
103
94
209
217
180
229
252
201
225
251
202
225
251
201
225
252
200
225
252
201
225
252
203
227
252
202
226
252
200
224
252
196
219
249
190
214
243
187
156
193
157
103
162
139
66
125
108
49
103
93
47
99
94
45
97
93
45
95
92
45
95
97
43
94
96
43
94
96
44
96
95
45
94
90
50
97
91
54
107
96
66
125
107
101
158
129
161
195
158
219
246
190
226
251
192
231
252
200
233
252
198
235
252
200
234
252
201
234
252
205
234
252
204
231
252
199
229
253
198
226
252
194
225
237
178
201
184
125
187
167
96
184
158
87
177
151
81
172
145
76
167
139
71
167
136
69
165
132
64
164
132
65
165
133
61
164
130
57
162
128
57
158
126
48
155
121
46
158
120
50
158
123
54
159
126
53
134
104
52
68
44
24
60
38
23
61
37
25
63
37
26
63
37
25
61
36
25
61
39
25
59
39
22
65
39
24
66
38
26
46
14
14
45
10
21
44
11
20
45
12
21
44
13
21
44
13
21
44
12
20
45
11
20
46
12
21
222
252
191
222
251
189
220
251
185
218
251
184
218
251
181
218
250
170
216
250
162
217
252
163
217
251
168
218
251
172
217
248
171
202
191
149
160
101
99
157
85
89
151
76
81
149
69
78
146
61
74
145
56
70
142
52
69
141
47
63
141
45
63
141
45
64
142
45
64
142
45
64
140
45
63
121
44
61
88
33
54
88
34
58
86
35
53
89
42
60
92
46
60
96
50
61
102
56
63
112
69
69
127
101
92
206
217
171
228
250
194
224
252
196
225
252
197
226
252
194
225
252
193
224
251
194
225
252
196
224
251
193
223
252
193
214
248
185
156
196
151
98
159
136
54
113
99
44
100
93
42
95
93
41
89
91
35
86
84
39
88
86
45
90
96
40
89
94
38
89
93
37
91
96
40
91
94
41
88
86
46
97
93
46
103
96
55
116
99
86
136
112
161
196
156
220
249
189
227
251
193
228
251
193
232
252
198
234
252
206
232
252
205
230
252
200
228
252
193
227
253
194
226
250
191
219
223
163
195
175
111
188
166
94
183
156
87
177
149
79
171
142
75
166
137
66
166
134
66
160
126
60
158
125
57
164
133
60
166
133
59
162
128
54
164
129
52
160
124
51
158
122
53
156
122
54
156
123
54
117
86
45
62
38
22
60
37
24
60
36
23
62
36
24
60
37
25
60
38
25
60
40
27
59
40
23
65
40
26
60
30
24
45
10
16
45
11
19
45
12
21
45
12
21
43
12
20
43
12
20
44
12
21
45
11
20
45
11
21
218
251
185
217
251
181
217
250
178
218
250
177
218
250
171
219
250
166
217
250
160
218
250
157
219
252
160
219
251
164
216
247
163
201
191
142
160
100
95
156
83
87
152
76
82
149
69
77
146
62
75
145
57
70
140
52
69
141
47
62
142
45
64
142
45
64
142
45
64
142
45
64
140
44
62
123
44
60
89
32
52
88
34
57
87
36
56
90
39
58
93
45
59
96
50
61
100
55
61
110
68
69
126
101
90
201
214
162
224
251
188
223
252
190
222
252
189
222
251
191
221
252
188
220
251
185
219
250
183
219
250
180
218
249
181
176
215
163
100
171
142
57
122
103
46
96
91
40
95
93
36
92
93
37
88
91
38
86
92
38
79
81
45
83
83
50
88
86
46
87
89
35
87
93
37
86
87
39
80
81
41
81
83
41
87
86
46
93
85
53
99
85
85
129
101
186
214
163
222
248
185
226
250
187
229
252
189
229
252
198
227
252
196
224
250
184
223
250
176
226
252
182
224
246
181
209
205
142
190
171
100
188
164
91
181
155
88
176
149
77
170
143
76
166
138
69
164
132
67
158
123
61
159
124
56
164
130
58
162
129
55
159
124
51
164
128
50
164
129
50
160
124
51
157
122
52
152
120
57
92
62
31
60
36
22
62
39
25
61
38
24
62
37
26
60
37
25
59
39
26
60
39
26
60
38
23
66
39
27
55
23
22
45
10
19
45
10
19
45
12
21
45
12
21
44
12
20
44
12
21
44
12
21
44
11
20
43
10
19
219
251
171
219
252
169
219
250
168
220
250
168
219
251
160
220
250
158
220
250
160
220
249
160
220
250
162
219
249
164
217
247
164
203
193
146
161
100
94
157
81
86
153
75
84
148
67
77
142
57
70
141
54
67
140
52
69
140
47
62
141
44
63
142
45
64
142
45
64
141
44
63
140
44
61
125
43
59
91
31
52
89
35
58
89
37
57
93
41
59
96
44
60
97
51
61
98
56
60
109
68
69
125
99
87
197
212
158
220
250
183
219
250
182
218
249
181
217
249
183
210
244
182
195
231
173
178
217
160
165
203
151
148
192
141
103
154
125
70
137
120
44
96
87
35
85
83
32
81
84
32
82
87
39
82
90
39
81
90
88
103
86
154
147
102
150
142
101
113
115
85
56
79
71
31
64
72
26
56
63
28
53
62
28
60
63
36
63
64
41
73
66
58
106
85
126
160
119
217
243
184
227
252
189
227
250
187
224
251
189
222
251
186
221
251
183
225
252
181
224
251
180
221
238
169
202
188
123
190
170
94
187
163
90
179
152
85
173
147
77
168
142
75
168
139
68
165
134
66
163
130
64
162
127
59
163
127
56
163
129
56
161
127
53
166
130
54
167
131
57
161
123
54
160
123
54
140
109
53
73
42
22
60
37
24
61
38
23
60
38
24
60
38
25
59
39
26
60
40
26
59
38
25
62
37
23
63
34
24
47
14
16
46
11
21
45
11
20
45
12
21
45
12
21
45
11
20
45
11
21
45
12
21
44
12
20
44
12
20
217
249
163
217
250
159
218
249
159
216
251
158
216
249
158
221
250
160
222
250
163
221
249
166
215
250
157
213
249
156
215
247
158
206
197
145
162
100
94
159
80
85
154
74
82
150
64
77
144
58
68
141
55
67
141
50
67
141
47
63
140
43
62
142
45
64
142
45
64
141
44
63
140
45
62
126
45
62
90
31
52
88
35
59
89
38
56
90
42
57
93
46
60
96
49
61
95
54
59
104
67
70
124
94
89
194
208
155
213
248
171
207
240
168
180
221
157
143
193
147
107
168
133
93
161
131
86
157
131
75
144
123
61
129
110
51
112
102
40
100
97
36
93
92
36
87
90
36
82
88
32
79
85
31
75
79
34
72
80
79
92
76
159
148
100
148
126
80
131
114
75
120
109
79
54
55
51
35
44
52
29
46
60
28
53
59
33
54
59
36
61
59
42
80
69
72
116
88
199
229
174
222
252
186
223
250
185
220
251
185
220
251
183
220
251
183
220
251
185
223
249
180
218
223
156
195
178
109
188
169
93
182
158
86
177
151
81
174
148
78
168
140
71
165
134
66
166
135
64
161
130
60
159
126
57
161
126
55
165
128
58
160
126
50
162
127
51
161
124
53
156
119
50
156
120
58
119
89
48
66
38
19
62
39
22
61
37
25
60
37
24
59
38
25
59
39
26
60
38
25
61
38
24
61
38
23
56
27
23
44
10
18
45
12
21
44
13
21
45
12
21
45
12
21
45
10
20
46
11
20
46
12
21
44
12
20
44
13
21
212
249
163
212
250
159
211
249
158
215
247
155
219
249
160
220
251
167
222
249
168
215
249
160
209
248
145
207
247
140
208
246
145
202
199
140
161
99
92
157
78
83
152
71
79
147
64
76
147
58
70
145
53
68
144
51
69
142
50
66
139
45
63
139
45
63
141
44
63
141
44
63
141
45
62
131
48
65
93
32
54
88
35
59
87
36
55
88
42
56
89
45
58
96
50
63
98
53
64
105
66
74
115
91
90
170
188
150
164
201
149
117
175
134
88
164
137
80
157
137
58
127
112
49
111
103
42
102
98
40
97
99
38
94
95
37
91
94
35
86
91
30
84
87
28
84
89
29
82
90
28
81
90
31
81
90
33
81
84
34
79
84
60
74
69
101
89
65
107
92
68
94
80
57
87
78
60
65
58
45
39
46
44
29
48
52
26
51
54
34
57
60
40
68
65
53
101
78
178
211
155
218
251
181
220
250
182
219
250
184
218
250
182
219
251
183
216
251
184
224
244
177
207
204
140
189
173
99
186
165
94
180
157
85
177
151
79
175
149
78
169
141
71
164
133
67
161
130
63
158
126
57
159
125
56
159
125
53
164
128
54
162
128
53
158
121
50
155
117
48
151
112
46
148
114
58
94
66
36
68
41
22
67
39
24
60
37
24
59
37
24
59
38
25
60
38
25
61
37
25
62
37
24
62
36
22
52
21
18
43
8
17
44
11
20
44
12
20
45
12
21
45
12
21
44
11
20
45
12
21
45
12
21
45
12
21
44
13
21
216
230
163
218
237
166
216
242
165
217
244
163
220
247
165
220
249
170
219
248
166
213
249
157
208
248
146
206
248
139
204
246
140
199
198
136
160
98
91
155
76
82
152
70
78
149
63
72
148
57
68
146
52
69
143
51
69
142
50
67
139
43
62
138
44
62
140
45
63
141
44
63
141
44
63
134
51
68
92
34
53
88
35
59
86
35
57
89
43
59
91
48
63
87
68
76
85
88
87
79
109
104
80
131
122
79
147
130
81
153
136
76
155
139
70
148
134
65
140
126
62
136
126
59
129
121
56
122
113
48
114
106
43
103
99
36
85
84
30
67
71
22
56
65
23
60
71
26
68
80
26
75
86
28
79
90
28
79
88
28
78
88
30
77
84
36
73
77
38
72
73
37
73
70
44
69
66
67
70
59
72
64
50
74
69
52
38
49
53
30
55
60
38
64
60
49
89
70
179
214
151
216
250
174
218
250
169
217
250
166
217
250
165
218
250
173
218
249
179
222
237
170
202
188
123
190
172
97
185
164
94
179
154
84
175
149
76
173
146
73
169
140
68
164
134
64
162
132
62
160
129
58
162
129
57
165
131
59
167
131
58
166
132
57
164
128
54
156
119
49
154
117
50
144
112
59
78
51
27
68
39
23
67
37
25
63
36
25
62
36
25
60
38
25
61
37
26
61
37
25
64
35
23
62
33
23
48
14
16
43
10
18
44
12
21
44
13
21
45
12
21
45
12
21
45
12
21
45
12
21
45
12
21
45
12
21
45
12
21
197
151
126
198
161
131
202
174
138
205
186
142
207
199
144
210
211
150
209
223
148
211
230
146
211
235
147
213
244
152
207
244
148
201
201
138
160
96
90
155
74
81
152
68
78
149
61
73
148
55
69
147
53
70
143
52
69
142
50
67
140
45
63
139
44
62
140
43
60
140
44
61
142
46
63
136
53
70
92
35
52
87
35
58
82
40
63
76
72
80
79
114
112
67
131
124
60
128
118
55
117
113
45
111
109
42
109
105
42
107
102
43
104
102
43
104
102
43
106
103
44
108
106
44
110
108
46
116
109
52
122
115
54
129
120
59
132
124
59
129
123
54
114
112
39
79
86
21
48
63
20
52
65
25
63
77
28
73
86
26
75
86
26
76
84
29
74
85
31
75
83
30
76
82
30
76
82
29
75
79
45
68
65
61
65
54
41
52
52
26
53
59
35
62
60
67
99
73
198
232
160
217
251
168
218
251
163
219
249
154
217
249
159
217
251
164
217
248
166
216
225
153
196
180
110
187
168
95
185
162
94
181
156
86
176
149
78
171
144
71
170
142
67
170
140
65
164
134
59
164
133
58
166
133
59
166
133
58
164
131
53
164
131
51
164
131
52
158
124
52
162
127
58
128
98
54
69
41
24
67
39
25
64
38
25
62
36
24
64
36
25
61
37
25
61
36
25
59
37
23
64
37
24
58
29
21
46
10
17
45
8
18
44
11
20
44
12
20
45
12
21
45
12
21
45
12
21
45
12
21
44
11
20
44
11
20
44
11
20
182
118
114
184
121
115
186
122
114
185
120
112
185
120
111
182
123
110
179
131
110
180
141
113
183
154
118
188
170
124
192
186
126
193
165
126
160
90
90
154
71
81
154
65
79
150
59
76
150
55
73
147
52
70
144
52
69
141
50
67
139
46
64
141
44
62
143
43
60
142
46
62
142
49
65
141
58
75
90
41
55
74
71
76
68
110
108
67
126
123
49
113
110
31
89
94
29
83
92
30
84
96
29
84
97
31
83
95
30
84
94
31
84
93
30
83
92
29
83
90
30
83
91
30
83
91
29
83
86
28
81
85
25
81
83
25
86
84
32
98
95
45
118
113
55
128
124
52
118
117
36
82
85
22
51
65
22
56
72
25
71
83
23
75
87
25
75
87
23
74
87
24
74
88
23
75
88
24
76
86
26
74
82
32
72
76
26
58
61
24
52
59
32
61
61
117
147
110
197
231
155
213
246
161
218
249
163
221
249
160
216
249
157
213
249
154
214
244
149
208
210
134
192
176
102
186
166
94
181
158
89
177
152
83
174
148
78
170
142
71
172
143
67
173
144
65
168
138
60
170
137
59
172
137
61
167
132
55
164
133
52
164
133
51
162
130
50
158
125
50
161
128
60
103
73
40
63
35
24
67
37
26
68
37
25
65
37
26
67
37
27
62
36
25
62
36
26
59
37
22
63
37
24
53
24
19
45
8
18
46
7
18
43
9
18
42
11
19
45
12
21
44
12
21
45
12
21
45
12
21
45
11
21
45
10
20
43
10
20
128
86
86
136
90
89
143
94
92
150
97
94
156
99
99
161
103
102
165
102
101
165
101
98
166
98
96
164
91
90
162
91
87
167
93
95
162
81
89
156
69
81
156
63
80
150
57
75
147
54
72
146
51
69
143
49
66
142
48
65
139
45
63
140
43
63
144
44
63
145
46
66
139
50
68
125
62
75
81
107
108
69
135
128
47
107
106
33
86
90
30
81
89
29
80
91
29
80
94
31
80
95
29
81
93
31
80
91
30
81
90
28
82
92
27
82
92
29
80
88
29
79
86
29
79
86
28
78
85
27
77
85
29
76
85
26
75
83
24
76
83
23
77
85
27
82
89
34
90
93
38
96
98
33
76
84
18
46
61
20
53
68
24
70
84
21
74
86
21
74
86
20
74
86
19
74
85
20
74
84
22
75
85
22
76
84
24
76
79
29
71
70
59
113
102
88
151
128
115
175
138
159
201
144
204
238
165
214
247
165
212
250
158
213
249
156
216
239
151
202
194
122
190
171
100
182
164
92
176
154
83
171
147
78
171
145
76
172
144
73
169
140
68
167
137
60
166
134
57
166
132
54
167
132
55
167
132
57
165
131
55
163
130
53
160
126
48
161
125
53
148
116
59
76
46
23
61
33
19
65
35
22
69
37
22
68
36
23
66
36
25
63
36
26
63
36
26
64
37
21
65
36
24
49
16
16
46
9
20
45
8
18
43
9
19
43
12
20
44
12
20
44
10
19
43
10
19
44
12
20
45
11
22
44
10
21
41
11
21
112
75
77
114
74
75
115
73
75
114
72
75
113
69
73
114
71
74
117
71
73
119
72
73
125
73
77
132
74
79
137
73
79
152
82
90
158
79
87
153
68
80
152
62
77
147
56
73
144
52
70
142
53
69
137
50
65
136
50
65
134
49
65
136
46
64
136
45
63
139
46
66
117
70
78
85
120
117
76
141
135
92
127
111
101
109
86
61
85
83
30
79
85
29
78
87
28
78
87
27
81
88
27
79
86
25
79
84
28
78
83
27
78
86
26
77
86
29
77
86
28
77
85
26
75
84
25
75
86
26
76
86
25
74
85
24
75
86
21
75
85
21
74
87
21
75
87
21
74
87
23
71
86
22
71
83
24
66
78
18
48
63
19
54
72
22
70
84
21
72
83
23
73
81
22
72
81
22
71
79
21
74
81
21
75
83
21
76
80
25
80
79
30
87
85
32
95
91
39
104
93
61
128
105
96
156
119
165
211
152
202
241
157
208
246
154
215
224
148
196
181
113
187
170
98
180
159
89
173
150
80
169
146
76
170
144
75
168
140
69
168
139
66
167
138
60
166
134
57
162
130
52
161
130
52
163
130
54
162
127
51
157
123
46
159
123
49
162
126
55
124
96
47
65
37
22
63
36
20
66
37
17
70
39
19
68
38
19
65
36
22
62
35
23
61
37
25
66
38
22
64
31
22
45
10
16
44
9
18
45
8
18
44
10
19
43
12
20
44
11
20
46
11
21
44
10
19
43
11
20
42
10
20
38
12
21
37
11
20
118
72
76
116
70
74
115
70
74
113
69
74
114
67
73
109
64
71
105
62
68
102
59
64
100
56
61
98
54
58
97
48
55
127
63
73
155
76
87
150
65
81
147
61
74
145
57
70
139
54
72
128
55
74
108
50
65
92
54
65
81
59
68
78
61
71
73
60
73
69
58
71
58
86
85
65
125
122
114
135
109
187
175
112
197
175
106
133
122
83
46
71
71
28
75
84
25
77
85
23
77
86
24
76
85
21
78
83
24
77
84
26
76
85
26
76
86
24
75
87
22
74
86
23
74
86
23
73
88
23
73
86
23
73
87
23
73
88
22
72
88
22
72
87
22
71
86
22
71
83
23
71
82
22
71
81
21
71
80
22
67
78
20
57
71
18
60
72
23
71
81
21
72
81
23
71
81
23
71
80
19
73
81
19
73
81
22
74
80
23
74
76
23
73
75
24
75
75
27
82
77
30
93
84
40
106
91
74
143
115
130
184
127
193
228
152
202
203
131
192
172
104
186
167
97
178
156
87
175
151
78
173
149
76
171
145
73
168
138
66
168
138
64
169
140
59
167
135
56
164
132
56
160
129
52
161
129
52
159
123
47
156
119
45
162
127
50
158
126
58
98
71
34
63
35
20
65
37
18
67
38
18
69
39
18
70
40
20
66
37
21
63
37
20
58
38
21
66
39
22
56
23
17
46
6
17
43
8
17
44
9
19
44
9
19
45
11
20
44
11
20
44
10
20
44
11
21
42
12
22
40
12
21
39
10
20
39
10
20
116
74
85
116
74
85
114
72
81
117
73
81
115
68
78
111
66
73
108
63
70
109
61
68
106
58
64
101
53
59
95
49
55
121
58
68
154
76
89
150
65
80
143
62
75
125
70
75
92
83
85
64
79
88
42
74
84
34
78
85
28
71
78
28
68
78
26
69
83
29
71
84
32
75
84
32
71
76
152
143
101
197
176
103
163
141
87
166
146
89
92
80
52
43
70
71
26
75
86
24
74
88
24
72
86
22
75
86
25
74
86
23
72
87
24
73
88
23
72
87
22
72
85
22
71
84
24
70
86
23
70
86
23
70
86
22
71
84
22
70
81
22
71
82
23
72
82
23
71
82
24
72
82
21
72
81
20
72
80
21
70
79
20
68
78
19
65
76
21
67
78
21
72
81
22
72
81
22
71
81
21
71
80
20
71
81
21
73
80
23
74
78
24
75
78
24
75
76
26
75
75
26
81
76
30
91
83
31
100
89
70
137
118
127
165
126
181
176
123
186
170
99
185
162
94
178
155
87
175
151
78
174
149
75
171
142
69
169
137
62
170
139
61
169
140
58
167
136
54
166
134
54
167
135
57
163
129
53
158
122
50
159
123
47
163
129
50
150
120
61
79
52
26
67
38
21
68
39
19
68
39
19
69
42
20
71
43
20
68
41
19
63
38
15
61
38
16
68
38
22
53
16
15
48
8
20
45
10
19
44
9
18
45
9
19
44
9
19
44
11
20
43
10
19
44
10
21
40
10
21
37
11
20
38
11
20
37
11
20
101
65
75
99
65
73
100
66
74
103
66
76
105
66
75
107
65
74
110
64
75
114
66
77
111
63
73
108
60
71
101
54
65
121
60
73
154
77
92
147
67
78
111
84
90
79
111
111
43
92
96
31
80
90
30
78
89
28
75
89
29
75
86
30
73
85
26
65
79
21
52
65
26
50
63
29
52
67
101
93
72
171
151
93
166
144
85
147
125
77
100
79
46
65
71
65
25
73
86
23
72
86
24
71
85
23
72
85
23
70
85
23
71
86
23
71
86
23
71
85
24
71
83
22
72
81
21
71
82
23
71
87
20
71
84
21
71
80
19
71
77
21
70
80
21
70
79
21
70
81
21
69
80
21
68
79
21
69
78
21
68
78
20
69
79
19
68
78
20
69
80
19
69
79
20
70
79
21
70
79
20
67
76
19
67
76
20
71
79
23
72
80
23
73
79
23
74
79
25
76
78
28
83
81
51
115
107
37
97
94
38
97
90
73
131
112
135
147
108
182
166
101
183
160
93
183
156
88
176
151
77
171
143
69
169
137
64
169
136
61
168
136
58
168
136
56
166
135
52
166
135
49
169
136
53
166
132
50
161
125
48
161
125
50
164
131
56
133
104
56
69
41
22
69
38
21
70
39
20
68
39
18
69
41
19
70
42
19
68
41
18
65
39
18
63
37
16
65
31
19
51
9
15
49
8
19
45
10
20
44
10
18
45
9
19
44
8
19
45
10
20
44
10
20
43
10
21
40
10
20
37
11
20
38
12
21
36
10
19
114
83
81
107
74
77
103
69
75
99
66
71
96
63
68
94
60
66
96
56
67
97
54
67
96
53
65
98
52
67
95
52
66
117
61
75
150
80
91
115
89
94
73
118
119
35
88
92
29
79
89
27
79
86
29
77
83
27
74
87
28
73
86
26
61
77
19
46
65
21
41
60
25
37
58
35
43
53
101
89
63
125
105
64
138
116
67
94
70
40
89
72
52
46
67
65
22
72
82
22
72
83
23
72
82
24
72
81
23
72
80
23
72
78
23
72
77
23
72
76
22
73
77
21
72
80
21
70
80
29
80
86
33
89
94
33
85
92
19
65
76
20
66
79
20
67
79
19
66
79
19
67
79
19
68
79
20
67
78
19
68
78
18
66
78
18
66
78
18
68
79
17
68
78
18
67
74
20
67
76
21
66
74
18
61
69
21
66
76
20
68
78
21
71
78
21
71
78
20
73
78
23
75
78
32
98
91
59
130
120
38
94
90
39
97
91
86
131
108
155
149
103
177
156
93
178
152
83
172
146
75
168
138
69
165
133
63
166
133
61
166
132
58
167
132
55
168
135
53
169
137
52
164
132
49
163
130
49
164
128
49
164
129
52
164
134
66
103
76
39
67
39
20
69
38
20
70
39
21
70
39
19
70
39
18
70
40
18
67
40
19
63
36
19
64
37
21
59
22
19
48
6
17
49
7
18
48
10
19
47
12
18
45
10
19
44
8
19
45
8
19
44
10
20
42
9
20
39
10
20
37
11
20
38
12
21
38
12
21
166
187
113
155
167
109
144
145
101
135
123
95
124
101
90
114
85
81
109
72
74
103
62
71
96
54
66
92
50
63
86
46
59
106
59
70
116
96
101
72
113
117
35
85
92
29
78
86
27
79
86
36
88
92
43
92
95
41
84
96
22
52
72
17
37
61
18
36
60
24
36
61
28
38
59
88
84
63
159
140
89
139
115
75
95
72
45
81
65
43
51
65
62
24
69
77
22
73
78
22
73
78
22
72
77
22
72
76
21
72
77
23
72
80
23
71
80
22
72
79
25
71
78
33
90
91
48
120
115
52
131
125
46
117
117
29
86
91
19
69
79
18
67
79
18
67
79
18
68
79
18
68
79
17
68
79
16
67
79
16
67
79
17
66
78
17
64
76
16
66
78
17
67
77
18
66
73
18
62
69
20
66
75
20
64
73
20
60
71
21
67
77
20
70
77
20
70
76
19
71
80
23
70
78
22
79
80
48
122
115
59
133
127
37
89
89
47
100
94
105
135
108
165
152
94
176
151
78
171
143
72
167
137
66
164
131
60
162
129
57
163
129
55
163
128
51
165
131
50
169
137
52
164
132
49
161
128
48
165
129
50
166
131
54
150
121
62
74
48
21
68
39
19
69
38
20
70
39
21
70
39
20
69
38
18
70
39
20
68
40
19
65
36
20
67
37
21
54
17
13
47
6
14
49
8
16
50
9
18
49
10
18
45
10
19
44
10
20
44
7
18
44
9
19
41
9
20
38
10
20
37
11
20
37
11
20
38
12
21
178
234
102
182
234
110
182
232
115
179
223
116
177
210
115
172
196
116
164
180
115
154
160
107
140
139
96
128
120
90
115
96
81
92
85
82
81
124
122
40
96
93
41
102
97
54
119
116
55
125
124
43
108
109
29
79
85
20
55
69
19
39
63
18
37
62
20
36
62
23
35
58
26
38
57
72
67
59
139
122
80
128
108
71
94
78
49
60
62
53
23
69
77
20
70
77
21
71
78
22
71
78
22
69
77
23
67
76
23
68
76
21
68
79
20
71
81
24
75
80
40
107
104
53
138
132
48
135
128
36
107
106
20
72
80
17
66
76
18
66
76
17
67
76
17
69
77
17
66
79
16
64
79
16
63
80
16
63
79
15
63
75
15
64
74
16
64
75
16
64
74
19
65
75
20
64
75
19
59
67
21
65
73
18
66
73
16
59
65
20
62
67
18
67
68
19
67
69
18
70
75
18
71
77
28
89
91
43
119
114
65
153
145
56
127
121
33
89
88
65
116
109
128
138
99
172
150
81
174
145
74
171
139
67
166
131
59
166
131
58
166
135
55
165
130
50
166
130
48
169
136
50
166
135
50
165
132
51
165
130
53
166
135
61
125
96
53
67
35
14
71
38
20
69
38
20
70
39
21
70
39
21
68
38
18
67
39
17
66
38
17
69
37
20
69
35
25
52
13
12
50
7
14
52
8
17
51
11
19
49
12
19
47
10
19
46
8
20
45
7
22
44
6
21
43
9
21
37
11
20
38
8
19
40
9
19
40
10
20
173
235
99
179
237
105
184
239
112
185
240
111
182
238
104
179
237
106
180
235
107
181
233
108
180
227
110
176
218
112
154
191
118
90
139
120
58
124
117
60
130
122
57
132
123
41
104
104
24
83
90
22
73
84
19
52
69
20
39
63
21
37
63
20
39
64
19
37
62
21
37
59
33
40
55
71
65
49
101
82
53
108
83
55
80
72
55
43
67
66
21
68
78
21
67
77
20
67
78
21
67
78
22
67
78
23
67
78
21
66
77
19
67
75
22
74
80
48
116
113
56
141
133
51
131
126
28
91
92
18
69
75
16
59
71
16
63
73
21
63
75
15
61
71
15
64
73
17
64
72
17
64
72
17
63
75
17
63
76
16
63
71
14
60
69
15
63
71
16
63
72
17
62
73
16
62
72
15
59
66
18
60
69
14
63
72
17
62
71
17
54
63
21
66
70
17
72
73
18
65
71
20
68
75
33
94
95
61
144
137
67
163
152
69
157
148
42
103
99
36
93
87
88
128
110
150
139
86
170
140
73
169
135
66
166
130
59
166
133
56
168
138
56
166
135
51
166
134
49
167
136
49
167
136
51
166
134
51
167
133
52
160
128
62
96
66
34
66
33
15
69
36
17
70
39
21
70
39
21
70
39
21
68
37
18
65
37
15
64
36
15
70
37
20
61
25
19
50
9
14
51
6
18
50
6
17
46
7
17
44
9
15
44
8
16
44
6
18
45
7
19
45
7
20
44
8
20
38
9
19
40
9
20
41
9
20
40
10
20
145
217
88
152
221
85
159
226
93
166
231
100
169
232
96
169
232
94
170
232
93
171
232
96
172
231
96
173
229
97
119
176
108
69
142
131
63
138
129
49
120
113
26
85
85
26
75
85
24
73
85
19
57
73
18
40
64
21
37
63
21
38
64
20
39
64
19
39
61
22
37
59
71
68
59
168
149
96
137
115
67
85
70
44
33
67
64
21
69
78
20
66
78
21
66
78
20
67
81
21
67
80
21
68
80
22
68
80
21
67
78
22
67
74
45
108
108
57
142
134
52
128
123
29
84
87
18
67
76
18
62
72
17
57
65
18
65
68
18
60
67
17
62
73
17
64
74
16
63
69
17
64
71
16
63
73
16
62
71
16
60
66
16
61
69
16
64
71
17
64
72
18
62
73
16
63
73
16
62
70
15
55
66
17
63
74
21
71
80
17
53
65
19
56
64
43
107
106
28
83
86
19
64
71
22
74
78
44
116
112
66
158
149
66
162
152
64
139
133
31
87
83
55
109
101
114
130
97
163
139
72
167
136
64
166
132
56
166
133
54
168
137
55
167
136
52
166
135
49
165
135
48
167
137
51
167
135
51
166
134
52
144
113
56
75
44
21
69
37
19
69
38
18
68
38
20
66
36
18
68
39
19
64
37
16
63
37
15
64
37
15
68
35
21
54
15
14
50
6
16
51
6
20
48
6
17
45
8
17
44
9
17
44
9
18
45
8
18
46
7
19
45
7
19
44
9
21
40
10
18
40
10
18
40
10
21
40
15
28
106
193
76
111
196
72
125
206
87
135
212
93
139
214
91
140
213
84
147
216
82
147
218
85
153
217
85
145
200
94
81
149
117
67
144
135
38
106
102
27
80
85
28
75
85
25
72
84
22
67
78
17
43
63
20
39
63
19
38
63
21
38
64
19
36
62
21
35
56
24
34
55
50
50
49
109
91
52
93
75
45
74
70
54
27
66
72
22
67
78
20
68
78
18
68
77
19
67
81
19
67
81
18
69
80
20
68
78
19
68
76
35
94
95
56
139
132
46
128
121
23
81
83
16
65
74
16
62
72
15
57
67
18
63
69
22
71
74
21
66
72
16
63
75
16
64
74
15
62
70
16
63
74
16
64
75
16
62
70
15
58
65
18
68
74
22
77
82
17
68
75
16
63
73
15
64
73
16
62
73
15
55
67
16
59
72
22
72
81
24
68
76
17
46
57
41
105
104
43
115
112
19
65
70
19
66
72
21
79
81
53
135
128
58
148
140
58
142
133
47
112
104
31
83
79
73
119
101
144
133
82
164
131
62
169
136
59
169
136
57
167
135
53
165
132
49
164
132
49
165
134
50
167
136
51
167
135
51
164
133
59
114
84
40
65
35
15
67
40
19
66
38
18
67
38
20
65
36
18
64
36
16
64
37
16
62
37
15
64
38
15
65
31
20
53
10
15
52
6
17
52
7
19
48
6
16
45
8
16
44
8
17
44
8
18
45
9
18
44
8
18
42
10
21
41
10
22
38
13
24
43
20
34
50
29
47
49
32
52
84
180
83
85
180
79
96
187
87
101
190
84
104
191
81
104
189
74
108
189
69
111
194
77
117
190
76
89
156
103
72
144
132
41
103
100
27
79
88
27
75
86
24
74
86
21
73
86
21
63
78
17
38
61
18
36
60
17
36
60
17
33
60
17
32
59
19
35
56
23
48
64
42
58
66
80
69
54
75
74
63
35
64
66
20
67
76
21
67
78
20
67
77
17
69
78
18
66
80
17
65
79
16
68
78
18
67
76
22
76
82
50
129
123
51
135
128
27
86
88
17
65
74
15
63
72
17
61
69
17
60
66
24
72
77
34
84
91
18
65
72
15
62
74
15
63
73
15
62
70
16
63
74
16
64
74
17
61
70
16
63
69
27
93
93
49
124
122
24
81
86
26
83
89
17
65
75
15
61
71
17
58
70
15
57
70
16
64
74
23
73
80
17
45
58
28
77
80
51
130
124
26
79
82
19
57
65
19
65
71
25
89
88
52
125
122
32
101
97
55
122
116
31
80
81
52
102
97
105
116
83
157
129
62
163
135
58
166
133
54
162
129
48
165
129
47
168
132
49
167
134
50
167
134
50
167
133
49
153
120
57
84
51
25
67
37
19
68
39
18
68
39
18
68
39
21
64
36
17
63
34
15
65
37
16
64
37
16
69
40
20
61
25
17
51
7
17
51
6
17
50
6
16
48
6
16
45
8
16
45
9
18
44
8
18
43
8
18
41
10
20
44
18
31
52
28
42
54
37
55
55
41
63
51
37
63
44
32
58
74
158
128
76
162
117
83
169
112
87
173
102
92
179
94
91
177
84
90
176
78
88
176
76
86
162
83
74
150
125
47
112
106
28
80
84
27
75
85
25
73
82
21
71
79
23
70
82
24
55
72
18
35
59
20
35
61
19
36
61
19
36
62
20
38
64
18
38
60
21
56
69
21
56
67
18
36
55
24
60
74
19
67
75
18
67
77
18
68
79
19
68
78
17
67
76
16
64
78
16
64
77
15
64
75
21
67
76
35
100
100
55
141
136
32
100
99
17
65
74
15
62
72
16
62
73
16
59
68
19
66
69
48
108
111
25
78
85
16
62
72
16
63
73
16
65
74
18
68
76
17
64
73
16
63
73
17
67
73
30
89
92
50
130
125
52
142
135
39
113
112
44
118
118
19
68
77
14
61
71
17
58
70
15
55
67
16
62
73
24
74
82
19
56
66
13
46
58
41
105
106
35
93
95
18
58
65
18
59
66
17
69
71
38
99
95
24
81
83
40
100
98
38
95
93
32
85
84
78
123
97
145
127
69
164
132
57
166
133
55
166
134
50
171
137
51
173
139
52
171
137
51
168
134
50
167
135
54
132
102
48
71
34
16
71
37
19
69
38
18
69
38
18
66
37
17
61
35
16
62
35
17
65
37
18
64
35
14
71
40
21
56
18
16
51
7
19
49
7
19
46
6
15
47
7
13
46
7
19
45
8
18
44
11
23
49
19
36
59
33
55
60
39
62
58
40
59
51
36
57
44
31
55
42
30
56
41
32
56
45
118
131
49
123
134
52
127
133
51
129
127
57
135
125
62
142
120
69
150
112
74
153
106
70
140
102
67
137
127
29
84
85
27
78
84
23
74
84
27
69
80
27
63
73
21
48
64
20
37
58
18
36
60
18
38
63
18
37
62
16
34
60
18
38
63
18
41
62
21
62
74
18
54
65
18
37
55
17
51
66
19
66
79
18
67
78
18
67
77
17
65
75
16
64
74
16
64
75
15
63
75
17
66
75
19
70
75
53
130
124
44
121
118
20
72
78
17
65
72
17
64
71
17
61
71
19
62
71
41
103
100
43
110
110
17
69
78
17
65
75
20
75
82
32
95
98
33
91
98
16
65
72
17
65
72
41
108
107
48
126
123
64
154
147
63
160
151
63
154
148
43
118
118
18
66
76
14
60
71
16
58
70
15
53
66
16
60
71
22
73
81
19
60
70
15
38
54
17
60
68
22
70
76
18
59
65
17
50
59
17
62
67
25
76
76
19
72
76
17
70
71
47
103
101
20
70
71
60
116
99
122
122
76
164
133
55
168
137
53
173
142
53
173
139
50
175
141
52
174
139
53
167
134
50
162
131
58
102
74
33
67
33
18
72
40
20
70
39
19
67
37
17
63
34
18
63
35
21
63
34
19
63
35
15
65
37
15
66
34
20
51
11
16
49
7
18
48
8
19
43
6
15
45
9
18
49
13
29
52
23
40
56
32
52
57
36
60
54
35
63
46
31
55
46
30
49
45
30
52
41
28
53
41
30
55
40
33
56
38
94
108
35
94
107
34
94
109
34
97
115
31
100
118
33
102
119
37
106
119
42
107
114
65
134
119
49
116
107
28
80
80
27
74
79
26
68
75
20
52
65
19
42
61
21
38
64
22
39
64
19
39
63
19
38
62
18
33
59
19
33
59
18
35
59
21
52
68
21
66
77
20
61
73
18
39
58
20
36
57
15
51
67
20
64
74
17
64
73
15
63
73
17
64
74
16
61
72
17
62
73
19
68
75
33
93
90
56
137
130
30
92
95
16
64
73
16
63
71
16
62
70
16
59
66
27
80
83
55
136
129
26
92
94
19
74
81
29
92
94
48
132
131
53
134
134
21
80
86
15
66
73
20
72
77
55
135
132
51
134
131
69
164
154
74
170
160
63
160
149
37
105
104
18
64
75
13
56
67
15
58
69
15
53
65
14
58
69
25
74
83
17
63
69
17
41
54
13
44
54
17
60
68
16
58
68
22
46
55
16
49
59
15
61
64
15
63
64
14
62
64
24
72
75
32
75
80
32
88
82
99
120
92
162
137
59
168
141
55
170
141
52
169
137
48
170
137
48
168
133
48
165
133
49
151
122
59
79
50
21
66
35
20
71
40
23
70
39
20
66
35
17
62
33
16
64
33
20
63
32
18
59
34
17
68
39
19
61
26
17
49
7
16
48
7
15
44
8
18
47
17
33
55
28
48
56
34
55
56
34
58
50
31
57
44
29
55
43
30
54
42
30
51
45
31
53
44
30
53
42
28
54
41
29
55
40
29
55
74
147
105
66
136
107
58
125
107
50
116
108
43
108
110
37
99
107
32
92
107
26
86
102
64
132
128
40
105
101
26
77
79
28
66
73
21
43
57
21
38
58
22
38
63
21
38
64
22
39
65
20
38
63
18
35
59
16
32
56
18
35
57
16
39
56
22
64
76
19
67
77
19
65
76
17
50
64
17
33
54
18
34
56
18
41
58
16
54
66
17
58
69
17
57
70
17
57
70
18
59
71
22
67
74
50
120
116
46
125
119
16
69
77
16
63
73
16
61
71
14
61
69
19
66
72
51
128
123
60
155
145
34
109
108
44
123
120
62
157
148
62
162
154
44
117
117
17
68
75
16
64
72
33
89
92
58
138
134
50
132
130
67
164
155
66
166
155
59
153
143
24
85
86
17
60
73
14
53
67
15
59
71
15
52
64
17
55
65
16
63
72
15
62
68
14
45
55
11
37
47
16
55
63
15
57
65
33
56
63
32
45
55
15
57
61
14
58
62
15
60
64
17
59
66
18
53
63
21
66
66
73
110
90
154
134
65
165
139
53
166
136
51
168
135
49
164
131
45
164
130
46
165
135
54
129
100
50
69
37
16
67
36
20
68
38
21
68
36
18
67
36
18
61
33
14
64
33
17
65
33
19
60
33
16
70
40
21
55
20
18
53
18
32
53
23
38
52
26
43
63
39
59
57
36
61
47
29
55
43
28
52
42
30
53
40
29
52
42
30
52
41
29
49
43
31
52
42
30
53
41
29
54
41
29
54
41
29
54
82
169
75
81
170
78
78
168
81
78
166
88
74
160
93
72
153
98
67
144
103
57
126
100
65
134
121
39
103
98
29
70
76
23
55
67
21
37
55
21
39
60
17
39
62
21
39
63
21
38
64
19
35
60
18
32
57
21
37
59
19
32
51
18
40
54
18
67
77
18
69
78
20
66
77
20
63
75
16
49
64
18
34
55
18
34
54
13
36
53
14
36
54
16
36
55
15
37
56
16
40
58
27
67
74
57
135
133
32
100
99
16
65
74
16
63
73
15
63
72
17
64
71
39
100
100
68
163
152
68
172
159
66
164
157
71
168
159
71
170
159
64
155
147
26
89
89
15
64
71
18
63
71
38
99
99
46
123
120
46
130
127
57
142
139
44
124
122
47
128
123
17
68
73
18
58
71
15
50
62
14
59
66
15
50
59
15
43
55
15
57
66
15
58
65
13
50
57
10
33
46
16
50
58
15
56
61
23
54
58
61
63
70
12
46
54
14
55
63
15
56
64
16
51
61
12
35
49
18
53
57
42
90
81
142
131
71
170
142
54
166
134
51
168
132
49
159
126
42
161
130
45
159
130
54
96
67
30
67
35
18
69
38
20
69
38
20
69
38
20
68
37
19
63
34
16
64
32
17
65
33
21
66
36
17
69
42
30
66
39
54
63
38
62
57
34
58
55
36
58
52
33
55
48
32
52
42
29
49
42
31
51
42
31
50
43
31
51
44
30
51
43
30
49
40
31
51
40
30
53
40
29
53
42
30
53
43
30
53
83
172
67
80
170
66
80
169
67
81
171
72
75
171
71
76
170
71
79
168
78
80
162
85
64
136
113
44
112
104
25
67
69
22
60
68
21
38
53
21
39
58
18
38
61
19
38
61
21
36
59
16
33
57
17
39
58
19
38
57
18
33
55
16
40
61
18
66
78
19
67
80
18
66
78
16
61
74
17
63
73
14
54
66
16
39
57
17
33
53
18
33
54
19
33
54
18
33
55
19
37
60
40
95
97
56
139
134
22
78
84
15
64
74
16
63
73
16
64
73
22
71
76
57
138
131
74
173
161
73
178
166
70
174
165
67
162
155
64
162
153
46
134
129
21
73
79
16
63
67
22
57
63
36
92
93
30
97
97
46
119
120
27
95
97
31
92
97
30
90
95
14
63
71
16
57
67
13
46
59
12
54
64
21
52
60
24
38
52
15
54
63
16
57
63
15
49
58
12
32
47
12
45
54
14
56
62
14
53
61
72
72
77
22
39
46
15
52
59
13
47
56
11
34
46
15
29
46
14
38
50
32
80
77
116
117
72
173
146
57
170
140
52
166
132
48
162
130
46
164
133
51
142
113
50
72
41
18
67
36
18
69
38
20
68
37
19
66
36
18
68
37
19
68
36
20
67
36
20
67
35
20
70
41
20
60
38
36
50
31
49
49
29
53
48
26
52
49
31
53
51
33
53
46
31
50
43
29
48
43
31
51
42
30
50
44
31
50
45
32
51
42
29
51
39
30
53
39
29
53
39
28
50
41
29
51
44
30
53
121
174
124
110
169
108
98
165
94
94
167
87
85
166
73
83
169
72
83
173
72
82
170
75
66
140
99
63
136
125
26
76
75
27
64
73
19
39
54
19
36
55
21
33
58
21
35
58
16
40
60
17
50
66
20
57
69
18
50
62
17
37
58
16
38
61
20
64
78
19
66
79
17
67
78
17
58
72
22
61
74
17
63
73
17
60
71
18
51
66
15
41
58
14
36
54
15
36
56
16
43
62
58
127
125
46
126
121
20
73
81
17
62
73
16
63
73
17
67
75
33
90
92
69
163
152
74
175
165
72
173
165
62
153
151
30
105
106
49
132
129
34
104
106
17
64
72
18
59
65
59
68
77
25
64
73
19
68
76
25
77
81
18
65
75
16
64
74
17
61
73
14
58
73
14
56
71
12
44
58
13
50
61
33
57
63
51
53
60
13
49
59
15
56
62
15
50
59
14
31
46
12
40
52
15
52
59
14
52
60
62
62
68
55
52
62
13
34
46
11
31
45
10
30
43
13
29
45
11
32
43
24
66
70
87
99
67
169
139
58
172
140
51
169
136
49
165
133
46
164
134
54
113
83
37
65
34
19
68
38
20
69
38
20
68
37
19
67
36
18
70
39
20
70
39
20
70
39
20
68
39
18
71
45
24
54
33
40
45
30
50
48
29
50
48
26
51
49
31
53
51
31
52
48
30
51
45
29
50
42
29
51
41
29
51
43
31
52
43
30
49
41
30
51
40
29
53
41
29
53
40
27
50
39
28
49
39
29
50
140
166
170
142
168
168
149
173
169
147
176
161
138
173
147
127
171
135
114
167
117
100
163
100
83
147
96
70
142
123
58
127
118
36
88
90
22
60
71
24
49
66
23
48
66
20
53
68
23
60
77
23
65
78
20
60
71
17
47
60
17
35
54
17
35
55
21
61
74
19
67
77
16
68
78
19
63
76
17
51
65
19
62
73
16
64
74
15
62
72
16
61
72
19
59
71
21
61
73
30
82
89
60
144
140
40
110
109
18
68
75
16
60
70
17
60
70
18
65
74
39
107
105
72
169
160
73
175
166
66
161
157
36
103
107
17
73
80
41
105
108
24
81
87
15
63
71
30
56
63
78
79
83
18
57
65
17
59
70
17
59
69
15
58
70
15
59
70
16
57
71
15
56
72
13
57
70
14
44
55
13
47
57
39
56
61
70
62
70
13
42
56
14
55
64
15
49
60
13
31
47
12
34
48
12
34
47
11
34
46
45
44
52
80
69
74
14
28
45
12
27
45
11
27
44
12
27
43
13
29
40
15
52
59
66
90
71
160
129
55
166
135
47
169
136
48
166
136
47
155
127
54
85
55
24
66
34
19
69
38
20
68
37
19
68
37
19
67
36
18
69
39
20
68
38
20
68
38
20
68
39
18
68
43
30
48
30
43
48
29
51
48
28
49
45
26
48
49
32
52
47
30
50
46
30
52
43
29
53
41
30
52
42
30
52
43
31
52
42
30
51
41
30
52
40
28
55
40
27
52
41
27
49
39
26
52
35
27
51
69
119
136
86
127
147
108
144
163
124
155
169
136
157
172
144
163
178
149
167
177
144
161
166
123
147
143
111
141
140
86
134
133
63
116
116
30
74
80
33
68
79
29
69
77
25
70
75
20
68
77
19
62
73
22
60
73
18
42
60
20
34
55
16
34
54
17
55
68
21
67
77
16
70
78
19
66
77
17
49
63
16
48
62
19
60
72
17
62
72
16
63
73
17
63
73
20
69
79
47
112
115
56
149
143
33
98
98
17
67
74
14
57
66
15
59
68
16
58
67
36
101
102
70
163
155
69
160
152
44
110
111
18
67
76
17
64
74
23
74
82
15
64
74
15
60
70
66
71
76
73
72
75
13
58
67
15
57
69
15
57
69
16
58
70
16
58
70
15
57
70
15
57
70
14
56
66
13
42
52
11
44
53
42
55
60
84
71
79
11
36
50
13
47
59
10
36
51
13
26
44
12
30
46
13
30
46
15
30
45
36
35
44
91
76
79
21
28
45
13
26
46
11
27
49
12
27
46
9
29
41
13
50
57
55
87
73
149
121
53
169
137
48
172
138
49
172
142
56
139
111
53
73
39
18
67
34
17
66
34
17
68
37
19
69
38
20
70
39
21
68
37
19
65
34
16
63
33
15
66
36
19
60
36
36
47
31
49
46
29
50
43
27
48
42
28
47
45
32
50
43
30
49
44
31
51
42
29
53
42
30
53
41
29
51
41
29
51
42
30
52
39
28
50
40
29
53
40
27
48
40
26
44
38
25
50
34
26
51
21
83
103
19
85
104
23
90
109
32
96
116
44
102
123
67
114
135
91
128
151
106
135
156
115
142
161
128
148
166
136
153
170
130
145
160
132
117
128
111
66
78
94
53
66
65
87
90
46
119
113
31
87
92
22
58
71
18
35
55
21
34
55
15
35
54
13
47
61
18
64
74
16
65
74
20
67
77
19
60
69
12
41
56
13
40
57
16
54
66
15
59
70
16
64
74
22
75
83
55
131
131
53
150
142
24
85
88
18
67
74
15
56
65
17
60
69
15
51
62
28
83
88
56
139
133
45
114
110
17
55
64
15
60
70
15
61
71
15
60
71
14
60
70
21
58
70
95
85
89
57
62
65
12
59
70
15
57
69
15
58
69
15
57
70
15
57
70
14
57
69
15
56
67
15
54
63
14
40
51
9
40
50
46
56
61
94
77
83
8
29
44
9
35
50
12
29
47
11
24
42
10
29
46
9
31
47
17
29
45
31
33
42
96
77
80
34
34
48
13
26
44
10
27
44
12
26
41
12
38
49
15
53
61
47
82
70
143
120
56
172
139
49
173
140
49
172
141
60
111
81
39
70
35
18
69
35
16
67
33
16
68
36
18
70
38
21
69
37
19
67
35
18
65
32
15
61
30
12
64
35
24
55
32
43
45
29
51
43
29
51
40
26
48
41
30
48
43
31
49
42
31
49
44
32
52
41
30
54
41
30
53
42
30
53
42
30
52
41
29
51
38
26
48
40
28
49
40
27
45
39
26
42
37
26
46
35
28
49
106
125
144
84
110
127
59
92
111
41
83
102
26
79
99
20
79
100
19
81
105
24
87
111
34
95
118
42
99
124
57
104
128
78
105
125
142
110
126
157
71
86
137
60
75
83
122
118
53
140
130
29
87
91
20
55
68
18
33
54
18
35
55
17
34
54
14
41
57
18
62
73
15
62
75
17
63
77
17
63
73
16
55
67
12
38
55
13
35
54
11
41
57
14
48
63
28
76
84
59
145
142
53
146
140
18
77
83
16
64
74
15
54
63
15
59
66
13
46
59
19
64
74
24
80
83
19
67
70
12
45
58
14
60
70
16
62
72
17
62
73
14
61
69
32
59
69
106
91
93
43
57
59
14
59
67
15
57
69
15
59
70
15
57
71
15
57
71
13
57
68
14
57
65
15
53
61
14
36
45
10
36
46
56
59
64
101
80
83
6
25
41
9
30
44
10
27
42
9
23
42
12
28
50
10
29
51
14
28
46
31
32
44
104
84
82
42
40
49
16
27
42
34
34
46
14
25
39
10
34
47
13
53
60
39
77
71
134
118
57
173
137
48
174
143
53
158
128
58
79
45
18
70
35
16
70
36
16
67
34
14
66
34
17
68
37
20
66
33
16
68
33
16
68
32
14
63
33
16
59
35
32
52
29
50
46
29
51
40
29
53
40
28
52
42
30
50
43
30
50
43
30
49
41
29
48
41
30
53
41
30
54
42
30
54
42
30
52
40
27
48
40
27
47
42
26
45
39
26
44
35
25
42
35
25
42
34
26
43
137
140
158
138
143
163
133
140
159
127
140
159
119
137
155
107
130
147
87
113
132
69
97
117
51
88
108
32
80
101
21
73
94
18
62
76
120
83
96
157
72
84
129
74
81
70
135
128
55
137
129
24
82
86
21
53
68
19
34
55
15
35
54
15
33
53
16
36
55
16
57
69
17
63
74
16
62
76
16
63
73
17
62
72
17
55
67
15
39
57
15
33
53
17
38
57
33
85
91
63
157
151
51
137
134
18
71
79
15
62
72
14
55
66
14
57
67
12
42
56
16
58
69
17
62
70
15
56
62
12
43
57
15
59
70
16
60
71
16
59
72
15
60
68
44
58
65
110
93
94
38
58
59
15
56
65
16
56
68
14
56
68
15
57
65
14
56
64
13
56
63
14
53
62
15
48
56
25
37
48
16
33
46
65
63
69
101
83
84
9
27
43
13
31
47
12
28
44
10
23
44
13
26
46
13
28
45
17
29
45
36
33
44
115
92
88
56
45
48
77
63
64
107
89
91
15
25
38
9
30
46
15
51
61
30
70
70
126
118
63
173
140
53
172
144
59
126
98
45
67
32
12
69
34
15
70
35
16
68
35
16
67
35
17
67
36
18
66
33
16
69
34
17
68
34
14
64
35
21
53
30
37
48
28
54
47
27
53
41
28
53
42
28
53
43
30
51
43
30
50
44
31
50
43
31
50
41
29
53
42
30
54
42
30
54
42
29
51
41
26
45
41
26
45
40
26
45
37
25
42
32
22
39
38
27
44
39
29
46
149
149
170
153
153
174
150
150
171
142
145
165
136
141
162
133
137
159
130
139
160
134
142
162
129
140
160
121
136
155
110
125
144
92
107
124
132
97
112
155
75
86
122
81
87
70
144
137
53
135
129
21
74
82
20
55
68
18
36
53
16
35
54
14
35
54
17
34
54
17
51
65
16
62
73
16
63
74
16
63
73
16
62
72
17
61
72
18
58
70
13
46
60
17
42
59
48
107
108
65
161
154
48
127
124
17
69
76
16
61
70
14
56
66
15
55
65
10
38
50
16
57
69
16
59
69
13
47
57
11
42
55
13
55
67
14
57
68
15
57
70
14
57
67
57
61
66
112
92
93
32
54
60
14
47
57
11
43
56
12
43
59
13
43
60
12
43
56
12
43
52
12
36
49
19
36
46
48
49
59
18
33
47
75
68
72
105
84
85
10
26
44
14
29
47
15
27
45
12
23
41
16
27
44
16
31
45
19
28
43
64
48
55
134
102
101
120
92
89
137
104
101
129
99
95
25
29
41
12
28
45
14
50
60
24
64
64
117
113
70
172
143
51
165
137
61
94
65
29
67
33
16
69
34
15
70
35
16
71
36
17
71
37
18
69
35
16
70
35
16
69
34
16
68
35
16
63
38
28
48
29
43
44
28
49
44
27
51
45
25
52
47
25
53
43
28
51
43
30
50
44
30
49
46
32
52
43
29
52
41
30
54
41
29
51
41
27
47
41
26
45
39
25
44
37
25
44
35
24
43
32
20
40
48
35
57
41
28
50
148
150
172
156
157
179
165
167
187
159
165
184
150
155
177
141
145
168
128
133
155
115
118
139
115
119
139
128
133
155
135
138
162
137
140
162
162
126
143
157
80
90
113
89
91
69
150
141
51
129
125
21
71
81
20
55
68
17
38
54
17
32
54
12
35
53
16
35
54
14
44
59
17
61
72
16
63
73
16
63
73
16
63
73
16
63
73
16
63
73
17
62
72
17
60
71
60
132
128
63
162
154
41
113
112
16
67
74
16
59
68
15
55
65
15
52
63
9
35
47
16
55
68
16
55
67
14
39
51
13
39
54
14
51
65
11
41
57
14
51
65
15
54
64
77
70
73
109
89
90
26
43
54
10
32
46
13
31
46
13
30
47
12
28
52
12
29
50
12
30
45
14
30
45
31
34
43
65
61
68
18
30
46
85
72
73
107
83
83
12
26
43
14
29
45
19
27
43
17
24
39
22
28
40
39
34
42
89
67
70
139
103
106
151
109
107
155
114
110
168
136
128
183
158
149
29
31
41
15
29
45
14
48
59
20
61
62
107
109
72
169
143
56
152
124
64
76
44
19
68
34
18
70
35
16
70
35
16
71
36
17
70
35
16
69
34
15
67
32
13
68
33
14
67
34
19
58
36
35
45
28
46
44
28
48
44
27
48
50
24
53
48
25
53
43
27
51
42
29
49
44
32
50
44
32
52
41
30
52
40
30
52
40
27
47
40
26
45
37
27
44
38
26
44
42
30
50
45
33
53
40
27
47
43
30
50
36
23
43
102
131
152
126
148
171
140
157
180
132
146
167
122
132
152
124
131
151
142
144
166
155
156
177
157
158
177
156
155
176
152
151
174
143
142
163
159
125
140
157
80
91
102
97
95
70
153
143
46
121
118
20
70
80
19
58
70
15
43
56
14
32
52
14
32
52
14
35
54
12
37
54
18
57
70
16
63
73
15
63
73
16
63
73
15
63
73
15
63
72
16
64
74
19
72
79
67
151
144
63
161
151
31
97
98
15
66
71
16
59
67
15
56
66
15
48
59
10
33
45
16
51
64
12
42
56
10
28
43
12
33
51
12
33
55
12
28
53
12
32
52
12
36
49
102
83
85
102
82
83
19
33
48
12
30
49
13
30
51
13
30
53
12
29
53
11
28
49
14
30
46
17
30
47
46
39
45
79
66
72
21
30
45
96
76
77
109
83
86
16
25
43
17
29
45
28
28
42
35
26
36
71
50
55
126
95
96
149
107
105
160
112
108
173
136
126
199
163
152
207
179
166
189
165
156
19
21
34
13
26
44
12
46
56
16
60
62
96
104
74
168
143
64
123
94
53
70
35
17
70
36
18
72
37
18
70
35
16
70
35
16
70
35
16
70
35
16
70
34
16
69
34
15
69
37
24
52
32
41
47
28
51
48
25
51
48
25
48
49
25
52
46
25
51
41
26
47
41
29
48
44
32
49
42
31
50
40
30
50
41
29
49
41
28
47
43
29
47
41
29
47
41
27
46
41
28
47
41
28
48
39
27
45
38
25
43
36
23
41
23
87
111
31
92
113
41
101
123
45
99
123
68
112
132
104
134
156
126
146
169
142
153
178
149
158
179
157
164
181
159
164
183
151
151
169
162
135
147
156
83
95
96
107
104
71
156
147
43
113
112
19
70
79
19
60
71
15
47
60
12
33
51
17
32
53
16
34
54
12
35
53
14
46
61
16
61
72
16
63
73
16
63
73
16
63
73
15
63
71
17
64
75
28
87
90
66
157
150
59
155
146
22
85
86
15
64
70
15
58
66
15
54
64
13
44
52
11
31
43
16
42
58
12
32
47
12
26
44
10
30
51
10
31
52
11
28
54
14
30
51
15
28
43
117
92
94
96
75
76
16
31
45
12
29
48
13
30
50
14
31
50
11
29
49
14
29
46
16
30
43
19
26
44
84
65
68
87
67
72
31
31
43
111
87
84
106
81
83
31
30
41
55
41
49
105
79
80
153
129
123
172
144
136
172
137
128
187
145
136
202
152
146
199
146
142
198
140
138
199
147
142
169
137
135
10
20
35
11
27
46
11
45
53
15
57
61
84
99
75
158
130
70
88
57
28
71
36
18
69
34
14
71
36
17
70
35
16
72
37
18
71
36
17
70
34
17
70
34
17
70
35
15
68
37
31
49
31
49
49
29
53
49
25
53
48
25
49
44
26
47
41
24
46
41
26
45
38
25
43
37
25
42
38
25
43
39
26
44
41
28
46
43
30
48
40
27
45
38
25
43
40
27
45
40
27
46
38
26
46
37
25
44
38
25
43
35
22
40
58
92
112
36
78
101
21
72
96
18
72
96
20
77
98
26
83
108
36
88
114
52
99
124
70
111
133
91
127
146
107
135
155
116
127
151
142
120
135
151
83
95
91
118
112
72
157
148
40
106
106
18
71
79
18
62
72
16
51
63
12
34
53
16
29
51
16
34
54
11
36
53
12
37
55
15
57
68
14
61
71
15
61
71
14
61
71
15
61
70
16
66
76
37
100
102
63
159
153
55
150
144
21
80
86
15
62
71
15
56
67
15
53
61
11
41
48
13
31
43
14
31
50
14
28
45
12
26
43
11
31
52
10
31
51
11
29
52
14
29
50
23
29
42
127
100
101
89
70
73
16
31
45
13
29
44
13
30
46
13
31
46
13
30
46
17
31
44
18
31
41
28
27
37
125
95
98
80
57
63
48
37
45
143
112
107
135
99
96
127
90
91
129
91
88
169
135
125
213
183
172
191
163
153
199
167
158
191
149
144
159
108
110
154
77
88
171
74
91
177
88
101
142
89
96
7
23
36
11
26
46
11
43
53
13
52
56
69
95
76
122
97
60
68
34
17
70
35
16
69
34
15
70
35
16
69
34
15
71
36
17
71
36
17
69
34
16
69
34
16
75
40
22
62
34
39
49
31
57
49
31
53
48
26
52
46
24
46
43
24
43
42
25
44
40
25
44
36
23
41
41
29
46
44
31
49
41
28
46
40
27
45
40
27
45
40
27
45
39
26
44
38
25
43
35
22
42
34
23
43
35
24
43
37
24
42
37
24
42
158
165
185
137
150
168
117
133
150
96
115
133
77
98
116
57
83
102
40
72
93
24
67
90
17
68
91
17
72
95
20
75
95
26
70
90
100
83
99
139
83
93
88
131
126
71
159
149
37
104
103
18
72
79
17
66
75
18
55
68
11
37
54
15
28
49
16
32
53
11
35
53
13
35
53
15
45
60
16
59
70
16
60
71
15
59
70
15
60
71
16
67
72
40
102
101
60
158
151
52
145
140
20
74
80
15
61
70
14
56
65
14
52
59
10
37
49
13
30
46
14
29
48
15
28
45
12
25
45
10
31
53
12
30
53
12
29
47
13
30
43
40
38
46
133
103
100
83
66
68
16
31
42
13
30
43
14
30
45
19
27
46
20
28
46
20
28
46
35
29
47
87
65
70
153
110
109
142
108
103
144
109
104
184
140
135
166
122
116
152
107
102
159
118
109
200
170
157
185
165
147
180
157
142
177
151
141
92
68
70
45
16
22
92
35
50
125
42
63
157
56
79
123
58
71
8
25
36
11
26
47
12
42
52
13
49
57
47
84
73
75
56
37
64
33
13
69
36
17
71
36
17
71
36
16
69
35
15
69
35
16
70
35
16
68
34
15
71
35
15
72
41
26
53
31
43
47
29
55
47
31
51
47
28
49
44
23
43
43
23
43
44
24
44
46
26
46
47
32
50
45
33
50
42
29
47
40
27
45
40
27
45
41
28
46
41
27
46
40
27
47
37
25
45
31
22
44
31
23
43
33
25
43
39
28
45
36
24
41
158
162
182
161
166
185
157
162
181
157
161
181
154
158
180
149
155
177
140
147
168
119
130
150
96
113
133
73
96
116
49
76
98
26
59
80
94
69
89
131
88
98
89
150
142
72
162
151
34
103
101
19
73
80
18
68
77
16
58
69
14
45
60
16
30
51
15
29
50
12
32
51
11
36
53
13
36
54
16
54
67
16
60
71
15
59
70
15
59
70
16
65
71
42
102
101
58
154
146
52
141
134
19
68
74
15
59
66
14
52
61
16
50
59
10
33
47
11
28
50
12
29
52
13
28
43
11
26
42
11
30
49
14
29
48
16
29
46
18
30
45
51
45
55
119
91
94
68
54
58
21
30
43
20
29
44
22
30
44
28
27
41
42
34
42
85
63
67
130
93
96
155
112
111
171
126
117
210
171
160
175
131
122
196
158
146
184
149
134
189
155
141
199
167
155
196
169
155
201
179
168
109
91
88
56
38
44
36
22
30
31
15
25
26
10
19
76
26
40
148
54
78
110
48
59
15
24
35
11
26
46
10
41
51
13
48
56
34
75
70
58
43
32
66
34
15
68
35
16
70
35
17
71
35
18
70
34
17
69
35
16
68
34
16
69
33
14
73
38
18
66
37
34
48
29
49
46
29
51
49
31
51
46
27
47
44
25
44
45
26
45
44
25
45
42
23
43
41
25
44
40
26
45
40
27
45
41
28
46
41
28
46
41
28
46
41
27
46
40
26
46
39
26
46
33
23
44
33
24
42
34
26
42
38
27
44
36
23
41
126
126
153
124
127
152
125
129
151
137
141
162
156
158
181
163
162
184
161
163
181
156
160
178
156
161
181
153
157
179
139
145
167
120
127
147
127
109
131
112
112
113
78
163
151
70
163
151
36
104
102
20
70
79
18
69
77
17
61
71
15
48
62
13
34
53
13
30
51
15
32
51
11
31
51
12
31
52
9
39
56
15
55
69
15
59
71
15
59
70
16
64
71
40
101
100
59
153
143
53
136
130
17
63
69
16
58
66
15
52
61
16
49
58
11
30
45
12
29
53
12
29
53
14
28
43
13
26
41
12
29
44
17
29
45
19
30
44
21
31
45
47
38
50
94
71
71
76
62
63
66
54
60
78
58
62
96
70
71
122
88
89
147
108
107
161
117
113
168
122
115
179
133
123
196
162
147
215
184
167
185
148
133
221
193
175
227
200
179
226
197
179
195
169
154
195
171
158
108
90
86
36
13
42
38
18
49
102
92
101
123
114
122
56
48
55
42
19
27
104
48
59
105
65
60
21
25
34
11
26
44
9
39
50
12
47
53
31
70
65
57
45
34
66
35
15
69
36
17
69
35
18
69
33
18
69
33
16
68
33
14
67
35
15
68
33
12
72
39
20
58
32
42
46
29
52
44
28
48
50
29
50
48
28
49
44
29
48
39
25
43
39
26
44
40
28
45
40
28
45
41
28
46
41
28
46
41
28
46
41
28
46
40
28
46
40
27
46
37
24
44
38
26
46
37
25
45
37
25
43
35
24
42
36
25
43
35
23
41
82
94
125
93
106
132
107
118
142
123
130
153
146
149
172
154
154
175
156
155
175
156
157
177
151
152
174
151
152
173
143
149
168
141
142
163
132
127
145
90
143
136
75
165
154
70
161
149
39
103
103
24
69
80
18
68
77
17
64
73
16
55
64
12
40
56
13
33
51
11
30
44
13
29
47
11
31
50
9
33
51
12
40
57
15
55
68
16
58
70
16
63
72
35
98
97
54
151
140
51
134
127
16
56
65
16
56
66
15
52
63
14
47
56
13
30
43
14
28
49
15
28
46
18
28
43
18
26
43
19
30
43
22
29
41
35
33
43
70
57
63
117
86
89
155
116
110
181
148
139
156
119
112
158
115
109
162
118
112
154
108
103
171
121
115
196
158
148
215
183
170
221
192
178
226
202
187
225
201
185
221
195
180
226
204
188
227
204
183
218
191
174
195
170
157
114
92
89
49
22
53
47
22
82
50
30
83
130
121
128
182
175
180
116
111
116
85
41
51
154
70
85
125
90
69
21
26
35
10
26
41
10
40
50
12
47
54
28
64
63
58
45
36
67
34
15
69
36
17
69
35
17
69
34
16
70
35
16
69
35
14
66
35
14
66
33
11
66
37
27
50
27
44
45
28
50
47
28
50
51
29
52
46
27
49
39
26
46
39
26
44
40
27
45
40
27
45
39
26
44
41
28
46
41
28
46
41
28
46
40
27
45
40
27
45
40
27
46
37
24
44
35
23
43
34
24
43
36
24
44
34
22
42
35
23
43
33
22
42
23
81
111
35
82
110
61
96
123
98
122
146
117
130
154
124
136
160
128
136
159
142
144
166
139
140
162
130
131
152
125
131
151
124
133
152
86
125
128
75
159
149
70
162
151
62
149
138
50
122
119
19
62
72
19
66
76
18
65
74
16
58
67
17
48
62
12
35
51
14
31
45
12
28
44
11
31
44
10
32
45
10
33
49
10
36
52
13
48
61
16
54
65
34
91
92
52
147
137
50
134
127
14
51
61
15
54
64
16
52
63
16
47
54
16
32
43
20
30
45
36
35
47
60
49
57
76
59
63
100
76
76
123
94
92
143
109
106
155
117
113
161
117
114
167
125
116
201
168
155
182
142
132
187
146
138
190
152
144
178
143
134
170
129
117
209
180
163
228
206
188
227
207
190
229
205
189
229
205
191
228
204
189
228
204
190
228
203
185
223
195
180
161
132
125
117
100
115
91
73
111
63
36
110
57
39
101
139
132
140
209
206
207
166
163
164
122
72
78
164
90
94
138
105
70
26
28
35
10
26
41
8
39
49
12
46
52
27
60
58
54
44
34
68
34
15
69
36
17
69
36
17
70
35
16
69
34
14
67
36
15
67
34
14
73
39
20
57
32
36
47
28
47
47
28
50
48
27
50
49
26
50
44
25
47
40
25
45
37
23
42
39
24
43
38
24
42
37
24
42
40
27
45
40
27
45
40
27
45
41
27
45
40
26
45
38
25
45
35
23
44
34
23
43
33
23
43
34
22
42
33
20
40
34
22
42
32
20
40
20
79
112
21
83
114
23
89
121
25
89
122
29
86
119
38
87
115
52
85
110
64
83
109
73
90
112
88
102
122
97
113
135
89
114
130
73
147
141
64
152
142
58
145
136
59
146
136
61
139
133
31
81
84
16
54
67
18
61
74
15
61
71
18
53
67
12
42
59
12
30
50
13
28
48
10
28
45
11
29
45
13
30
49
13
28
50
10
32
48
11
37
53
33
79
82
52
143
133
49
135
127
14
51
62
14
49
60
16
53
60
23
46
52
85
71
73
117
90
89
133
102
100
144
109
108
150
112
111
157
115
112
159
117
112
161
121
113
168
130
121
185
148
140
200
169
158
210
182
169
201
171
159
199
169
158
204
177
165
217
192
179
219
192
175
227
200
183
230
205
188
230
207
189
230
206
188
227
206
190
227
206
189
228
205
188
228
204
187
223
196
180
145
120
115
195
178
196
149
127
164
74
47
117
62
50
107
144
138
142
215
211
208
183
175
176
168
114
118
174
118
113
147
116
70
32
31
34
10
26
42
9
40
48
12
43
46
24
51
51
50
37
29
68
33
13
71
36
17
70
36
17
69
34
17
70
34
17
67
35
15
71
35
15
72
40
28
51
30
42
47
28
52
48
24
50
50
26
52
48
24
49
42
23
44
40
23
42
39
22
41
38
23
42
35
21
40
34
22
39
39
26
44
38
26
44
36
24
42
39
26
45
38
27
46
34
24
44
31
21
44
34
22
46
33
21
42
31
19
37
28
17
35
32
21
41
31
21
40
12
49
73
12
53
78
13
61
85
15
69
95
20
77
109
22
84
115
22
84
118
22
83
117
20
80
110
21
78
105
29
78
99
60
127
126
61
146
140
33
102
102
28
92
93
56
133
126
56
134
127
57
128
124
27
70
78
13
45
62
16
51
65
16
50
65
16
48
62
13
32
53
12
29
52
13
30
50
11
28
45
14
27
45
17
28
47
14
31
46
13
33
51
25
64
70
52
139
131
50
137
129
16
55
65
17
44
58
19
53
60
30
43
47
152
120
120
168
125
122
169
125
121
172
123
121
174
124
120
166
121
117
161
125
120
176
147
137
189
165
152
194
170
156
190
168
153
211
189
173
220
195
180
203
176
163
198
172
160
209
186
172
225
205
186
229
207
188
230
207
189
230
207
189
230
207
189
228
207
190
228
205
189
228
205
188
227
202
185
219
192
176
104
80
82
125
107
137
75
53
96
58
38
101
78
77
115
159
161
158
218
214
207
198
172
173
192
142
140
183
144
128
156
128
76
40
35
33
11
26
40
10
42
46
17
39
43
17
39
42
52
33
24
66
31
12
70
35
16
69
35
16
69
35
15
69
34
15
69
35
13
74
37
19
65
36
34
48
29
49
49
27
51
48
24
50
49
25
51
47
24
49
41
22
43
39
22
41
38
23
42
36
23
41
35
22
40
37
24
41
39
26
44
39
25
43
37
23
42
38
26
45
34
24
43
32
24
42
31
22
43
32
20
42
30
18
39
29
17
35
35
25
43
39
30
49
33
25
44
14
45
73
13
46
67
13
46
65
13
46
67
12
48
69
13
53
72
14
57
79
16
62
89
17
69
97
21
80
106
37
106
117
61
149
141
38
111
110
20
76
84
19
73
80
27
85
87
47
116
114
52
127
121
50
117
114
27
67
74
15
37
56
14
36
55
13
31
49
13
30
51
12
31
52
12
31
51
13
30
49
17
29
46
16
26
43
16
26
43
15
31
49
18
47
58
50
134
125
49
140
131
23
66
73
19
38
53
20
51
60
31
44
48
194
159
156
207
157
152
200
140
139
197
130
134
191
131
132
170
126
126
156
127
125
144
122
117
130
113
105
123
105
99
108
91
84
146
127
118
161
138
129
198
169
160
221
193
180
213
189
171
229
205
187
229
207
188
229
207
189
229
207
188
229
207
188
228
206
190
229
205
189
227
205
188
226
202
185
208
181
167
144
123
126
67
63
103
66
74
112
58
57
109
147
170
181
194
211
202
220
214
202
203
164
159
205
164
153
188
158
136
159
131
72
43
41
32
9
26
39
12
39
47
25
37
39
20
37
41
53
33
25
68
33
14
70
35
16
69
35
15
69
34
13
69
32
12
72
33
12
74
39
22
55
31
40
47
28
50
49
29
50
48
27
50
48
25
51
46
25
48
40
22
42
38
23
42
38
25
43
38
24
43
39
26
44
41
28
46
41
28
46
40
27
45
39
26
45
37
26
44
34
25
43
33
24
43
32
21
41
32
20
38
33
21
39
35
24
41
37
28
47
35
27
46
31
22
40
11
44
69
11
46
67
13
46
66
12
44
65
11
46
66
12
45
64
12
45
65
14
46
64
13
48
64
12
53
67
57
132
129
63
153
141
25
98
96
20
72
81
17
69
78
16
71
78
18
74
80
33
93
94
42
107
106
43
100
102
21
52
64
16
33
51
14
31
51
13
31
51
13
33
52
13
31
51
12
29
49
14
30
45
19
30
47
21
27
46
18
27
45
14
30
46
50
125
122
46
140
128
31
82
82
15
33
47
23
48
58
35
40
49
177
115
121
191
107
115
176
87
101
149
73
86
100
48
55
49
21
26
44
21
30
42
18
40
38
15
40
37
16
42
39
16
40
41
18
29
62
35
40
79
51
48
173
146
137
219
195
178
229
206
188
229
207
189
230
208
190
230
207
189
229
206
188
229
206
189
228
205
189
228
206
190
228
204
188
220
194
180
207
190
185
100
119
140
111
157
189
92
114
154
120
124
130
211
216
209
216
196
186
207
167
156
215
182
165
191
163
140
156
127
67
49
43
36
11
22
39
13
38
46
34
35
31
21
38
39
53
32
23
67
32
13
70
35
16
69
35
14
70
34
12
72
34
13
74
33
14
67
37
28
48
28
44
47
28
49
48
29
50
47
28
49
48
27
51
48
26
49
43
22
45
41
24
44
39
26
44
39
26
44
42
29
47
41
28
46
41
28
46
40
27
45
38
27
44
34
25
41
34
25
43
33
23
42
34
22
43
37
26
43
35
25
42
31
24
40
32
24
43
32
23
42
30
21
37
14
50
70
12
48
69
13
46
69
12
45
67
12
47
67
12
46
68
12
48
69
12
48
69
12
48
68
13
49
69
52
123
120
63
154
144
35
108
107
19
70
78
17
68
77
17
69
78
18
68
79
17
69
76
19
71
77
26
80
83
39
83
86
40
73
80
26
55
67
14
42
57
12
38
53
16
33
52
18
34
53
18
33
49
18
31
47
21
31
46
20
32
47
18
32
48
49
106
106
48
136
128
39
95
96
14
33
47
20
42
54
34
39
52
154
62
83
169
56
82
129
46
66
76
28
40
54
31
39
132
125
129
154
145
162
55
33
86
45
20
85
41
19
84
43
17
78
38
10
49
129
107
115
126
103
105
103
80
76
206
182
171
229
205
188
229
207
189
230
207
189
229
206
188
229
206
188
229
206
189
228
205
190
228
206
190
228
205
189
226
202
185
220
204
189
148
140
144
90
106
125
89
91
106
188
181
181
217
209
202
209
179
168
216
183
167
218
190
170
189
164
139
164
130
59
120
101
54
35
34
34
15
39
47
44
34
31
22
37
36
56
31
22
64
30
11
68
33
14
69
34
13
70
34
12
72
32
12
74
33
17
58
33
37
46
28
50
47
27
52
48
28
53
47
28
49
46
26
51
46
26
51
45
27
51
44
28
50
40
27
45
40
27
45
42
29
47
39
26
44
40
27
45
39
26
44
35
23
41
33
24
39
35
26
44
35
24
45
35
23
43
35
23
40
34
21
39
33
21
39
34
24
42
32
23
40
29
21
36
116
129
149
91
109
128
66
86
106
46
71
93
28
63
82
16
55
76
11
51
72
12
49
71
12
51
72
12
53
71
30
86
90
60
143
137
45
122
117
16
70
76
16
66
75
17
66
76
15
65
74
16
65
74
16
65
75
15
65
72
16
63
67
25
64
70
39
82
88
47
93
98
48
92
97
34
61
70
24
35
52
26
33
51
29
31
50
27
34
48
25
34
49
23
36
52
39
86
87
53
136
130
44
108
108
13
33
47
16
35
49
28
34
49
135
49
72
111
35
54
49
16
26
73
62
69
86
73
81
185
179
186
193
189
211
87
64
130
77
49
122
47
27
114
54
32
113
57
31
94
109
92
100
192
174
174
189
167
160
166
142
131
226
203
185
229
206
188
229
206
188
228
205
187
229
206
188
230
205
190
229
206
192
228
206
189
229
206
189
225
204
185
219
204
188
218
208
201
190
184
181
206
197
193
210
204
198
188
172
164
215
189
175
218
193
174
216
194
173
189
166
142
168
132
56
158
123
56
63
49
30
26
37
39
48
34
27
28
38
34
57
30
18
63
29
11
66
31
12
69
33
13
70
34
12
73
32
12
72
35
24
52
30
43
47
26
52
48
26
53
49
27
54
48
25
51
45
26
51
45
28
51
46
27
49
44
26
47
39
25
44
38
25
43
40
27
45
39
26
44
38
26
43
37
24
42
39
27
48
41
28
47
37
24
44
34
21
42
34
21
43
35
22
43
35
22
42
35
22
42
34
23
44
31
23
39
28
21
37
164
168
186
161
167
186
155
160
181
140
149
173
116
130
156
92
110
134
68
89
112
41
70
91
22
57
79
14
52
71
16
55
66
54
120
118
51
129
123
18
74
77
16
63
71
16
63
73
16
63
73
15
63
73
15
63
73
16
63
73
16
63
72
18
63
72
17
61
68
17
61
68
19
60
67
27
57
63
40
55
60
75
71
71
105
92
90
81
72
72
48
41
48
42
38
47
108
119
115
59
132
120
52
118
115
16
39
51
18
30
46
25
31
47
67
27
44
40
15
28
76
63
70
157
148
153
109
99
103
96
84
115
99
86
136
69
43
117
60
36
96
48
27
106
51
32
110
68
46
118
103
90
101
219
212
209
220
206
196
221
199
183
229
206
188
230
207
189
230
207
189
229
206
188
229
206
188
230
204
189
230
205
191
229
205
189
229
206
189
226
204
184
224
205
183
221
203
188
201
184
174
200
184
173
207
188
175
216
196
180
219
196
182
220
193
176
218
192
172
191
165
141
170
135
58
140
106
50
67
36
22
46
29
21
48
33
25
30
37
34
59
29
16
63
28
11
66
30
12
67
32
11
71
34
12
74
35
16
63
32
27
47
26
46
48
25
49
49
24
50
48
24
49
43
25
47
42
27
48
42
30
50
42
29
49
41
27
47
38
25
43
39
26
44
38
25
43
34
21
39
39
26
45
43
29
50
42
28
47
39
26
44
36
23
42
36
23
44
35
22
43
35
21
43
34
21
42
35
22
42
34
22
44
32
22
39
28
20
36
141
148
168
145
150
173
146
150
174
143
147
173
144
149
176
142
150
175
138
147
170
128
142
165
114
129
153
95
109
134
70
86
109
52
87
99
53
127
122
25
85
86
17
63
69
16
63
73
16
62
73
16
63
73
15
63
73
15
63
73
16
63
74
16
62
73
17
62
70
19
63
69
23
62
70
35
62
68
123
117
110
212
193
177
225
200
184
223
201
186
197
176
164
155
138
129
192
184
173
70
129
116
57
123
119
25
52
59
20
30
44
23
28
43
47
27
43
33
7
27
153
140
146
207
204
202
156
147
148
52
28
82
55
37
113
47
31
107
34
16
72
49
36
97
56
44
111
88
81
130
120
113
120
225
224
219
228
222
209
228
212
192
230
210
191
232
207
191
230
207
190
228
207
189
229
206
189
230
204
190
229
203
190
229
203
189
228
204
187
227
204
184
228
203
182
224
200
182
226
198
182
223
200
181
220
200
179
219
199
178
220
195
180
219
193
176
218
191
174
189
164
140
172
139
70
115
79
42
72
33
18
65
31
14
42
30
24
36
36
29
58
29
14
65
30
12
67
32
12
66
31
12
70
32
12
76
40
23
56
30
37
47
25
50
47
26
50
48
28
49
44
26
45
39
26
43
40
28
46
44
28
50
43
27
48
39
25
44
37
25
43
38
24
43
36
22
43
41
27
46
47
31
51
42
25
47
40
26
45
39
26
45
34
24
43
33
23
44
35
21
43
35
23
38
34
21
39
34
21
39
34
22
41
33
22
39
29
20
37
118
125
154
123
129
158
126
130
161
135
140
169
143
148
176
145
151
177
149
157
180
149
160
182
149
159
183
143
149
175
135
135
165
116
124
150
73
108
116
36
94
94
15
57
64
16
59
70
14
60
70
15
62
72
16
63
73
15
63
73
15
63
73
17
62
73
17
62
70
22
62
69
29
62
70
59
70
71
197
180
169
204
179
165
222
194
181
228
203
186
228
204
185
224
204
185
215
194
180
112
139
129
57
129
119
31
67
69
20
30
45
21
29
44
48
24
35
61
12
27
161
149
152
224
220
218
201
194
192
61
45
70
67
53
120
59
70
125
61
89
127
77
106
149
88
104
149
158
182
195
192
211
204
228
230
222
229
223
209
227
212
192
229
209
190
233
208
191
228
208
190
226
207
189
230
205
190
230
204
191
229
203
190
229
204
190
227
204
187
228
205
184
229
200
181
228
197
182
224
198
182
222
200
181
219
201
180
219
198
177
221
193
179
220
191
174
216
191
175
192
165
144
158
128
76
79
43
18
67
31
14
64
31
15
36
32
27
47
31
20
62
31
12
67
32
14
66
31
12
66
30
12
72
34
14
70
39
29
50
28
45
47
26
53
42
26
49
41
28
47
40
28
45
40
29
48
39
29
51
44
28
51
42
24
46
38
22
41
42
25
44
51
35
57
55
39
62
46
31
52
43
28
47
37
23
43
35
24
43
33
23
43
33
23
42
32
21
40
34
22
39
34
22
37
35
22
39
35
22
39
35
21
39
33
22
39
27
20
37
120
127
161
118
124
158
125
129
164
137
141
175
138
144
175
141
146
176
143
150
177
147
156
179
147
154
178
141
145
171
132
134
162
123
125
154
105
105
126
71
93
98
21
52
60
15
43
59
16
56
69
16
60
72
16
61
72
15
60
71
14
61
71
15
60
70
16
61
68
23
61
69
33
58
66
114
108
101
211
187
173
171
131
124
160
120
114
182
151
141
213
188
174
225
202
185
223
202
182
150
152
142
61
134
118
36
82
81
18
30
48
20
30
44
91
37
53
167
62
85
139
71
85
196
181
184
220
215
209
150
143
141
68
56
104
105
135
179
110
170
196
113
164
198
102
124
158
150
165
170
213
228
221
230
229
224
226
218
204
230
211
192
231
209
190
231
206
189
228
208
189
228
208
190
229
206
190
230
204
191
229
203
190
228
205
190
228
205
187
229
204
184
226
199
181
224
198
181
221
197
181
220
198
181
218
201
182
219
198
179
221
194
179
218
191
173
219
190
175
191
165
145
117
90
57
65
30
12
66
28
13
55
31
17
35
30
25
59
30
18
67
33
11
69
35
15
68
33
14
68
31
12
77
41
19
59
33
31
47
29
46
45
26
48
41
26
46
41
26
46
43
26
45
41
27
45
42
27
47
46
29
52
48
31
52
50
30
50
46
28
47
44
28
49
45
29
51
50
35
55
38
25
43
32
21
40
31
24
42
32
22
41
33
21
41
34
21
38
31
22
35
33
22
38
34
22
39
35
22
39
36
21
39
33
22
39
25
20
35
103
109
141
112
118
151
120
125
158
123
129
161
123
132
163
134
139
171
129
136
167
129
138
167
134
140
169
137
143
171
132
138
165
131
135
158
137
130
147
129
112
121
57
64
70
14
34
48
14
40
57
16
52
66
14
58
69
15
58
71
17
58
72
17
58
70
19
57
66
21
50
60
31
43
54
151
136
128
219
193
177
179
143
134
164
120
114
157
113
105
165
129
118
188
157
145
227
200
184
184
172
160
78
134
120
42
96
95
20
33
48
25
28
41
81
42
54
186
93
106
196
89
107
187
94
112
208
166
169
220
210
207
166
156
158
84
89
107
86
111
133
82
100
120
109
105
114
197
195
192
227
228
219
228
221
211
227
212
195
230
210
191
232
208
190
229
208
189
228
207
189
229
207
189
229
206
189
230
203
192
230
204
192
229
204
189
227
203
186
227
200
184
224
200
182
222
199
181
204
172
159
197
163
151
218
192
177
218
197
179
221
194
176
217
191
173
218
189
173
188
162
146
85
56
39
66
30
13
65
26
12
49
24
14
53
27
20
63
28
14
67
32
13
69
34
14
69
33
14
70
33
13
71
41
25
44
26
36
45
29
48
42
26
45
40
27
46
39
26
46
39
22
44
44
26
47
50
30
53
53
33
55
47
28
50
42
24
46
37
22
41
37
24
42
40
27
45
46
31
49
34
22
39
30
20
37
32
22
39
33
21
38
34
21
39
35
23
38
33
21
38
32
21
38
33
21
37
34
21
38
35
21
38
31
22
38
25
20
34
114
119
151
122
128
160
118
124
156
117
123
155
122
128
160
127
132
165
125
133
164
120
128
159
125
132
163
134
140
172
133
140
169
149
151
167
174
173
180
161
154
153
127
120
125
65
65
72
18
32
48
12
34
51
11
41
57
14
43
58
16
44
58
12
40
51
14
33
46
23
33
46
35
36
50
165
148
140
215
192
175
213
190
177
209
183
171
192
159
148
150
107
98
170
124
117
168
137
125
215
197
181
101
130
115
56
116
111
25
39
49
30
28
41
68
49
58
188
142
137
214
151
146
211
134
135
204
126
132
206
167
165
219
207
201
205
198
194
182
178
174
193
186
182
218
212
202
218
210
198
224
213
197
225
213
193
229
211
188
233
208
189
232
206
189
228
208
188
227
206
189
229
205
191
229
205
190
229
203
191
230
203
192
230
203
189
229
202
185
227
201
183
223
200
182
221
198
180
178
142
131
178
136
126
217
187
174
220
194
178
219
193
174
217
191
173
216
189
173
181
156
141
78
47
31
65
28
12
63
27
12
61
29
12
65
27
13
64
29
13
69
33
13
71
33
11
68
31
11
70
35
15
60
33
30
37
23
39
44
30
48
43
29
47
41
27
47
41
25
46
47
28
50
47
29
51
45
25
47
46
26
47
41
23
43
37
23
41
36
23
41
37
24
42
37
24
42
37
26
43
33
20
37
32
21
36
33
21
36
35
22
38
35
23
36
33
22
35
32
22
39
33
22
39
33
20
37
33
20
37
35
21
38
30
22
37
25
20
33
139
145
177
133
139
171
128
136
167
124
131
163
122
127
159
118
122
155
123
127
160
124
130
163
126
132
165
131
137
170
129
135
163
151
150
166
172
170
172
161
155
154
150
139
142
131
124
130
75
75
81
18
30
46
11
32
48
12
33
47
14
35
46
14
35
42
16
31
43
24
31
47
33
36
47
161
145
137
216
191
174
207
183
168
229
204
189
214
184
172
145
105
99
172
124
119
162
126
117
218
199
180
159
160
145
66
126
116
31
52
55
30
32
43
50
39
48
175
152
145
224
194
176
226
188
174
225
182
173
221
179
170
216
185
176
212
191
180
209
197
185
210
196
184
216
198
184
223
202
185
230
207
190
230
210
190
231
210
190
231
208
190
230
208
190
228
208
190
229
206
190
230
204
191
230
204
191
230
204
189
230
204
189
230
204
187
230
203
186
227
201
183
221
199
181
211
184
167
166
126
116
192
155
144
220
188
175
219
191
175
217
191
174
217
190
173
212
189
171
169
146
130
74
38
21
66
30
12
66
28
11
68
29
12
68
29
11
68
31
11
70
34
12
73
33
11
71
32
14
72
36
19
49
26
37
36
22
37
40
23
41
45
26
46
46
25
47
44
25
47
42
24
46
39
22
43
39
22
42
42
24
44
39
24
43
35
22
40
34
21
40
35
22
40
33
20
39
36
24
41
33
21
38
31
18
35
34
21
37
35
22
39
32
22
37
27
22
36
28
23
38
32
22
39
30
20
37
30
21
37
31
21
38
28
19
36
27
18
34
130
136
168
125
131
163
132
139
171
125
131
163
124
127
160
122
124
157
125
128
161
122
126
161
125
131
165
120
126
159
119
125
158
130
132
157
141
137
151
133
126
135
122
111
117
122
110
112
122
113
114
92
86
89
49
51
59
15
32
46
12
31
46
10
30
45
14
30
43
21
31
46
30
35
45
121
109
108
221
198
186
212
186
171
210
184
170
220
189
178
150
112
106
169
122
118
164
127
119
222
199
181
203
188
172
86
128
112
47
82
80
32
31
43
42
32
40
136
118
116
225
201
185
232
205
190
232
206
191
231
205
190
230
204
189
231
209
192
229
209
193
228
209
192
228
209
190
233
209
191
234
206
190
230
207
189
229
208
189
230
208
190
229
208
191
229
208
191
229
206
191
229
204
191
229
204
191
230
203
191
230
204
186
229
203
185
229
202
185
228
201
184
223
199
181
215
190
173
203
174
159
221
193
178
220
194
179
217
191
174
216
190
173
218
190
174
211
186
169
140
116
102
71
33
15
67
32
13
69
30
13
69
30
13
68
30
12
67
31
12
69
33
14
71
32
12
73
34
17
64
36
24
40
23
39
38
22
39
39
26
43
42
26
45
40
21
41
40
21
41
39
23
42
40
23
42
40
23
41
40
23
42
37
23
41
34
23
39
34
21
39
33
20
37
30
18
36
34
22
40
33
22
39
31
19
36
35
21
38
34
21
38
30
20
36
25
21
35
26
20
36
30
22
38
29
20
37
27
19
35
25
17
34
27
17
34
28
17
34
125
130
162
125
131
163
131
136
169
126
131
163
124
128
161
128
131
164
127
130
163
121
126
159
124
130
163
120
125
159
114
120
157
114
119
151
124
121
146
111
102
121
95
85
98
90
83
94
96
87
96
104
98
101
103
96
102
72
73
79
21
36
46
10
34
46
15
33
46
20
32
47
26
31
44
46
41
52
150
132
127
221
197
185
223
199
182
224
194
179
163
127
117
163
117
113
167
123
117
207
178
165
220
195
179
136
145
129
68
110
104
33
36
47
41
33
40
77
59
60
215
192
181
232
206
192
234
209
192
234
209
193
232
209
191
230
211
190
231
210
191
231
209
190
229
211
189
232
210
190
231
208
189
229
209
189
228
207
188
230
207
189
229
207
190
229
207
191
229
207
191
229
206
191
229
205
191
230
204
192
228
204
184
229
203
182
227
200
183
226
200
183
222
198
180
220
198
179
222
198
179
222
196
179
219
194
176
217
193
174
217
191
173
215
189
172
204
177
160
88
58
46
69
31
14
65
30
11
66
29
11
68
30
13
67
31
13
66
31
12
68
33
14
69
30
14
72
35
19
47
25
25
38
24
42
40
26
45
39
27
45
39
27
45
39
22
39
38
20
38
37
21
37
41
23
39
42
24
41
40
24
40
35
22
38
35
22
39
33
21
37
33
20
35
27
17
34
32
22
40
32
21
38
33
21
37
34
21
37
34
22
38
31
20
37
26
19
34
27
19
35
28
19
35
24
16
31
23
16
32
27
19
36
30
20
37
30
18
35
118
118
151
115
115
148
128
127
162
133
137
169
131
143
173
135
143
174
132
139
171
132
139
171
128
134
166
124
130
163
116
122
156
118
124
153
132
132
155
131
121
139
118
107
120
103
92
105
97
85
95
88
78
84
82
75
80
78
76
80
56
97
98
32
90
88
14
49
58
17
47
56
20
32
46
28
33
47
44
41
49
127
114
111
203
184
173
225
201
183
197
165
152
153
110
104
166
120
115
163
120
114
169
133
121
182
165
154
127
132
123
60
62
65
52
40
47
71
47
51
178
156
148
229
206
189
229
209
190
228
211
191
228
209
190
228
211
191
233
208
191
231
209
191
231
211
192
235
209
189
231
207
189
228
208
190
228
207
188
230
208
189
228
205
189
229
206
190
229
206
190
229
206
190
229
206
190
230
205
190
226
204
184
228
204
180
227
200
181
226
199
182
221
199
181
220
199
180
221
199
177
223
196
179
219
194
173
218
193
172
217
192
174
213
187
171
152
125
111
67
29
9
67
30
12
63
29
10
65
28
10
67
30
12
67
31
13
66
31
12
69
33
15
72
34
15
68
36
24
39
25
36
39
27
44
40
25
44
41
25
44
40
24
42
40
23
37
39
21
35
37
19
33
38
21
32
36
21
34
35
22
36
35
22
40
34
22
41
32
21
38
31
22
35
26
18
36
30
21
40
32
22
39
34
22
36
33
20
37
33
22
39
29
18
35
28
17
34
29
18
35
31
20
37
27
16
33
28
22
37
28
21
37
28
19
36
30
19
36
112
120
151
107
115
146
119
126
157
138
145
177
153
161
193
152
159
190
143
149
181
133
139
170
128
134
166
133
139
171
133
138
168
126
132
158
121
122
145
112
103
123
111
100
114
109
96
104
118
106
106
118
104
108
105
93
100
97
89
95
58
104
102
40
121
113
19
65
67
17
60
66
14
36
50
19
33
46
26
34
49
31
33
49
83
75
77
168
153
143
215
194
179
200
171
154
166
133
124
157
116
110
163
124
114
212
187
171
215
196
180
167
150
142
81
62
59
126
103
104
122
102
94
223
202
185
231
207
189
230
210
191
233
208
190
232
208
190
231
209
190
231
211
192
233
210
192
234
208
189
232
208
189
229
209
190
229
208
189
229
207
188
228
205
189
229
206
190
228
205
189
228
205
189
228
205
189
229
204
190
226
203
183
227
203
179
227
200
180
227
201
183
222
199
181
221
197
179
219
197
178
223
194
181
218
191
173
217
191
170
213
190
171
188
165
149
89
61
48
71
31
15
66
28
11
65
29
11
66
29
11
67
30
12
67
30
12
65
30
11
67
32
13
70
36
15
56
30
27
40
27
43
40
27
45
40
25
45
41
25
44
40
23
41
39
21
36
39
21
35
39
21
35
36
20
35
33
22
38
33
22
39
34
21
41
35
21
43
33
22
39
31
21
34
26
16
35
31
20
40
33
21
39
32
20
35
32
19
36
30
19
36
29
18
35
31
20
37
38
27
44
36
25
42
29
17
36
31
22
39
28
20
37
27
17
34
27
16
33
117
123
155
116
122
154
126
133
164
148
155
184
151
158
188
146
151
181
145
150
179
146
153
181
140
145
175
134
138
169
127
130
161
126
127
152
152
148
160
135
129
139
115
108
118
103
95
103
108
100
105
117
106
109
114
100
105
109
99
106
71
100
99
43
131
121
20
72
72
16
62
69
16
41
57
18
29
46
21
31
46
25
32
49
32
33
44
40
37
41
117
104
100
198
175
165
224
197
182
219
194
176
211
188
169
227
204
187
217
198
178
226
202
183
208
186
172
195
171
160
169
144
134
202
178
164
229
207
189
229
211
191
229
211
191
229
209
190
231
208
189
234
208
191
235
208
191
233
206
189
229
207
189
230
208
190
230
207
191
228
207
190
228
207
190
228
207
190
228
206
190
228
205
190
228
205
188
228
202
185
227
200
183
226
199
181
224
198
181
221
200
181
221
198
180
223
196
178
220
194
177
221
193
177
219
190
172
216
190
172
207
182
167
124
97
88
71
32
15
69
32
13
67
31
12
63
30
10
64
31
12
63
30
10
62
30
10
63
29
10
65
30
11
65
34
18
44
25
34
40
26
43
40
28
45
40
29
46
40
27
46
39
24
40
37
22
35
36
22
34
36
23
34
36
22
37
32
21
35
32
19
35
34
21
38
34
21
38
34
20
36
30
19
34
26
17
31
31
21
37
32
21
38
32
20
35
30
20
36
29
17
37
32
20
40
31
20
39
29
20
35
24
16
30
27
17
33
30
19
36
28
18
36
26
17
34
25
16
32
135
141
173
131
137
169
138
145
175
134
141
170
126
133
162
123
129
158
122
127
156
126
132
160
109
114
145
102
106
140
104
107
143
118
118
144
149
144
153
141
133
137
135
125
127
131
119
123
127
115
119
120
109
114
114
102
110
104
97
104
78
95
97
47
131
123
25
84
83
16
63
70
17
53
66
17
30
47
20
30
47
20
30
46
22
26
40
27
33
44
33
35
43
71
63
64
143
129
120
211
191
177
225
203
185
215
191
174
193
168
141
219
191
171
227
200
184
228
203
188
226
200
186
221
195
180
232
206
189
232
209
191
227
212
191
230
209
190
233
206
190
235
207
190
232
206
189
229
207
189
229
208
189
230
207
190
230
207
191
230
208
192
229
207
191
229
206
190
228
205
189
228
205
188
227
205
186
228
201
184
227
199
183
223
197
182
223
196
182
222
187
175
223
191
177
225
195
180
223
194
180
219
191
175
218
191
172
214
187
171
143
119
106
69
32
13
68
30
13
65
31
13
63
30
12
62
29
12
62
29
11
62
29
11
62
29
11
64
28
9
65
33
14
56
29
25
42
24
40
41
25
43
40
26
45
40
28
46
40
27
46
39
24
40
35
22
36
33
22
35
33
22
36
34
22
39
34
21
38
33
18
35
33
20
37
33
21
37
31
22
33
28
20
30
23
15
28
28
18
33
30
18
35
32
21
36
32
22
40
33
21
41
30
18
38
28
17
36
24
16
31
25
17
27
27
16
32
29
18
35
28
17
34
28
17
34
26
16
33
143
150
178
141
147
176
144
150
178
140
147
174
134
140
168
124
129
158
107
112
142
97
102
133
93
96
129
101
105
139
109
116
148
112
117
147
109
110
136
101
99
115
96
90
96
101
90
98
107
95
103
111
101
105
119
108
111
123
116
120
115
117
122
47
126
119
33
102
99
16
65
72
14
60
71
13
39
53
14
30
46
14
29
44
17
25
41
20
28
44
24
31
47
31
32
47
40
37
46
93
78
78
162
143
135
171
151
125
178
154
107
152
115
93
167
131
119
220
194
179
229
205
189
231
207
190
235
208
191
233
207
190
234
208
191
235
208
191
235
207
191
234
206
189
231
205
188
229
208
189
228
208
188
230
207
190
230
207
191
231
208
192
228
204
189
228
204
189
228
205
189
228
206
186
227
205
184
227
200
182
224
194
180
218
168
162
204
131
133
186
113
115
222
183
173
224
195
182
220
191
177
217
190
174
215
189
171
176
149
132
81
50
35
67
31
12
64
28
11
61
28
13
62
29
14
64
28
13
60
28
13
61
29
13
61
29
11
65
30
10
65
32
20
48
26
34
42
25
43
41
25
43
41
26
44
41
26
43
40
26
43
39
23
40
34
22
38
33
22
37
32
23
38
34
22
38
34
21
39
36
21
38
35
22
38
32
21
37
27
20
36
24
16
31
22
14
27
25
16
31
29
17
34
32
20
39
32
20
40
29
17
36
29
17
37
28
18
36
26
17
32
24
17
26
25
16
30
28
18
35
29
18
35
28
17
34
25
14
31
139
146
169
142
146
170
143
147
170
135
141
165
130
135
162
122
126
156
110
112
144
90
92
126
89
93
125
104
108
141
112
118
150
116
122
154
108
113
149
90
96
129
74
80
108
76
81
106
77
78
101
80
77
95
90
83
97
107
97
108
109
109
116
53
120
114
37
117
112
16
69
76
17
64
74
14
51
61
12
32
49
12
29
46
14
26
41
14
26
40
19
29
44
22
29
42
27
33
42
63
52
68
108
92
89
201
190
134
229
215
142
174
141
99
170
123
114
174
138
127
224
195
181
229
206
189
232
207
190
234
206
190
234
206
192
235
206
192
236
207
193
233
207
190
231
205
188
230
207
189
229
208
189
230
207
190
230
207
191
230
206
191
229
203
190
230
203
191
228
205
189
227
206
186
227
205
182
224
200
182
204
161
152
195
115
121
198
91
105
210
141
140
222
192
178
221
195
180
218
193
176
216
190
171
198
171
148
116
84
60
70
33
16
65
28
14
60
26
12
60
28
14
61
28
16
62
28
13
62
29
15
59
27
12
60
28
10
64
30
12
56
27
26
39
23
36
40
25
41
41
25
43
41
25
42
41
24
40
40
23
36
37
22
39
34
23
39
35
22
37
34
23
38
36
23
39
35
22
40
35
22
39
33
21
37
29
16
34
26
16
33
24
15
29
25
17
30
28
19
35
29
19
37
28
18
35
28
17
34
29
18
35
29
19
36
28
19
36
28
19
36
26
18
31
24
16
29
28
20
34
27
18
34
27
16
33
25
14
31
136
141
165
130
132
157
128
129
154
124
125
152
120
121
149
108
111
140
98
100
132
95
99
131
101
106
138
108
113
145
105
111
143
100
106
138
106
113
145
105
114
145
97
107
137
94
103
136
87
93
126
87
92
125
91
98
126
87
96
119
77
85
101
51
114
110
36
125
117
17
74
79
18
66
75
16
61
69
11
37
51
11
29
45
12
29
43
11
26
40
15
29
43
17
29
41
23
30
44
58
51
59
142
121
92
197
180
116
208
193
126
153
123
82
168
119
112
172
121
115
172
134
124
219
193
178
229
205
188
231
205
188
233
205
191
233
205
191
234
206
192
231
207
190
231
206
190
230
207
189
229
208
189
229
207
190
229
206
190
228
205
190
229
204
191
229
204
190
229
205
189
226
205
185
225
203
181
225
199
182
214
170
160
210
136
139
204
127
131
205
159
152
217
194
177
219
195
179
217
192
172
208
180
160
152
122
88
90
55
34
66
29
12
62
27
14
60
26
14
59
29
15
58
28
14
59
27
12
61
28
15
59
25
10
59
26
10
61
30
17
44
25
30
36
23
39
35
22
40
36
23
41
36
22
39
36
21
36
38
21
32
38
21
37
35
23
37
36
22
35
35
23
36
36
23
41
35
22
42
34
21
40
33
20
38
28
15
33
31
19
36
31
20
35
29
21
36
27
20
35
28
20
36
26
18
32
27
18
33
27
17
33
26
17
33
26
18
33
26
18
31
26
17
31
24
17
29
28
20
34
27
17
34
27
16
33
25
14
31
99
100
127
101
103
130
107
107
134
112
111
139
108
107
136
87
88
116
76
77
106
74
78
107
77
83
113
85
90
121
89
94
125
86
91
122
81
89
118
81
89
118
81
87
117
89
95
127
92
98
130
91
98
128
81
89
116
62
73
97
58
68
90
47
107
107
37
128
119
21
78
81
18
69
73
18
68
72
17
52
61
10
32
44
12
28
44
11
24
42
14
29
44
15
29
44
21
29
43
56
52
58
143
123
82
187
160
87
171
145
80
118
81
51
160
116
109
168
119
112
170
122
114
169
132
122
217
188
175
228
205
188
228
207
190
229
207
191
230
207
191
230
207
191
230
207
191
230
207
191
229
206
190
228
205
190
228
205
191
230
204
191
228
206
189
228
206
190
227
205
188
228
204
186
227
203
183
225
199
182
222
193
177
187
140
132
179
139
130
214
186
172
220
195
177
218
192
175
215
188
170
176
146
115
133
99
59
67
30
11
62
28
11
59
26
12
60
26
14
61
27
15
60
28
15
60
29
16
60
27
13
60
24
9
59
27
11
56
28
24
37
23
38
35
22
42
34
21
39
34
21
42
33
23
39
35
21
35
37
22
33
35
22
36
34
22
37
33
22
37
37
26
42
36
23
42
35
22
42
32
19
39
34
21
38
39
26
42
36
23
40
31
21
36
29
21
37
27
19
36
26
17
34
26
18
31
26
20
27
26
18
30
24
16
30
25
17
29
25
18
26
26
19
27
25
17
29
28
20
35
28
17
34
26
13
31
26
14
32
118
117
148
127
126
157
127
126
156
124
124
152
119
119
147
111
112
140
97
98
126
81
85
111
72
76
104
71
74
104
73
78
105
74
78
106
66
71
99
66
70
99
73
77
106
80
85
113
74
79
107
62
70
93
65
75
97
77
88
113
84
92
117
60
104
111
40
128
120
23
82
83
19
69
73
17
68
72
17
61
67
11
42
53
13
30
45
12
29
43
9
26
41
13
29
43
15
29
40
42
33
48
101
53
60
138
104
69
123
121
95
128
108
94
163
117
108
165
118
111
170
118
112
172
121
115
165
122
113
201
173
159
223
199
183
230
205
189
229
206
190
229
206
190
230
207
191
229
206
190
229
206
190
228
205
190
227
204
190
230
204
191
228
205
189
228
205
189
228
204
187
229
204
184
229
202
181
226
202
181
224
200
179
219
187
172
221
190
176
221
196
180
218
195
174
217
191
172
186
156
130
164
128
68
93
58
27
63
30
10
60
29
11
59
27
13
60
26
14
61
26
14
61
27
13
61
29
14
58
26
11
59
24
9
58
28
14
48
24
30
36
22
45
34
21
41
35
22
38
35
22
42
33
22
38
36
21
35
37
23
34
35
23
36
33
22
38
33
22
39
34
23
39
35
22
40
36
23
41
35
22
40
37
24
41
35
23
39
30
21
36
28
20
35
27
18
35
27
18
35
27
18
34
25
17
29
25
18
25
26
19
30
25
17
30
25
17
29
25
17
29
25
17
29
23
15
27
26
17
33
27
16
34
28
15
33
27
14
32
118
114
146
131
127
159
134
132
163
124
125
154
116
117
145
114
115
143
114
115
143
99
100
128
96
97
125
94
96
124
95
97
124
91
94
119
86
88
115
74
77
103
63
67
93
63
67
94
74
78
105
81
87
115
82
89
117
86
96
124
101
109
136
77
106
120
44
128
121
25
87
87
19
70
74
18
69
73
17
68
72
15
56
64
12
31
46
14
30
45
12
26
43
14
28
44
18
30
42
32
28
44
97
45
66
92
75
70
130
199
189
134
146
136
165
119
111
166
117
111
166
117
110
166
119
111
168
120
114
168
119
114
174
136
127
196
165
154
225
198
185
227
203
189
227
204
190
228
206
190
227
206
189
227
205
189
227
205
188
230
204
189
230
203
190
229
203
189
228
203
185
228
202
182
228
202
180
226
203
181
223
202
181
221
199
181
222
197
180
219
195
177
216
194
173
193
168
145
166
134
69
147
110
54
73
35
13
67
31
12
63
29
12
60
28
14
59
26
13
60
25
12
63
27
13
62
28
13
57
26
12
59
26
8
56
28
20
41
24
35
34
21
38
34
22
38
34
22
38
35
21
39
36
22
39
39
21
37
38
22
36
35
23
35
33
22
38
33
21
39
34
21
39
37
23
41
37
24
42
34
21
39
34
21
38
32
21
37
29
23
36
27
21
35
25
16
33
25
16
33
24
16
31
25
17
28
26
18
27
26
18
29
25
17
30
25
16
31
28
18
34
26
17
32
25
15
31
28
18
35
30
19
36
28
16
33
25
15
30
118
114
142
128
123
151
132
130
158
126
128
155
121
123
150
120
121
149
118
119
147
104
105
133
101
102
130
102
103
131
98
100
125
83
85
110
71
72
95
71
74
99
81
86
114
90
94
121
89
93
120
85
92
119
85
93
120
92
101
127
103
110
138
83
104
120
49
129
123
28
89
88
18
69
73
19
70
74
19
69
73
19
66
70
15
50
60
10
30
46
13
29
45
13
27
43
16
30
43
18
31
40
81
100
78
95
139
104
132
229
210
118
159
144
161
119
109
164
118
110
164
118
110
165
118
111
165
115
110
168
117
113
169
118
114
167
118
113
162
119
113
187
155
147
209
180
170
218
191
177
226
201
186
228
204
187
227
202
185
228
202
185
229
200
187
229
201
185
229
201
183
227
200
180
227
200
182
223
201
181
222
201
183
219
199
182
217
196
177
218
195
173
202
181
160
149
124
86
173
140
62
103
71
32
66
30
12
65
30
11
61
29
11
60
30
13
59
28
12
60
26
11
63
27
13
62
26
12
58
25
11
61
30
13
51
26
28
39
22
38
34
22
34
33
22
37
34
21
38
34
21
38
36
22
39
37
22
39
36
22
37
33
21
36
32
20
37
34
21
39
36
23
41
35
22
39
32
21
38
31
21
37
32
22
38
32
22
37
29
22
34
26
20
31
24
17
31
26
18
31
25
17
29
26
18
29
26
18
29
26
18
29
25
17
30
27
17
34
27
16
33
28
18
35
33
23
39
32
22
38
27
17
33
25
15
31
22
15
28
124
120
144
125
121
144
130
129
153
129
131
155
129
131
155
126
128
155
119
119
147
110
111
138
98
99
126
81
82
108
70
72
95
75
77
99
86
87
112
93
95
122
97
101
128
97
100
127
96
100
127
93
95
121
98
99
126
96
99
126
93
98
127
77
93
112
50
126
121
28
86
87
17
67
72
18
69
73
16
67
72
16
68
71
17
62
70
12
43
55
11
30
45
13
26
43
13
29
42
12
34
39
82
118
81
91
152
108
117
234
215
108
158
141
159
120
108
168
127
117
174
135
124
164
118
111
164
115
110
164
115
110
165
115
111
164
116
111
166
118
113
164
115
111
164
119
113
169
127
119
173
137
126
187
156
143
207
179
164
223
196
181
223
198
183
223
199
181
225
202
179
222
201
178
220
198
180
220
198
180
220
199
182
217
197
180
216
193
175
207
187
168
122
129
116
88
108
87
133
108
62
66
36
12
63
31
13
62
29
10
59
29
11
60
30
12
61
30
11
62
28
11
62
26
12
62
26
12
62
27
11
60
31
20
43
24
31
38
20
34
33
22
34
33
22
38
34
21
38
33
20
37
33
21
38
31
21
37
30
19
36
34
21
38
36
23
41
34
21
39
34
22
39
32
22
39
31
22
39
29
22
37
28
21
36
28
21
34
25
18
28
26
18
28
25
17
28
27
20
29
26
19
27
25
17
28
25
17
28
25
17
29
25
17
31
27
18
34
29
20
36
30
21
37
27
19
33
25
17
31
26
17
32
23
14
30
20
14
26
126
119
143
132
127
151
142
143
167
142
145
168
141
145
168
133
133
158
110
107
133
85
84
110
82
82
106
81
82
106
86
88
111
82
84
109
75
76
104
78
79
107
91
92
120
95
96
124
96
97
125
97
98
126
97
98
126
98
101
127
98
104
132
86
99
120
50
122
116
27
89
87
17
66
70
17
67
71
16
64
74
16
65
73
15
63
71
16
57
68
11
38
53
13
30
45
11
27
39
13
33
42
69
100
69
80
147
101
62
194
168
115
139
120
163
121
108
195
161
145
220
189
174
174
132
122
166
115
108
165
115
110
164
113
112
163
113
112
162
113
111
164
114
110
165
115
112
165
114
109
166
116
111
164
116
111
157
112
106
155
115
107
169
131
124
190
162
152
202
172
162
202
181
164
208
187
167
212
189
170
214
191
173
213
191
171
207
181
165
143
134
125
51
88
86
50
115
107
53
86
73
58
37
20
62
33
10
60
31
10
61
30
12
62
29
11
62
29
10
62
29
10
62
29
10
62
29
10
68
33
15
56
29
27
36
24
35
34
22
36
34
20
35
34
21
37
34
21
38
32
20
37
29
18
35
30
19
36
33
20
38
33
22
39
32
21
38
32
21
38
33
22
39
32
21
38
29
19
36
29
20
37
26
18
35
25
17
32
25
17
30
25
17
31
25
17
30
26
18
28
25
18
26
24
18
25
25
18
28
25
17
31
28
20
35
29
21
36
26
18
32
24
16
28
25
17
25
25
16
27
25
15
30
23
15
30
19
14
28
123
114
139
124
117
142
128
127
152
126
126
150
106
108
131
93
91
117
100
97
124
115
114
140
123
123
149
120
120
145
115
117
140
108
110
135
99
100
128
94
95
123
99
100
128
100
101
129
96
97
125
99
100
128
97
98
126
99
102
129
99
104
133
95
103
126
51
115
112
29
93
90
19
67
71
17
68
70
15
64
71
16
63
71
15
64
71
16
63
72
16
56
67
10
35
48
12
27
39
11
30
41
52
80
58
87
135
87
69
131
97
129
116
99
168
125
118
210
179
163
227
202
184
207
172
159
169
119
112
164
114
109
166
113
113
165
114
113
164
114
112
162
113
109
162
113
109
159
113
107
159
112
106
160
113
107
159
113
107
160
114
108
161
112
108
153
109
104
112
83
78
82
72
68
100
87
83
111
97
90
119
104
97
118
106
99
100
89
86
43
61
64
19
58
61
29
86
82
42
110
102
47
71
61
60
33
14
60
31
10
61
30
12
62
29
11
62
29
10
62
29
10
63
30
11
63
30
11
70
39
24
44
25
31
34
23
36
34
22
36
33
21
35
34
21
37
33
20
37
28
15
32
26
15
32
32
21
38
32
21
39
31
21
38
30
20
37
31
20
37
32
21
38
32
21
38
29
19
36
30
20
37
29
18
35
27
17
34
27
18
35
27
18
34
26
18
33
26
18
31
25
17
27
25
18
25
25
17
27
27
19
33
28
20
35
25
17
32
24
16
31
26
18
29
26
16
28
26
14
29
24
12
29
23
15
30
20
15
29
128
120
146
115
111
136
91
89
114
73
69
96
82
80
106
95
92
119
96
94
121
103
101
128
107
106
131
108
109
132
111
113
137
105
107
131
96
98
125
98
99
127
101
102
130
102
105
132
104
106
133
101
105
135
99
103
134
100
105
133
100
104
131
98
103
126
51
109
108
29
98
94
30
76
79
19
70
71
16
64
70
16
63
72
16
63
72
16
62
72
16
63
73
14
53
63
12
34
44
12
28
40
35
58
47
87
130
82
96
132
87
136
114
96
171
129
122
218
188
173
228
205
187
228
202
185
189
150
138
165
117
111
166
114
110
165
113
111
163
114
111
157
111
105
157
112
103
155
111
104
155
111
105
156
112
105
157
111
103
157
109
102
154
109
102
147
107
101
73
53
53
27
26
39
26
28
42
27
28
41
26
28
40
22
27
40
18
28
39
13
32
41
15
46
54
14
56
61
28
92
86
38
106
96
48
51
40
61
30
12
60
30
11
61
30
11
62
29
10
62
29
10
64
29
13
67
34
12
56
29
23
37
24
35
31
22
35
33
22
36
34
22
38
34
22
39
34
22
38
32
19
36
32
20
38
35
22
40
32
20
38
29
18
35
30
18
36
32
19
37
31
21
38
29
21
37
28
20
36
32
18
37
31
18
36
28
17
34
27
18
35
26
18
32
25
17
32
26
18
32
25
18
30
25
17
27
24
17
25
25
17
29
25
17
30
24
17
30
26
19
33
26
19
33
27
16
33
24
13
31
21
12
30
22
13
29
20
13
28
91
90
113
84
85
108
91
91
116
92
90
117
91
91
117
87
87
112
92
91
117
97
92
123
100
97
128
101
101
130
103
104
131
99
101
127
93
94
121
94
95
123
93
94
122
92
94
122
97
99
127
100
103
131
100
104
133
100
103
130
104
106
130
101
103
125
54
104
106
31
99
96
21
67
69
25
72
74
16
62
70
16
63
73
16
63
73
17
62
73
15
64
73
16
61
71
13
50
59
12
31
45
29
42
44
80
117
75
103
130
87
144
113
100
175
135
125
223
194
181
229
204
190
227
204
188
222
193
178
181
136
127
166
116
108
164
113
108
163
114
109
157
111
104
156
111
101
157
109
103
157
108
103
156
109
102
155
111
102
154
110
101
150
108
99
134
98
94
49
35
41
20
25
37
19
25
37
17
27
38
14
26
38
12
26
37
11
24
35
11
22
34
11
28
40
10
40
50
16
59
65
29
102
95
42
95
84
53
35
23
58
31
11
60
30
10
61
30
10
60
29
10
61
26
11
65
34
18
45
24
29
39
25
41
33
21
36
33
21
36
34
21
39
35
22
40
33
20
36
32
19
35
34
21
39
34
21
39
32
21
38
31
20
37
34
18
37
33
17
36
32
18
36
29
20
37
29
20
37
32
18
36
29
17
34
28
18
35
27
18
34
25
17
30
24
16
28
24
16
29
25
17
29
25
17
27
25
17
26
25
18
28
26
18
29
26
18
29
26
18
31
26
17
33
28
16
35
23
14
33
21
14
31
20
11
28
18
14
29
103
102
125
111
108
132
107
102
129
99
97
124
99
100
125
96
100
124
98
99
124
98
96
121
99
97
125
105
103
135
104
105
134
100
101
129
98
99
126
100
102
129
98
99
127
98
97
126
99
98
127
100
101
125
99
99
122
92
90
114
93
93
116
87
88
109
51
96
99
33
98
95
16
62
66
25
69
72
17
64
70
16
63
72
16
63
72
16
63
72
16
63
72
15
63
72
17
62
67
15
45
55
18
32
42
73
101
69
107
110
80
159
117
108
180
142
131
227
202
187
229
205
191
229
204
190
227
202
188
218
185
170
176
130
120
166
116
108
164
114
110
159
112
106
156
111
101
157
110
103
157
109
103
157
110
103
154
110
101
150
110
100
147
108
97
126
87
84
62
30
44
28
23
36
9
27
35
12
25
38
13
26
40
12
25
38
11
23
36
11
22
35
11
21
36
9
24
39
9
39
46
17
70
68
34
110
99
43
75
62
60
31
15
60
30
9
61
30
10
60
28
9
60
27
10
55
28
19
39
22
36
40
25
46
38
24
42
35
23
39
34
21
39
34
21
39
33
21
37
31
19
35
35
23
40
35
22
40
32
20
37
32
20
37
32
19
37
30
18
36
27
18
35
29
17
34
27
18
34
30
19
36
27
17
34
27
17
34
25
16
32
22
14
28
22
14
26
25
17
28
25
18
27
25
18
26
25
17
29
25
18
29
26
18
28
26
17
29
26
17
29
25
14
29
27
15
34
23
13
31
21
13
30
19
11
27
16
14
28
112
108
128
113
108
133
109
103
131
96
93
119
98
100
123
103
106
130
104
106
129
100
101
120
96
97
119
99
99
127
96
98
123
91
93
119
95
97
122
103
105
130
104
105
131
103
100
128
106
103
131
109
109
132
105
105
126
91
88
110
74
73
95
76
75
96
52
89
94
34
95
94
15
59
67
21
58
61
27
75
76
15
63
73
16
63
71
16
63
70
14
61
68
16
63
70
16
64
64
15
59
61
13
48
51
44
56
46
136
105
99
166
118
114
188
154
140
230
206
189
230
207
191
230
206
190
231
205
190
228
201
186
216
183
168
173
129
119
164
115
109
163
114
109
157
112
104
158
111
103
157
110
102
156
111
103
153
110
102
151
110
104
149
107
104
119
93
81
83
77
64
65
36
44
44
21
39
17
23
35
10
25
36
9
26
39
13
21
38
13
21
39
12
21
38
7
20
36
8
26
36
11
42
46
22
84
79
42
103
92
48
47
34
60
30
11
61
30
11
61
29
10
58
29
14
43
23
26
40
25
42
38
25
43
35
22
40
35
22
40
35
22
40
33
20
38
32
21
38
32
21
37
34
22
39
34
22
39
33
20
38
33
20
38
31
19
36
28
18
35
27
20
37
28
18
33
27
17
32
29
18
35
27
16
33
26
16
33
23
15
30
22
14
29
25
17
31
24
17
29
26
19
28
26
18
29
26
18
29
25
18
28
24
16
26
25
16
28
27
15
31
27
13
30
24
14
30
24
14
30
24
14
30
21
12
29
18
13
28
114
112
132
112
110
133
106
106
133
107
106
132
110
113
136
108
111
134
102
104
127
100
102
123
96
98
120
98
100
123
99
101
124
94
96
119
93
95
118
104
106
129
107
109
131
111
109
130
110
108
130
100
102
122
85
85
106
80
76
99
85
82
105
95
93
115
62
91
98
34
91
92
16
60
69
11
37
47
35
82
85
20
69
74
15
62
72
16
63
74
16
63
71
14
63
67
14
63
68
14
63
69
17
61
69
20
45
53
106
79
80
161
118
113
201
169
154
228
206
188
230
207
191
231
208
192
231
208
192
229
205
189
227
203
183
212
182
165
175
130
120
164
114
108
162
114
109
158
111
104
157
110
102
156
110
102
152
109
101
150
110
103
148
108
105
114
99
83
83
118
76
81
109
74
75
69
55
65
34
45
42
21
38
23
22
38
13
22
39
13
21
38
12
22
39
8
23
38
8
22
34
10
28
37
13
53
55
30
101
92
37
77
63
55
30
14
59
30
13
59
30
13
51
26
20
37
22
33
36
23
38
33
21
36
33
22
38
34
21
39
33
20
38
32
19
37
31
20
37
31
19
36
34
21
38
35
22
39
34
21
39
32
19
37
29
17
35
27
19
36
28
22
38
30
19
36
29
18
35
28
18
35
27
16
33
27
17
33
26
18
32
23
15
30
24
16
30
25
17
29
26
18
28
26
18
29
26
18
29
25
16
29
25
14
27
25
13
27
27
14
31
28
15
32
27
15
31
26
14
31
26
15
31
21
12
28
19
14
29
100
98
119
116
115
138
120
120
145
112
114
139
105
108
131
102
105
127
95
97
118
99
102
122
99
100
122
99
99
121
103
102
125
100
99
120
94
97
117
98
102
123
102
106
125
95
94
113
85
83
105
86
85
108
92
90
114
98
94
118
101
97
120
99
96
118
64
89
99
33
88
89
14
58
65
12
37
48
18
58
63
31
86
87
16
64
69
15
62
71
15
63
71
14
62
67
15
63
67
14
63
66
16
60
66
22
59
68
45
53
59
129
97
95
211
179
164
228
206
187
230
208
191
230
209
192
230
209
192
227
206
189
226
206
186
226
203
184
214
182
166
174
127
118
165
115
107
160
112
104
158
109
102
156
110
103
154
109
103
152
109
103
146
108
100
124
95
86
103
96
77
74
99
60
84
118
74
77
104
71
71
61
52
67
27
43
50
20
39
23
22
34
11
24
37
10
24
38
11
22
35
10
20
34
10
30
42
19
75
72
39
103
90
46
38
31
58
29
11
58
33
16
44
24
27
34
21
37
33
21
37
33
20
36
34
21
38
34
21
39
33
20
38
32
19
37
31
21
37
31
21
35
34
23
36
35
23
39
32
21
37
31
19
36
31
21
37
29
21
36
29
22
37
29
18
35
29
18
35
29
19
35
27
18
32
25
17
29
26
18
29
24
16
28
26
18
30
25
17
29
26
18
29
26
18
29
26
18
29
25
16
30
24
13
31
24
12
30
27
14
31
27
14
31
26
14
29
26
14
29
26
14
31
22
13
30
18
13
28
93
91
112
104
104
127
112
111
137
114
112
139
108
106
132
102
102
123
100
101
122
99
102
123
99
99
121
99
97
119
103
101
124
107
105
125
98
99
117
85
88
105
68
70
87
84
84
102
103
100
124
102
99
124
101
98
122
102
101
124
105
105
126
96
94
116
63
87
98
32
84
86
15
61
65
12
42
52
9
37
47
34
85
88
25
79
80
16
63
69
16
63
70
15
62
67
14
58
61
17
61
64
17
61
62
19
62
68
27
61
69
61
63
65
200
181
170
228
203
187
229
206
190
229
208
191
229
208
191
228
207
190
227
206
188
227
204
187
226
201
184
213
180
165
173
129
118
163
114
106
160
110
103
156
109
103
156
108
104
154
109
104
145
107
99
130
95
88
138
102
96
98
72
54
81
79
49
90
111
73
79
121
77
77
98
66
79
58
53
77
24
50
63
19
44
44
19
37
24
24
35
9
22
33
7
24
36
9
42
51
34
99
91
51
63
64
58
24
22
55
30
23
40
23
30
34
22
36
33
21
38
33
21
38
33
21
38
34
21
39
33
20
38
32
19
37
31
21
37
29
21
33
31
22
33
33
23
37
32
21
37
30
19
35
30
21
36
29
21
36
27
19
34
26
17
34
27
18
35
26
18
32
26
19
29
26
19
28
26
18
29
24
16
27
26
18
29
27
19
30
26
18
29
26
18
29
26
18
29
24
17
30
23
15
31
24
14
31
26
13
30
26
13
30
24
14
29
25
15
31
26
15
32
23
14
31
18
13
28
101
100
121
102
103
125
104
103
127
105
103
128
97
95
119
94
91
115
94
95
117
97
99
120
106
107
128
111
110
130
101
101
120
80
79
97
72
70
86
72
70
86
71
70
86
83
82
101
98
95
118
90
86
110
99
97
121
105
105
127
104
105
126
109
109
131
72
97
108
30
80
82
14
62
66
12
48
55
12
31
45
15
53
59
35
99
97
20
71
74
17
62
67
14
61
65
13
55
59
17
55
61
19
65
69
34
94
94
24
69
72
39
63
73
116
111
105
215
192
178
229
204
188
229
207
190
228
207
190
228
207
190
229
206
190
228
206
190
227
205
189
227
202
184
215
180
167
174
130
120
162
111
104
159
110
103
157
108
103
156
109
104
148
106
100
131
95
89
142
102
96
126
90
78
97
68
50
129
100
88
101
100
74
84
114
69
79
118
72
80
88
64
81
37
49
101
29
57
118
47
78
84
38
61
30
21
34
12
23
36
24
74
68
62
72
76
77
21
44
49
19
32
38
22
33
35
23
35
33
23
36
33
22
37
34
21
38
34
21
39
33
20
37
31
19
36
30
21
35
28
20
32
29
21
33
32
22
37
31
21
36
28
18
34
26
17
32
26
18
33
29
21
35
28
21
35
27
19
34
25
17
30
26
18
28
26
18
27
25
16
27
24
14
27
25
17
29
26
17
28
25
18
28
25
17
28
25
17
29
25
18
29
24
17
31
24
16
31
24
14
30
23
14
29
23
14
31
28
19
36
24
15
31
20
13
29
18
13
29
94
93
114
93
93
114
99
99
120
98
98
119
92
92
113
99
101
123
110
111
132
112
112
129
103
103
119
90
91
108
76
79
98
84
83
104
97
93
115
93
89
112
89
86
108
93
90
113
85
82
105
78
75
97
92
88
111
95
91
114
89
86
108
89
90
111
58
85
96
26
73
76
14
60
65
14
54
60
9
33
45
10
37
48
21
74
76
34
95
94
19
69
72
26
79
81
16
58
63
14
46
56
19
65
70
43
117
111
44
116
109
30
73
75
48
70
70
152
141
130
223
198
185
228
205
186
228
207
190
229
208
191
228
207
190
228
207
190
228
207
189
229
203
186
228
198
182
211
180
165
173
131
120
163
113
106
159
110
105
157
110
103
148
106
99
133
95
90
148
107
96
143
104
93
100
69
52
126
91
78
141
103
93
119
97
82
93
106
72
91
126
78
109
135
91
124
105
91
144
60
88
151
53
91
128
52
85
87
34
60
32
41
45
62
58
66
82
19
46
71
17
45
42
20
35
34
24
35
32
24
34
34
24
36
34
21
38
33
21
38
31
20
36
28
20
34
26
18
31
26
18
28
29
20
33
33
22
38
29
19
35
25
17
32
26
19
34
28
21
34
27
19
30
26
18
29
26
18
29
25
17
28
26
18
29
26
18
28
27
17
27
24
13
28
25
16
30
25
17
28
25
18
26
24
17
29
25
17
31
25
17
28
25
17
31
25
16
31
22
14
29
19
13
28
23
14
30
24
16
32
19
14
29
18
15
29
17
15
29
106
102
125
102
99
121
104
100
123
112
108
131
116
113
135
114
114
132
105
104
121
86
85
101
78
76
93
79
78
96
84
85
107
91
90
112
96
93
116
97
93
117
95
92
115
101
99
120
95
93
115
92
90
112
87
84
107
82
79
101
73
70
93
70
70
92
52
77
89
21
66
70
16
58
64
17
58
64
11
39
49
10
30
43
14
51
59
35
99
97
35
101
98
30
99
95
33
100
97
12
46
54
14
51
59
30
94
92
52
134
124
46
111
105
32
74
74
59
71
74
171
156
147
225
205
183
226
205
188
228
207
190
228
206
189
228
205
189
228
205
188
230
204
187
213
187
170
224
199
181
215
185
170
182
142
131
161
114
108
157
108
103
152
106
101
135
94
90
152
108
100
146
106
98
123
90
75
111
78
65
146
104
96
136
99
93
133
102
91
119
116
87
143
171
123
144
179
128
132
145
110
134
69
81
152
53
94
143
54
88
105
48
70
129
72
92
81
27
46
84
13
48
65
15
42
35
23
32
32
24
34
34
23
35
32
20
36
31
21
36
30
21
37
28
19
33
26
18
28
24
16
26
27
18
30
31
20
35
31
21
37
30
23
37
28
22
36
26
21
33
25
20
30
25
16
28
24
16
27
25
17
28
26
18
29
25
17
27
26
16
26
24
13
28
25
16
30
25
17
28
24
17
25
24
16
28
25
17
30
25
17
28
25
17
30
25
16
31
23
15
30
19
13
27
21
12
29
19
12
28
17
14
28
17
15
29
17
16
30
101
98
120
98
95
115
96
93
112
95
92
110
88
85
102
77
74
90
68
69
84
84
82
104
84
81
103
86
83
104
76
73
96
69
66
88
89
85
107
99
96
118
95
94
115
93
92
112
94
93
115
96
97
119
94
95
117
84
82
104
81
78
100
72
75
95
53
71
83
17
61
64
14
58
63
15
58
64
14
47
56
13
31
46
10
36
48
17
66
70
46
122
115
44
133
123
51
144
133
37
101
99
12
47
56
19
61
68
44
117
112
56
140
128
43
104
99
40
70
75
76
83
76
192
177
161
226
202
184
228
205
187
229
205
191
229
203
190
229
203
189
228
204
187
212
186
168
214
187
171
224
197
181
223
193
177
193
159
144
166
123
114
155
109
103
141
97
93
154
107
102
152
108
99
144
103
92
106
74
58
146
109
98
163
132
123
192
161
148
153
118
108
125
110
91
134
163
115
145
184
128
136
156
115
134
83
89
147
56
90
125
53
78
144
85
102
78
29
47
78
14
47
85
16
53
51
18
36
32
24
37
33
22
37
32
19
36
31
18
36
31
19
36
25
18
31
26
19
31
27
18
32
27
16
32
31
20
36
31
22
39
28
20
36
28
21
36
26
19
33
25
18
31
26
18
29
25
17
28
26
18
29
26
18
29
26
18
28
25
17
26
24
14
27
24
15
28
25
17
26
25
15
29
26
15
26
25
16
28
25
17
32
25
16
32
25
16
32
24
15
30
19
14
28
20
12
28
19
10
27
18
12
28
17
15
29
17
16
30
106
103
123
102
99
117
89
87
104
70
67
84
65
61
79
83
79
98
92
90
112
97
97
122
87
86
109
71
68
90
65
61
84
70
66
89
85
81
104
97
93
116
93
92
113
96
92
116
101
99
123
109
109
134
109
108
133
104
102
126
89
87
109
84
82
104
72
74
92
33
56
66
16
56
61
15
55
62
16
54
62
11
39
51
10
30
45
12
47
56
24
86
84
49
144
132
60
157
145
61
149
140
39
99
97
14
49
57
23
76
77
50
127
116
60
139
128
41
94
91
44
77
73
106
105
100
211
192
180
227
203
185
227
204
189
228
203
190
228
204
190
228
205
188
226
201
181
206
180
161
225
198
179
226
200
181
223
198
179
213
184
170
193
163
148
170
133
124
158
111
104
156
110
102
147
104
95
86
70
66
158
134
124
191
166
151
208
184
169
196
168
154
151
114
103
132
109
89
131
147
105
144
181
124
138
160
117
125
87
83
132
52
83
94
32
55
48
30
40
45
32
47
80
20
54
79
15
48
42
20
39
33
21
38
32
19
36
33
20
38
30
19
36
26
20
33
29
21
34
31
21
36
31
20
36
31
21
37
28
20
35
27
19
33
26
18
31
25
17
29
25
17
29
25
17
28
25
17
28
26
18
29
26
18
29
26
18
28
24
17
26
24
14
26
25
16
28
25
17
26
26
15
29
26
15
26
24
16
27
26
16
32
25
14
31
24
14
30
23
13
27
18
14
25
20
14
29
20
12
28
18
12
28
17
15
29
17
16
30
80
77
95
75
72
88
81
77
95
87
83
102
82
77
97
95
90
114
107
105
130
106
106
133
97
97
123
87
85
109
91
87
111
96
92
115
94
91
113
98
96
118
94
93
115
100
95
120
105
100
128
104
102
131
107
105
133
102
100
125
93
92
114
92
86
109
92
84
107
69
71
87
22
52
59
19
55
61
15
57
64
15
50
60
12
32
47
10
32
46
19
58
65
35
107
103
59
153
143
65
166
154
58
152
141
34
91
88
17
54
59
26
82
79
55
130
121
57
126
117
33
80
77
46
76
75
123
120
112
216
195
178
226
205
185
227
205
190
227
204
190
227
206
188
227
204
185
212
186
167
213
186
167
227
202
183
223
200
181
220
200
182
218
198
178
206
180
163
191
158
145
190
155
144
138
111
94
81
110
99
145
140
133
201
174
157
213
186
171
214
188
172
186
157
142
148
109
100
133
105
90
125
146
107
138
181
123
134
159
113
129
80
87
139
55
89
74
38
57
18
46
54
43
32
50
86
16
53
61
16
43
35
20
36
33
19
36
31
20
37
30
19
36
29
20
35
29
20
35
30
21
36
29
19
36
29
18
35
27
18
32
27
19
31
26
18
29
26
18
28
25
17
27
25
17
28
25
17
28
25
17
28
26
18
29
25
18
29
23
16
28
23
13
27
25
16
28
26
16
27
26
15
29
26
14
27
25
15
27
25
14
30
24
13
30
24
14
29
23
15
26
18
13
24
18
13
27
18
13
28
18
13
28
17
15
28
17
15
28
94
88
111
96
90
110
98
93
116
93
89
112
94
89
115
99
95
123
102
102
129
101
105
132
102
105
131
100
101
125
102
102
127
101
102
124
96
97
118
94
93
114
91
89
111
97
95
118
102
99
127
104
100
131
109
106
133
106
103
127
97
95
119
98
90
114
106
94
117
136
99
122
127
86
110
43
49
61
21
54
64
16
54
65
15
48
61
13
33
50
11
37
52
18
67
75
42
115
113
67
160
152
65
164
154
57
147
139
26
75
80
21
55
66
26
81
82
50
125
116
47
117
108
31
70
71
56
78
78
153
145
134
221
201
182
229
203
188
228
203
188
228
205
189
227
204
186
229
203
185
207
181
164
218
191
175
227
200
183
227
200
183
224
199
181
222
198
180
218
195
175
212
187
168
175
157
121
160
148
105
148
139
136
216
190
177
217
191
176
217
191
175
214
187
168
180
145
134
146
107
102
131
104
90
129
148
111
142
181
126
138
152
119
129
62
82
111
49
80
16
34
50
19
46
56
65
22
52
85
15
51
46
16
36
32
19
35
33
19
38
32
19
37
33
18
36
27
17
34
25
18
35
28
19
38
28
19
38
25
16
34
24
16
33
25
16
34
25
17
34
25
16
33
24
15
32
25
16
33
25
16
31
24
16
29
24
15
29
24
13
30
22
12
29
26
14
29
25
13
29
26
13
32
27
14
31
26
13
31
26
13
30
25
14
30
22
14
30
21
13
31
17
12
28
16
14
27
16
14
28
17
15
29
17
15
27
15
13
26
105
104
133
100
100
127
101
101
129
101
101
127
101
100
129
103
100
130
100
100
130
100
104
131
102
106
132
107
108
132
103
102
128
89
88
111
76
74
97
69
66
89
70
67
90
85
85
108
93
90
117
101
97
128
106
103
131
105
102
127
101
96
121
110
100
124
145
104
129
216
143
171
190
111
145
117
58
89
72
48
73
31
50
64
18
55
66
14
48
64
11
35
55
12
47
62
19
71
76
48
121
119
63
153
150
62
155
152
54
128
131
19
57
71
20
56
70
22
74
78
46
111
108
37
90
92
34
66
75
57
68
73
173
160
152
225
201
184
227
203
185
228
203
188
229
205
187
230
204
186
226
200
182
205
180
162
223
199
181
228
201
184
228
201
184
226
198
181
223
198
181
199
179
160
204
187
148
167
137
92
139
109
92
212
188
172
218
194
178
219
193
176
217
190
171
207
178
165
160
127
121
142
105
101
127
104
93
132
157
114
138
178
127
129
129
105
132
59
86
60
31
53
12
38
52
38
35
58
85
14
55
67
13
47
36
17
38
33
18
37
32
17
36
30
18
35
29
18
36
27
17
35
28
19
37
27
17
36
25
16
34
25
16
34
24
15
34
24
15
35
25
16
35
25
16
35
25
16
35
24
16
33
24
15
31
24
14
30
25
14
31
24
12
30
26
13
32
27
13
35
27
13
36
27
13
36
26
13
36
26
13
35
24
12
33
20
13
31
18
14
30
16
14
29
16
14
29
18
14
31
17
15
31
17
15
29
16
14
28
110
107
137
102
99
128
102
101
130
99
99
127
100
100
128
105
102
129
104
101
128
103
104
129
110
112
136
112
113
136
92
90
113
75
73
96
83
80
104
81
77
101
79
75
100
87
83
108
89
85
111
86
81
111
102
98
127
108
102
132
109
102
130
123
112
136
172
121
145
222
147
174
207
127
159
163
74
113
143
60
100
123
58
92
61
45
67
26
50
66
18
48
66
14
39
54
16
51
59
18
69
75
36
104
108
55
139
140
51
141
140
37
98
102
12
39
55
18
54
66
18
64
72
28
76
82
25
63
70
35
61
69
72
76
77
187
170
156
228
200
183
228
201
186
228
203
188
230
204
185
228
202
181
224
198
179
204
179
161
227
201
182
227
201
184
226
199
180
219
193
182
191
161
162
177
133
130
140
98
70
154
125
109
215
191
174
220
194
177
220
195
176
217
192
171
215
188
174
197
168
155
146
110
101
141
103
98
119
108
91
135
172
125
138
169
124
118
83
83
105
47
73
22
24
39
16
34
48
73
17
55
84
13
54
46
14
38
31
18
36
32
19
37
31
18
36
28
16
34
26
16
33
30
18
36
29
17
35
28
17
34
25
14
31
24
13
30
27
16
33
29
18
35
28
17
34
26
16
33
26
15
32
25
14
31
26
14
32
27
14
33
27
14
32
26
12
34
27
13
36
27
13
36
26
14
36
26
14
36
27
13
37
24
13
37
21
14
35
17
14
27
16
14
28
17
15
31
24
15
32
18
13
28
14
12
26
12
10
26
114
111
140
110
107
136
110
107
136
106
103
132
114
111
139
114
110
138
121
117
144
115
113
137
91
91
114
79
78
102
85
83
109
92
90
116
101
97
124
95
91
119
96
92
120
100
96
125
93
88
116
84
79
109
95
87
118
97
88
118
91
82
108
98
80
105
181
124
150
223
147
178
216
139
169
176
90
127
162
73
114
154
60
101
162
63
108
120
53
88
73
49
75
33
49
62
17
45
55
14
54
65
16
63
72
21
78
83
36
110
109
46
109
113
14
43
57
12
36
55
14
56
68
15
59
70
19
58
69
26
58
69
37
61
69
83
81
78
198
178
165
224
197
183
228
201
186
229
202
183
229
202
180
225
201
181
208
187
166
222
200
179
215
199
172
214
194
171
213
185
179
191
146
159
145
84
102
126
66
74
196
167
155
218
194
178
220
194
180
221
194
180
217
191
174
216
190
173
211
185
168
172
141
130
143
103
99
124
93
92
120
140
113
136
179
127
129
143
110
120
57
81
59
27
48
9
21
38
60
15
50
90
13
56
71
16
48
36
15
36
34
18
37
29
14
33
26
15
32
25
14
32
30
17
35
33
20
38
28
16
36
26
14
35
27
16
35
29
18
35
29
18
35
28
17
34
28
17
34
25
14
31
25
14
31
26
15
33
27
14
34
27
14
33
27
13
35
27
13
36
27
13
36
26
14
36
27
15
37
27
14
38
24
13
37
20
13
35
15
13
28
12
9
26
15
13
30
21
12
29
17
12
27
13
12
28
13
12
30
105
101
128
102
98
125
106
102
131
113
109
138
116
112
138
108
104
131
92
88
115
82
79
102
83
80
104
85
83
110
87
84
113
85
82
110
85
80
109
85
78
109
94
88
119
103
98
128
100
97
126
98
95
126
94
87
118
88
81
108
87
75
101
97
69
96
205
141
168
224
147
179
222
147
176
190
114
147
174
81
124
169
75
122
164
68
112
173
65
108
165
60
107
138
60
97
101
52
81
57
40
61
24
53
64
16
59
68
15
59
71
19
63
74
13
45
60
8
27
46
10
40
54
17
56
68
16
58
70
19
57
69
26
58
69
34
57
63
124
119
106
171
151
124
197
170
148
215
189
168
226
198
178
217
193
174
205
191
168
195
182
155
227
221
178
194
178
140
190
155
153
193
130
154
137
59
88
145
84
100
212
183
175
219
194
180
220
194
182
221
195
181
217
191
175
216
191
173
211
189
171
195
165
154
149
109
105
128
95
92
162
171
171
129
163
126
138
174
125
124
99
93
115
50
79
36
21
42
45
14
45
83
17
59
86
14
54
51
15
40
32
20
37
30
16
35
27
15
34
25
12
31
26
13
32
29
16
37
31
18
42
31
18
39
29
18
36
29
18
35
29
18
35
28
16
33
26
14
31
25
14
30
27
16
31
27
15
31
28
15
32
27
15
30
26
14
34
25
13
34
25
14
35
26
14
36
27
15
37
26
14
38
22
13
37
18
14
35
17
14
32
14
11
29
15
12
32
19
11
28
15
12
27
11
10
28
13
12
31
105
100
130
104
99
130
98
93
123
88
84
110
74
71
94
70
66
92
76
73
99
90
86
110
82
79
105
82
80
110
76
73
101
71
68
95
80
76
104
88
84
114
92
87
117
94
90
119
98
96
125
105
101
131
105
99
127
98
89
115
102
84
111
135
97
120
220
150
178
225
149
179
224
147
177
222
145
177
173
90
128
175
80
129
189
100
143
173
82
117
177
63
113
178
63
112
176
63
112
164
64
110
103
51
80
38
51
64
15
56
68
14
56
68
15
53
65
11
36
53
11
26
47
11
43
57
14
57
68
14
59
70
17
56
67
24
59
65
67
83
71
152
160
121
171
151
106
180
154
115
179
153
115
147
157
128
140
199
174
167
184
148
208
191
132
178
150
87
176
138
89
150
82
86
151
82
101
161
118
119
215
187
177
219
195
180
220
195
181
220
195
181
218
191
175
216
191
173
210
190
171
207
177
165
153
116
111
129
103
100
174
188
196
150
176
165
133
175
131
129
141
110
136
60
86
87
67
90
43
106
117
47
59
78
87
15
59
74
13
48
37
17
37
27
14
35
28
15
35
28
15
34
28
16
35
31
19
39
28
18
40
27
16
35
28
16
35
27
16
34
26
16
34
27
15
33
25
14
31
26
14
32
26
15
33
26
15
32
26
14
32
26
14
32
22
13
32
20
12
31
21
13
33
26
14
36
26
14
36
26
14
38
22
13
37
17
15
34
17
15
32
14
11
29
17
12
30
17
11
29
13
12
29
12
11
29
13
12
30
99
95
119
94
90
114
84
80
106
76
72
97
73
70
91
93
89
115
104
100
127
106
103
129
94
93
120
75
74
105
73
70
99
79
76
104
89
87
115
95
95
123
99
97
126
98
94
123
98
92
122
106
100
128
112
104
128
113
105
128
122
101
127
184
128
151
224
149
178
223
149
179
224
147
177
225
147
177
211
135
168
174
85
127
183
85
132
201
120
155
176
91
129
179
62
111
181
63
109
177
63
110
169
61
105
127
55
88
51
44
61
20
51
65
13
54
66
15
51
64
12
33
52
10
28
48
12
47
61
14
58
69
15
56
67
17
57
66
29
65
62
119
145
113
154
171
127
183
174
146
209
186
168
169
180
160
89
167
156
83
123
108
149
116
78
143
107
73
137
103
71
173
138
127
203
172
163
217
192
176
218
195
179
219
196
181
219
196
182
218
195
180
219
192
175
216
191
173
210
190
170
204
175
161
153
116
110
140
128
128
173
196
205
171
194
198
126
160
131
135
168
122
121
80
83
82
97
114
64
159
173
30
72
94
77
21
62
88
11
55
52
13
40
29
15
37
29
16
36
29
16
35
29
18
34
28
18
35
26
18
34
26
17
35
28
16
37
24
14
35
23
14
35
25
15
34
24
14
33
25
14
36
26
13
38
26
14
38
23
12
32
20
10
29
19
13
31
18
14
31
20
14
33
23
11
32
24
12
34
24
13
37
20
12
35
17
15
33
16
14
29
13
11
25
17
11
26
17
11
29
12
11
29
13
12
30
13
12
30
78
73
94
79
74
99
90
83
110
94
89
114
91
88
114
99
96
125
106
106
134
107
106
134
104
101
130
95
92
121
79
77
105
76
73
102
82
81
109
87
84
113
91
85
116
100
93
125
110
105
133
118
114
138
136
130
153
145
137
159
147
121
142
209
141
170
224
148
179
224
148
179
225
148
180
225
147
179
224
144
176
195
117
149
176
80
123
194
99
143
215
133
169
184
98
132
177
64
108
183
63
111
176
62
111
176
61
110
152
61
101
102
48
78
57
46
66
24
50
62
14
49
63
11
34
54
8
27
48
14
46
63
15
56
66
14
55
66
20
59
64
52
80
69
150
182
137
161
182
135
194
183
159
218
197
181
204
187
176
193
174
162
157
129
114
199
173
154
218
193
173
220
195
177
219
197
181
219
197
181
220
196
180
220
196
180
219
196
180
218
195
179
219
191
177
215
189
175
210
188
171
188
160
148
146
112
106
148
151
155
176
202
211
179
201
212
149
175
169
133
172
125
117
124
99
100
68
93
45
85
106
26
48
71
73
19
58
92
11
59
76
12
53
38
14
36
29
17
34
29
16
34
27
18
35
27
18
35
29
18
35
28
19
36
26
17
37
24
15
36
23
14
34
26
17
34
26
16
33
26
14
32
27
13
35
27
13
36
25
12
31
20
10
27
20
13
30
18
12
29
18
11
29
24
12
34
27
13
36
22
14
36
18
14
32
17
14
30
16
13
27
13
11
26
17
12
26
15
11
27
12
10
28
13
12
30
13
12
30
82
77
100
88
81
109
94
89
118
98
96
123
100
101
127
103
101
130
98
99
127
97
96
125
103
100
129
101
99
128
91
91
119
81
81
108
76
76
104
76
73
102
87
80
111
103
95
128
123
117
145
133
126
151
137
127
151
142
126
150
169
121
147
223
149
178
224
149
180
225
148
180
225
148
180
224
148
179
224
146
178
223
144
175
187
106
138
177
80
121
200
109
148
218
139
171
194
116
147
174
67
110
184
63
115
181
63
113
175
63
108
169
62
107
154
59
100
125
56
89
76
47
69
39
40
59
25
33
52
14
29
47
18
48
60
15
55
68
15
55
64
18
57
60
86
106
84
156
182
138
162
187
141
184
178
151
219
198
180
222
199
180
218
192
176
217
196
176
219
199
177
220
199
180
220
200
183
220
197
181
220
197
181
219
197
181
219
197
181
218
195
179
218
190
176
215
189
174
207
185
168
165
132
125
132
110
109
167
182
190
179
203
217
178
202
215
175
197
206
133
162
137
136
164
126
123
76
86
114
50
85
33
31
52
40
30
54
80
15
57
90
11
58
57
14
43
30
17
34
28
16
34
29
18
35
30
19
36
30
19
36
29
19
36
27
17
37
26
16
37
24
14
36
25
15
34
27
15
35
27
14
33
27
13
35
27
13
35
23
11
29
19
8
25
21
9
29
21
10
30
22
12
32
26
14
36
27
13
36
23
12
33
19
11
28
17
12
27
14
12
27
12
11
27
17
12
27
13
10
26
13
12
29
14
13
31
13
12
30
87
80
105
93
87
115
100
96
125
101
101
129
102
105
132
109
109
137
104
105
133
101
98
128
98
95
124
95
94
123
102
102
130
98
98
126
90
91
118
80
78
107
88
84
113
90
84
114
96
90
118
101
94
119
111
99
123
120
95
118
205
141
170
225
148
178
224
148
179
225
148
180
224
147
179
223
148
178
223
148
177
222
146
177
219
141
170
180
96
129
184
86
129
213
124
161
222
140
171
202
124
154
175
80
116
181
65
111
182
62
112
178
62
111
177
59
109
176
59
106
167
62
105
152
59
101
132
51
92
108
42
78
85
38
67
40
48
66
15
54
66
17
55
62
41
53
56
121
108
94
160
183
138
161
187
134
181
176
152
218
196
176
225
199
179
221
198
178
220
200
180
221
200
181
220
200
182
220
197
181
220
197
181
219
196
181
218
195
180
218
194
176
217
190
174
214
188
175
194
167
154
143
109
105
141
139
144
183
203
214
179
203
219
177
203
217
177
200
210
150
173
167
132
169
125
124
129
101
131
54
83
72
35
60
16
41
52
51
28
52
88
12
58
82
20
57
43
17
40
26
15
33
29
17
36
30
19
37
30
19
36
29
19
36
28
17
37
27
15
36
25
13
34
25
14
33
28
15
34
27
14
34
25
14
34
23
12
32
20
10
27
20
9
27
24
13
35
24
14
36
24
14
36
25
14
36
23
13
33
20
13
29
18
11
26
17
11
28
13
11
29
12
10
26
17
13
27
12
11
28
12
12
31
14
12
30
13
11
28
92
84
110
95
90
117
99
93
123
100
96
126
106
107
135
109
110
137
110
111
139
109
108
136
101
100
128
95
94
122
90
89
118
89
87
115
78
79
107
81
79
108
89
85
115
86
82
111
91
84
111
97
88
114
99
87
108
150
106
130
221
147
178
223
150
179
224
148
179
225
148
180
224
148
179
224
149
178
224
148
177
225
146
177
222
145
176
212
136
168
171
86
122
187
93
133
219
135
169
223
144
173
213
135
162
185
97
130
176
63
109
180
63
109
180
62
110
179
61
110
176
59
107
174
59
106
171
60
107
168
59
108
163
58
106
131
54
95
47
44
62
18
51
60
24
50
57
101
56
76
143
101
96
158
179
133
165
191
143
179
176
145
217
199
178
219
199
180
219
201
181
221
200
181
220
199
180
220
197
181
220
197
181
219
195
181
219
192
178
218
192
173
216
191
174
205
178
167
161
124
120
139
125
127
179
193
199
182
202
213
179
203
219
176
203
218
176
200
211
157
176
181
122
152
124
130
159
118
120
75
81
97
39
68
17
31
44
23
40
52
73
17
55
92
20
61
79
36
65
25
14
32
27
17
37
27
16
35
27
16
34
29
18
35
27
16
35
27
15
35
26
14
33
28
15
33
27
14
32
26
14
33
22
11
31
19
9
28
21
11
27
23
11
31
24
12
36
26
14
38
25
13
37
23
14
35
19
13
28
18
14
27
18
12
27
17
10
28
13
11
29
11
9
23
16
11
26
12
11
29
12
11
32
14
11
29
14
11
27
93
85
112
92
87
114
98
93
122
96
89
120
97
96
125
101
103
131
100
103
130
105
107
135
108
107
135
98
94
123
86
82
111
92
87
116
97
95
123
100
97
125
103
99
128
105
101
129
111
103
131
118
107
133
112
98
119
185
126
155
225
146
179
224
149
179
224
147
179
224
147
179
224
147
179
225
147
179
225
147
179
224
147
177
224
145
178
223
145
178
213
134
165
176
88
123
194
100
140
221
139
170
221
145
171
221
142
172
197
115
147
176
75
111
184
62
108
185
59
110
179
59
110
177
60
109
176
59
107
173
58
107
171
58
108
166
58
107
139
58
98
68
43
67
28
45
59
75
47
67
146
64
94
142
95
99
160
175
137
165
192
145
167
171
141
211
194
174
220
199
180
220
199
180
220
199
180
219
196
180
219
197
181
219
194
180
218
190
173
218
190
171
210
187
171
175
146
138
138
116
115
168
180
187
182
203
213
183
202
214
180
203
218
177
204
218
178
202
214
165
185
197
140
164
159
132
171
125
117
119
94
107
47
73
26
23
43
14
41
55
57
21
50
90
11
56
104
45
79
53
28
50
25
18
38
24
15
34
26
15
33
26
16
34
26
15
34
27
14
35
26
14
34
26
13
31
24
12
29
22
10
28
20
9
28
21
11
29
25
12
30
25
13
33
25
13
36
25
13
37
24
13
35
21
12
31
18
13
27
19
14
27
19
12
27
18
11
29
13
11
28
9
7
22
15
11
26
13
12
29
12
11
31
14
11
30
13
11
27
93
87
115
91
88
114
91
87
115
91
86
115
96
92
121
101
97
127
99
98
126
99
98
126
101
99
127
101
98
126
99
95
123
96
91
119
101
97
124
104
100
127
106
102
130
108
103
131
114
105
134
120
108
136
131
105
127
205
139
168
224
147
181
224
147
180
225
148
180
224
147
179
224
147
179
225
148
179
225
149
178
226
147
178
225
146
178
225
146
177
224
144
174
208
128
158
174
81
118
201
116
150
223
144
174
223
145
174
222
144
172
213
134
162
176
84
118
176
62
105
180
60
109
177
60
110
180
60
108
178
59
107
176
59
109
172
58
108
169
58
106
152
58
100
90
45
71
141
86
107
148
72
98
140
58
91
150
92
101
155
173
131
163
192
142
167
171
139
207
192
170
219
197
179
217
197
178
218
196
177
216
195
179
217
194
179
215
191
174
213
186
168
182
150
140
141
114
116
167
173
177
185
205
216
187
204
221
183
203
215
180
204
217
179
204
219
180
203
216
164
185
197
166
190
192
122
159
122
131
161
119
97
58
70
35
24
43
11
42
52
50
24
47
89
12
56
93
27
64
99
60
88
60
83
98
34
58
72
23
23
40
24
15
35
26
13
35
25
13
34
24
14
32
23
12
29
21
10
27
23
12
30
24
13
30
24
13
29
25
14
28
25
15
34
23
14
35
22
13
34
21
12
32
21
12
29
20
11
28
20
12
27
19
13
27
17
12
27
13
10
27
9
7
21
10
8
26
12
11
29
13
12
30
13
12
30
14
13
31
85
82
105
88
84
108
90
85
110
90
85
112
89
84
111
93
87
117
98
91
122
98
91
122
99
94
123
104
98
129
106
101
133
101
97
128
100
95
123
100
95
123
103
99
126
104
98
126
106
96
125
117
107
132
147
108
132
221
147
178
225
148
182
225
148
182
225
148
180
224
147
179
224
148
179
226
150
180
225
149
179
226
147
178
225
146
177
223
146
179
223
146
179
224
144
178
208
129
161
175
87
122
211
127
161
224
144
176
222
145
176
222
145
173
219
140
171
183
99
131
175
62
106
182
60
108
181
60
108
179
60
108
177
60
108
174
58
106
170
60
105
168
60
106
129
52
83
177
111
133
156
82
104
136
50
84
167
60
103
151
95
101
158
173
134
161
195
139
155
167
129
197
181
158
210
181
166
208
179
164
203
175
163
198
166
156
184
150
142
161
125
120
144
114
113
162
167
176
183
204
214
184
207
217
186
207
223
185
204
217
180
205
218
180
202
218
178
202
214
160
182
194
170
190
198
139
169
151
128
171
121
103
114
94
30
26
39
20
37
50
61
21
50
89
11
56
86
15
54
115
52
89
74
90
112
60
115
133
55
100
119
43
69
82
25
26
41
21
14
30
21
12
28
21
10
27
25
14
31
26
15
32
25
14
31
20
10
25
20
13
25
24
13
33
21
12
31
19
10
28
21
12
30
21
12
29
20
11
28
20
10
27
17
10
27
15
11
27
11
8
25
11
9
24
14
12
30
14
13
31
14
13
31
14
13
31
14
13
31
87
82
106
93
86
115
93
86
116
96
87
116
97
89
116
96
89
118
99
90
120
98
90
121
101
95
126
104
100
130
104
102
132
103
102
129
104
100
128
105
101
127
106
102
127
107
101
126
108
99
125
124
109
135
170
120
143
223
148
178
224
147
181
225
148
181
224
148
178
224
148
177
225
149
178
224
148
178
224
148
178
225
147
179
225
145
180
223
145
179
223
146
180
223
146
180
223
146
177
210
129
161
177
92
126
217
134
168
224
145
177
225
145
175
224
144
174
219
140
170
193
109
142
174
63
105
182
60
107
179
59
106
179
60
108
177
60
107
174
60
107
170
58
108
132
45
81
110
43
64
88
33
54
104
42
72
160
61
100
167
63
102
145
94
100
148
174
128
156
192
136
150
168
123
147
123
108
159
120
114
157
114
111
151
110
107
153
109
108
139
109
115
170
173
178
182
204
213
185
209
224
186
208
222
185
206
221
182
202
218
181
204
219
180
201
216
159
185
197
138
163
171
171
190
199
154
178
176
132
171
127
117
151
109
58
52
52
95
42
69
94
25
62
88
11
57
87
14
55
112
46
83
101
62
96
58
108
128
58
118
139
76
127
143
61
85
97
18
11
28
20
14
27
26
13
30
27
15
32
26
14
31
24
13
33
20
12
27
19
11
26
21
10
28
21
12
29
20
11
28
20
12
28
20
13
29
19
12
28
19
10
29
14
10
29
13
9
28
13
10
30
17
14
33
15
12
31
13
11
30
12
12
30
13
12
30
13
12
30
93
89
115
97
92
124
100
93
125
100
92
121
94
86
113
95
89
117
97
90
118
99
92
122
95
89
120
97
94
123
101
101
128
103
104
131
106
104
132
103
101
126
104
102
125
111
106
129
116
107
131
122
103
129
195
136
162
225
149
179
224
147
181
224
147
181
224
148
178
224
148
178
224
147
178
223
145
178
224
147
179
225
147
181
225
147
181
223
145
180
223
146
180
223
146
180
224
146
178
225
145
178
210
129
162
188
109
141
221
142
174
224
145
177
224
145
175
224
143
172
221
141
170
193
112
141
173
67
108
181
60
107
181
59
108
179
60
108
175
59
106
169
56
105
159
55
100
133
45
83
67
33
57
31
41
57
127
49
83
166
61
100
170
61
105
146
99
100
152
176
133
152
195
138
145
170
122
134
118
97
150
107
105
143
109
111
141
127
132
168
178
185
184
207
217
183
210
223
185
209
225
185
208
223
185
207
221
183
203
220
180
203
218
177
203
213
139
170
180
119
146
157
169
191
201
168
191
196
128
161
132
127
170
119
110
103
89
136
51
85
107
24
64
90
12
58
89
13
55
102
38
73
127
58
98
76
86
110
58
117
136
61
126
141
96
142
154
28
35
50
22
17
31
26
14
31
26
14
30
25
13
29
24
13
34
18
10
26
18
11
27
21
10
27
20
11
28
20
11
28
20
12
28
19
12
28
18
11
27
15
10
29
11
10
28
13
9
28
18
14
30
16
12
29
15
11
30
13
11
30
12
12
30
13
12
30
13
12
30
104
101
129
94
91
121
94
89
121
96
90
119
95
90
117
86
82
108
82
78
104
92
85
115
94
88
119
100
97
125
104
104
130
104
104
133
103
102
131
100
99
124
102
100
122
106
100
124
113
105
129
118
93
119
214
148
175
225
148
178
225
148
182
225
148
182
224
147
180
223
146
179
223
146
179
224
146
180
224
146
180
224
146
180
224
146
180
223
146
180
223
146
179
223
146
179
224
146
178
223
146
178
224
145
177
213
136
167
198
121
154
224
146
179
223
146
177
223
146
174
223
144
171
222
141
169
201
120
151
170
66
106
180
61
108
179
60
107
177
59
106
172
57
105
169
57
107
166
58
104
83
35
64
14
40
55
58
42
57
149
59
94
167
60
101
160
63
97
142
99
101
146
176
132
147
194
131
143
179
131
123
127
106
164
171
171
182
198
211
187
207
221
186
209
223
187
208
223
184
207
223
183
208
222
183
205
219
182
203
218
179
203
218
178
201
216
162
191
201
103
131
141
157
182
193
174
195
206
133
159
147
134
174
123
130
149
114
126
51
79
107
25
65
90
11
57
89
12
57
96
30
67
125
57
95
107
64
99
67
107
126
55
119
136
93
148
162
74
105
117
20
13
28
24
15
30
23
11
28
23
11
27
23
12
32
18
10
26
20
11
28
20
10
27
20
11
27
20
12
28
20
12
29
19
11
27
19
10
26
15
12
28
12
12
28
15
11
27
17
13
26
17
13
27
15
12
30
13
12
30
12
12
29
13
12
28
13
12
28
105
102
131
94
92
120
94
90
119
91
86
116
92
88
117
94
89
117
89
85
112
88
82
112
91
86
116
96
92
121
102
98
127
102
98
128
102
98
129
102
98
124
103
97
120
107
100
125
116
107
130
139
106
130
220
151
176
225
148
177
224
147
180
225
148
181
224
147
181
223
146
180
223
146
180
222
147
180
222
147
180
223
146
180
223
146
180
223
146
179
222
147
178
222
147
178
222
147
178
222
147
178
224
146
177
225
146
178
224
145
180
225
145
180
224
145
177
223
146
177
223
144
174
223
143
171
220
141
170
200
120
151
172
71
108
180
61
106
180
60
107
175
59
106
171
57
108
166
56
105
103
42
74
9
29
47
30
45
56
123
51
84
162
58
102
164
59
104
164
62
104
137
110
101
148
182
131
148
193
135
148
188
139
149
175
160
184
207
217
186
210
225
186
210
224
187
208
225
185
207
224
179
208
221
183
204
217
182
202
214
177
202
216
179
200
217
167
191
202
110
140
152
131
160
173
172
196
205
156
182
179
125
163
119
134
168
120
122
84
86
109
26
64
91
10
57
91
12
59
91
22
63
122
54
95
123
57
97
82
81
103
57
119
135
69
122
138
97
142
152
31
37
48
23
13
29
23
12
29
22
11
28
21
10
27
21
10
27
20
10
27
18
11
27
19
12
27
19
13
28
17
13
28
15
11
26
19
9
27
17
13
27
14
12
26
15
12
27
15
12
30
14
11
28
12
10
28
12
11
29
12
11
27
12
10
24
10
8
22
110
109
137
103
103
131
104
104
132
97
96
124
91
89
118
97
92
122
96
91
121
92
88
117
93
89
119
100
94
125
101
94
125
98
91
122
104
96
128
105
97
124
104
95
119
109
99
125
114
101
126
157
113
141
222
148
175
224
148
175
225
146
177
225
146
177
225
146
180
224
144
179
224
145
180
224
145
180
224
145
179
223
146
180
223
146
180
223
146
179
224
146
178
224
145
177
224
146
178
224
146
178
225
145
179
225
146
179
225
146
177
225
145
180
225
146
178
223
145
178
224
145
177
224
144
174
223
144
170
222
141
170
203
125
155
172
70
109
178
60
106
179
59
107
175
57
109
169
55
105
131
49
88
13
21
43
19
41
58
103
48
78
161
56
103
166
56
105
166
57
105
156
63
99
133
112
98
146
182
134
145
198
135
141
188
140
150
180
172
186
211
220
186
211
222
187
209
223
185
208
222
179
208
218
182
204
215
182
202
213
177
202
216
170
192
205
156
175
187
137
166
181
113
149
160
162
191
198
168
196
195
124
160
123
130
173
118
121
127
100
105
30
62
90
11
57
90
11
58
84
13
56
119
49
90
130
57
99
111
60
94
61
102
118
59
108
125
108
162
171
47
67
75
20
13
28
21
13
28
21
12
28
21
10
27
21
10
27
19
11
27
16
12
27
15
12
28
13
10
27
13
12
28
12
12
26
17
13
28
16
13
29
15
12
28
13
10
27
13
10
29
14
11
30
12
11
29
12
11
29
11
8
25
10
7
22
10
6
21
103
101
128
104
103
132
113
114
143
106
107
134
94
92
119
95
91
117
96
91
122
97
92
123
99
94
125
102
97
127
101
95
126
101
94
125
104
97
127
99
91
119
104
95
121
114
104
132
119
102
129
168
118
147
222
146
178
225
149
176
226
147
175
225
146
178
223
146
180
224
146
178
223
146
177
225
145
179
224
145
180
223
146
180
223
146
180
225
145
178
225
145
175
225
145
175
224
145
175
224
145
175
224
145
177
225
146
178
225
146
178
224
145
178
226
146
179
224
144
179
225
145
178
224
146
176
224
147
172
225
143
171
223
141
171
205
124
155
172
71
110
178
60
106
178
59
108
172
55
107
154
55
99
53
27
49
13
33
52
89
47
76
159
56
101
169
57
105
168
57
104
165
58
104
156
65
99
136
121
106
144
189
135
144
194
137
142
182
144
164
191
191
184
209
220
186
209
223
184
208
222
179
208
219
181
205
218
180
202
215
171
192
205
156
178
191
173
197
209
145
178
188
107
146
156
142
177
184
167
198
199
137
168
145
127
174
119
123
153
111
98
53
64
90
12
58
90
11
58
86
9
56
110
42
82
130
57
98
127
57
97
86
78
103
58
106
122
103
161
174
77
107
118
15
11
29
19
13
29
19
12
27
19
11
27
19
11
28
18
13
28
16
14
28
14
10
27
14
10
27
13
12
28
14
13
27
14
12
27
17
13
28
14
12
29
13
12
31
13
11
31
13
10
28
12
11
29
12
6
24
9
7
22
7
7
22
9
6
22
94
89
114
100
97
125
109
108
137
108
106
134
97
92
118
90
86
110
93
88
116
103
99
127
102
98
125
102
98
126
101
96
126
104
99
129
106
100
130
103
95
123
108
99
125
116
105
131
124
105
131
175
123
150
224
146
177
225
148
174
226
148
175
225
146
178
223
145
179
225
145
178
225
146
177
225
146
177
225
146
179
223
146
180
223
146
180
224
145
176
223
143
172
224
145
173
225
146
173
225
146
173
225
146
176
225
146
178
225
146
178
223
146
176
209
131
162
218
139
171
223
144
174
224
146
173
225
146
172
225
145
172
223
141
170
221
142
172
206
126
157
171
74
111
178
60
106
176
57
106
167
55
99
108
43
74
23
25
45
84
42
70
161
56
102
170
56
104
167
56
105
164
55
109
164
56
107
152
63
100
128
125
103
149
187
138
147
193
136
139
175
145
175
204
204
184
207
221
184
207
221
183
206
220
179
203
216
164
187
200
163
185
199
178
198
212
177
199
212
149
181
190
107
147
157
126
162
169
166
195
198
151
176
167
129
171
122
130
168
119
90
84
69
88
12
57
91
12
59
89
11
58
96
31
69
130
57
98
131
56
97
115
60
96
71
95
112
91
149
162
105
148
163
17
25
38
18
13
29
18
14
29
18
14
29
17
13
28
13
10
25
12
9
24
17
10
26
19
11
27
16
12
27
14
13
27
15
13
27
15
12
27
13
11
28
11
11
29
12
11
28
13
11
26
12
10
24
11
4
20
7
6
21
4
9
23
6
9
24
87
83
105
88
85
108
91
86
113
87
81
109
87
79
106
89
85
107
92
88
113
99
93
120
102
96
122
98
93
119
89
87
114
89
86
114
91
86
113
91
83
110
96
87
112
104
92
117
107
86
111
179
124
150
222
143
173
224
147
171
224
146
174
224
146
178
203
126
158
224
146
178
224
146
177
224
145
177
225
145
179
223
146
180
223
146
180
224
145
177
224
145
175
224
145
176
225
146
180
225
145
180
225
146
178
225
146
177
224
146
177
224
146
174
222
143
172
203
125
152
213
135
160
223
144
169
225
145
172
225
146
172
225
143
171
223
141
170
221
141
171
209
127
157
170
74
111
176
58
104
175
55
102
149
56
96
54
49
68
87
45
76
162
57
104
170
55
104
167
56
103
162
57
107
161
57
108
163
56
107
156
66
98
134
137
111
143
189
137
145
189
137
137
172
149
180
205
209
186
207
218
183
201
216
165
186
199
162
185
199
180
203
217
181
201
216
179
199
212
153
184
193
107
148
159
114
152
160
165
192
198
162
185
185
124
165
124
127
174
119
97
117
84
84
11
54
90
11
58
90
11
58
86
20
61
128
54
97
131
56
97
129
57
96
89
67
91
65
114
128
104
162
177
66
90
97
17
13
28
19
14
28
16
14
28
14
12
27
10
8
23
15
11
25
17
13
27
17
13
27
15
13
27
13
12
27
15
13
29
14
12
29
12
11
29
11
11
29
12
11
27
11
8
22
9
8
19
8
5
19
4
7
21
1
9
22
4
10
23
86
83
103
84
81
101
88
82
105
94
85
112
90
83
109
85
81
105
83
79
102
90
82
108
92
83
110
92
84
110
86
82
107
87
83
108
79
74
97
75
67
91
83
73
98
98
87
111
105
82
105
181
124
151
223
144
174
224
147
171
223
144
174
214
137
169
206
129
160
224
145
177
224
145
178
225
146
179
225
146
179
223
146
180
223
146
180
223
146
180
223
146
180
223
146
180
223
146
180
225
146
180
225
145
177
225
146
175
223
147
173
225
147
173
224
146
172
223
144
171
212
133
160
200
122
148
224
144
171
225
145
172
224
144
173
224
142
172
223
140
170
220
142
171
208
125
159
170
74
112
175
57
106
143
61
99
88
149
158
66
127
140
137
66
104
167
55
106
168
57
106
164
57
107
163
55
108
161
56
107
161
57
105
147
71
96
134
151
120
141
191
136
141
186
141
157
182
176
183
202
211
158
179
190
174
195
207
181
203
217
182
204
218
181
202
218
179
200
213
154
185
193
107
148
160
106
145
157
156
186
194
170
196
200
119
153
132
126
175
122
90
126
83
76
39
54
92
10
56
91
11
58
84
14
58
124
51
95
131
56
97
132
57
98
117
59
95
61
86
104
87
148
162
94
133
143
23
28
40
19
12
25
16
12
26
17
14
29
16
10
27
18
11
26
17
14
28
16
14
28
14
11
27
13
11
30
12
13
31
14
11
32
13
10
31
13
10
29
12
7
24
11
5
21
8
6
20
4
8
20
4
9
21
3
10
21
4
8
20
96
89
115
91
84
110
91
84
110
94
88
114
95
89
115
87
83
106
81
77
100
88
80
106
98
89
116
94
86
112
90
84
110
90
85
110
81
75
99
76
69
92
75
65
90
80
70
94
92
70
94
186
125
153
223
146
175
225
146
171
224
145
174
201
125
156
221
142
174
224
144
177
225
145
178
225
146
177
225
146
178
223
146
180
223
146
180
223
146
180
223
146
180
223
146
180
223
147
177
225
146
177
225
145
174
225
147
172
224
148
172
225
147
173
225
147
173
225
146
172
225
145
172
216
137
164
199
121
147
218
138
164
223
142
171
223
141
171
223
140
170
223
142
169
222
138
170
206
126
158
168
77
113
142
62
100
81
146
158
48
133
144
116
64
100
165
56
109
166
56
106
165
55
106
162
57
109
161
57
110
165
54
106
161
56
103
138
75
91
139
167
126
142
191
134
138
174
139
142
165
169
178
201
212
181
205
216
182
204
218
182
204
218
180
202
218
178
200
213
155
186
194
107
147
159
101
142
154
142
175
185
169
194
205
125
152
153
117
164
114
81
126
77
72
71
57
88
14
55
91
10
59
85
14
58
116
46
88
132
55
97
133
56
98
126
57
95
81
80
104
66
125
138
100
155
165
43
62
72
18
11
26
18
11
26
18
13
29
20
11
27
17
9
27
13
10
28
13
11
27
13
11
28
14
11
30
12
11
29
12
12
29
12
11
26
9
10
22
6
7
18
8
6
21
4
7
20
4
7
19
6
7
19
5
11
19
8
10
20
96
84
113
91
81
110
91
83
109
91
86
110
95
90
114
92
84
110
91
83
110
91
82
109
95
86
113
95
87
113
96
87
114
99
90
117
94
88
112
78
70
94
85
75
100
93
82
108
98
75
100
191
128
154
223
145
172
223
145
174
223
146
175
196
124
153
222
144
178
223
146
179
224
146
179
224
145
179
224
145
180
223
146
180
223
146
180
224
146
178
225
146
178
225
146
179
224
145
176
225
146
175
223
145
172
225
147
172
225
147
173
225
147
173
225
147
173
225
147
173
225
146
172
223
144
170
221
139
167
203
122
149
215
132
162
224
140
171
224
140
170
223
140
168
223
140
168
221
138
169
206
128
159
166
80
116
119
73
102
55
62
80
95
40
75
160
54
107
164
55
106
165
55
107
165
55
108
163
56
108
164
56
103
164
56
101
160
59
99
132
111
97
146
183
132
142
187
134
138
170
153
182
203
214
183
204
215
182
204
218
182
204
218
179
203
217
176
200
209
156
187
195
106
146
157
102
142
151
122
159
167
170
196
205
128
156
164
100
144
108
77
125
74
67
92
62
84
26
54
90
11
58
88
14
57
108
42
78
132
55
97
134
56
98
127
56
95
89
76
102
55
115
131
93
156
168
70
103
113
16
10
27
20
12
28
18
12
28
18
13
28
12
10
27
13
12
30
13
12
30
13
12
29
14
11
29
12
9
28
12
9
25
8
10
22
3
11
20
3
10
20
4
10
21
4
10
22
5
7
21
7
7
19
7
8
20
9
9
21
89
80
103
90
85
107
91
85
108
91
84
108
90
83
107
93
84
111
94
85
112
93
84
111
91
82
109
89
80
107
89
80
107
97
88
115
94
87
112
85
77
101
87
77
102
94
83
109
110
87
112
195
131
159
223
144
173
223
145
178
221
144
176
201
129
158
222
145
179
223
146
180
223
146
180
223
146
180
223
146
180
224
145
180
224
145
180
225
146
178
225
146
177
224
145
175
224
145
174
224
146
172
224
146
172
225
147
173
224
146
172
225
147
173
225
147
173
225
147
173
225
147
173
225
145
172
226
143
171
225
142
170
201
122
150
211
131
160
222
141
170
223
140
168
223
140
168
223
139
168
219
140
169
202
127
155
158
78
108
111
44
75
38
24
45
123
49
89
164
55
107
166
55
108
166
55
108
163
56
105
163
55
101
164
55
98
161
56
98
145
59
88
133
137
111
138
190
131
138
182
137
156
181
181
180
203
211
182
204
218
182
204
218
179
203
217
177
200
209
157
187
195
106
147
155
104
143
150
110
146
153
162
191
197
121
155
163
88
127
115
69
115
72
66
107
66
74
44
49
90
11
55
89
12
56
103
37
72
131
54
95
134
56
98
131
57
97
98
72
102
54
115
132
79
145
157
98
148
156
20
27
40
15
13
27
17
13
28
17
14
28
14
12
28
12
11
29
13
12
30
14
12
30
13
10
25
11
9
24
8
8
23
4
9
20
5
11
21
5
10
21
4
10
21
4
10
22
6
9
22
9
9
22
10
10
22
10
10
22
81
81
101
89
83
106
96
86
111
94
84
109
95
86
111
98
92
117
97
91
116
90
84
109
81
74
99
81
74
99
84
78
102
86
80
105
85
81
104
86
80
104
86
79
103
87
77
101
119
95
118
199
133
163
223
145
177
223
144
179
217
141
174
207
134
165
223
145
178
223
146
179
223
146
179
222
147
180
223
146
180
224
145
180
224
145
178
224
146
176
225
146
174
225
146
173
223
146
174
223
146
173
224
147
173
224
146
172
224
146
172
224
146
172
224
146
172
225
146
173
225
146
173
225
145
172
224
142
171
223
140
169
222
141
171
207
128
157
208
130
158
222
142
169
223
140
168
222
140
168
220
139
169
217
138
169
202
126
156
127
68
95
27
24
41
74
41
68
155
56
103
167
55
107
166
55
106
162
55
102
163
53
99
163
53
97
160
57
99
159
56
99
139
72
94
130
160
116
139
188
131
124
161
134
151
180
184
177
203
215
181
203
218
179
203
219
177
200
211
156
187
194
104
147
155
102
143
151
103
135
142
153
179
185
115
154
161
88
125
133
66
109
76
66
112
65
67
73
55
86
12
52
90
11
55
99
31
68
129
54
95
132
57
98
130
58
98
103
68
100
55
112
129
71
134
149
103
164
171
61
88
97
12
14
28
16
13
28
16
13
29
13
11
27
13
11
29
13
11
30
12
10
28
10
9
23
10
10
24
12
11
28
11
10
27
11
10
25
12
11
24
12
10
24
12
11
24
12
11
25
13
11
25
12
11
25
12
12
24
89
86
107
96
90
114
98
89
115
94
85
110
94
86
110
95
91
114
90
86
109
83
79
102
75
71
94
77
73
96
81
77
100
79
75
98
84
81
103
85
80
104
82
75
99
81
69
93
104
76
97
201
134
164
222
145
179
223
144
178
216
138
172
208
135
168
223
145
177
223
146
178
223
146
179
223
146
180
224
145
180
224
145
177
224
145
176
223
145
173
225
147
173
225
146
173
224
145
174
223
145
174
224
146
173
224
146
172
224
146
172
224
146
172
224
146
172
225
146
172
226
146
173
224
145
172
223
144
173
224
140
171
224
141
171
223
143
172
205
127
155
209
132
157
223
141
169
222
140
168
220
140
170
217
138
169
214
134
163
173
108
136
43
33
49
32
37
53
141
53
95
167
56
105
168
55
104
166
55
102
165
53
101
165
53
100
163
55
100
160
57
99
153
55
96
132
97
92
139
175
124
137
181
132
106
143
129
153
183
190
177
202
215
178
202
216
177
199
212
156
186
193
105
147
156
102
142
152
99
129
137
158
184
193
111
149
156
94
134
145
65
104
89
64
112
66
71
94
65
77
20
47
90
12
55
95
29
66
127
55
94
129
57
97
129
58
99
106
66
99
58
109
127
65
125
142
101
163
172
95
139
147
77
110
117
34
45
55
16
9
28
12
10
26
13
11
27
12
10
27
11
9
26
11
11
26
11
13
28
14
12
30
14
11
30
13
10
28
13
11
28
13
11
28
14
11
28
14
12
28
14
11
27
12
11
24
12
12
23
85
76
99
92
83
109
94
85
111
92
83
107
86
80
103
85
80
103
77
73
97
74
70
93
78
74
97
77
73
96
77
73
96
82
78
101
87
83
106
85
77
101
85
74
99
89
72
96
108
77
97
202
135
165
222
144
178
224
143
178
216
137
171
207
132
165
224
145
178
223
145
177
222
146
178
223
146
180
223
145
179
224
145
176
224
145
174
223
146
172
223
145
171
223
143
171
223
143
172
223
144
173
224
145
172
225
147
173
225
147
173
224
146
172
223
145
171
224
144
171
224
144
171
223
143
171
224
144
173
224
140
171
225
140
171
224
141
171
222
142
170
204
127
152
211
130
157
223
141
169
222
142
171
217
139
168
215
136
162
175
109
135
46
33
49
20
40
53
122
49
84
166
57
103
172
55
104
170
55
104
166
54
102
166
54
100
164
53
98
161
54
99
155
53
97
151
59
98
128
120
102
141
184
129
127
168
126
108
142
143
160
189
201
177
201
214
177
198
211
156
184
193
106
146
156
104
143
153
97
127
135
157
187
194
107
144
150
96
137
147
88
124
124
63
106
64
68
105
66
75
44
50
88
13
54
92
26
63
124
54
93
131
57
97
132
56
98
108
60
96
60
106
126
58
119
138
97
163
173
95
146
157
105
166
172
97
145
152
44
67
73
9
12
27
9
12
24
12
12
24
13
11
25
11
13
28
10
13
28
13
11
27
13
11
26
13
11
27
13
12
30
13
12
31
14
11
30
13
11
30
13
10
28
13
11
25
12
12
23
88
79
103
84
79
102
84
78
102
88
79
105
90
82
108
93
87
110
87
83
109
71
68
94
68
66
90
67
64
88
66
62
85
66
61
84
68
61
84
74
64
89
82
68
94
81
63
87
104
71
90
208
137
162
223
143
170
225
143
171
213
137
163
209
134
160
224
144
178
224
145
176
225
146
176
225
146
177
224
145
176
225
147
174
224
146
172
224
146
172
224
144
171
215
133
163
203
116
149
222
136
168
223
143
170
224
146
172
224
146
172
225
147
173
224
146
172
224
145
173
223
143
172
223
140
170
223
140
170
224
141
171
224
141
171
224
141
171
224
141
171
222
142
169
199
120
147
213
133
162
220
140
169
218
139
168
216
134
163
166
104
130
41
31
48
19
44
55
97
43
71
165
56
102
171
54
103
170
56
105
167
53
102
165
51
101
165
51
99
165
52
98
162
53
98
155
57
96
138
69
88
131
156
117
138
182
125
113
151
125
116
152
158
164
195
204
176
198
209
155
182
193
107
145
158
104
142
154
108
134
144
152
181
186
104
141
151
95
136
147
94
131
138
59
103
68
66
108
65
73
68
56
89
11
55
92
23
62
124
52
92
133
55
97
130
54
97
109
60
96
59
108
127
54
116
136
92
159
167
97
150
158
106
170
176
107
171
177
106
158
167
62
92
99
14
21
34
11
11
29
12
11
27
11
13
26
12
14
27
12
14
27
12
14
27
12
14
26
12
14
27
12
14
29
12
12
30
12
12
30
14
12
29
13
10
27
13
10
27
89
80
105
82
76
100
86
79
103
92
83
107
91
82
106
92
83
107
87
82
108
87
82
108
89
83
108
79
72
98
74
66
90
76
68
92
79
71
95
77
67
92
77
65
91
85
71
93
117
82
102
210
139
162
222
145
168
224
144
169
210
134
159
210
135
160
223
145
174
225
146
178
225
146
177
225
146
175
224
145
174
224
146
173
224
146
172
223
144
170
224
142
169
215
130
162
182
82
124
203
109
147
224
141
170
224
145
171
225
145
172
224
146
172
224
146
172
223
144
172
222
142
171
223
141
170
223
140
170
223
140
170
223
140
170
223
140
170
223
140
170
221
141
168
219
139
166
197
120
148
215
136
165
217
136
166
217
132
163
150
97
120
31
35
49
22
48
58
95
63
82
159
71
105
168
55
100
169
56
101
165
52
98
165
52
99
164
53
100
164
52
98
162
54
98
156
55
95
154
57
96
129
101
95
139
177
129
134
173
126
99
136
127
129
166
173
169
198
206
146
178
188
105
143
156
102
141
153
121
146
157
144
172
177
98
137
146
96
137
147
96
130
138
66
93
73
66
87
60
71
68
56
86
13
53
90
20
57
124
51
91
131
54
96
131
55
98
110
57
95
63
106
127
54
116
135
85
152
160
96
149
158
105
169
176
106
172
179
103
172
179
104
163
168
73
105
112
9
10
30
11
13
30
12
14
27
12
14
27
12
14
27
13
15
28
13
15
27
12
14
27
12
13
29
12
12
27
14
12
27
13
12
28
12
12
28
11
11
27
68
59
83
76
70
93
87
78
103
97
85
110
95
84
106
91
83
104
95
87
112
98
89
116
93
84
111
91
82
108
79
69
93
69
59
84
65
56
80
66
57
79
75
63
86
87
76
96
124
85
108
212
139
167
223
145
174
224
143
172
208
132
159
210
135
161
223
145
172
225
146
175
225
146
175
225
147
173
224
146
173
224
146
172
224
146
172
223
143
171
224
141
170
223
138
170
185
91
133
181
77
125
210
123
156
222
141
170
224
143
170
224
145
171
224
145
171
224
143
172
222
141
170
223
140
170
223
140
170
223
140
170
223
140
170
223
140
170
223
140
170
222
140
168
219
140
167
212
135
162
185
110
138
214
134
166
211
132
162
123
80
98
32
39
51
28
51
60
112
74
93
189
115
145
157
62
100
169
57
100
167
54
99
164
52
99
163
53
100
164
53
99
163
53
99
158
52
96
158
54
97
143
55
91
131
138
110
142
181
126
115
155
120
101
140
143
145
178
187
134
170
178
104
142
156
100
136
148
135
162
170
125
157
164
97
135
145
94
131
140
85
96
108
63
17
38
66
11
33
65
10
34
89
10
50
89
19
57
122
50
92
130
53
95
132
55
98
112
57
95
65
105
123
53
117
135
81
148
157
94
148
156
104
169
173
105
173
177
106
172
183
106
171
179
106
162
170
53
78
88
11
10
30
10
12
27
12
14
27
12
14
27
13
15
28
13
15
27
12
14
27
11
14
30
12
13
28
13
13
29
12
13
28
9
11
26
9
11
26
73
64
88
83
75
99
91
82
108
98
85
111
99
87
109
97
87
110
95
85
109
89
80
103
78
70
93
81
72
95
74
64
88
72
62
85
73
65
87
84
74
97
84
73
96
80
69
89
126
83
106
218
143
170
223
144
172
223
143
172
208
131
159
211
135
163
223
145
171
224
146
172
224
146
172
225
147
173
225
147
173
224
146
172
224
146
172
223
142
170
224
141
171
223
140
170
200
111
149
179
73
123
183
85
128
216
129
164
224
140
170
224
142
171
224
142
171
224
142
171
224
141
171
223
140
170
223
140
170
223
140
170
223
140
170
223
140
170
223
140
170
223
140
168
222
141
168
222
141
169
207
127
158
189
108
140
203
127
156
134
90
108
59
50
63
45
48
58
161
108
130
212
133
163
183
107
135
159
54
93
171
54
99
167
54
101
164
52
100
165
52
100
164
50
99
158
51
97
154
53
98
156
55
99
128
78
87
133
169
121
136
178
132
105
141
129
110
146
156
112
148
161
103
141
157
98
132
144
145
173
180
106
142
150
97
134
144
88
107
117
70
28
49
70
6
36
70
8
37
62
8
34
76
8
42
88
19
57
125
51
93
130
53
95
131
55
98
112
56
93
64
106
120
53
118
135
81
144
156
93
148
155
102
170
175
101
167
176
105
170
181
108
172
184
103
171
179
94
142
149
26
36
47
11
12
29
12
14
29
12
14
28
12
14
28
12
14
28
12
14
28
12
14
29
13
14
26
13
13
27
11
12
27
6
8
21
5
7
20
76
67
90
78
70
93
88
79
106
96
84
110
98
86
108
96
86
110
94
84
110
88
79
101
72
64
83
66
58
78
72
62
86
74
64
88
76
68
92
87
76
101
91
79
104
92
80
102
131
86
107
220
144
169
224
145
172
224
144
171
208
132
160
211
134
162
223
145
171
224
146
172
224
146
172
224
146
172
225
147
172
224
146
172
223
145
172
223
142
171
224
141
170
222
140
169
215
129
163
182
78
128
182
74
125
193
99
140
222
136
170
224
141
171
224
141
171
224
141
171
224
141
171
223
140
170
223
140
170
223
140
170
223
140
170
223
140
170
223
140
170
223
140
168
224
139
168
222
140
169
218
136
167
185
105
135
201
114
145
211
133
162
171
108
136
165
107
131
211
132
161
218
132
161
213
130
158
176
93
123
165
57
99
168
54
101
164
52
100
164
52
100
164
51
100
159
51
97
154
49
93
156
52
91
150
57
94
127
123
101
133
179
123
120
158
120
101
138
140
102
142
152
103
142
156
100
134
145
134
164
171
99
136
145
98
128
137
73
53
68
68
6
33
80
8
40
79
8
40
69
7
34
76
8
38
90
28
61
128
52
95
133
54
97
130
54
97
111
57
93
63
106
121
53
117
135
82
144
156
92
148
154
101
167
176
65
127
145
78
139
153
105
170
182
104
172
180
103
160
166
48
70
78
9
11
28
10
12
27
10
12
28
9
10
28
11
11
29
13
12
28
12
12
24
13
12
21
12
11
22
11
11
23
6
8
21
4
6
19
89
81
98
82
73
95
84
74
100
87
77
102
89
80
100
86
78
97
77
68
89
74
65
88
73
64
88
77
67
92
79
69
94
79
69
94
77
69
93
87
74
99
94
81
107
102
87
111
139
93
115
221
146
172
224
146
172
224
144
173
208
131
158
210
135
159
222
146
172
223
146
172
224
146
172
225
145
172
225
145
172
223
145
173
222
143
172
224
142
170
223
140
168
222
139
168
214
130
164
186
91
133
180
71
122
179
75
123
200
109
147
222
137
171
223
139
171
223
140
170
223
140
170
223
140
170
223
140
170
223
140
170
223
140
170
223
140
170
223
140
170
223
140
170
223
140
170
223
140
170
221
138
168
211
131
161
168
81
114
209
120
154
217
134
168
218
136
168
217
137
165
219
137
164
218
133
162
210
127
157
162
79
110
164
54
98
166
53
98
162
54
99
163
53
98
162
52
98
158
50
93
157
50
91
156
53
94
132
73
85
130
165
118
131
176
125
93
133
116
102
144
149
101
143
151
102
135
145
106
142
149
99
135
147
88
96
110
70
6
36
72
7
34
83
8
42
77
8
37
69
7
34
77
8
40
82
17
49
123
51
89
131
54
97
129
52
95
111
58
94
61
107
124
51
119
136
84
146
157
90
147
156
86
149
161
55
116
135
56
118
135
93
156
171
103
170
180
105
166
173
69
99
109
2
7
19
5
7
22
4
7
21
6
9
22
7
9
22
10
10
23
12
10
23
13
11
24
13
11
23
12
11
24
8
9
21
4
8
20
97
88
104
94
85
106
93
83
106
93
84
102
80
72
90
73
65
83
82
73
93
89
80
103
87
77
102
79
69
94
75
65
90
76
66
91
77
69
93
89
76
101
95
83
108
99
84
107
142
94
117
223
147
173
224
146
172
223
144
172
211
133
162
210
135
160
222
146
172
224
146
172
224
146
173
224
145
175
224
145
175
224
144
174
223
143
172
222
140
169
223
140
168
224
140
168
214
134
165
178
94
129
177
71
119
181
72
123
182
77
125
212
121
160
223
139
174
222
140
171
223
140
170
224
141
171
224
141
171
223
140
170
223
140
170
223
140
170
223
140
170
223
140
170
223
140
170
224
141
171
223
140
170
218
138
168
192
113
144
181
87
123
219
128
164
219
136
168
216
138
165
218
137
165
218
134
162
217
132
162
205
123
155
157
67
103
166
54
98
163
52
98
163
53
98
162
52
97
157
49
92
157
50
92
156
50
93
148
51
94
119
107
93
135
175
128
116
162
120
91
133
129
98
141
148
90
124
134
96
135
146
98
125
139
72
50
67
76
7
38
74
6
35
81
8
41
68
7
34
67
7
32
74
8
37
75
10
41
123
50
88
131
52
96
129
52
95
108
62
95
58
108
125
54
116
136
86
145
157
85
141
152
66
129
143
51
116
137
50
116
137
72
135
149
103
169
180
106
169
178
88
129
139
3
10
25
4
10
22
4
8
19
4
9
19
7
10
20
9
8
18
12
10
21
13
11
23
13
11
27
12
11
27
11
11
25
7
11
23
81
72
90
85
76
95
80
71
90
77
68
85
82
74
92
90
80
103
94
84
108
92
82
105
92
83
106
87
77
101
84
75
99
87
78
102
90
82
105
94
83
108
98
86
111
104
89
112
154
101
125
223
146
173
223
145
171
223
144
173
215
137
166
211
134
160
221
145
171
223
146
173
223
145
174
224
144
174
223
143
173
223
142
171
223
141
171
223
140
170
223
140
169
223
140
169
221
137
168
190
110
143
172
73
120
181
70
124
182
71
125
187
86
131
220
132
170
222
140
172
222
139
170
224
141
170
224
141
171
223
140
170
223
140
170
223
140
170
223
140
170
223
140
168
223
140
169
224
139
169
223
138
168
219
136
166
213
132
162
165
83
113
195
101
138
218
134
165
216
137
164
217
137
164
217
136
164
215
134
162
216
126
162
192
109
144
155
59
96
164
53
97
164
54
97
161
51
96
156
49
94
154
46
92
144
42
87
127
32
79
100
40
58
88
116
79
89
137
90
80
119
105
98
136
143
86
121
129
97
137
147
92
115
129
76
31
53
73
7
37
71
7
36
77
9
39
67
7
33
71
8
35
70
7
33
64
7
34
115
46
85
131
52
98
128
53
97
98
69
99
55
113
129
54
117
136
94
148
160
71
129
140
52
118
133
47
115
133
46
116
137
56
122
138
97
161
174
106
169
178
101
151
157
7
20
33
3
12
22
9
9
20
11
10
21
11
10
21
12
10
22
12
10
23
13
11
24
13
11
25
13
10
28
12
11
27
9
9
23
92
82
101
70
61
80
63
54
73
65
56
75
80
71
90
91
81
105
94
84
108
91
82
104
92
82
106
94
84
109
98
89
114
97
88
113
97
89
113
100
90
115
105
92
118
111
96
120
164
109
134
224
146
173
224
146
172
223
145
173
214
138
166
208
131
157
222
144
169
223
144
172
223
142
173
224
141
171
224
141
171
223
140
170
223
140
170
223
140
170
223
140
170
223
140
170
221
137
169
219
137
169
167
81
117
175
70
117
179
71
123
179
71
120
194
99
139
220
135
169
222
139
170
224
141
169
224
141
171
223
140
170
223
140
170
223
140
170
223
140
170
223
140
168
223
140
168
223
138
167
223
138
167
221
136
166
219
134
165
182
107
134
172
78
117
207
122
154
217
136
164
217
137
164
217
137
164
217
137
163
219
131
164
212
128
163
175
97
126
156
55
95
164
52
97
159
50
97
151
44
91
127
28
73
103
13
57
97
13
55
93
15
53
75
63
56
70
116
72
67
111
76
88
119
123
90
125
140
94
137
147
90
114
128
77
27
51
72
7
37
69
6
35
72
8
35
70
8
34
69
7
34
70
9
34
61
6
31
109
45
81
132
51
96
119
55
97
70
87
107
54
117
135
56
118
137
89
142
157
48
108
123
49
114
133
46
114
133
45
116
134
47
116
135
82
147
160
106
169
176
106
164
166
36
55
64
5
12
24
11
11
25
12
10
25
12
10
25
12
10
26
13
11
26
14
11
26
13
11
26
13
10
25
12
10
25
8
7
21
90
78
97
93
80
101
91
79
101
88
80
101
85
76
97
83
72
95
81
71
95
87
79
101
96
87
110
97
87
111
100
91
115
100
91
117
98
89
113
97
86
112
101
89
115
109
92
115
173
115
141
225
145
174
223
146
172
224
145
172
216
138
166
210
132
158
223
144
169
223
142
171
223
140
170
224
140
170
224
139
170
223
140
170
223
140
170
223
140
170
223
140
170
223
140
170
223
140
171
221
139
168
206
125
153
165
73
110
175
70
119
180
71
120
179
74
119
202
113
149
222
139
169
223
140
169
224
141
170
223
140
169
223
140
170
223
140
170
223
140
170
223
139
168
223
139
167
222
138
167
223
138
167
222
139
168
221
137
167
209
127
158
161
71
109
189
98
134
216
133
164
217
136
165
218
136
165
217
137
161
220
133
163
216
130
163
205
125
154
166
80
112
161
52
97
151
44
91
120
23
68
101
11
56
97
11
56
97
13
57
94
14
55
88
23
52
73
96
65
73
116
70
64
96
75
96
133
144
94
136
147
95
119
134
72
36
55
72
8
36
70
7
36
69
8
34
73
8
35
70
7
34
74
7
35
70
7
35
85
24
56
115
57
94
79
79
104
55
112
127
53
116
137
61
120
139
78
132
148
50
110
130
49
115
136
47
115
136
44
114
131
46
117
136
62
130
143
104
167
175
105
168
171
60
87
96
5
10
25
12
11
27
13
10
28
14
11
28
14
11
29
14
11
29
14
11
29
14
11
29
13
11
25
13
11
23
13
11
26
104
91
111
101
88
110
103
90
115
102
96
120
100
94
117
104
93
116
104
94
119
97
94
119
89
85
107
87
81
100
92
85
105
100
91
114
98
88
112
95
84
107
95
83
107
101
80
103
182
123
149
224
144
174
223
146
173
225
145
171
217
137
164
211
132
158
224
144
169
224
142
173
223
140
166
223
140
169
223
140
170
223
140
171
224
141
171
223
140
170
223
140
170
224
141
170
224
139
168
223
138
167
219
137
166
184
105
135
170
70
113
177
69
117
180
69
118
181
76
120
211
123
157
221
139
169
223
140
168
223
140
168
223
140
170
223
140
170
223
140
169
224
139
168
224
139
168
222
139
167
223
140
168
223
139
168
222
137
168
219
134
168
184
100
136
169
73
113
210
118
157
219
133
167
220
135
167
217
136
162
219
134
160
217
131
161
212
127
160
195
113
145
148
60
93
123
25
69
103
11
56
99
11
55
98
13
55
99
12
55
99
12
55
93
15
53
73
51
47
72
112
72
69
113
75
84
121
123
96
138
148
91
109
125
65
30
49
72
7
35
79
9
38
77
7
36
73
8
35
69
8
33
70
6
34
73
6
40
68
15
46
64
83
104
59
112
134
51
117
136
51
115
136
66
126
145
68
122
138
55
116
132
47
116
134
45
113
132
45
112
131
46
112
134
53
117
135
97
162
168
105
167
173
76
111
121
4
9
24
11
11
25
12
11
26
13
12
27
14
11
30
14
11
30
14
11
30
13
11
27
13
12
25
13
12
26
15
13
27
110
101
130
111
101
128
110
103
128
106
102
127
105
97
123
106
94
120
104
94
121
105
101
127
111
108
135
108
105
132
95
90
117
87
81
105
80
71
91
82
72
90
95
83
102
109
88
111
183
123
151
224
144
174
223
146
173
224
144
171
218
139
165
211
132
159
223
144
170
224
143
173
222
141
166
224
141
169
224
141
171
224
141
171
224
141
171
223
140
170
223
140
170
224
141
170
224
139
168
224
139
168
222
140
165
217
137
163
168
83
115
172
70
114
181
69
117
180
69
116
184
83
123
215
129
161
222
139
167
222
139
167
223
140
170
224
141
171
224
141
170
224
139
168
223
138
167
222
139
167
222
139
167
223
139
168
221
136
167
220
135
169
211
126
162
163
75
112
185
87
126
218
128
162
217
136
164
218
136
162
219
135
161
218
130
161
214
126
161
206
120
154
148
72
104
100
12
57
103
12
57
99
11
54
98
13
55
100
13
56
100
13
56
98
13
56
90
21
51
72
86
61
70
114
69
82
115
108
96
113
126
104
83
100
77
32
52
72
7
35
82
7
38
74
8
36
67
6
32
67
7
33
70
7
34
76
7
41
61
19
45
53
102
121
57
116
139
58
116
138
56
117
138
68
129
147
58
114
129
53
115
128
47
116
129
45
113
128
45
112
129
45
112
131
49
116
132
85
151
156
103
168
174
85
129
136
8
13
27
11
12
29
12
12
29
13
12
29
14
11
30
14
11
30
14
11
30
12
10
26
13
11
25
13
11
25
14
12
26
110
106
135
108
102
129
108
104
131
107
103
132
105
96
125
101
91
119
104
96
127
105
102
131
113
111
140
114
110
141
103
96
128
99
92
116
93
83
102
86
74
92
82
69
87
92
73
95
160
106
130
223
144
171
224
145
171
224
144
172
217
138
166
208
131
158
222
143
170
224
144
170
224
144
170
223
143
171
224
141
171
224
141
171
223
140
170
223
140
170
223
140
170
223
140
170
223
140
169
223
140
169
222
138
166
221
138
166
210
130
157
166
76
111
181
68
115
182
68
116
180
69
118
189
90
131
219
132
166
222
138
168
222
140
170
223
141
171
223
140
170
224
139
170
223
138
170
223
138
170
222
138
170
223
138
170
223
138
170
222
137
167
216
133
164
178
101
131
171
71
111
203
112
149
218
133
163
218
134
161
218
132
160
217
129
159
213
124
158
185
95
132
151
64
105
114
39
76
98
12
57
99
12
56
98
13
57
100
13
57
99
12
57
98
11
55
90
14
56
74
61
51
71
109
70
78
88
83
108
86
108
119
84
105
84
41
61
70
8
37
81
8
38
79
8
38
69
8
35
62
5
30
71
7
36
75
8
40
53
23
44
58
107
124
55
117
136
56
116
136
54
116
137
66
125
140
56
113
131
48
117
131
46
115
129
45
112
128
46
111
129
46
111
129
45
112
128
71
137
149
100
167
174
91
140
149
18
26
37
12
14
28
12
12
29
14
12
30
14
11
31
14
11
30
14
11
29
14
11
29
14
11
29
13
10
28
13
10
28
106
99
123
106
99
126
109
108
136
110
107
135
104
99
126
99
92
116
104
99
126
104
101
130
107
104
133
107
102
132
101
94
122
97
89
114
90
81
103
94
83
105
100
87
110
95
79
102
123
84
106
210
139
167
223
142
171
223
144
170
217
138
167
205
129
157
222
142
172
223
143
171
224
144
171
224
144
173
224
144
173
225
142
172
224
141
171
223
140
170
223
140
170
223
140
170
223
140
170
223
140
170
223
140
169
223
139
168
221
138
167
196
117
146
166
69
109
178
68
116
180
68
122
179
70
119
195
101
139
221
135
168
221
138
168
223
139
169
222
138
169
223
138
171
223
138
171
223
138
171
223
138
171
223
138
170
223
138
168
221
137
165
220
134
162
204
123
153
162
71
109
182
86
128
215
127
160
218
134
163
216
131
161
215
128
160
195
107
144
158
65
108
155
60
107
140
57
99
100
21
61
97
11
56
99
11
56
99
12
57
99
12
57
98
11
56
92
13
53
72
68
53
77
97
74
107
83
96
119
86
109
116
82
104
73
38
57
71
7
39
71
6
34
83
8
39
77
9
38
64
6
31
63
5
31
66
6
36
51
40
59
60
111
130
55
117
138
50
116
136
50
115
138
63
120
135
53
113
132
46
117
135
47
115
135
45
112
131
46
111
129
46
111
129
45
113
128
62
127
142
97
165
172
95
151
158
33
51
58
12
14
27
12
11
28
13
10
29
13
12
28
13
11
28
13
12
27
13
12
27
14
12
28
14
12
28
14
12
28
107
96
119
110
106
133
112
113
142
112
112
140
103
101
129
106
104
131
108
107
137
109
107
137
107
102
132
102
95
124
104
96
120
107
99
123
106
100
123
106
98
123
107
98
125
105
94
119
102
77
100
177
118
146
220
141
171
224
144
170
220
141
169
201
125
152
223
141
173
223
142
172
223
141
170
224
142
172
224
143
173
223
141
171
224
141
171
223
140
170
223
140
170
223
140
170
223
140
170
223
140
170
222
141
169
223
139
168
223
138
167
220
137
167
190
107
140
171
68
114
179
68
123
180
67
121
179
73
118
204
114
152
220
135
169
221
137
169
222
136
168
223
138
171
223
138
171
223
138
171
223
138
171
222
138
170
222
137
166
222
137
163
222
134
161
220
134
164
171
91
123
168
66
111
201
111
147
217
132
165
216
130
162
206
117
153
166
72
115
158
62
110
156
59
108
151
60
107
124
46
88
93
13
56
97
11
56
99
12
56
99
12
56
98
11
56
87
20
50
74
79
62
94
86
84
120
88
108
119
88
108
96
64
85
54
14
39
70
8
38
69
7
35
70
6
34
70
6
33
67
7
33
67
5
34
68
18
46
59
84
99
51
117
136
51
117
137
46
116
138
47
116
138
55
111
129
49
112
132
44
116
132
46
114
130
45
112
129
46
111
129
46
111
129
45
111
128
56
122
137
96
163
170
102
164
170
54
84
90
12
14
27
12
12
27
13
12
28
13
13
27
14
13
27
14
14
27
14
14
27
14
14
27
14
14
27
14
14
28
115
108
134
114
113
140
110
114
140
113
114
142
107
107
137
107
103
132
112
110
139
111
114
144
103
100
130
101
90
118
100
88
111
102
93
114
106
99
122
113
107
134
114
109
140
111
105
135
108
94
124
118
85
110
203
135
163
221
140
168
222
142
169
199
123
148
223
140
170
224
141
171
224
141
171
224
141
171
223
140
170
223
140
170
223
140
170
223
140
170
223
140
170
223
140
170
223
140
170
223
140
170
223
140
169
223
139
167
223
138
167
223
138
167
220
135
168
185
101
134
171
69
114
180
68
120
180
68
118
179
78
124
215
123
161
222
137
171
222
137
169
223
138
171
223
138
171
223
138
171
223
138
171
223
138
171
222
139
169
222
137
165
221
135
161
219
133
162
206
124
156
159
69
107
178
80
120
213
123
159
212
123
159
174
84
124
160
64
111
158
60
109
156
60
108
152
60
107
142
58
102
100
27
66
98
12
57
99
12
55
99
10
54
97
12
55
74
33
48
95
80
81
119
88
101
123
85
109
99
66
90
56
17
45
55
7
42
59
6
37
73
7
39
74
8
40
72
10
39
55
23
47
55
50
71
60
89
106
55
115
132
52
119
138
51
118
137
44
118
140
49
115
135
43
101
116
48
114
131
46
116
134
46
113
132
46
111
131
46
111
129
46
111
129
46
112
129
51
118
135
97
161
170
103
168
175
78
116
124
11
12
26
13
14
27
12
15
28
13
15
27
13
15
27
13
15
28
13
15
28
12
14
27
12
14
27
13
15
28
105
98
122
117
115
140
118
121
146
121
122
148
113
114
143
103
100
130
109
108
137
120
125
154
114
115
143
109
102
129
104
94
120
107
101
124
107
98
123
110
100
128
108
99
130
107
100
126
107
100
127
104
91
114
141
96
121
216
141
170
223
143
170
196
121
145
223
141
171
225
142
172
224
141
171
223
140
170
223
140
170
223
140
170
223
140
170
223
140
170
223
140
170
223
140
170
223
140
170
223
140
170
223
140
169
224
140
168
224
139
168
224
139
169
222
137
167
220
136
165
181
98
130
172
68
115
180
67
117
177
67
116
184
83
125
218
129
164
223
138
170
223
138
171
223
138
171
223
138
171
222
137
170
222
137
170
222
139
169
222
137
165
221
135
161
220
132
161
216
129
163
176
96
129
165
68
109
182
85
125
174
77
121
161
63
113
157
61
109
158
60
107
157
61
109
153
61
108
142
58
102
101
28
66
98
11
56
98
11
54
92
13
53
87
35
61
104
75
91
122
88
104
121
86
108
101
65
92
56
16
46
55
7
43
55
6
43
52
5
40
55
5
36
61
5
36
43
31
53
58
102
122
55
114
133
52
118
135
53
120
135
55
119
138
49
118
139
45
117
138
50
113
129
41
100
114
47
117
132
46
115
134
46
113
132
45
111
130
46
111
129
47
112
130
46
112
129
56
123
139
96
162
171
101
169
175
81
121
129
11
12
26
12
14
27
12
15
28
10
12
28
11
13
28
11
13
27
12
14
27
13
15
28
13
15
28
13
15
28
93
84
109
109
103
130
115
115
143
119
122
151
117
121
151
115
118
147
120
124
149
120
126
153
117
120
150
113
111
140
108
104
130
107
104
130
98
90
116
99
89
116
97
86
113
97
87
111
100
92
116
104
94
117
111
85
108
187
123
151
221
142
169
200
124
150
217
138
165
224
140
169
224
141
170
224
140
171
224
139
170
223
140
170
223
140
170
223
140
170
223
140
170
223
140
170
223
140
170
223
140
170
223
140
170
223
140
170
223
140
170
224
139
171
223
138
170
222
137
169
219
135
168
184
99
132
173
68
110
181
67
115
181
69
116
192
96
133
220
134
166
222
137
167
222
137
169
223
138
171
223
138
171
223
138
171
223
138
171
223
138
169
220
136
162
219
133
161
218
132
162
197
118
148
155
69
104
163
65
109
162
65
113
157
66
114
156
64
111
156
62
107
158
61
107
153
60
107
140
58
100
95
17
57
95
13
54
91
19
55
103
57
81
119
83
103
123
89
109
122
86
108
91
60
81
55
17
48
57
6
49
58
7
47
53
6
42
50
14
38
43
15
37
49
4
40
49
80
98
56
118
140
53
118
140
52
121
140
54
120
138
56
120
138
51
118
138
46
117
138
51
111
129
43
101
113
45
117
132
48
116
134
48
115
131
45
112
128
46
112
129
47
112
130
45
113
130
70
134
150
99
165
177
100
166
173
61
96
103
12
12
27
11
12
25
12
14
28
12
13
29
11
13
28
10
12
27
11
13
28
13
15
28
13
15
28
13
15
28
94
82
105
109
100
124
112
108
133
115
115
142
116
117
146
118
119
148
126
128
155
122
124
150
113
112
138
105
100
127
103
97
121
102
95
120
98
89
115
94
84
111
99
89
115
101
90
116
99
91
115
104
91
116
107
91
113
128
88
111
212
138
168
214
135
161
200
125
150
223
140
168
223
141
169
223
141
170
223
140
170
223
140
170
223
140
170
223
140
170
223
140
170
223
140
170
223
140
170
223
140
170
223
140
170
223
140
170
223
140
170
223
138
171
224
139
172
223
138
171
222
138
171
218
136
168
179
98
129
171
68
109
178
68
113
177
70
114
193
95
136
217
128
165
220
137
169
222
138
170
223
138
171
223
138
171
223
138
171
223
138
171
222
137
167
220
135
164
218
133
163
214
131
163
159
85
115
157
66
110
159
65
113
155
65
113
155
65
112
155
64
108
155
62
106
150
62
107
120
49
85
92
24
57
96
50
74
116
78
101
125
88
109
124
88
109
118
81
103
88
53
76
55
10
43
57
7
47
57
7
43
55
7
43
51
7
43
55
64
49
61
83
56
42
48
42
54
99
106
53
118
139
51
118
139
51
120
140
54
120
138
56
120
138
51
117
136
47
117
139
49
113
131
41
100
111
43
108
124
47
116
134
47
114
131
45
112
128
45
112
129
45
112
129
54
118
136
92
161
172
101
164
169
95
131
138
30
41
50
11
13
26
11
13
26
12
14
28
12
14
29
12
14
29
11
13
28
11
13
28
12
14
28
12
14
28
12
14
27
93
80
101
103
92
114
112
104
126
112
105
129
113
109
136
113
114
141
112
113
138
112
107
133
102
92
118
102
90
115
103
93
118
105
95
120
102
93
118
100
92
116
104
93
118
103
92
117
101
91
117
105
92
118
106
91
115
102
78
101
158
106
130
219
141
169
190
116
141
223
141
169
222
142
169
222
142
171
222
140
170
223
140
170
223
140
170
223
140
170
223
140
170
223
140
170
223
140
170
223
140
170
223
140
170
223
140
170
223
140
170
223
140
170
223
140
170
223
139
171
223
139
172
222
138
170
218
135
165
188
106
135
169
68
106
177
69
115
177
66
117
185
85
129
211
122
157
223
135
169
222
137
169
222
138
170
222
138
170
222
138
170
221
137
167
221
135
167
220
135
167
216
132
164
198
123
154
144
70
108
143
69
108
143
69
109
146
71
112
148
70
109
149
68
108
131
62
98
99
61
82
115
82
100
125
90
110
126
91
110
122
91
108
111
78
97
72
38
60
53
7
43
54
8
45
57
7
45
53
7
41
51
8
39
48
18
37
62
91
59
62
113
63
57
97
56
58
102
70
52
108
119
52
120
139
51
121
138
54
121
138
55
121
138
49
117
137
47
117
138
47
115
132
45
112
125
45
106
125
50
113
131
48
114
128
45
114
126
49
113
131
51
116
133
91
150
161
106
141
152
124
110
128
134
92
113
46
31
44
11
13
26
12
15
27
12
14
28
12
14
29
13
15
30
13
14
30
12
13
29
13
13
28
13
14
27
15
15
29
104
92
110
107
97
114
109
99
118
112
105
127
115
113
138
114
117
143
110
114
139
110
104
131
107
98
122
106
96
118
109
99
124
109
101
125
106
100
123
105
100
124
102
92
117
103
93
118
101
91
117
102
89
115
103
89
115
96
81
105
114
83
106
198
130
159
189
117
142
222
140
167
222
142
169
222
141
170
223
140
170
223
140
170
223
140
170
223
140
170
223
140
170
223
140
170
223
140
170
223
140
170
223
140
170
223
140
170
223
140
170
223
140
168
223
140
168
223
139
170
223
138
171
223
138
170
223
138
168
222
137
164
194
113
139
168
72
110
176
65
115
178
68
115
178
75
115
209
115
152
220
133
166
221
138
169
222
137
170
222
137
169
221
133
167
220
135
169
218
135
167
206
133
161
176
139
160
131
150
163
134
170
179
131
169
179
126
160
173
121
150
164
111
137
150
102
126
137
108
120
133
116
112
128
121
100
120
120
87
111
101
70
92
59
22
50
55
6
42
57
6
41
54
7
43
52
10
39
52
53
43
59
74
53
48
67
43
66
108
68
62
114
63
59
101
60
62
110
64
52
105
92
56
119
132
53
120
138
54
121
138
54
122
138
50
119
139
48
117
137
48
115
133
47
114
131
48
114
132
49
115
133
48
111
128
47
112
128
53
111
128
79
112
127
99
92
111
128
73
103
170
101
132
158
98
124
62
40
55
12
14
26
12
15
28
12
15
28
14
16
31
16
18
33
16
16
34
19
18
36
20
17
36
19
16
34
18
16
33
114
106
128
112
102
124
111
101
122
114
108
130
113
110
135
116
115
141
115
114
141
113
107
134
111
103
127
108
98
120
109
98
123
110
102
126
106
101
126
108
105
131
101
93
119
90
82
105
93
84
110
105
94
122
108
95
123
103
90
118
113
102
126
155
109
137
201
129
155
214
133
160
221
141
169
222
141
170
223
140
170
223
140
170
223
140
170
223
140
170
223
140
170
223
140
170
223
140
170
223
140
170
223
140
170
224
141
171
223
140
170
223
140
168
223
140
168
223
139
170
222
138
171
223
138
170
223
138
169
223
138
165
219
137
161
207
123
153
166
77
113
174
66
110
180
67
114
181
72
117
192
97
134
208
120
155
218
131
166
220
133
168
220
133
170
212
135
171
177
129
156
150
166
177
140
191
201
135
200
210
129
201
210
129
201
210
130
201
210
128
197
208
126
196
208
130
194
206
125
192
201
122
183
193
121
171
182
116
147
161
73
77
97
52
7
49
55
8
47
56
8
45
55
7
49
51
46
44
65
105
65
66
115
64
65
115
63
66
114
64
67
113
62
59
105
60
60
112
63
55
108
68
55
111
114
54
119
139
55
121
138
55
121
139
51
119
139
47
116
136
48
114
133
52
116
134
49
115
133
46
113
130
47
112
126
59
96
115
84
71
96
110
56
89
125
53
90
164
92
125
174
104
133
166
101
129
76
47
64
13
14
27
11
15
27
11
14
27
12
14
29
13
15
30
14
15
32
19
17
35
20
17
37
20
16
37
20
15
38
125
121
146
123
120
144
118
113
137
118
112
135
117
114
137
115
110
137
115
110
138
114
109
134
110
102
126
105
93
117
107
94
119
110
103
126
106
102
124
107
103
129
102
100
127
92
87
114
90
84
109
96
89
118
114
105
136
125
117
146
125
121
146
132
114
138
183
123
151
209
128
157
222
141
168
224
141
171
223
140
170
223
140
170
223
140
170
223
140
170
223
140
170
223
140
170
223
140
170
223
140
170
224
139
169
224
139
168
223
138
167
223
138
167
224
139
168
222
138
170
221
137
170
222
138
171
223
138
171
222
137
171
222
136
165
220
136
164
214
132
161
178
95
127
168
69
112
173
66
114
172
67
113
170
68
112
170
71
114
176
80
120
165
88
125
143
130
149
143
188
196
139
202
209
134
204
211
134
201
212
130
202
210
127
203
210
127
202
209
127
202
210
127
198
208
129
197
208
122
198
206
123
197
206
124
193
203
124
189
200
124
177
192
84
105
124
54
18
55
53
8
46
55
9
47
57
72
53
64
114
66
63
117
65
65
116
65
67
107
60
67
113
64
59
103
62
57
112
65
63
115
68
48
101
84
54
118
133
56
121
138
55
123
140
55
121
138
48
118
136
48
115
137
55
115
140
53
115
131
61
102
120
81
77
102
106
52
88
122
51
91
126
49
91
133
55
96
173
99
134
173
105
133
171
102
131
93
57
75
13
13
26
12
14
26
13
12
26
11
13
26
16
17
31
18
17
35
20
19
37
21
19
39
19
17
38
21
18
39
128
128
152
129
127
151
120
115
140
112
105
129
114
111
133
118
113
136
115
109
133
114
105
127
110
99
119
106
95
114
100
90
115
109
102
126
110
106
129
110
108
133
119
119
145
120
118
146
112
112
138
114
114
141
125
122
151
132
127
156
131
126
156
136
127
154
124
97
118
196
127
156
223
141
171
224
141
171
223
140
170
223
140
170
223
140
170
223
140
170
223
140
170
223
140
170
223
140
170
223
140
170
223
139
169
223
138
167
223
138
167
224
139
168
224
139
168
223
139
170
222
138
171
223
138
171
223
138
171
223
138
171
222
137
169
222
136
165
219
136
162
215
134
162
198
116
148
158
74
109
165
67
112
170
66
114
167
68
116
142
85
120
140
158
176
140
200
209
140
206
216
139
206
216
133
203
214
132
203
214
129
203
214
123
200
209
122
199
208
121
199
207
124
200
208
127
200
209
122
200
208
123
198
207
124
195
205
124
193
203
122
189
200
120
175
187
67
71
91
58
5
47
51
13
40
49
73
50
57
101
58
64
115
64
64
116
64
59
100
56
66
112
65
56
99
59
56
101
57
63
113
62
61
109
71
48
105
107
55
121
137
55
122
139
52
119
138
50
117
137
51
115
134
59
111
130
67
85
105
106
59
92
122
51
90
126
49
89
127
48
90
127
50
92
132
53
95
173
99
134
172
104
132
172
104
133
113
71
92
17
13
28
15
13
27
13
14
27
12
14
27
12
14
27
16
15
33
20
19
37
20
19
39
20
18
39
21
18
39
130
133
157
130
129
154
128
125
150
127
122
147
125
120
145
120
113
135
113
105
127
115
106
129
114
107
129
111
105
127
103
94
119
102
92
118
106
98
123
110
103
129
113
109
135
119
118
146
115
118
143
117
119
145
126
122
150
131
126
156
134
127
161
120
124
147
149
169
182
174
123
147
221
141
169
223
140
170
223
140
170
223
140
170
223
140
170
223
140
170
223
140
170
223
140
170
223
140
169
223
140
169
222
138
168
223
139
168
224
140
169
224
139
168
224
139
168
222
139
170
221
138
171
222
138
171
223
138
171
223
138
171
222
137
171
222
137
166
222
138
162
222
136
162
220
135
164
211
130
160
178
96
132
157
73
114
139
99
128
138
173
190
141
201
213
141
204
217
136
207
218
136
206
217
133
205
217
132
206
216
131
203
215
127
200
210
127
200
211
123
199
209
125
200
209
128
201
211
122
200
208
123
199
208
125
198
206
124
195
206
123
194
203
118
191
197
102
140
153
46
18
39
60
77
56
64
109
63
67
112
64
57
103
56
65
115
67
57
101
57
64
112
66
61
102
61
59
103
59
57
103
55
61
113
63
52
104
87
54
116
133
53
120
140
53
121
140
50
117
133
66
100
121
89
68
95
122
52
93
132
49
92
132
50
93
130
48
91
132
48
93
130
47
90
130
49
90
165
92
124
173
104
131
173
105
133
134
85
108
19
12
28
17
14
29
16
17
31
17
17
33
16
16
32
17
16
34
19
19
37
20
19
38
19
18
38
19
18
38
132
137
161
134
137
161
130
132
156
125
126
148
119
112
137
111
100
121
111
98
120
114
104
125
117
110
131
118
113
135
113
105
128
111
100
125
100
91
115
93
84
108
103
94
118
111
103
128
113
109
133
115
110
137
114
110
138
118
118
144
129
127
158
131
161
178
129
181
193
153
128
148
218
139
167
222
141
170
223
140
170
223
140
170
223
140
170
223
140
170
223
140
170
223
140
170
223
140
168
222
139
167
222
139
169
224
141
171
224
141
171
223
140
168
222
139
167
222
138
169
222
138
171
222
138
171
223
138
171
223
138
171
223
138
169
222
138
168
222
138
166
222
137
165
221
137
163
219
137
161
213
134
167
153
131
155
139
187
196
138
205
217
138
204
218
137
205
218
133
205
215
133
206
215
132
205
214
133
206
215
134
206
215
132
204
213
131
204
213
125
201
210
123
200
210
125
199
210
123
199
209
124
199
208
125
198
205
124
197
208
123
195
203
123
191
199
120
177
182
62
89
72
67
115
69
62
115
65
65
112
64
62
106
60
64
112
65
55
100
56
63
112
65
58
100
55
63
113
64
60
104
58
62
111
64
57
107
64
52
105
107
52
121
136
57
116
135
71
89
108
110
58
93
128
50
94
134
47
94
134
50
95
134
50
94
134
47
92
133
47
92
133
47
92
131
49
90
151
76
107
174
103
129
175
103
132
152
94
121
28
15
36
22
20
39
19
20
38
20
19
37
19
17
36
19
15
35
20
18
36
20
19
37
20
19
36
20
18
36
134
135
157
132
130
153
132
129
152
127
125
147
121
118
140
109
102
122
108
98
118
105
95
116
107
98
120
108
101
123
110
101
123
107
96
120
96
86
110
89
78
101
82
69
92
90
81
102
98
90
112
100
91
118
101
92
120
111
105
131
115
133
155
138
187
201
96
155
170
121
126
143
214
141
170
222
141
170
223
140
170
223
140
171
223
140
171
223
140
170
223
140
170
223
140
170
223
140
168
223
140
168
222
139
168
223
139
170
223
140
170
222
138
167
222
137
167
223
138
170
223
138
171
223
138
170
222
137
170
221
137
169
220
134
163
217
130
161
217
130
164
220
135
167
220
137
162
212
135
161
169
143
166
140
191
204
140
204
217
141
205
218
138
205
218
133
203
215
132
205
216
125
197
207
129
202
212
133
206
216
133
207
216
133
206
216
129
203
212
123
199
208
124
201
211
126
200
211
124
200
211
124
199
208
125
197
205
124
198
208
123
195
203
124
192
200
120
188
191
81
130
110
71
121
69
65
108
60
67
113
65
62
106
60
63
111
64
57
102
57
62
112
64
58
102
56
63
115
63
61
105
58
61
107
64
62
113
64
50
95
72
56
111
120
79
82
106
116
54
91
128
54
92
132
51
96
132
50
96
131
49
93
132
48
93
134
48
93
134
48
93
134
48
93
132
48
90
139
61
95
171
98
126
176
102
131
164
101
129
48
29
45
23
21
35
18
21
34
19
18
36
20
17
35
21
14
33
21
16
35
23
18
36
24
20
37
24
20
37
117
109
129
118
107
128
123
114
134
131
126
146
128
130
151
126
122
145
107
101
124
95
86
110
95
85
105
99
87
105
107
95
115
114
108
131
119
113
139
106
97
120
84
72
93
77
67
87
78
70
89
79
71
90
81
71
92
86
82
104
132
177
192
112
173
188
87
148
166
98
127
146
205
139
166
223
141
168
223
139
171
223
141
172
223
141
172
223
140
171
223
140
170
222
139
169
223
140
168
223
140
168
223
139
170
223
138
171
222
137
170
222
138
171
222
138
171
223
138
171
223
138
171
223
138
170
222
137
168
215
128
161
188
96
131
181
82
121
180
81
123
190
97
134
209
130
159
164
144
162
145
195
204
138
207
218
140
206
218
140
207
218
138
205
216
132
203
215
105
178
191
84
158
173
127
200
210
133
206
216
134
206
219
132
205
218
125
201
211
123
201
211
126
200
211
126
200
211
123
202
209
123
201
208
122
197
206
125
198
209
123
195
203
123
194
200
120
190
196
90
143
130
68
120
69
62
108
61
64
116
63
61
111
62
62
107
63
59
102
57
56
104
56
61
111
61
61
115
58
59
105
56
62
107
64
62
115
63
63
106
66
70
74
81
119
55
94
130
54
97
129
53
96
131
52
99
131
52
97
132
51
95
131
48
92
134
47
92
134
48
93
133
47
92
129
46
89
129
51
88
161
88
118
175
102
132
167
103
131
81
49
66
26
19
33
25
21
36
25
22
38
27
24
42
30
24
41
30
23
43
35
27
49
37
28
50
39
31
53
109
96
115
116
99
119
118
106
124
128
121
142
121
120
142
119
117
139
116
111
134
112
108
130
118
112
135
120
111
135
120
112
136
118
115
138
120
116
141
119
110
134
101
88
109
83
73
93
75
67
85
73
66
82
72
69
87
114
146
159
127
192
205
84
152
170
86
148
166
96
139
157
179
128
153
222
142
171
223
140
168
223
139
168
223
140
169
222
139
169
222
139
169
223
140
170
223
140
168
223
140
168
222
138
169
223
138
171
223
138
171
223
139
172
221
137
170
222
138
171
223
138
171
222
137
168
218
129
162
186
89
129
175
68
115
174
65
115
169
66
116
163
71
116
135
124
145
145
195
206
139
206
215
138
206
217
136
208
218
133
207
216
131
203
213
103
174
190
74
147
167
104
178
191
131
205
217
134
206
217
134
206
220
133
206
218
125
202
212
123
200
210
126
200
211
126
200
211
123
202
210
122
201
208
124
198
207
125
198
209
123
195
203
123
193
201
119
193
198
101
156
153
68
115
75
59
105
57
69
115
63
66
114
65
61
98
57
61
101
60
53
91
53
64
116
63
62
115
63
61
106
57
60
106
60
61
114
60
64
110
63
88
78
68
126
51
92
130
52
98
131
52
99
131
52
100
131
52
99
132
51
95
132
48
92
134
48
93
134
48
93
134
48
93
131
47
92
131
50
90
141
66
99
174
100
131
170
102
130
109
70
90
37
28
46
36
33
54
41
38
59
42
39
62
45
43
63
47
45
67
51
49
72
54
52
75
54
52
76
125
112
132
129
115
135
128
118
137
130
122
144
133
129
153
135
133
155
128
124
147
123
118
142
125
117
141
127
117
141
128
124
148
122
118
138
107
96
117
109
95
118
114
102
124
110
100
123
91
81
101
81
73
90
89
111
126
135
193
206
91
162
179
82
149
168
84
148
165
90
146
162
146
116
137
221
143
171
221
140
169
223
140
168
223
140
168
222
139
167
222
139
167
222
139
168
223
140
168
222
139
167
221
137
166
223
138
168
223
138
169
223
139
171
221
137
170
222
137
170
221
139
167
219
134
165
190
96
132
173
68
112
171
67
115
169
68
114
162
70
114
137
124
146
140
195
210
139
206
219
135
208
218
131
210
216
131
209
215
127
204
214
95
169
181
71
144
165
82
153
172
126
198
212
132
205
217
134
206
219
134
206
220
133
205
217
129
204
213
124
201
210
124
201
211
126
200
212
123
201
211
123
200
208
124
197
206
125
196
209
125
195
207
123
195
202
122
195
201
116
175
177
64
104
82
68
115
64
71
119
65
67
118
65
53
96
53
65
98
65
44
59
38
66
112
60
65
115
62
63
108
61
57
101
55
62
114
61
62
112
62
81
88
68
124
53
92
131
52
99
132
53
100
132
53
100
132
53
100
132
52
98
132
49
93
133
48
91
133
47
92
134
48
93
132
48
92
127
47
89
125
49
88
165
92
124
172
102
131
130
86
106
56
54
77
59
59
87
62
62
88
59
59
85
57
59
83
57
58
82
54
55
81
53
55
79
52
54
78
131
119
139
134
122
142
131
122
141
129
125
146
132
130
153
133
133
154
134
132
154
129
123
148
123
113
137
121
109
130
126
113
135
123
115
130
115
103
120
109
96
116
106
94
116
98
88
109
87
78
98
82
94
109
133
186
198
112
176
192
79
150
170
78
149
168
81
147
164
84
147
162
123
120
140
214
138
168
222
139
170
222
139
168
223
140
168
222
139
167
222
139
167
222
139
167
223
140
168
223
140
168
223
138
167
223
138
167
222
137
167
221
137
170
221
137
170
220
136
168
221
136
165
206
114
150
175
71
115
170
66
112
170
67
115
165
67
114
132
112
134
139
195
203
136
208
218
137
209
219
134
209
217
131
209
217
126
203
213
96
170
185
68
147
166
69
144
168
114
187
203
133
207
219
133
207
217
132
204
218
134
206
220
133
205
217
131
205
213
126
203
212
124
201
211
126
200
210
122
199
209
120
196
204
117
189
196
111
180
189
111
180
189
114
186
193
118
192
202
124
189
198
87
137
131
69
119
72
71
120
67
68
118
65
54
86
50
53
54
46
46
25
30
63
103
57
62
117
62
65
112
65
59
103
57
63
114
63
64
112
63
79
91
68
124
53
92
131
52
99
132
53
100
132
53
100
132
53
100
132
53
99
131
50
93
133
48
90
133
47
92
134
48
93
132
49
93
128
49
92
125
48
89
146
72
107
171
100
130
144
94
117
80
77
103
76
77
107
68
69
96
65
66
94
62
63
91
57
59
83
52
54
77
44
46
67
46
48
69
128
118
138
128
119
137
130
124
143
138
138
158
138
139
162
138
141
162
139
140
161
137
137
159
134
132
153
130
125
144
132
122
146
120
107
129
111
96
116
108
95
115
99
89
109
108
95
114
94
101
116
128
179
187
125
196
208
81
155
173
77
151
173
80
148
172
79
147
164
82
147
162
109
135
154
200
132
162
223
138
168
223
140
168
223
140
168
222
139
167
223
140
168
222
139
167
223
140
169
223
140
169
223
140
169
224
139
169
223
139
169
222
138
171
222
138
171
221
138
168
219
131
163
190
87
132
173
63
114
170
65
116
167
66
114
140
102
130
140
192
201
135
208
217
139
207
217
137
210
218
135
209
218
130
206
216
101
173
188
71
144
164
69
144
164
96
168
186
128
203
214
132
208
217
133
209
217
132
205
217
133
206
219
134
206
217
133
206
215
126
202
210
124
200
208
124
199
207
110
186
195
83
157
165
72
144
152
66
136
150
66
135
149
71
142
154
78
152
166
103
175
186
115
180
184
72
123
97
70
120
70
68
116
66
57
75
52
49
4
39
48
14
40
58
87
54
62
115
64
67
111
66
58
103
57
63
114
62
63
113
62
78
90
67
123
54
91
132
52
99
131
53
99
132
53
100
132
53
100
132
53
99
132
50
94
134
49
91
133
48
93
134
48
93
132
48
92
131
49
92
128
49
91
134
56
95
168
94
127
154
96
123
95
87
114
76
78
109
67
68
96
67
68
96
65
66
96
59
61
85
52
54
74
42
45
64
52
55
74
133
125
148
129
126
144
135
135
154
141
145
167
141
147
168
141
145
166
141
143
164
135
134
157
132
131
151
128
120
138
122
111
131
113
98
120
109
93
112
101
88
105
106
93
112
106
105
122
123
166
179
137
203
215
92
163
179
74
150
172
74
149
174
78
147
174
80
147
166
82
146
164
95
140
158
186
130
158
222
139
167
223
141
169
224
139
168
222
138
166
222
139
167
222
139
168
224
141
171
224
141
171
223
141
172
223
139
172
223
138
171
223
138
171
223
138
171
222
137
168
208
116
154
176
68
121
172
63
115
168
66
116
149
84
123
140
174
189
139
205
216
137
210
217
137
210
217
135
210
216
134
206
216
110
182
198
70
145
166
69
145
166
79
152
170
123
195
210
132
206
216
134
208
217
135
210
219
132
208
215
132
206
217
133
205
217
128
202
213
125
199
208
119
193
201
96
168
180
65
142
155
62
137
149
65
138
148
63
136
152
65
135
147
65
136
145
64
135
151
66
138
151
107
176
186
105
162
154
70
117
76
68
118
67
59
82
55
48
4
39
50
8
41
53
69
49
63
113
62
58
103
58
56
102
55
63
113
61
64
114
63
84
87
66
125
53
90
135
52
98
132
52
97
132
53
100
131
52
99
131
53
99
131
51
94
132
50
91
132
49
93
134
48
93
134
48
93
134
48
93
133
48
92
128
47
89
155
82
115
160
97
124
87
71
93
64
69
95
73
74
102
71
72
100
66
68
97
65
67
91
62
63
86
51
53
73
44
46
65
133
130
148
131
132
151
135
139
158
141
144
164
142
146
165
139
143
163
139
140
161
137
136
158
132
131
151
130
122
140
122
110
130
114
98
120
116
103
121
114
106
123
103
105
122
125
166
178
139
206
220
107
178
195
75
149
173
72
148
175
72
149
174
72
148
174
77
147
170
80
147
168
85
143
161
163
130
152
220
140
170
223
140
169
222
138
167
222
138
166
223
140
168
223
140
169
224
141
171
224
141
171
223
141
172
223
139
172
223
138
171
223
138
171
223
138
171
222
136
168
189
91
132
173
62
118
168
65
115
152
68
112
134
157
172
138
205
216
140
206
223
140
210
222
136
207
219
135
207
216
120
184
198
67
142
158
65
147
165
67
146
166
113
185
201
132
206
217
134
208
217
135
209
218
135
209
218
131
209
216
130
207
217
132
205
217
125
199
210
113
185
196
78
151
162
65
138
153
63
139
156
61
138
151
61
138
148
61
129
144
60
125
136
61
122
129
60
121
135
60
126
137
78
148
159
117
186
194
100
159
154
66
115
83
64
85
62
45
5
39
51
5
40
53
53
42
63
111
61
59
109
61
61
110
62
62
116
62
66
112
65
92
76
68
132
51
93
141
52
98
138
52
97
134
52
100
132
54
101
130
53
99
131
52
95
131
49
90
131
48
92
134
48
93
134
48
93
134
48
93
133
49
92
128
47
89
134
60
94
168
99
124
97
68
89
65
67
91
77
78
106
75
76
104
68
71
96
66
67
92
62
62
86
59
60
81
52
53
73
134
125
140
133
128
144
134
136
154
137
140
160
141
144
164
143
146
167
144
146
168
142
144
165
137
138
159
136
133
155
133
128
152
126
119
142
133
129
152
125
134
153
124
170
185
142
207
222
123
194
210
77
153
173
73
149
174
74
149
176
74
149
176
73
149
174
74
148
169
79
147
168
84
145
165
132
123
145
217
139
170
223
138
168
223
138
167
222
139
168
223
140
169
224
141
170
224
140
169
223
139
168
223
138
170
223
138
171
223
138
170
222
138
169
223
136
168
218
127
161
178
72
115
171
65
113
163
70
116
136
126
150
141
201
212
139
207
221
140
207
223
137
208
221
135
206
216
127
194
205
72
134
152
65
145
163
65
147
165
95
171
188
129
203
221
131
207
219
133
210
218
131
211
217
133
208
217
133
208
217
129
206
216
126
202
213
110
183
193
69
143
155
65
140
153
65
138
156
64
137
152
66
132
147
79
140
154
107
170
182
122
191
201
125
194
202
123
191
200
109
175
183
86
150
163
119
191
203
120
188
197
112
171
168
75
105
104
49
35
55
48
3
39
51
35
40
63
105
62
63
115
66
63
117
63
61
116
60
68
109
66
102
61
72
138
52
94
143
52
98
143
52
98
138
51
101
131
53
100
130
53
99
132
52
97
132
50
92
133
48
93
134
48
93
132
49
93
132
49
93
131
50
91
128
49
87
126
50
85
161
88
119
112
72
93
67
66
92
72
75
104
75
77
107
66
69
99
60
64
91
62
62
87
60
59
82
60
59
81
128
118
137
133
126
146
142
143
164
143
145
168
145
147
169
144
146
167
141
143
165
143
146
168
142
144
167
142
142
166
142
139
165
137
135
159
127
133
155
128
175
189
140
209
219
131
203
217
85
160
178
73
150
172
73
149
174
75
148
175
76
148
173
74
147
170
74
149
167
78
147
165
83
146
164
101
122
142
206
141
169
222
137
166
224
139
168
223
139
169
222
139
169
223
140
170
223
138
167
223
138
167
222
137
169
223
138
171
223
138
170
222
139
169
221
134
166
205
112
147
175
69
113
165
68
115
140
91
126
143
186
203
139
207
219
140
209
222
138
208
221
134
208
216
132
201
214
89
152
166
66
142
159
64
146
166
76
154
173
123
198
215
130
205
223
129
205
219
132
210
217
129
211
215
132
206
216
132
205
217
128
203
215
107
180
193
71
144
158
65
138
154
64
139
155
66
133
149
80
135
150
114
176
189
122
194
204
124
199
208
125
199
208
124
198
208
124
197
208
123
197
207
121
195
203
124
191
201
123
191
200
118
189
197
113
180
186
107
154
164
75
95
111
42
31
48
67
101
67
65
115
64
63
116
62
63
114
61
77
96
66
116
54
82
137
53
95
142
51
98
143
51
98
137
50
101
131
52
99
132
52
99
132
52
97
132
50
93
134
48
93
134
48
93
134
48
93
131
49
93
127
49
90
125
49
87
124
49
86
147
74
107
130
81
106
79
76
104
85
89
120
82
84
115
76
78
110
69
71
99
66
63
90
64
61
88
65
62
89
137
134
154
141
140
162
147
150
172
149
151
175
147
149
172
144
146
166
142
145
164
141
146
168
139
144
169
142
145
171
142
142
169
132
142
165
121
166
179
139
209
222
136
207
217
97
171
183
71
150
171
73
150
173
74
149
172
74
148
173
75
147
170
74
147
168
75
149
166
79
147
165
85
147
166
96
133
152
176
121
145
221
138
167
223
138
168
223
139
169
223
140
169
223
140
170
223
138
168
223
138
168
223
138
170
223
138
171
223
138
170
222
138
169
219
132
165
191
97
134
169
68
113
150
80
119
143
171
189
140
208
223
138
209
221
137
210
222
135
208
219
133
206
214
106
169
185
65
137
154
63
146
163
71
149
169
116
190
208
132
205
222
131
206
222
130
205
218
132
210
217
130
210
215
131
206
216
131
205
216
114
185
199
70
142
159
64
139
156
65
138
156
67
133
151
93
153
166
124
195
203
122
200
206
123
200
207
122
202
209
123
200
209
122
199
210
122
198
211
123
198
209
123
197
203
123
196
201
122
194
201
124
191
200
120
189
199
115
185
196
114
182
194
112
165
176
90
137
137
69
118
91
64
116
66
66
114
64
83
75
60
132
55
94
136
53
97
142
52
98
142
51
98
135
51
100
131
52
98
132
52
97
131
52
95
131
50
93
132
48
92
134
48
93
134
48
93
132
48
93
126
49
90
123
48
87
122
49
87
135
61
95
143
87
114
89
85
113
94
98
130
88
91
124
78
80
112
72
71
101
70
64
93
76
72
101
79
75
104
141
141
157
136
132
150
139
132
152
141
139
159
141
140
160
142
138
158
138
136
157
142
143
167
143
146
171
142
146
171
138
142
168
129
169
186
141
208
220
138
210
224
110
183
194
72
151
167
72
150
168
73
148
167
72
147
166
73
147
166
75
148
167
75
148
167
75
147
165
80
146
166
86
147
167
103
124
143
172
113
138
221
141
172
222
137
170
222
138
168
222
139
167
223
140
169
223
138
171
223
138
170
223
138
171
223
138
171
222
137
169
222
137
168
219
126
163
179
79
123
160
76
116
140
149
170
145
203
219
139
211
225
141
208
223
134
209
220
130
208
215
118
185
196
70
138
154
63
145
165
68
147
165
104
177
192
131
203
218
133
206
220
133
207
218
132
206
217
133
208
216
131
208
215
130
204
216
113
188
199
73
147
162
65
139
157
65
138
154
69
133
149
113
178
191
125
197
209
122
202
207
124
201
207
128
201
209
124
201
211
123
200
210
122
199
211
123
198
209
124
198
205
120
196
202
122
197
201
119
193
200
122
192
201
121
189
200
118
188
201
115
188
201
114
187
195
117
185
189
109
169
166
68
115
90
68
105
66
108
64
75
138
51
95
139
53
98
141
52
98
141
53
99
137
53
100
132
52
95
129
52
91
130
53
92
129
51
95
131
49
91
132
49
92
132
48
92
131
49
92
128
48
91
124
47
89
123
47
86
128
52
88
156
93
122
84
76
103
84
89
118
85
88
121
76
78
109
70
68
97
68
64
90
77
73
99
87
82
112
141
134
151
139
129
147
133
121
140
130
117
136
133
126
143
138
130
146
135
127
149
137
135
158
137
136
160
126
127
150
118
155
170
139
208
216
137
210
221
117
190
202
76
152
172
75
148
170
67
137
157
69
143
162
72
147
166
73
148
167
75
148
167
74
147
166
74
146
163
80
146
166
86
143
163
144
123
144
195
123
146
213
133
164
221
136
169
223
140
170
224
140
169
223
140
169
223
138
171
222
137
170
223
138
171
223
138
171
222
137
169
222
137
168
211
118
155
166
70
115
137
119
141
146
199
215
139
209
225
139
212
225
140
209
224
134
209
219
128
200
211
83
149
165
66
145
163
67
147
167
83
160
177
127
202
216
132
204
219
134
206
221
133
207
218
132
206
217
133
207
215
131
206
214
120
196
208
76
153
172
66
143
163
66
140
156
73
137
149
117
183
193
129
201
212
128
203
213
127
203
211
129
202
209
130
199
208
125
200
210
125
199
210
122
197
209
124
196
205
124
193
201
124
191
199
122
184
191
121
171
179
121
160
171
122
166
176
119
172
182
116
176
186
116
184
190
116
186
191
117
183
195
105
160
158
82
83
76
130
57
91
139
53
96
140
52
98
141
52
98
141
52
98
140
52
96
136
51
91
129
53
89
127
52
90
126
51
91
129
51
89
130
51
89
130
49
91
129
49
91
126
48
91
125
48
92
123
46
89
123
46
86
153
84
115
94
71
99
83
86
116
91
92
126
87
88
119
76
74
100
66
62
86
68
64
89
78
74
101
142
129
148
146
133
153
144
132
152
142
132
152
141
133
152
139
131
148
128
116
138
121
111
135
116
108
129
112
135
149
142
203
216
138
211
223
127
200
211
81
157
175
71
147
173
71
138
163
64
128
149
75
147
166
75
148
167
74
148
167
72
148
167
71
146
165
74
147
162
80
146
163
94
136
157
181
128
153
210
131
155
205
128
158
222
137
170
222
137
170
222
137
169
223
138
171
223
138
171
223
138
171
223
138
171
223
138
171
222
137
170
221
135
166
194
102
140
145
97
129
145
191
202
139
209
220
141
209
224
142
209
225
136
209
219
134
205
218
98
157
174
68
141
162
64
146
165
70
150
171
119
196
213
132
209
223
131
207
220
134
206
220
134
207
217
132
206
215
133
204
216
123
199
209
82
158
173
62
141
162
63
141
158
75
138
153
118
186
198
125
201
211
132
204
218
133
206
219
132
204
218
125
201
210
127
200
207
124
200
209
124
199
209
124
196
208
127
193
203
126
172
182
115
131
146
127
98
125
137
74
112
138
63
104
137
69
106
133
82
113
122
95
119
112
108
128
107
129
145
114
155
172
117
173
180
110
106
120
138
55
96
139
54
98
140
52
98
140
52
98
138
52
96
137
52
92
133
51
90
115
53
81
95
62
69
85
67
62
83
70
64
93
60
68
117
53
83
128
48
87
126
48
91
123
46
89
125
47
89
123
46
88
138
66
98
117
82
112
90
90
121
93
91
125
99
97
127
91
88
114
73
70
95
69
65
91
75
70
98
142
130
142
146
134
145
147
135
150
146
136
154
143
135
152
134
125
144
125
111
134
125
114
137
117
127
144
140
196
209
140
208
222
132
206
220
89
163
181
72
148
168
72
146
166
60
124
143
75
145
164
74
148
167
75
148
167
73
149
167
72
149
167
75
147
166
77
147
164
81
144
161
111
114
133
204
131
164
215
132
161
203
126
156
221
137
170
223
138
171
224
139
172
223
138
171
223
138
171
223
138
171
223
138
171
223
138
171
222
137
171
217
135
170
171
93
130
143
170
185
145
205
218
141
207
224
140
210
226
140
210
223
132
206
216
116
179
195
70
137
157
68
145
164
67
147
165
104
179
196
130
208
220
132
210
219
132
209
217
133
207
216
134
206
215
134
205
215
132
204
213
101
177
190
65
144
164
65
138
157
78
139
156
121
187
199
129
202
214
131
206
217
134
206
220
134
206
220
134
204
219
126
202
212
124
201
207
126
198
210
128
192
203
124
169
184
117
117
136
132
67
103
147
63
107
150
61
105
147
59
103
144
58
100
149
61
101
152
64
102
150
63
101
147
61
102
141
63
104
125
59
97
110
117
131
117
123
138
133
56
96
139
54
98
141
51
100
140
51
97
139
52
93
119
56
82
90
68
65
69
91
58
64
103
59
63
106
58
62
107
60
67
102
60
77
79
56
110
53
74
126
48
87
124
47
89
125
47
89
124
47
85
126
51
84
131
83
113
82
78
107
82
79
109
87
84
111
85
82
109
79
76
103
76
72
99
79
74
102
149
137
150
148
137
150
149
137
151
147
137
153
145
136
154
137
129
146
137
123
144
124
120
141
133
183
194
137
210
223
135
208
222
100
172
188
73
148
171
71
149
166
70
140
157
66
131
148
71
147
164
74
148
167
75
148
167
73
148
166
72
147
166
74
146
166
77
142
162
84
115
133
149
100
123
220
137
171
219
134
167
200
120
149
221
136
167
222
137
170
223
138
171
223
138
171
223
138
171
223
138
171
222
138
169
223
138
170
222
138
171
212
129
164
142
136
160
145
202
220
141
207
224
141
208
228
140
209
227
136
208
218
130
199
211
81
144
161
65
146
163
67
148
165
85
160
177
129
203
216
133
208
218
133
211
217
133
211
217
133
208
214
134
205
214
133
205
215
118
192
205
68
147
166
65
141
158
79
144
158
123
189
202
132
204
216
132
205
217
132
206
219
133
206
221
134
207
219
131
203
216
123
200
209
126
198
206
127
184
194
119
126
143
137
79
113
146
63
106
151
62
106
150
59
104
149
60
102
139
57
93
154
81
111
183
102
134
190
107
138
189
107
136
174
91
128
148
61
103
142
57
100
132
60
99
109
71
97
130
54
92
139
52
97
137
51
99
128
54
93
106
58
74
75
90
60
65
107
60
62
110
59
63
110
58
61
109
57
63
110
59
62
111
58
62
107
57
77
84
58
112
53
80
124
47
89
123
48
89
124
47
88
123
47
88
134
78
111
83
75
97
77
72
99
73
71
96
79
78
104
86
83
112
81
78
105
72
69
95
149
146
164
148
142
157
149
139
152
146
135
151
143
135
154
146
140
156
143
137
155
134
165
180
142
208
221
139
210
222
116
188
200
74
149
170
71
147
171
71
147
164
63
126
145
72
141
161
72
149
167
74
148
166
75
148
167
74
146
165
72
145
165
76
145
162
84
119
136
108
87
103
191
124
149
221
139
171
221
137
169
198
116
143
221
136
166
222
137
169
223
138
171
223
138
171
223
138
171
223
138
171
223
137
168
222
137
167
220
136
170
182
138
164
152
199
212
142
207
226
141
207
227
140
209
227
138
207
224
136
205
218
103
164
179
64
140
156
64
147
165
72
150
169
121
196
214
133
209
223
134
209
223
133
210
221
132
211
220
131
208
218
132
206
215
124
200
211
78
155
170
65
140
157
80
140
157
124
190
203
132
204
216
131
204
217
134
206
220
133
206
220
129
206
220
129
204
214
132
201
210
128
197
205
129
165
181
125
95
121
151
65
106
154
61
107
155
60
108
156
60
108
153
60
105
145
64
99
173
99
128
200
120
151
202
120
152
200
117
147
200
117
145
201
116
147
188
104
136
158
74
109
145
55
97
134
53
92
117
45
81
135
50
93
135
55
92
100
66
73
71
100
62
64
109
58
62
111
57
63
110
61
63
111
60
61
110
57
62
112
59
62
112
59
61
108
56
65
103
58
77
73
60
115
50
80
121
49
88
124
48
88
124
48
88
128
68
100
89
73
91
94
87
112
96
93
117
89
88
108
84
82
107
82
79
104
73
71
93
149
146
161
148
144
158
148
142
155
149
142
156
146
142
159
147
144
161
127
144
156
138
202
213
140
209
225
125
196
209
78
153
172
70
148
167
69
148
164
71
141
161
61
123
140
72
147
165
70
149
166
74
148
167
75
148
167
72
146
164
72
146
163
78
128
144
111
101
116
139
95
112
214
135
165
221
137
170
222
138
170
198
116
143
220
136
165
223
138
170
223
138
171
223
138
171
223
138
171
222
137
170
222
137
168
221
137
167
204
139
167
155
177
192
146
207
223
144
206
226
140
206
226
139
210
226
136
208
221
120
183
199
72
137
155
68
145
164
65
149
168
104
180
196
131
209
224
133
210
226
133
210
227
133
210
226
133
211
224
131
207
222
128
204
216
95
170
186
66
142
158
84
140
156
127
192
205
132
205
217
131
206
217
132
205
218
135
207
221
133
206
220
128
205
217
129
200
208
130
195
204
126
149
164
139
79
115
154
63
106
157
60
105
159
60
107
158
59
108
152
59
104
149
71
103
186
109
137
203
121
153
207
121
155
208
120
154
204
119
149
201
120
147
202
118
144
201
116
144
197
112
142
177
93
126
144
58
99
137
53
97
120
46
83
103
54
74
76
82
62
69
106
61
63
111
59
62
111
57
62
111
62
63
111
60
63
111
59
63
111
59
63
111
59
62
111
57
62
108
58
62
102
57
80
71
59
119
50
82
124
48
85
124
49
84
127
65
94
93
67
86
76
69
91
76
71
90
85
82
98
93
89
111
94
89
112
84
80
102
138
128
134
143
134
144
147
136
151
149
142
156
148
142
156
136
137
151
132
185
194
140
211
222
134
204
217
89
163
176
71
148
166
71
147
166
71
148
166
61
126
144
72
140
156
70
147
165
72
147
166
71
148
166
72
147
165
74
143
164
77
139
157
110
111
132
140
118
134
175
117
140
220
135
166
222
137
170
222
137
169
201
118
147
217
132
161
223
138
169
223
138
171
223
138
171
223
138
171
223
138
171
222
137
167
216
137
166
158
146
164
149
204
215
147
206
224
141
209
228
140
209
225
133
210
220
132
201
214
91
151
169
67
144
169
66
145
168
81
159
176
127
204
220
133
210
226
133
212
225
133
211
224
133
210
224
133
209
227
129
206
222
110
186
206
67
145
158
78
143
157
124
190
204
131
205
214
133
207
218
134
208
219
130
206
215
130
206
217
132
203
218
131
200
214
135
192
204
129
145
161
142
66
108
156
62
108
158
62
109
157
61
109
155
59
107
151
63
103
166
87
117
202
119
148
209
122
152
208
121
154
206
121
154
207
121
154
207
121
148
202
120
145
200
119
146
199
116
144
200
115
143
198
114
144
168
87
122
140
54
98
131
51
94
111
48
82
122
57
84
120
79
88
94
97
76
70
105
61
62
109
58
64
110
61
66
110
62
64
112
60
63
111
59
63
111
58
62
108
57
62
106
55
64
97
57
96
58
68
122
48
84
125
47
84
132
60
93
98
62
86
71
68
89
71
69
87
66
63
83
64
61
82
73
68
89
86
77
100
145
133
142
145
135
148
146
136
152
149
144
160
141
137
152
128
161
170
141
208
219
138
210
221
104
178
192
73
148
169
73
148
167
73
148
167
71
146
161
61
125
143
72
146
163
71
148
166
71
146
165
70
148
165
71
147
166
75
143
162
90
113
130
138
121
139
153
120
139
198
127
154
222
137
167
222
137
170
222
137
170
209
126
155
207
124
152
222
137
168
223
138
171
223
138
171
223
138
171
223
138
171
220
137
169
186
134
161
155
193
208
145
207
221
140
209
224
141
209
226
138
211
223
134
207
217
111
174
188
66
142
157
66
146
169
72
151
171
118
195
211
133
210
226
133
210
226
133
211
225
133
211
224
133
209
224
131
207
222
123
199
215
77
152
171
75
142
155
124
191
204
133
205
218
134
207
216
134
208
219
132
206
217
131
205
217
131
203
216
132
200
213
136
195
206
129
136
152
144
71
108
157
63
108
159
60
107
156
62
107
151
62
103
157
77
109
193
111
141
207
121
152
208
123
152
209
123
152
209
122
156
206
120
154
206
121
154
206
121
148
203
120
146
200
119
146
201
117
146
201
116
145
194
109
142
155
71
109
140
55
99
140
55
100
135
57
99
157
82
116
183
110
136
177
108
129
142
103
105
82
92
65
66
107
61
62
111
57
63
111
59
64
112
60
64
111
59
64
110
58
64
108
56
59
106
55
71
86
60
105
48
71
125
46
82
128
55
89
112
68
94
81
77
100
82
80
104
76
75
98
73
72
91
73
71
87
73
68
85
153
148
160
154
149
164
151
145
163
151
151
167
135
149
162
135
196
204
138
208
223
118
191
205
74
151
168
72
148
169
74
148
167
73
148
166
69
140
155
64
134
151
70
146
166
70
146
166
71
145
165
71
147
165
72
145
165
78
127
144
136
126
140
147
123
139
154
111
131
213
133
163
222
138
169
222
137
170
223
138
171
217
133
163
195
114
141
221
137
167
223
138
171
223
138
171
223
138
169
222
137
169
213
135
170
160
167
183
147
205
219
143
208
226
141
209
226
141
209
226
137
210
220
128
195
205
70
135
150
64
148
163
66
148
168
100
177
195
131
209
224
134
212
226
134
211
226
134
211
225
134
211
224
133
209
224
130
204
220
102
174
193
73
140
159
116
182
195
130
205
216
130
207
218
131
209
218
132
207
217
132
206
215
132
203
217
132
201
214
136
191
202
129
131
151
149
67
106
162
64
104
160
63
104
156
58
101
157
73
106
182
100
129
210
122
151
214
122
153
214
122
154
210
123
152
209
123
152
209
122
154
207
121
152
206
120
152
206
120
148
205
121
145
202
120
144
202
117
146
195
109
141
159
73
108
145
55
98
142
55
98
142
57
99
162
82
117
190
111
143
189
114
141
187
112
141
186
112
138
171
110
127
121
95
90
74
101
64
63
110
59
64
112
59
65
111
60
66
111
59
64
110
58
61
108
54
61
103
57
80
67
61
118
47
80
122
49
85
127
76
104
88
80
103
86
86
114
82
81
108
78
78
100
71
69
90
75
72
93
160
160
178
159
156
173
156
152
168
147
147
165
126
171
181
139
209
220
132
203
220
87
162
178
72
147
166
72
147
167
72
148
166
70
147
165
64
130
145
66
138
154
69
146
167
69
145
166
73
144
166
71
142
166
73
139
156
115
127
141
154
135
151
148
123
136
170
109
131
222
137
168
222
138
169
223
138
171
223
138
171
220
137
167
190
112
137
222
137
167
223
138
171
223
138
170
223
138
167
219
139
170
175
136
164
150
196
208
145
208
223
141
208
227
141
210
229
139
209
227
134
205
215
98
161
174
67
142
161
63
147
165
77
156
173
124
202
218
132
210
224
133
213
227
132
212
226
134
211
226
134
210
226
133
209
225
121
196
214
69
141
159
108
173
188
133
205
219
131
206
218
131
207
217
130
207
217
134
207
216
135
204
215
133
201
213
139
193
204
132
123
144
153
68
111
165
62
105
158
64
101
153
68
101
185
105
137
205
120
153
215
126
161
216
124
156
216
123
154
216
124
155
215
123
155
215
123
154
211
123
153
208
122
151
207
121
150
207
121
149
206
120
144
201
117
143
194
109
141
161
74
111
147
56
97
146
55
97
144
59
98
172
90
122
193
113
142
194
115
144
191
115
145
190
113
141
188
113
136
184
112
136
179
111
132
144
101
108
76
100
65
63
110
56
66
111
60
67
111
60
65
110
58
61
107
55
59
105
56
67
82
56
104
42
69
122
48
83
133
75
103
81
70
91
83
82
109
84
82
109
83
81
107
80
78
102
81
79
101
159
154
168
154
146
157
153
145
154
130
147
159
142
207
218
136
210
222
105
179
194
72
148
170
73
148
168
73
149
166
71
149
167
71
146
164
57
119
136
69
144
160
69
147
167
72
147
168
73
144
166
71
143
164
87
125
142
142
137
151
155
137
152
148
118
133
202
130
156
222
136
168
223
138
170
223
138
171
223
138
171
222
138
167
185
107
132
221
137
167
223
138
171
221
136
169
220
138
168
200
135
163
150
175
190
146
208
222
145
207
228
141
209
228
142
209
228
138
209
224
129
193
205
71
138
156
65
146
167
68
149
166
114
188
206
132
209
226
132
212
226
132
214
231
131
213
229
133
210
228
134
209
228
130
205
224
89
161
179
99
163
178
130
204
217
132
207
220
132
206
218
134
206
217
135
205
217
138
206
217
139
204
215
140
193
202
131
122
140
153
67
106
154
60
102
161
77
109
173
97
124
210
124
154
216
124
157
217
126
161
220
127
163
218
125
158
217
124
155
217
124
155
217
124
155
217
123
155
214
122
153
208
121
150
207
121
149
206
120
147
205
118
148
189
104
136
154
67
106
146
56
101
147
56
99
149
60
99
179
94
128
198
113
143
200
115
143
198
115
143
192
115
143
191
113
144
189
114
139
185
113
134
185
112
135
177
110
132
99
89
76
63
111
57
66
110
58
66
110
59
64
108
56
61
107
55
58
107
57
64
93
56
94
47
60
115
45
77
135
67
97
93
69
91
84
80
104
86
81
110
89
87
116
84
81
109
81
78
104
158
146
155
156
144
154
147
144
151
138
185
194
135
211
223
122
196
210
76
153
171
71
147
167
72
147
166
72
147
167
68
147
167
68
140
158
64
129
148
67
147
166
68
147
167
72
145
164
71
143
164
73
132
150
124
126
140
149
136
147
158
140
151
155
116
131
217
138
164
223
138
168
222
138
170
223
138
171
223
138
170
222
137
166
188
108
135
220
137
167
223
138
171
222
137
169
213
138
165
167
153
170
150
205
219
145
209
226
141
207
227
142
209
226
140
207
225
139
206
221
89
149
163
66
143
163
66
147
170
93
170
188
130
207
223
131
210
225
132
214
229
133
214
231
133
211
229
132
210
227
131
209
225
109
181
199
92
155
172
130
200
214
130
205
223
133
206
221
136
207
219
138
207
217
139
207
218
141
205
216
146
195
207
136
126
146
151
69
107
158
76
108
189
109
141
210
123
157
217
128
162
219
128
162
220
128
164
220
128
165
221
127
164
219
125
160
218
125
155
217
124
154
217
124
155
217
124
155
215
123
154
209
122
151
206
120
147
207
117
146
194
102
137
159
66
103
148
56
97
146
58
100
153
66
106
186
100
134
200
114
145
202
116
145
201
116
142
199
114
142
192
115
142
191
115
144
191
113
141
189
113
135
185
112
136
181
111
135
107
88
81
65
110
58
65
111
59
66
110
59
63
107
56
63
107
55
62
106
57
62
98
56
97
60
65
106
37
70
128
54
85
112
76
99
82
77
98
82
78
102
83
80
106
82
78
104
79
76
99
156
143
153
153
146
153
131
151
158
137
206
214
133
206
221
89
163
182
72
149
168
72
147
167
72
147
166
71
147
166
65
146
163
59
124
142
69
140
158
66
146
166
70
145
167
73
143
165
72
141
158
84
110
124
149
134
148
151
132
143
154
129
140
183
123
142
221
136
164
222
139
168
223
138
170
223
138
171
223
138
171
222
137
167
196
118
144
217
135
165
223
138
171
222
138
171
197
137
166
149
186
201
146
208
223
143
208
226
142
209
228
143
210
227
140
207
224
121
183
198
72
138
158
70
146
168
75
153
174
121
197
213
132
209
225
130
212
226
131
213
228
133
212
229
134
210
228
131
210
225
125
201
217
96
165
182
127
201
217
131
207
219
132
205
222
136
207
221
138
207
218
139
205
217
141
206
218
143
195
205
155
142
157
206
127
161
204
117
152
212
128
160
217
127
163
218
128
165
219
128
163
219
128
163
219
128
163
220
128
165
222
128
165
219
125
160
217
124
155
218
125
154
217
124
155
217
124
155
216
123
154
211
123
153
206
119
147
196
105
136
159
64
103
154
58
98
156
64
101
173
86
119
198
111
144
201
114
146
201
115
144
201
115
144
201
116
142
199
115
142
193
116
142
193
115
142
193
114
140
190
114
136
186
111
136
183
112
138
110
86
82
67
109
58
66
110
59
66
110
59
63
107
56
63
107
55
63
107
57
62
101
56
82
64
57
109
44
72
119
48
77
129
84
107
82
77
98
86
83
106
86
82
108
80
73
101
75
69
94
161
148
158
141
139
147
136
185
193
137
210
221
114
185
200
73
149
168
72
147
166
74
147
166
73
148
167
69
147
168
64
147
162
60
124
140
70
142
161
68
144
164
70
143
165
72
142
167
75
133
149
99
96
108
127
109
122
146
122
135
154
120
132
199
126
149
222
136
167
222
138
170
223
138
171
223
138
171
223
138
171
222
137
166
205
125
152
217
134
162
222
138
169
217
138
169
150
150
170
148
205
225
143
208
225
140
208
227
140
209
227
140
210
226
133
202
218
92
152
169
70
143
163
70
146
166
101
177
195
130
209
224
132
212
226
132
214
228
131
212
228
133
210
228
133
209
228
133
208
225
107
171
189
125
200
216
131
208
224
133
209
224
134
209
225
134
207
218
137
207
215
142
203
217
144
200
211
159
149
163
211
132
162
216
133
163
217
129
161
219
127
161
220
127
161
221
127
162
220
128
162
219
128
163
219
127
164
220
128
165
220
127
162
217
124
157
217
124
155
217
124
155
217
124
155
218
125
156
216
123
154
210
123
153
206
119
149
194
104
137
167
74
110
178
90
123
193
108
139
200
116
145
199
115
143
200
116
145
201
116
145
201
115
144
202
115
144
200
115
143
194
116
142
194
116
141
193
114
138
190
114
137
186
111
137
183
113
136
113
92
85
62
102
56
63
109
57
64
108
57
61
108
54
64
107
54
61
107
57
60
104
55
71
74
55
112
48
77
112
50
76
140
88
113
85
77
98
83
79
102
77
70
96
74
64
89
73
63
85
160
150
161
132
154
164
140
209
219
126
203
216
77
156
170
73
148
167
72
147
166
73
148
166
69
147
165
64
147
165
62
141
155
65
132
149
70
144
164
71
144
166
71
144
166
70
143
165
85
113
128
140
124
135
144
122
134
146
119
131
155
111
126
213
134
161
222
137
170
223
138
171
223
138
171
223
138
171
223
138
171
222
137
166
197
119
146
217
135
163
220
137
166
181
131
157
159
196
211
144
208
225
142
208
227
140
208
227
138
207
226
134
206
222
123
185
200
68
137
157
68
145
165
82
157
177
127
204
221
131
213
226
133
215
227
133
214
229
131
211
228
133
209
228
134
207
226
119
184
203
130
195
214
129
208
223
135
207
225
137
206
225
139
208
222
139
208
218
140
204
216
148
197
209
155
149
164
205
131
161
217
131
161
217
133
162
220
131
164
220
129
162
221
127
161
221
127
161
220
128
162
219
127
163
219
127
165
220
128
165
220
126
160
217
123
155
217
124
155
217
124
155
217
124
155
218
125
156
218
123
155
209
124
153
207
121
150
208
117
149
208
117
148
205
117
147
204
119
148
200
119
146
197
117
144
198
118
145
201
116
145
201
115
144
202
115
145
199
115
143
194
116
143
193
115
145
192
113
141
190
113
139
186
111
137
181
112
134
125
122
102
88
125
79
65
99
58
63
101
58
62
106
54
61
108
56
58
106
55
55
105
55
65
86
54
109
48
75
114
49
78
151
92
120
87
72
95
83
76
100
80
72
97
75
71
93
76
72
93
150
150
159
136
191
199
135
208
224
101
176
192
71
148
167
72
147
166
73
148
167
71
148
166
64
146
164
63
148
165
63
135
150
65
136
154
65
146
166
67
145
166
67
145
165
68
133
151
127
124
137
156
138
145
160
136
145
160
132
142
169
111
130
221
137
166
223
138
171
223
138
171
223
138
171
223
138
171
223
138
170
221
138
166
188
114
139
217
135
165
212
136
164
159
166
185
147
206
221
142
209
225
139
207
226
139
207
226
137
207
225
134
202
219
80
138
153
65
145
166
68
149
170
109
183
204
131
210
225
132
215
226
133
216
228
133
215
229
131
212
228
133
208
226
119
187
207
127
189
209
139
205
225
135
207
225
136
204
222
139
206
223
141
207
216
143
205
216
144
201
210
157
155
169
207
132
162
218
129
163
220
129
159
220
130
159
220
127
161
220
127
161
221
127
161
221
127
161
220
128
161
219
128
163
219
128
163
220
128
163
221
127
161
216
124
156
216
123
154
217
124
155
217
124
155
218
125
156
217
123
155
210
124
153
210
123
151
208
119
146
208
117
144
205
117
145
204
120
146
201
120
146
199
121
147
198
119
145
201
116
145
201
115
144
201
115
144
197
114
142
192
114
140
193
115
141
192
113
138
191
113
138
186
111
137
178
111
132
125
135
106
119
158
105
90
98
67
100
85
69
85
84
60
64
89
51
56
104
53
56
106
55
63
99
55
99
49
67
136
63
95
160
94
124
96
74
97
88
77
102
88
78
102
85
78
100
83
75
100
135
155
162
139
204
212
128
200
215
82
154
171
75
148
167
73
148
167
73
148
167
67
147
167
64
146
166
66
146
167
59
125
143
66
142
159
63
148
168
67
146
167
71
142
165
74
111
126
141
126
135
151
135
141
161
140
147
159
129
139
198
128
151
222
137
166
223
138
171
222
138
171
222
138
171
223
138
171
223
138
170
221
138
165
187
116
141
217
132
166
184
136
163
147
192
207
145
205
224
139
208
228
138
207
226
139
207
226
132
207
223
115
176
193
70
140
161
63
146
170
79
157
180
126
203
222
133
211
227
132
215
229
131
215
229
133
213
228
132
210
226
126
194
212
120
184
203
137
206
227
139
206
227
138
206
226
138
206
222
139
208
218
143
205
213
145
201
212
157
158
174
201
131
160
220
132
164
220
133
167
221
131
162
221
128
159
221
127
161
222
128
162
222
128
162
221
127
161
221
127
160
217
131
159
216
129
155
221
127
156
222
129
159
218
127
158
215
124
153
217
124
154
218
125
156
218
125
156
216
122
154
212
123
153
209
124
153
206
120
147
205
119
144
205
119
145
204
120
146
201
120
146
200
120
147
198
118
145
200
117
145
200
116
144
200
115
144
200
116
144
194
113
140
191
114
140
191
111
138
191
111
138
186
111
136
173
107
128
129
142
109
123
170
107
114
142
96
110
84
72
116
85
80
91
78
62
51
92
48
57
105
52
62
105
56
88
59
59
142
72
101
169
97
126
104
74
92
89
77
102
90
79
104
88
77
101
89
78
102
128
178
186
139
209
217
108
180
192
74
147
163
75
148
167
73
149
167
68
148
165
64
148
165
64
147
164
67
144
160
56
119
136
66
145
165
66
146
167
71
145
164
74
137
154
110
114
126
126
107
116
125
105
113
161
139
147
159
118
131
216
137
163
221
137
166
223
138
171
222
138
171
222
138
171
223
138
171
223
138
171
222
136
166
191
116
145
205
131
164
145
158
175
147
206
222
139
208
225
139
207
227
138
208
227
135
209
226
130
203
219
88
152
167
65
145
165
67
144
166
107
183
202
133
210
226
134
212
227
132
214
228
132
213
227
133
211
226
128
202
219
119
184
203
133
206
223
134
209
227
136
208
227
137
206
226
138
208
223
138
209
218
144
203
213
153
164
179
201
133
161
218
132
164
219
134
167
221
131
166
221
129
161
221
127
159
221
127
161
222
128
162
222
128
162
222
128
162
221
127
160
218
131
159
216
129
155
221
128
154
221
128
156
219
128
159
216
124
153
217
124
153
218
125
156
218
125
156
216
123
154
209
120
150
207
122
151
206
120
146
205
119
144
205
119
145
204
120
146
202
120
146
200
120
147
198
118
145
200
117
145
201
116
145
200
115
144
200
116
144
197
116
143
190
114
138
191
111
136
190
111
137
186
111
136
165
109
126
128
153
113
121
171
108
121
168
111
107
121
88
115
84
73
99
81
67
51
84
44
58
103
53
59
105
52
83
72
60
142
76
102
173
99
126
115
75
95
90
77
102
87
78
102
88
79
102
89
80
103
138
208
217
128
203
214
79
152
168
74
147
166
72
148
167
70
148
166
64
148
165
63
148
165
65
146
166
61
133
148
63
131
146
64
146
167
66
146
168
67
145
164
85
130
140
147
144
152
154
138
146
139
120
127
154
133
140
178
122
142
220
135
167
222
138
170
223
138
171
223
138
171
223
138
171
223
138
171
223
138
171
223
136
168
201
123
154
167
124
152
156
199
216
143
207
224
140
208
226
139
207
226
138
207
226
132
209
224
124
189
207
66
136
156
64
146
166
80
155
172
129
204
221
134
211
225
134
212
226
132
213
226
132
212
226
130
203
220
112
177
195
135
207
224
133
209
225
134
210
227
136
208
227
136
205
226
140
205
223
141
204
216
148
171
183
193
128
162
219
133
168
221
133
169
220
134
168
220
132
165
220
129
161
221
127
160
221
127
161
222
128
162
222
128
162
222
128
162
221
127
161
216
130
160
217
129
158
220
128
154
221
128
156
219
127
159
217
123
154
217
123
153
218
125
155
217
123
155
214
121
152
209
121
149
206
121
147
205
120
143
205
120
143
205
119
145
204
119
144
202
119
144
198
119
146
198
118
145
199
117
145
201
116
144
201
115
144
200
115
144
195
115
144
190
113
139
190
114
135
188
112
137
185
111
136
162
115
122
129
161
113
123
170
110
120
169
111
115
155
102
110
94
75
102
80
68
58
92
51
51
94
47
58
106
52
78
79
56
141
76
101
174
99
126
126
80
100
81
68
90
73
64
86
76
68
88
80
71
93
135
208
216
105
182
193
73
148
165
71
148
166
68
148
165
64
147
165
65
148
166
64
147
166
67
145
167
57
124
141
67
141
160
63
147
167
64
147
166
71
143
160
110
124
133
164
157
165
161
144
151
161
141
147
162
137
146
195
127
151
220
136
169
223
138
171
223
138
171
223
138
171
223
138
171
223
138
171
223
138
171
222
137
168
196
130
158
146
158
176
147
204
221
143
206
225
140
208
227
139
208
227
137
208
227
135
208
225
88
149
166
68
143
166
67
148
171
103
178
195
132
208
224
134
210
226
134
212
225
133
212
225
130
208
223
118
180
200
129
205
221
133
210
226
135
210
227
136
209
225
138
208
225
139
204
223
139
203
217
137
171
182
178
114
146
220
132
167
221
132
166
222
133
168
220
133
166
220
132
164
220
131
163
221
128
162
222
128
162
222
128
162
222
128
162
222
128
162
221
128
161
218
128
161
217
129
160
220
127
155
221
128
158
218
126
159
215
123
153
218
124
152
218
125
154
214
122
153
210
122
153
208
123
150
206
121
146
204
119
142
205
120
143
205
119
145
205
119
143
203
118
144
201
119
147
199
118
145
199
118
145
200
115
144
201
115
143
199
115
144
192
113
143
192
113
141
191
115
136
187
113
136
183
112
135
155
120
118
124
164
113
125
173
114
120
172
111
120
168
105
109
121
85
101
82
68
63
96
54
52
90
46
59
103
52
69
89
55
140
81
102
174
97
126
138
84
104
81
66
84
69
61
80
74
65
84
75
66
88
128
203
212
83
160
172
70
147
164
67
147
165
64
146
164
63
148
166
66
147
166
65
146
166
65
143
165
58
122
138
69
141
155
69
144
166
68
144
165
67
130
145
143
140
148
162
150
157
165
149
154
166
144
151
164
130
141
206
130
156
221
137
170
223
138
171
223
138
171
223
138
171
223
138
171
223
138
171
222
138
171
221
137
167
186
140
162
144
191
203
140
208
223
141
208
227
139
210
227
138
209
227
133
209
226
124
192
209
67
135
151
66
147
165
72
152
170
119
196
212
132
210
225
133
212
226
134
212
225
135
209
224
117
182
200
128
196
214
131
209
225
133
211
226
135
210
227
139
209
225
139
206
222
141
203
218
143
179
193
152
94
125
213
125
161
220
133
162
221
132
161
220
131
162
220
132
161
221
132
164
219
130
162
220
128
161
222
128
162
222
128
162
222
128
162
222
128
162
221
128
161
220
126
160
216
128
157
220
127
156
221
127
160
219
126
160
215
122
153
218
123
153
217
125
153
210
123
152
207
119
150
196
107
137
192
103
131
205
120
143
205
120
143
205
119
145
205
119
143
205
118
144
203
119
146
202
118
147
200
117
145
200
115
144
201
115
143
200
115
145
192
112
142
192
112
139
191
114
136
187
113
135
183
112
134
145
123
113
122
168
114
124
174
115
122
171
115
119
169
109
115
147
103
91
75
59
64
97
53
56
96
51
60
99
50
63
94
55
139
86
101
174
96
126
149
88
110
75
61
76
77
69
88
83
74
94
84
75
97
112
190
200
72
149
166
68
147
167
65
146
165
65
146
165
65
146
165
66
147
166
65
147
167
62
140
160
63
127
146
70
142
160
72
143
166
71
141
163
93
127
141
162
156
163
170
156
161
175
156
163
175
155
162
165
118
132
218
137
160
222
138
168
223
138
171
223
138
171
223
138
171
223
138
171
223
138
171
222
137
170
216
136
168
152
151
168
145
205
220
141
208
224
141
209
225
138
209
223
137
209
226
132
207
224
100
163
181
69
144
161
65
148
165
86
164
180
131
210
223
134
212
225
134
213
226
133
210
226
120
188
206
129
192
212
135
209
226
134
211
227
134
210
226
138
208
226
141
205
223
138
204
217
141
182
195
141
97
126
192
99
139
220
131
163
222
133
163
220
131
163
221
132
164
221
132
164
222
133
165
220
129
162
221
128
161
222
128
162
222
128
162
222
128
162
222
128
162
221
127
162
217
125
159
215
128
152
218
127
156
221
127
162
220
126
159
216
123
154
216
124
155
213
123
152
204
118
145
179
85
121
160
63
103
175
81
118
206
120
148
205
120
146
205
119
147
204
118
143
204
117
142
203
118
143
201
117
145
200
115
144
201
115
144
201
115
144
200
115
144
192
113
140
192
113
138
192
115
139
185
112
137
181
114
136
130
127
103
124
172
115
123
174
115
121
172
113
119
170
111
118
158
108
87
75
58
65
94
55
57
99
53
55
94
50
64
96
55
131
89
98
171
97
126
154
95
118
81
66
84
91
83
104
93
84
106
90
81
102
87
163
176
71
148
167
67
145
167
65
146
165
66
147
166
66
147
166
66
147
166
63
145
166
62
136
154
63
133
152
65
142
164
66
143
164
70
137
155
135
143
153
169
161
164
172
157
165
171
157
165
173
152
161
179
116
136
222
137
162
222
138
168
223
138
171
223
138
171
223
138
171
223
138
171
222
138
171
222
138
171
188
130
158
153
193
207
145
206
222
143
207
225
141
208
225
141
210
224
139
207
226
131
198
217
81
146
164
65
146
162
65
147
164
114
192
207
132
211
224
134
212
225
133
211
225
128
198
215
119
187
205
133
209
225
135
210
226
133
210
226
135
210
226
137
207
225
138
205
220
139
192
201
139
110
135
171
71
116
211
118
154
221
132
161
221
132
164
221
131
164
221
133
164
222
133
165
221
132
164
220
129
162
221
129
162
222
128
162
222
128
162
222
128
162
222
128
162
221
126
161
218
127
160
215
128
153
218
128
160
220
127
159
218
125
156
217
124
155
216
123
154
209
116
149
180
84
122
165
56
107
164
61
106
200
106
142
206
120
147
205
119
145
205
119
147
204
118
144
204
117
142
202
117
143
200
116
144
200
114
143
202
116
145
199
114
143
200
114
144
192
113
139
191
112
137
192
115
139
185
112
137
176
116
132
116
138
98
123
173
112
122
174
111
121
172
112
119
170
111
118
159
108
88
76
58
66
89
53
58
102
55
49
89
45
63
100
55
108
86
83
166
100
125
150
96
118
86
71
89
93
82
103
93
85
103
73
64
82
73
148
167
71
146
167
67
145
165
65
146
165
66
147
166
65
148
166
67
146
166
63
144
165
64
135
151
62
136
152
65
144
165
66
143
167
83
135
152
151
150
157
168
157
161
170
155
165
173
158
169
162
139
150
205
132
155
222
138
169
223
138
170
223
138
171
223
138
171
223
138
171
223
138
170
220
135
166
218
136
167
166
158
172
149
206
219
144
209
225
141
208
226
140
208
228
139
208
226
136
207
225
120
184
202
64
136
155
65
146
166
81
159
175
130
207
223
133
210
226
131
211
226
130
200
217
114
179
193
131
207
221
132
210
225
135
209
226
137
207
226
138
207
223
136
204
220
140
196
211
134
115
139
162
64
109
191
92
133
219
127
163
221
131
165
221
132
165
221
132
164
221
132
165
222
133
165
221
130
163
220
127
161
222
128
162
222
128
162
222
128
162
221
127
161
220
126
160
220
125
160
217
125
158
216
128
156
216
128
159
217
126
157
214
124
153
214
122
152
210
115
144
180
82
115
162
59
104
164
58
106
186
89
126
211
117
147
207
119
143
207
118
143
207
118
145
204
118
145
202
117
145
200
119
146
199
117
145
201
115
144
201
115
144
199
114
143
197
113
145
192
112
140
191
112
136
190
114
137
185
110
138
162
111
120
118
156
104
121
174
112
121
173
111
119
172
111
120
170
108
119
158
106
94
79
61
71
83
51
55
104
52
50
91
47
57
99
49
90
83
65
168
100
123
144
89
111
93
79
98
91
81
98
70
61
77
70
61
83
71
148
168
68
147
166
66
146
165
65
146
165
65
146
165
64
148
166
66
145
165
64
142
164
60
125
143
65
139
155
63
146
165
66
143
162
98
126
141
165
158
166
170
159
168
171
161
172
175
164
176
163
129
144
217
137
163
222
137
169
223
138
171
223
138
171
223
138
171
223
138
171
223
138
170
220
135
165
203
140
169
152
182
196
144
208
222
142
208
224
140
210
227
140
209
229
138
207
226
133
207
224
85
149
168
67
144
164
66
146
168
104
180
196
132
208
224
133
209
227
134
204
221
115
180
195
134
206
220
133
209
224
132
210
225
136
209
226
138
207
225
141
204
221
142
197
212
132
133
155
161
67
114
172
71
113
215
119
156
220
129
162
221
131
165
221
132
164
221
132
163
222
133
165
222
133
165
220
129
162
221
127
161
222
128
162
222
128
162
222
128
162
221
127
161
220
126
160
220
126
160
217
126
157
217
128
156
216
127
157
217
124
155
215
122
151
210
115
147
179
81
117
162
59
105
156
59
104
166
77
112
207
116
147
209
119
146
208
118
144
208
118
145
208
118
144
204
118
146
200
116
145
201
118
146
200
116
144
200
114
143
201
115
144
199
114
143
194
110
143
192
111
138
191
112
136
189
113
137
185
112
138
138
111
103
124
171
113
121
174
112
121
172
111
121
171
112
120
169
108
119
151
102
101
79
62
78
80
52
58
103
52
55
101
51
50
90
44
79
86
55
165
101
121
136
83
105
102
92
109
69
61
77
66
57
76
93
83
107
68
147
167
65
147
166
65
147
165
65
146
165
65
146
165
64
146
164
66
144
164
65
141
161
56
118
136
68
141
160
64
141
163
69
136
152
129
135
145
174
163
171
174
163
175
174
166
180
175
165
179
183
134
153
218
134
162
222
137
169
223
138
171
223
138
171
223
138
171
223
138
171
223
137
171
221
139
166
169
139
163
149
201
219
143
208
225
139
210
225
139
210
227
139
208
227
134
209
225
126
195
212
66
135
155
66
146
167
72
151
172
119
195
212
132
210
225
135
208
226
114
180
195
127
199
210
132
209
224
135
211
227
133
209
225
134
209
224
135
205
220
142
202
216
129
143
162
155
69
115
170
64
112
193
96
134
219
127
161
220
130
162
221
131
163
221
132
162
222
132
164
222
133
165
221
132
164
220
129
162
222
128
162
222
128
162
222
128
162
222
128
161
221
127
161
220
126
161
219
125
158
217
125
153
217
127
155
216
125
155
216
122
152
210
114
147
174
77
117
162
58
107
161
59
104
153
67
98
195
112
139
205
121
148
207
119
146
208
118
145
208
118
145
208
118
144
204
118
144
201
116
144
201
116
145
201
115
144
201
115
144
201
115
144
200
115
144
195
111
142
191
109
137
191
112
136
186
112
134
178
110
131
128
137
106
125
173
111
122
174
111
121
172
110
122
170
112
122
168
108
110
135
92
110
82
69
84
76
53
60
100
52
55
102
48
50
91
45
93
117
78
151
94
110
122
78
98
76
68
85
69
61
81
91
81
104
93
84
109
66
147
166
64
148
166
65
148
166
65
146
165
65
146
165
65
144
163
66
144
164
65
141
158
54
119
135
68
141
163
65
143
165
66
123
135
150
152
160
176
162
172
175
163
172
173
165
176
175
157
171
196
134
156
220
136
166
222
138
170
223
138
171
223
138
171
223
138
171
223
138
171
221
138
170
209
138
163
151
169
184
146
206
224
141
208
225
139
210
227
141
209
228
136
209
226
132
209
222
105
171
186
67
143
162
64
145
166
82
158
180
130
207
224
132
209
223
122
190
206
123
192
205
133
209
220
133
209
225
135
211
227
132
209
224
133
208
219
138
203
213
136
159
176
150
72
117
168
64
115
176
70
115
209
117
153
220
130
166
220
129
162
221
130
163
221
132
164
222
132
165
222
133
165
221
132
164
220
129
162
222
128
162
222
128
162
222
128
162
221
127
160
220
126
160
219
125
161
218
124
158
217
125
152
217
124
154
215
123
154
207
113
144
173
76
113
162
57
103
162
56
104
156
63
99
188
107
131
209
119
149
206
123
149
207
120
145
208
118
144
208
118
144
208
118
143
204
118
143
201
116
144
202
116
145
201
115
144
201
115
144
200
115
144
197
113
144
194
111
140
193
110
137
189
113
135
183
112
134
163
113
121
126
158
112
122
173
112
121
173
109
118
169
107
118
168
109
122
166
105
102
117
80
114
83
72
87
78
56
60
100
51
56
103
48
57
99
51
107
138
97
132
88
97
94
63
79
72
63
80
98
88
111
100
89
114
92
82
107
66
147
166
65
149
167
65
149
167
66
147
166
65
146
165
65
143
163
65
143
163
64
136
155
58
123
139
65
143
162
69
142
161
94
122
137
156
147
158
172
161
169
176
163
171
173
159
168
175
141
156
208
131
157
223
137
168
222
138
170
223
138
171
223
138
171
223
138
171
223
138
171
219
138
169
179
134
156
155
201
213
145
207
226
141
208
225
139
209
226
140
208
226
136
210
226
130
205
219
90
155
171
66
144
163
64
145
166
104
181
202
132
210
227
130
200
217
119
183
198
132
207
221
132
209
225
134
210
226
134
210
226
133
209
222
136
205
217
140
174
189
143
82
120
168
63
113
171
61
110
189
91
129
219
127
162
221
131
167
221
130
163
221
131
164
221
132
164
222
132
165
222
133
165
220
131
163
220
129
162
222
128
162
222
128
162
222
128
162
222
128
161
222
128
162
219
125
162
218
124
160
217
124
153
216
122
155
203
108
142
169
70
110
162
57
107
164
56
105
153
61
97
189
107
134
209
121
149
212
120
151
205
124
148
208
119
145
208
118
144
208
118
144
207
118
144
202
116
144
200
115
144
201
115
144
201
115
144
202
116
145
200
115
144
197
112
143
194
111
140
192
110
136
188
113
135
182
111
134
136
123
107
122
166
110
117
170
110
99
150
90
76
126
68
79
129
73
116
158
100
100
100
70
116
83
72
82
77
53
59
102
52
54
105
49
58
101
52
109
143
101
108
90
87
79
65
77
100
89
107
101
89
113
98
84
110
92
79
105
66
147
166
66
147
166
66
147
166
66
147
166
64
145
164
64
142
162
66
143
163
63
131
149
60
130
145
63
142
158
68
137
151
132
141
150
170
158
167
174
160
169
177
160
167
177
153
162
167
121
136
219
136
165
222
137
168
222
138
169
223
138
171
223
138
171
223
138
171
222
137
170
214
134
166
164
162
177
148
206
220
146
207
226
143
209
226
139
210
225
134
210
224
132
207
223
126
197
209
74
141
157
65
146
166
69
149
168
123
200
218
131
205
220
110
176
191
133
206
219
133
210
223
134
209
227
133
209
226
132
209
223
134
207
217
135
184
199
133
88
121
167
64
115
170
63
111
176
69
113
215
118
156
221
131
165
221
132
164
221
132
164
221
132
164
221
132
164
221
132
164
220
131
163
220
129
162
222
128
162
222
128
162
221
127
161
221
127
161
220
126
160
219
125
160
219
125
161
215
124
156
214
120
152
199
103
137
167
66
105
164
56
105
163
56
105
156
64
98
182
104
131
206
119
149
208
121
150
206
120
152
206
122
149
208
119
145
209
119
145
208
118
144
207
118
145
202
115
142
201
115
143
201
115
144
201
115
144
201
116
145
199
115
144
197
114
142
193
111
139
191
110
136
189
112
135
169
112
127
119
144
99
115
164
105
85
135
79
64
110
56
63
109
55
61
109
54
104
138
87
93
79
64
107
79
69
71
84
52
57
103
54
54
102
52
52
98
50
96
135
89
84
95
77
90
80
95
97
84
103
95
82
103
96
84
105
94
81
102
66
147
166
65
146
165
65
146
165
65
146
165
63
144
163
65
143
163
66
144
164
58
126
145
64
135
150
62
142
157
81
134
147
152
147
155
172
157
168
174
156
167
175
156
165
176
151
160
179
116
138
222
136
167
222
138
168
223
138
170
223
138
171
223
138
171
222
138
171
220
138
171
202
140
167
148
185
194
148
207
226
143
208
226
141
209
226
140
210
225
134
210
224
133
208
225
111
178
192
64
136
154
62
146
165
86
164
181
130
204
221
116
182
198
128
202
216
132
209
224
133
209
223
133
209
223
133
210
223
136
206
220
139
194
208
133
112
136
161
66
111
167
62
113
172
63
111
193
94
133
219
126
162
220
131
164
221
132
164
222
133
165
222
133
165
221
132
164
220
131
163
220
129
162
221
127
161
222
128
162
221
127
161
221
127
161
220
126
160
217
123
158
218
124
159
217
124
156
213
120
154
190
93
130
169
61
104
165
56
106
164
57
104
153
61
99
187
105
130
208
122
149
212
122
152
208
123
152
207
122
150
204
120
143
208
119
142
208
118
144
208
118
144
205
117
144
200
115
141
201
116
143
201
115
144
201
115
144
201
116
145
198
115
143
194
111
139
190
111
138
188
112
138
183
113
133
129
110
100
110
150
98
73
121
65
63
110
56
64
108
55
62
107
54
61
108
53
103
122
85
89
67
56
90
81
59
62
95
52
56
103
52
54
102
51
54
101
50
77
118
70
96
110
90
98
89
108
92
81
100
85
73
93
87
75
95
91
79
99
65
147
166
65
146
165
65
145
164
64
144
163
64
143
163
65
143
164
66
144
163
57
124
141
66
139
154
64
143
160
93
126
138
159
146
154
162
146
151
164
146
150
169
148
153
162
134
143
201
125
151
222
136
167
223
138
169
223
138
170
223
138
171
223
138
171
220
136
168
219
138
167
168
141
161
150
201
212
145
206
227
142
209
228
141
209
227
140
209
225
133
211
225
134
206
224
84
145
161
67
142
163
63
148
167
103
180
194
120
191
205
122
192
208
130
209
223
133
210
226
133
209
224
132
209
220
131
208
220
137
198
214
125
125
145
156
65
108
165
63
111
170
60
113
176
69
115
211
117
153
221
130
163
220
132
164
221
132
164
222
133
165
222
133
165
221
132
164
220
130
163
221
128
161
221
127
161
221
128
160
220
127
160
219
129
159
219
127
158
217
125
155
215
124
154
209
115
150
181
82
122
164
58
103
163
55
105
162
55
106
157
63
100
187
102
132
211
120
149
214
123
152
212
121
152
206
122
149
206
121
145
205
119
141
208
119
142
208
118
144
208
118
144
203
116
143
199
115
141
201
116
143
201
115
144
201
115
144
201
116
143
197
114
142
193
110
138
189
112
136
184
112
137
161
108
121
104
121
87
65
112
56
63
111
56
63
111
57
63
108
55
61
106
51
63
107
53
94
99
74
90
67
55
69
84
50
54
102
50
55
102
50
55
103
49
55
103
49
61
104
55
100
117
95
104
96
117
103
93
113
91
80
99
83
71
91
76
64
84
64
150
167
64
147
165
65
145
164
64
142
162
64
143
163
65
144
166
66
143
160
56
119
134
69
140
156
67
140
158
111
121
134
160
148
153
165
148
154
164
145
151
161
138
145
153
115
128
217
137
164
222
137
169
223
138
171
223
138
171
223
138
171
223
138
171
221
139
168
207
136
162
150
170
185
146
208
220
140
207
224
141
209
227
140
208
227
139
208
226
131
210
224
125
193
211
67
131
150
65
143
167
68
149
170
112
182
195
115
181
194
133
209
224
134
211
227
133
211
226
131
211
223
128
210
219
133
200
215
126
143
164
150
69
114
163
62
110
168
60
108
171
61
110
190
92
132
219
129
162
222
133
165
222
133
165
222
133
165
222
133
165
221
131
163
220
130
162
221
128
162
221
127
161
221
127
161
220
127
160
219
127
160
214
128
156
215
127
154
216
124
152
201
106
138
173
70
111
163
57
103
163
55
104
164
57
105
156
61
97
191
106
133
213
121
151
216
123
154
216
124
155
211
122
152
206
122
148
207
119
144
207
118
144
208
118
144
208
118
144
207
117
143
202
116
143
201
116
143
201
116
143
201
115
144
201
115
143
200
116
140
197
114
141
193
112
139
186
113
135
183
111
133
117
95
88
65
108
57
65
111
60
66
110
58
64
109
55
62
105
48
61
106
46
62
97
51
81
69
56
76
67
50
59
96
52
56
104
49
55
103
49
55
103
49
54
103
49
51
94
46
99
119
93
95
85
103
101
88
107
104
92
111
99
87
107
86
74
94
64
149
167
63
146
164
65
145
164
67
145
165
66
144
165
66
145
166
66
144
161
57
117
131
70
139
153
68
131
149
142
137
151
169
156
163
175
159
168
175
156
165
165
143
151
169
118
134
220
134
163
222
138
170
223
138
171
223
138
171
223
138
171
223
138
171
219
139
167
175
133
156
153
200
217
145
208
223
140
208
224
140
209
228
140
208
227
136
207
226
130
209
224
107
172
187
67
142
163
64
144
171
76
149
171
109
172
186
133
205
216
132
210
225
134
211
226
134
209
224
130
207
221
132
204
215
129
166
179
142
73
113
161
63
114
161
63
110
169
59
107
175
70
112
215
122
156
220
131
163
222
133
165
222
133
165
222
133
165
221
131
164
222
128
162
222
128
162
222
128
162
222
128
162
222
128
162
220
127
162
216
125
160
213
125
157
213
119
150
196
96
129
171
64
102
169
58
104
163
55
105
159
57
103
155
64
102
190
106
135
209
121
150
214
121
153
217
124
155
214
123
154
210
123
152
206
120
146
207
119
144
207
119
144
208
118
144
208
117
144
207
116
143
202
115
142
200
116
142
201
116
143
202
116
144
201
115
144
199
115
140
194
111
138
190
112
139
185
111
136
150
103
111
68
98
57
63
110
57
65
112
61
66
110
58
63
107
53
61
106
47
63
104
52
72
80
50
95
71
63
65
80
49
58
102
49
55
104
47
54
104
49
54
103
51
55
103
54
53
95
49
88
105
79
75
64
75
82
69
85
98
85
105
103
91
112
96
85
105
63
148
166
63
146
164
65
145
164
65
143
163
66
144
164
64
145
164
65
142
162
56
116
133
69
140
152
74
122
137
167
159
173
174
161
170
178
163
175
179
160
169
165
142
150
189
127
148
221
135
164
223
138
170
223
138
171
223
138
171
223
138
171
222
137
170
214
135
165
165
163
178
144
207
220
142
209
228
140
209
227
141
209
229
140
208
229
134
209
228
129
205
221
94
155
173
65
143
167
65
145
169
74
141
156
126
196
210
133
208
222
133
211
223
132
211
223
132
206
219
131
205
218
129
173
186
139
84
117
162
65
114
162
64
115
162
65
112
169
63
109
195
96
132
217
127
159
221
132
165
222
133
165
222
133
165
222
133
165
221
130
163
222
128
162
222
128
162
223
128
161
223
127
161
221
125
161
219
125
161
217
124
160
208
110
146
180
78
114
171
60
100
168
58
98
164
57
100
164
59
100
156
68
101
195
111
142
212
122
154
213
122
155
215
123
155
217
122
153
210
121
148
207
121
146
205
120
145
207
119
144
207
119
144
209
118
144
209
117
144
206
114
143
202
115
144
201
115
144
201
116
142
200
116
142
199
114
143
198
114
142
192
112
139
184
110
137
160
92
113
90
90
68
63
111
60
63
111
59
62
112
60
64
111
57
62
106
50
59
106
47
57
95
50
91
77
62
100
71
64
58
87
49
55
102
50
55
104
49
55
104
52
55
103
53
54
102
53
55
96
50
68
85
65
66
56
63
73
59
76
95
83
106
105
94
119
107
97
121
63
148
165
63
146
164
65
144
164
65
143
163
65
144
163
64
145
164
65
142
162
57
116
135
69
137
149
105
129
145
169
164
177
167
155
165
172
157
169
167
147
156
162
134
143
198
127
151
221
135
164
222
138
170
223
138
171
223
138
171
223
138
171
222
137
170
199
136
165
148
187
198
142
208
223
141
208
228
140
210
228
141
208
229
139
208
229
132
208
226
128
197
216
81
143
162
64
143
163
65
136
155
114
178
192
133
209
221
133
211
224
133
210
221
132
208
219
131
206
217
131
186
195
135
95
127
161
65
114
161
63
112
162
61
111
166
62
110
171
71
112
213
121
152
221
131
161
221
132
164
221
132
164
221
132
164
221
132
164
221
129
162
222
128
162
221
127
161
222
127
160
221
126
159
218
123
159
214
118
154
197
95
133
171
63
106
168
59
105
164
58
102
161
56
102
155
57
100
157
74
103
197
117
143
212
123
151
216
122
153
215
121
152
216
121
154
216
121
152
208
120
147
204
118
143
204
120
144
207
119
144
207
119
144
209
118
144
208
117
144
202
117
143
201
115
144
201
115
144
201
115
142
200
116
141
199
114
142
193
112
139
185
109
135
160
89
114
97
70
64
66
105
58
61
112
59
64
112
60
63
111
60
63
110
56
60
107
50
60
104
51
68
82
52
98
71
60
101
75
64
62
96
54
55
103
50
56
105
50
55
103
49
54
103
49
53
101
48
54
97
48
55
71
55
76
68
83
80
70
90
93
83
106
103
95
119
108
99
123
63
149
166
63
145
164
63
143
162
63
143
162
63
143
163
65
144
164
66
142
163
57
116
136
68
133
147
135
145
157
170
164
174
173
162
171
171
157
166
166
145
153
168
133
143
207
129
154
220
134
164
223
138
170
223
138
171
222
137
170
222
137
170
219
138
170
162
141
162
149
202
217
143
208
226
140
208
227
141
210
229
141
208
228
136
208
226
132
208
226
123
189
205
62
134
154
64
140
159
100
162
179
132
204
220
133
210
224
132
210
223
134
208
219
134
204
215
131
191
202
125
105
128
160
64
112
164
64
113
164
61
112
163
59
109
167
59
107
195
95
136
219
130
160
220
132
160
221
132
163
222
132
165
222
131
164
221
129
162
221
128
161
221
127
160
220
127
162
217
124
159
220
123
159
204
107
144
180
77
116
171
59
104
169
58
106
165
56
105
162
56
105
156
58
102
174
87
120
205
119
148
212
122
151
216
122
152
215
120
151
215
120
152
215
119
152
213
120
150
206
119
145
206
118
144
206
119
144
207
119
143
208
118
144
206
116
143
203
115
142
200
116
144
201
115
144
200
115
144
199
116
143
199
116
142
196
113
139
187
111
134
159
86
111
111
61
74
71
94
57
63
111
58
64
111
59
65
111
58
63
110
57
63
106
53
58
107
49
65
97
51
92
75
60
104
69
64
98
78
63
59
97
50
55
104
47
56
105
50
54
102
50
55
103
50
53
102
48
54
98
48
56
73
57
74
67
85
74
66
86
74
66
87
90
82
103
106
96
120
62
149
166
64
146
164
65
145
164
64
145
164
63
144
163
66
145
164
65
143
163
56
118
137
73
130
144
138
140
149
154
143
151
154
140
149
166
150
159
174
153
160
169
126
138
216
135
160
221
136
165
222
137
170
223
138
171
221
136
169
222
137
168
202
132
161
152
175
191
145
207
223
143
208
226
140
209
228
141
210
229
139
209
228
134
209
225
131
206
223
104
164
181
67
138
158
76
141
160
127
195
212
132
206
223
133
209
224
131
209
221
132
206
218
131
199
208
127
124
144
159
67
108
164
63
108
164
62
112
164
62
112
164
59
109
166
60
107
199
97
138
220
129
161
221
130
160
220
132
163
220
133
165
221
131
163
221
128
160
221
128
159
221
127
160
219
123
160
211
112
151
187
87
125
169
63
104
169
60
102
171
59
103
167
57
105
163
57
103
156
62
100
180
96
128
212
122
154
213
122
153
215
122
153
218
123
155
215
121
153
215
120
152
215
119
152
211
120
149
208
120
146
208
118
144
208
118
144
207
119
143
208
118
145
206
116
143
202
115
144
200
114
143
200
115
144
200
115
144
198
115
142
194
112
137
184
103
128
151
75
106
122
53
82
77
83
60
65
109
60
62
112
59
66
110
60
66
110
57
64
107
50
60
105
48
60
104
51
75
80
50
110
81
69
99
67
61
87
79
56
58
99
48
55
105
48
55
103
52
55
103
53
55
103
51
53
102
48
57
97
50
57
67
57
72
64
81
70
62
81
69
60
78
74
63
82
92
81
103
62
148
165
63
145
164
65
144
163
65
145
164
62
144
162
66
145
165
66
144
164
58
124
139
82
129
140
147
139
148
158
143
150
156
136
144
166
147
156
180
157
165
170
116
131
221
137
163
223
136
166
222
137
169
223
138
171
223
137
170
220
139
167
175
136
160
149
202
216
140
210
227
139
210
226
138
209
227
139
209
228
136
210
226
133
210
226
132
205
221
77
135
155
66
132
152
121
181
199
132
207
227
137
207
225
136
209
223
131
209
218
134
203
215
123
139
159
153
68
111
163
62
108
163
60
110
162
62
111
161
61
111
163
60
108
165
60
107
176
72
115
212
117
153
221
127
161
220
129
161
220
128
161
221
129
160
220
128
158
220
127
158
215
119
153
191
90
128
177
66
110
171
59
105
166
59
103
168
60
100
170
59
102
163
58
102
159
70
105
200
110
139
214
123
152
214
122
153
215
123
155
217
124
155
218
123
155
217
122
154
216
120
152
215
119
152
210
120
149
207
119
145
207
117
143
208
118
144
207
119
143
208
118
145
207
117
145
202
115
144
200
114
144
201
115
144
200
114
143
194
111
140
171
89
121
145
63
97
128
56
84
85
75
60
65
107
57
65
112
57
63
112
60
66
110
59
65
110
57
61
107
51
58
106
51
62
87
49
92
73
60
117
81
71
91
69
56
63
85
48
55
103
49
55
104
51
55
102
55
55
103
55
54
102
51
54
102
49
59
92
52
67
64
68
84
69
89
82
66
87
73
59
78
77
64
82
95
82
103
63
148
165
64
145
164
65
144
164
65
143
163
65
143
163
66
144
164
65
142
162
60
127
146
83
115
126
144
134
142
152
137
142
164
141
149
175
156
164
176
152
160
185
119
139
221
135
164
222
135
166
222
136
168
223
138
169
222
138
169
211
135
163
163
170
188
144
206
224
141
210
226
137
210
227
140
208
229
138
208
229
135
209
226
131
209
225
124
192
208
68
131
152
101
162
178
135
203
219
134
207
224
138
207
224
132
208
220
134
205
214
131
161
174
141
74
110
164
63
110
162
58
114
163
59
113
164
61
111
162
61
111
163
60
107
165
59
107
168
60
108
182
78
120
209
110
149
213
120
155
215
122
156
215
122
156
209
114
151
196
99
136
173
69
111
170
59
105
170
57
104
171
58
106
167
58
105
166
60
102
161
60
98
171
86
116
209
119
150
216
123
153
216
123
154
217
124
155
216
123
154
217
123
155
217
122
154
216
119
152
216
119
152
213
119
151
209
118
147
208
118
145
208
118
144
208
118
144
208
119
142
207
117
144
204
114
145
201
113
145
199
112
144
199
113
141
189
104
133
160
77
107
139
56
90
132
54
89
97
64
67
68
104
59
62
112
56
62
111
56
63
113
58
64
112
60
61
109
56
59
107
51
63
97
50
86
75
56
100
73
63
112
80
69
68
67
43
56
98
52
54
105
50
54
105
53
55
101
55
55
102
55
54
103
49
54
101
50
59
83
55
96
84
95
98
79
97
92
76
93
81
67
85
87
72
92
97
82
105
63
149
165
64
146
164
65
145
164
66
144
164
65
143
163
66
144
164
65
143
163
65
136
154
86
106
120
159
149
156
164
152
156
167
147
154
179
163
170
170
144
153
206
131
154
222
136
162
222
136
164
222
137
167
222
137
168
221
137
168
190
138
164
146
191
207
146
205
227
143
207
229
140
209
229
139
208
229
136
210
229
132
210
226
132
209
224
109
173
189
87
154
174
130
200
215
134
204
220
138
208
222
139
208
220
142
204
219
146
181
193
184
128
156
164
90
124
158
60
109
162
59
113
164
60
109
163
61
109
162
61
109
163
60
107
166
60
108
166
59
107
169
60
104
173
64
107
177
74
115
178
76
117
176
74
116
171
66
110
170
60
106
171
60
106
172
60
106
172
59
108
168
58
106
166
61
103
153
62
95
184
103
129
210
122
151
216
123
155
218
123
154
218
125
156
218
125
156
216
123
154
217
123
154
216
120
152
216
119
152
216
119
152
212
119
151
209
117
147
209
118
145
208
118
144
208
118
144
206
120
142
204
117
143
200
113
143
198
111
143
196
111
142
179
94
126
148
62
98
140
53
91
136
55
89
102
64
67
71
100
61
66
110
57
62
113
57
63
114
58
63
114
59
63
110
59
60
107
53
59
99
52
85
79
56
115
80
70
105
72
62
103
77
62
63
92
50
57
103
51
55
107
51
54
104
50
56
101
54
56
102
51
53
103
47
55
95
50
84
84
81
116
99
118
105
88
108
94
76
97
92
74
94
99
78
100
101
81
106
63
147
163
63
144
163
66
144
164
66
144
164
66
144
164
66
144
164
66
144
164
66
140
158
82
98
111
165
154
163
170
159
163
169
154
159
179
163
170
165
132
142
216
138
161
222
136
161
222
137
162
221
137
165
222
138
168
218
138
169
152
151
168
148
206
223
142
207
228
142
209
229
140
210
230
141
208
230
136
210
229
131
212
226
134
207
222
101
163
179
122
193
210
135
208
224
137
208
223
139
208
221
140
207
221
147
191
209
174
126
153
218
129
163
212
124
160
163
76
112
161
61
105
166
60
105
164
62
105
162
63
105
163
60
107
165
59
107
165
59
107
165
59
106
167
61
106
166
59
106
166
60
107
164
60
106
164
60
106
166
58
105
172
60
106
172
61
106
172
59
107
162
58
101
158
73
104
195
111
139
214
123
155
215
124
155
216
123
154
218
124
155
218
125
156
218
125
156
217
124
155
216
121
153
216
119
152
217
119
152
215
119
150
211
119
148
208
118
146
208
118
145
208
118
144
207
118
144
204
118
143
201
114
143
199
112
142
194
107
140
165
80
114
142
54
94
140
51
90
138
52
88
112
59
77
66
93
55
62
112
56
63
111
55
64
112
57
64
113
58
63
112
57
63
108
56
57
101
50
53
84
43
99
80
65
116
82
72
98
69
59
90
79
56
55
100
48
54
104
50
55
106
52
55
102
52
58
102
54
57
102
49
55
101
45
53
85
48
100
87
95
123
100
126
121
104
127
109
91
114
105
84
107
105
83
106
105
83
107
74
153
170
65
144
164
66
144
165
66
144
164
66
144
164
66
144
164
66
144
164
66
142
160
89
113
124
158
149
156
166
152
157
178
161
167
180
164
170
170
130
142
219
137
161
222
136
161
221
137
161
221
137
164
222
138
169
194
128
157
155
189
202
140
209
223
141
208
227
140
209
228
140
210
228
141
208
229
137
209
228
133
211
224
131
202
215
118
182
197
134
206
222
138
207
225
139
208
222
139
207
219
145
198
211
166
143
167
217
130
163
220
127
161
220
128
162
204
118
152
153
63
100
164
60
105
164
61
106
163
62
106
163
60
107
164
59
107
165
59
107
165
59
107
165
59
107
166
59
107
166
60
108
163
61
107
164
61
106
166
60
105
171
60
106
170
60
105
160
60
100
175
91
123
210
118
153
217
125
159
218
125
159
217
124
157
218
125
156
218
125
156
218
125
156
218
125
156
217
124
155
215
120
152
217
120
153
215
119
152
212
120
148
208
119
146
208
118
146
208
118
145
208
118
144
207
117
143
203
115
142
199
113
143
179
93
123
153
64
100
143
52
92
141
52
92
138
54
90
116
58
77
75
92
62
63
110
56
62
112
57
62
112
57
64
113
57
62
112
58
63
109
54
57
97
47
55
97
48
61
99
53
89
77
58
111
79
70
89
69
57
71
81
49
56
105
50
56
107
51
54
103
50
55
102
53
57
101
54
55
99
47
56
97
46
57
66
46
107
89
103
120
99
124
119
102
126
116
97
121
112
90
114
112
90
113
115
93
116
