P3
100 100
255
194
181
169
200
187
174
200
186
174
198
184
172
196
183
170
196
183
170
196
183
170
196
182
170
196
182
170
197
184
171
198
184
172
198
185
172
199
186
173
200
187
174
201
187
175
201
188
176
202
188
176
203
190
177
203
190
177
203
190
177
204
190
178
204
190
178
204
190
178
204
191
178
204
191
179
204
190
178
204
191
178
204
190
177
203
190
177
202
188
176
200
186
174
198
184
173
196
183
172
195
181
172
195
181
173
195
181
173
195
182
173
196
183
174
197
183
175
198
184
174
199
184
173
199
184
172
198
183
171
197
183
170
196
182
169
196
182
170
197
183
171
198
184
173
198
184
174
198
184
172
197
183
171
197
183
172
197
183
174
196
182
173
195
181
171
195
180
168
195
179
165
193
178
164
192
176
162
190
175
161
190
175
161
190
174
161
189
174
161
189
174
161
189
173
159
188
173
159
187
172
159
185
172
160
184
171
160
183
169
160
182
169
159
181
168
157
180
167
154
180
167
154
180
166
153
179
166
153
179
165
153
178
164
152
176
163
150
176
162
150
175
161
149
174
161
149
171
160
151
169
159
150
168
158
148
166
156
146
164
155
142
162
153
139
160
152
137
162
150
135
162
149
134
160
148
133
156
146
132
154
144
130
151
141
127
146
135
120
109
100
92
32
30
27
5
7
6
5
6
5
201
188
176
208
194
181
207
193
180
205
191
178
203
190
177
203
189
176
203
189
176
204
190
177
204
190
177
205
191
178
206
192
179
206
192
179
206
192
179
207
193
180
209
195
182
210
196
183
210
197
184
211
197
184
211
197
184
211
197
184
212
198
185
211
197
184
211
197
184
211
197
184
212
198
185
211
197
184
211
197
184
210
196
183
210
196
183
208
194
181
206
192
179
204
190
177
202
188
177
199
185
176
199
185
176
199
185
174
199
185
174
201
187
175
202
188
176
203
189
177
205
190
177
205
189
176
204
188
175
202
187
174
202
186
173
202
186
173
202
188
175
203
189
176
204
189
177
205
190
177
204
188
175
204
188
175
204
188
176
203
187
175
202
186
174
201
185
172
200
184
170
199
183
169
196
180
167
194
178
165
195
179
165
194
178
165
195
179
166
195
179
166
195
179
164
195
179
164
194
178
164
194
178
165
191
177
165
190
176
165
189
175
166
188
174
164
187
173
163
187
173
160
186
172
159
186
172
159
186
172
159
185
171
158
184
170
157
183
169
156
182
168
155
181
167
154
179
166
155
178
165
155
176
164
154
173
163
153
171
161
151
171
160
149
171
158
145
170
157
142
168
156
140
168
155
139
165
153
137
162
150
135
159
147
132
156
142
127
133
122
110
42
38
34
4
6
6
4
6
5
202
189
176
209
195
182
207
193
180
206
192
179
206
192
179
205
191
178
205
191
178
205
191
178
205
191
178
207
192
179
208
193
180
208
194
181
207
193
180
208
194
181
209
195
182
210
196
183
211
197
184
211
197
184
212
198
185
213
199
186
213
199
186
212
198
185
212
198
185
212
198
185
211
197
184
211
197
184
211
197
184
209
195
182
208
194
181
207
193
181
205
191
179
202
188
176
199
185
175
196
182
173
192
178
169
191
177
167
192
178
166
195
181
168
198
184
171
199
186
173
202
186
173
202
186
173
200
185
172
198
183
170
197
181
168
197
181
168
198
184
171
199
185
172
200
186
173
202
186
173
202
186
173
202
186
173
201
185
172
201
185
172
200
184
171
199
183
170
196
180
167
194
179
166
191
176
163
189
174
162
189
174
162
189
174
161
192
176
163
193
177
164
194
178
163
194
178
164
194
178
163
193
177
164
192
177
164
190
176
163
188
174
165
187
173
164
188
174
164
188
174
161
188
174
161
187
173
161
187
173
161
186
172
160
185
171
159
185
171
158
184
170
157
183
169
156
182
168
155
180
166
155
179
166
156
175
165
155
173
163
152
172
162
150
173
160
146
172
159
144
170
157
141
169
156
141
168
154
139
165
152
137
162
149
133
160
147
131
150
137
124
57
53
48
9
11
11
6
8
7
201
188
175
209
195
182
207
193
180
206
192
179
206
192
179
205
191
178
205
191
178
206
192
179
207
192
178
209
193
178
209
193
180
210
195
182
209
195
182
209
195
182
210
196
183
211
197
184
212
198
185
212
198
185
212
198
185
212
198
185
212
198
185
212
198
185
211
197
184
210
196
183
210
196
183
208
194
181
207
193
180
206
192
179
206
192
179
205
191
180
202
188
178
197
183
173
192
178
169
185
171
162
179
165
156
175
161
152
174
160
150
180
166
154
189
175
162
192
178
165
195
179
166
196
180
167
193
177
164
187
172
160
183
169
156
185
170
158
188
174
161
189
175
162
191
177
164
194
178
165
195
179
166
194
178
165
195
179
166
194
178
165
191
175
162
190
174
161
188
172
159
184
169
156
178
163
151
174
160
149
174
160
149
179
164
152
185
171
158
187
172
159
189
174
161
190
174
162
190
174
161
189
173
160
188
172
159
187
172
159
185
171
162
186
172
163
187
173
163
188
174
161
188
174
161
187
173
161
187
173
163
186
172
162
185
171
161
185
171
158
184
170
157
183
169
156
182
168
155
182
168
155
180
167
155
176
166
155
174
165
151
173
164
149
172
162
147
172
160
145
171
158
143
169
155
142
168
154
141
166
152
138
163
150
134
161
148
132
153
141
126
95
87
80
26
25
24
7
9
8
202
188
176
208
194
182
209
195
182
207
193
180
206
192
179
204
190
178
205
191
178
206
192
179
206
192
179
208
193
180
209
194
181
209
195
182
209
195
182
209
195
182
209
195
182
210
196
183
210
196
183
212
198
185
211
197
184
211
197
184
212
198
185
211
197
184
209
195
182
207
193
180
206
192
179
204
190
177
203
189
176
201
187
175
200
186
176
198
184
175
195
181
172
189
175
166
179
165
156
165
151
141
149
138
129
140
128
120
135
123
114
144
131
120
167
153
141
180
165
153
184
168
158
184
167
158
178
162
152
166
150
140
159
145
135
163
149
138
165
151
141
167
154
143
169
155
145
172
158
147
174
160
148
176
162
150
180
166
153
178
163
150
170
155
142
169
154
141
171
156
143
159
145
132
148
134
123
143
131
121
142
131
121
158
146
136
174
161
150
178
164
154
180
165
155
181
166
156
180
165
155
179
164
151
179
163
150
178
163
150
178
164
155
180
166
157
183
169
158
185
171
158
186
172
159
186
172
160
186
172
160
186
172
160
186
172
159
186
172
159
184
170
157
184
170
157
183
169
156
182
168
155
181
167
154
179
166
153
177
165
152
175
162
149
174
161
148
173
160
145
171
158
142
169
155
142
168
154
141
165
152
138
163
150
134
161
148
132
156
144
127
123
112
101
39
35
32
10
11
10
203
189
176
209
195
182
207
193
180
206
192
179
205
191
178
205
191
178
205
191
178
205
191
178
206
192
179
206
192
179
207
193
180
208
194
181
209
195
182
209
195
182
208
194
181
210
196
183
210
196
183
211
197
184
210
196
183
211
197
184
210
196
183
208
194
181
206
192
179
204
190
178
201
187
175
198
184
173
196
182
170
193
179
167
189
175
166
187
173
164
183
169
160
172
159
150
155
142
134
132
119
111
109
99
90
97
87
78
88
78
70
93
83
76
115
104
96
137
124
116
149
134
125
153
137
129
149
133
124
131
115
107
122
108
99
121
108
99
122
108
99
125
110
102
126
112
104
131
117
108
135
122
113
143
129
121
152
139
128
146
134
122
128
117
104
127
116
103
133
120
107
120
107
95
112
98
89
110
98
89
111
101
91
136
126
117
155
143
134
160
146
137
160
146
136
159
145
136
156
141
132
155
141
129
155
141
129
157
143
131
163
150
140
171
157
148
177
163
154
181
167
155
183
169
157
184
170
159
185
171
159
185
171
159
185
171
159
184
170
158
184
170
158
184
170
157
184
170
157
183
169
156
182
168
155
180
166
153
178
164
151
177
163
150
175
161
148
172
159
144
171
158
142
170
157
143
169
155
141
167
154
139
164
151
135
162
149
133
159
146
130
144
131
119
49
44
39
9
10
10
203
189
177
208
194
181
207
193
180
206
192
179
205
191
178
204
190
177
205
191
178
205
191
178
206
192
179
206
192
179
207
193
180
208
194
181
208
194
181
208
194
181
208
194
181
209
195
182
209
195
182
209
195
182
209
195
182
208
194
181
207
193
180
206
192
179
203
189
176
200
186
174
195
181
171
189
175
166
184
170
160
177
163
153
170
156
147
164
150
141
156
142
133
140
129
121
118
107
99
96
86
77
81
71
63
72
62
55
66
56
51
62
53
48
64
56
51
73
64
58
83
73
66
95
84
76
92
81
73
79
66
60
78
67
59
84
73
65
91
77
70
95
80
73
95
81
74
96
85
76
100
89
82
108
96
91
117
106
97
111
101
91
96
86
76
91
81
72
97
85
75
96
82
73
96
82
73
93
81
72
93
83
74
101
91
82
112
102
93
118
108
100
117
105
96
112
100
92
110
99
89
113
102
92
116
106
95
122
111
101
135
124
115
152
139
130
165
151
142
172
158
149
177
163
153
180
166
157
182
168
159
182
168
159
183
169
159
183
169
159
184
170
158
184
170
157
184
170
157
183
169
156
182
168
155
180
166
153
179
165
152
178
164
151
176
162
149
174
161
145
173
160
144
171
158
142
169
156
140
167
154
138
164
151
135
162
149
133
161
148
132
154
141
128
76
68
63
18
17
16
203
189
176
209
196
181
207
194
179
207
193
178
205
192
177
205
191
176
206
190
176
207
192
177
208
192
178
208
192
178
207
194
178
207
193
179
207
193
180
207
193
180
207
193
180
207
193
180
207
193
180
207
193
180
206
192
179
205
191
178
203
189
176
201
187
175
198
184
173
194
180
170
187
173
164
179
165
156
168
154
146
156
143
134
142
130
121
130
118
109
118
105
96
105
92
84
89
78
69
76
66
57
70
60
51
67
57
48
63
53
46
57
48
43
49
41
37
38
32
28
34
28
25
39
33
29
39
32
28
38
31
27
55
47
42
76
65
60
89
74
67
92
77
70
92
77
70
90
76
69
93
81
75
98
87
83
103
92
87
101
91
84
94
84
75
85
75
66
89
76
67
97
83
74
98
85
76
94
81
72
87
75
66
74
64
57
66
58
52
62
55
50
59
51
47
57
50
45
59
52
46
67
60
52
76
68
61
85
76
68
101
91
83
126
114
105
141
127
118
158
144
135
169
155
146
173
159
150
177
163
154
179
165
154
181
167
155
182
168
156
182
168
157
184
170
158
184
170
157
183
169
156
183
169
156
181
167
154
180
166
153
179
165
152
177
163
150
175
161
148
174
160
146
173
159
144
170
157
142
169
155
140
166
153
138
164
151
135
162
149
133
158
143
129
109
99
90
31
29
26
203
189
176
210
195
180
207
194
178
206
193
177
205
192
177
206
192
177
206
191
176
207
191
176
208
192
177
209
193
178
208
194
179
207
193
178
208
193
180
207
193
180
207
193
180
206
192
179
205
191
178
204
190
177
203
189
176
200
186
173
198
184
172
194
181
169
192
178
168
186
172
163
177
163
154
165
151
142
151
137
128
135
121
112
118
106
97
104
92
83
95
81
72
85
71
62
77
65
56
71
61
52
68
58
49
68
58
50
67
57
50
63
54
48
54
47
43
42
37
34
33
27
26
29
23
22
24
19
17
25
20
17
46
40
36
74
63
59
91
77
70
97
82
75
96
81
74
97
82
75
99
85
80
105
93
88
110
99
93
114
102
95
108
97
88
98
86
78
101
88
79
108
95
86
108
94
85
105
91
82
95
82
73
70
61
54
47
39
36
33
28
25
27
21
21
28
22
21
35
30
26
45
39
33
55
47
42
62
53
47
77
67
59
93
82
73
115
102
93
142
128
119
159
145
136
164
150
141
169
155
145
172
158
146
176
162
149
179
165
152
180
166
155
182
168
157
182
168
156
182
168
155
182
168
155
182
168
155
181
167
154
179
165
152
177
163
150
176
162
149
175
161
148
173
160
146
171
157
143
170
156
142
168
155
139
165
152
136
163
150
134
161
146
131
134
124
112
41
38
34
203
187
173
209
194
179
208
193
178
205
192
176
204
191
177
204
190
177
205
190
177
208
192
177
209
193
178
209
193
178
209
193
178
209
193
178
208
193
178
206
191
178
205
191
178
203
189
176
202
188
175
199
185
172
197
183
170
193
179
167
191
177
166
186
172
163
182
168
159
174
160
151
162
148
139
146
133
124
130
116
107
115
101
92
101
87
78
91
77
68
83
69
60
78
64
55
75
63
54
73
62
53
72
62
53
71
61
54
70
60
55
66
57
52
57
51
47
49
44
41
47
42
39
47
41
39
40
35
32
30
24
23
41
35
33
72
60
58
92
78
71
101
86
79
100
85
78
100
85
78
107
92
86
118
104
97
128
114
107
134
121
114
130
116
108
120
106
98
121
107
98
124
110
101
125
111
102
121
107
99
104
90
83
73
64
57
47
41
36
31
26
23
27
22
21
30
25
23
44
38
35
55
46
41
58
49
45
61
52
46
67
58
49
76
65
56
97
85
77
126
112
103
141
127
118
148
134
124
155
141
129
163
149
136
170
156
143
175
161
148
178
164
152
181
167
154
182
168
155
182
168
155
183
169
156
183
169
156
182
168
155
180
166
153
179
165
152
178
164
150
176
162
148
174
161
145
173
159
144
171
158
142
168
155
139
166
153
137
164
151
135
162
148
134
150
139
124
58
53
47
201
186
172
208
192
178
208
192
177
207
192
176
206
191
176
205
191
177
204
190
177
208
192
178
209
193
178
210
194
179
210
194
179
209
193
178
208
192
177
204
189
176
201
187
174
198
184
171
196
181
168
192
177
164
187
172
159
181
166
156
176
162
153
170
156
147
163
149
141
154
140
131
138
124
115
122
108
99
108
95
86
97
83
75
89
77
67
84
72
63
80
69
60
80
66
58
79
65
57
77
64
56
74
64
55
70
60
53
66
56
51
61
52
47
55
47
43
54
46
42
64
55
51
72
61
57
66
55
52
43
37
34
34
29
27
64
54
51
94
79
73
105
90
83
103
88
81
102
87
80
117
102
95
135
120
113
152
136
129
158
143
136
156
141
133
148
132
125
146
130
122
146
131
123
145
130
122
138
123
116
111
98
91
71
64
57
44
40
35
33
28
25
33
28
26
44
37
36
59
51
48
64
55
51
67
58
53
71
62
56
73
63
57
79
69
61
93
82
73
106
93
84
114
101
92
122
110
100
135
121
111
150
136
126
160
146
136
168
154
144
174
160
149
177
163
152
180
166
155
180
166
156
181
167
157
181
167
157
182
168
155
181
167
154
179
165
152
178
164
151
176
163
149
175
161
147
174
160
145
172
159
143
169
156
140
167
154
139
164
150
137
162
148
135
156
144
129
93
85
78
201
186
172
207
192
177
207
191
176
206
191
175
206
190
175
206
191
177
205
191
177
208
192
177
210
194
179
210
194
179
209
193
178
208
192
177
205
189
174
200
186
173
195
181
168
189
175
162
183
167
154
173
158
145
162
147
134
148
134
124
138
125
116
132
119
110
124
111
102
114
101
92
103
89
80
95
82
73
91
78
69
88
76
67
87
75
66
85
73
64
84
73
64
85
70
63
82
68
60
79
66
58
74
63
55
66
56
49
57
48
43
53
44
39
53
44
39
61
51
46
81
70
65
92
78
74
84
70
66
55
47
42
33
29
26
58
49
45
95
81
75
107
92
87
107
92
85
108
93
86
127
112
105
152
136
129
173
157
150
182
166
159
181
166
159
177
160
153
172
156
148
170
154
146
166
150
143
152
137
130
114
100
94
60
53
48
38
33
28
42
36
32
51
44
39
65
56
53
68
59
56
67
58
53
69
60
55
72
63
58
77
67
61
84
73
66
87
76
67
93
80
71
98
86
76
104
92
82
120
106
96
136
121
112
150
135
126
159
145
136
166
152
143
172
158
149
176
162
152
177
163
154
179
165
156
180
166
156
180
166
155
180
166
154
179
165
152
177
163
150
177
163
150
176
162
148
174
160
145
172
159
143
170
157
141
168
154
140
165
151
137
163
150
136
158
145
132
122
113
104
199
186
172
208
192
178
208
192
177
208
192
177
207
191
177
207
192
177
207
192
177
209
193
178
209
193
178
209
193
178
208
192
177
206
190
175
202
186
171
196
181
168
187
171
158
170
156
143
153
138
125
135
120
108
119
105
92
105
92
82
95
83
74
89
78
70
85
74
66
84
72
63
85
72
63
88
74
65
89
75
66
88
75
66
88
75
65
88
74
65
88
75
66
87
73
65
84
72
63
80
69
61
72
62
56
58
49
44
48
39
34
46
37
34
52
43
39
71
60
53
95
81
74
102
87
81
92
78
71
63
53
46
37
32
28
56
49
45
94
82
78
108
94
90
109
94
90
117
101
95
140
124
117
169
152
144
191
174
167
202
186
179
205
188
181
202
185
178
197
180
173
191
174
167
184
168
160
161
145
138
103
91
85
51
45
42
50
43
39
70
59
55
86
76
69
91
81
75
80
69
65
71
62
57
70
61
56
73
64
58
79
69
61
84
74
65
86
75
66
91
78
69
94
80
71
99
85
76
110
95
83
121
105
96
136
120
112
145
131
122
156
142
133
163
149
141
169
155
146
172
158
149
175
161
152
177
163
154
178
164
154
178
164
154
179
165
152
178
164
151
177
163
150
177
163
150
175
162
147
173
160
144
171
158
142
169
156
140
167
153
138
164
151
136
161
148
134
144
133
121
200
185
171
207
192
177
208
192
177
208
192
177
207
191
176
207
191
176
207
191
176
208
192
177
208
192
177
207
191
178
205
189
175
202
186
172
197
181
168
189
173
159
168
153
141
136
123
112
110
98
87
99
86
75
94
80
70
90
76
67
86
72
63
82
69
60
82
69
60
85
72
63
90
76
67
93
79
70
92
78
69
91
77
68
90
76
67
89
75
66
90
76
67
89
75
66
85
73
64
78
68
59
64
54
50
48
39
35
39
32
28
39
32
29
52
44
40
80
68
62
102
88
80
107
92
85
96
80
73
67
56
51
41
36
32
57
51
47
93
82
78
108
94
89
113
98
92
131
114
107
156
139
132
187
170
162
207
190
183
218
201
194
221
204
197
220
201
196
216
197
191
210
191
185
198
181
174
167
151
144
105
93
87
73
65
60
84
73
68
107
93
87
116
103
95
109
98
90
90
80
73
73
63
59
71
60
56
74
64
59
79
68
62
83
72
64
87
74
67
90
76
67
92
77
69
97
82
73
102
86
74
108
92
80
117
102
91
129
115
104
142
128
119
152
138
129
160
146
136
164
150
140
168
154
143
171
157
146
173
159
148
176
162
150
177
163
151
178
164
151
177
163
150
176
162
149
176
162
148
175
161
146
173
160
144
170
157
141
168
155
139
166
153
137
163
150
135
156
144
131
202
185
171
209
192
177
208
192
177
208
192
177
208
192
177
207
191
176
206
190
175
206
190
175
206
190
176
205
189
175
202
186
172
198
182
169
190
174
161
172
157
143
133
120
107
96
84
74
80
70
60
82
70
61
88
74
65
91
76
67
91
77
68
90
77
68
91
77
68
92
79
70
94
79
70
93
79
70
91
76
68
89
75
66
89
75
66
90
76
67
90
76
67
88
74
65
82
70
61
70
61
53
57
47
43
40
32
29
30
24
22
30
25
22
52
43
39
87
73
68
107
93
85
110
95
86
97
81
73
69
58
53
47
41
37
59
53
50
90
79
75
106
92
86
123
107
100
149
132
125
176
159
152
204
187
179
221
204
197
228
211
204
231
214
207
232
211
206
228
208
202
223
203
197
211
194
187
185
169
162
145
132
125
123
109
105
125
111
105
135
120
113
134
119
112
122
109
101
99
88
80
76
65
61
71
61
56
73
63
59
77
66
62
82
70
63
86
72
64
89
74
66
93
78
69
97
81
72
101
85
72
103
87
74
104
89
77
105
91
80
109
95
85
122
108
98
137
124
112
148
134
121
156
142
130
161
147
135
166
152
140
171
157
144
174
160
147
176
162
149
176
162
149
176
162
149
175
161
148
174
160
146
172
159
144
170
157
141
169
156
140
168
155
139
164
151
136
157
145
130
203
186
172
211
192
178
209
192
178
208
192
177
207
191
176
206
190
175
205
189
174
206
188
174
204
187
172
201
185
170
198
182
167
192
176
161
176
160
146
141
126
114
92
80
69
76
65
55
81
68
59
85
72
63
90
76
67
93
79
70
93
79
70
91
80
71
92
79
70
92
78
69
89
76
67
87
74
65
86
72
64
85
71
63
86
72
64
89
75
66
89
75
66
87
72
65
78
66
59
63
54
48
50
40
38
34
26
25
23
17
16
26
21
18
57
47
42
94
79
73
110
95
87
110
94
86
97
81
73
72
60
53
53
46
41
61
55
52
87
76
72
110
95
90
142
125
118
171
154
147
196
179
172
218
201
194
231
214
207
236
219
212
238
221
214
238
218
212
235
215
209
231
211
205
222
206
199
206
191
184
184
169
163
166
150
144
159
143
135
157
140
132
149
134
127
135
121
114
111
97
90
83
72
68
71
61
56
69
60
55
74
63
59
78
67
60
82
70
61
87
73
65
91
77
68
95
80
71
100
84
72
103
87
74
100
84
72
86
72
60
81
67
56
87
73
64
99
86
75
114
100
89
127
113
101
140
126
114
153
139
126
161
147
134
166
152
139
170
156
143
172
158
145
173
159
146
174
160
147
174
160
147
173
159
145
171
158
142
169
156
140
169
156
140
166
153
137
158
146
130
203
185
170
210
192
176
209
191
176
209
191
176
207
191
176
206
190
175
205
189
174
204
186
172
202
185
170
198
182
167
191
175
160
178
162
149
145
131
119
100
86
77
80
67
57
86
73
61
92
77
66
94
79
68
95
81
69
96
81
70
94
81
71
89
79
69
87
76
67
86
75
65
83
72
63
81
70
61
79
68
59
77
65
56
81
67
58
87
73
64
90
76
67
88
73
66
77
64
58
62
52
48
43
35
32
27
21
20
19
13
13
31
23
21
68
55
51
98
83
76
109
94
86
108
92
84
97
80
73
74
62
56
61
52
48
68
60
56
95
83
77
128
111
105
167
149
142
194
175
168
213
196
189
228
211
204
238
221
214
243
226
219
243
226
219
242
224
217
239
220
213
236
217
210
230
213
206
222
206
199
210
194
187
197
180
172
186
169
161
177
160
152
167
150
143
150
134
127
124
108
102
91
79
75
68
58
53
65
56
51
68
58
53
73
61
55
79
66
58
85
70
63
86
72
64
89
74
66
95
81
70
100
84
74
99
84
73
93
79
68
89
75
64
89
74
63
94
79
68
101
86
74
106
91
78
112
98
86
127
114
101
142
128
115
151
137
124
159
145
132
165
151
138
169
155
142
171
157
144
172
158
145
172
158
145
171
157
143
169
156
141
169
156
140
167
154
138
159
147
131
202
184
168
209
191
174
209
191
176
209
191
177
207
191
176
206
190
175
204
188
173
204
186
172
200
183
168
194
178
163
180
164
149
150
136
123
111
98
87
91
77
67
93
78
67
97
81
68
98
81
69
99
82
70
99
83
70
98
82
70
92
79
68
86
75
65
82
72
62
80
70
61
78
69
60
76
67
58
72
63
54
69
59
50
74
61
52
84
70
61
90
76
68
90
76
68
80
68
61
64
54
49
40
34
30
21
17
16
19
13
13
39
30
27
76
63
58
99
84
77
108
91
83
106
89
82
96
79
72
78
67
62
71
62
56
84
74
68
117
103
96
156
137
130
190
170
163
210
190
183
225
207
200
236
219
211
242
225
218
245
228
221
246
229
222
244
227
220
241
222
215
239
219
212
234
217
210
231
214
206
224
207
200
215
199
191
205
188
181
193
177
170
181
164
157
160
144
136
133
117
110
96
83
78
66
56
52
61
52
47
63
52
47
68
55
49
76
62
55
82
67
60
84
69
61
88
73
66
93
79
70
97
83
74
99
85
76
99
85
75
99
85
73
101
86
73
105
89
76
104
89
76
102
87
74
100
86
74
103
89
76
112
98
85
128
114
101
146
132
119
157
143
130
163
149
136
168
154
141
170
156
143
172
158
144
171
157
144
170
156
142
169
156
140
167
154
138
160
147
132
202
184
167
209
190
175
208
190
176
208
191
176
207
191
177
206
190
176
205
189
174
203
187
172
200
183
169
191
175
162
172
156
143
135
120
107
111
96
83
106
91
79
105
90
77
104
88
75
105
86
74
104
85
74
102
84
72
98
81
69
91
77
65
85
72
63
81
70
61
79
69
60
79
68
59
75
66
57
71
61
52
67
57
48
71
57
48
80
66
58
90
75
68
90
79
71
84
73
65
69
59
52
43
37
33
20
17
14
19
14
13
44
36
31
80
67
60
99
84
77
106
89
81
104
87
80
96
80
73
85
75
67
86
75
67
111
97
90
149
130
123
181
162
155
206
186
179
220
201
194
231
213
206
238
221
214
244
227
219
246
229
222
247
229
223
244
227
220
241
223
216
239
219
212
235
218
211
234
217
209
230
214
206
223
208
200
215
200
193
203
188
181
189
172
165
167
150
143
138
122
114
97
85
78
64
54
48
56
47
42
56
47
41
66
55
48
78
66
58
87
72
65
91
76
69
92
77
69
91
77
68
94
80
71
93
79
70
91
77
68
100
84
73
105
89
76
108
92
79
105
90
77
103
88
75
101
87
74
98
84
71
93
79
66
96
82
70
113
100
88
136
123
110
153
140
127
164
150
137
168
154
141
171
157
144
171
158
143
170
157
141
169
156
140
168
155
139
160
148
133
201
184
169
208
190
176
207
191
176
206
191
177
206
191
177
206
190
176
205
189
174
203
188
173
201
185
171
194
178
165
180
164
151
154
137
124
127
110
96
116
98
85
112
94
82
110
92
79
109
89
78
107
87
76
104
85
74
99
82
70
92
77
66
88
74
65
84
71
62
83
70
61
83
69
60
80
68
59
80
68
59
79
67
58
80
66
57
84
70
62
91
77
69
93
80
72
89
77
70
77
67
60
54
46
42
28
22
19
23
17
14
49
39
33
81
67
59
98
83
75
104
87
79
102
86
78
98
82
74
95
83
74
109
95
86
143
124
117
176
156
149
199
179
173
215
197
190
225
208
200
234
217
209
240
223
216
244
227
220
246
228
222
246
227
222
243
225
218
240
222
215
238
220
213
236
219
212
235
218
210
232
216
208
226
212
203
220
206
198
209
194
187
195
178
170
173
156
148
143
127
118
99
86
78
63
53
47
49
39
36
51
41
37
69
57
50
85
71
64
94
78
71
96
81
73
95
81
72
94
80
71
88
75
66
78
64
55
80
66
57
96
81
70
105
90
77
108
92
79
106
92
79
103
89
76
101
87
74
99
84
71
94
79
66
82
68
55
78
65
53
102
89
78
138
124
112
159
145
131
165
152
137
169
156
141
170
157
142
171
158
142
170
157
142
168
155
141
161
149
135
200
185
170
207
191
176
207
191
177
205
190
177
206
190
176
206
191
176
206
190
175
204
188
174
202
186
171
197
181
168
188
171
158
170
153
140
140
121
108
121
102
90
114
95
83
112
93
81
110
91
79
107
88
77
105
86
75
101
84
73
96
81
71
92
78
69
89
74
65
88
72
64
88
72
63
88
74
65
90
76
67
91
77
68
91
77
68
92
77
69
94
79
72
96
82
74
93
80
74
84
73
68
67
57
52
43
35
30
32
25
21
52
41
34
81
67
58
97
80
72
101
84
76
102
85
77
102
85
77
110
95
87
137
120
112
170
151
144
195
175
168
209
191
184
221
204
196
230
212
204
236
219
211
240
223
215
243
226
219
244
225
219
244
224
218
242
222
216
239
220
214
237
219
213
235
218
211
235
218
210
232
215
207
226
211
204
221
206
200
211
196
189
198
181
174
178
161
153
148
132
124
105
91
83
61
51
47
39
29
27
50
41
35
76
62
55
94
79
72
102
86
78
103
87
79
99
85
77
92
78
69
76
63
54
66
53
44
74
61
51
90
76
65
98
84
71
104
90
77
105
91
78
103
89
77
101
87
74
100
85
72
98
83
70
93
79
66
86
72
62
85
72
61
131
117
105
159
145
130
167
154
138
171
158
142
172
159
143
172
158
143
170
156
143
168
154
142
162
148
136
200
185
171
207
191
176
207
192
177
206
191
177
206
190
177
206
190
176
206
190
175
204
188
173
202
185
170
198
180
166
189
170
157
172
153
140
143
123
111
123
103
92
115
97
85
112
94
82
109
91
79
106
89
76
105
88
76
103
86
77
102
86
77
100
83
75
97
81
72
94
78
70
93
76
68
93
77
69
94
79
71
95
81
72
95
81
72
96
81
72
97
81
73
97
82
74
95
81
74
89
75
69
77
63
57
59
48
42
47
37
33
59
45
38
81
67
58
94
79
71
101
84
76
103
86
78
108
92
84
128
111
104
162
143
136
190
170
163
206
187
179
216
198
191
225
208
200
233
214
206
237
219
211
240
223
215
241
224
217
242
224
217
241
223
216
239
221
214
237
219
212
235
218
210
234
217
209
232
215
208
231
214
206
226
211
204
221
206
199
212
197
190
200
183
176
182
165
157
153
136
129
106
91
86
52
43
39
32
25
22
57
46
39
88
73
65
104
88
80
109
92
84
106
90
82
98
83
74
82
68
59
67
53
44
65
52
43
74
62
53
84
73
63
92
80
69
99
86
76
103
89
77
104
90
77
104
89
76
102
87
74
104
88
75
106
90
77
102
87
75
105
91
80
147
134
121
165
152
138
170
157
142
172
159
144
173
159
145
172
158
145
170
156
143
168
154
141
161
147
135
201
184
171
208
191
176
208
191
177
207
191
177
207
191
177
206
190
176
205
189
174
204
186
172
201
183
168
195
176
162
184
164
151
164
144
132
137
117
106
120
100
89
114
96
84
110
93
81
107
91
80
106
90
79
107
90
80
108
91
83
110
93
85
108
91
83
104
87
80
100
83
76
97
80
72
95
79
70
93
78
70
92
77
69
92
77
69
93
78
69
94
79
70
94
80
71
93
78
70
88
73
66
80
65
58
70
56
49
62
48
43
67
52
46
83
68
60
95
79
71
102
84
76
106
88
80
117
100
92
145
127
120
178
159
152
200
181
174
212
193
186
221
203
196
228
211
203
234
216
208
237
219
212
239
222
214
240
223
215
240
223
215
239
222
214
237
220
212
235
218
210
234
217
208
232
215
207
229
213
205
227
211
204
224
209
202
219
204
197
211
195
188
200
183
176
184
167
160
152
136
129
97
83
78
46
37
33
43
34
30
74
61
54
100
84
76
109
92
84
108
91
83
101
85
77
90
75
67
78
64
55
75
61
52
76
64
55
79
69
59
83
73
64
88
77
68
95
81
72
102
87
75
106
91
78
107
91
78
106
90
77
108
92
78
111
95
81
114
99
85
137
124
110
161
147
133
169
155
142
172
158
144
173
160
145
173
159
146
172
158
145
171
157
144
169
155
142
161
147
135
201
184
170
209
191
176
209
191
176
207
190
176
206
189
175
205
188
174
203
186
172
202
183
169
197
178
164
188
170
156
173
153
142
151
131
120
128
108
97
115
96
84
108
91
79
105
89
77
105
88
79
106
89
81
108
91
83
111
94
86
112
95
87
110
94
86
107
90
82
101
85
77
97
81
73
91
77
68
86
72
64
81
67
59
78
65
57
80
66
57
83
69
60
85
71
62
85
70
62
82
68
61
77
63
56
73
58
52
70
55
48
74
59
52
87
71
64
98
80
72
104
85
77
110
90
83
127
107
100
159
140
133
188
168
161
205
185
178
215
198
190
224
207
199
230
213
205
234
217
209
237
220
212
238
221
213
239
222
214
239
222
214
239
222
214
236
219
211
234
217
209
231
214
206
228
212
204
225
209
202
221
206
199
219
204
197
215
198
192
207
190
183
198
181
174
181
164
157
145
128
121
89
76
69
58
48
41
68
57
52
92
78
70
103
88
80
106
89
81
102
85
77
94
79
70
87
73
64
84
70
61
85
71
62
85
72
63
84
73
63
85
74
65
89
78
68
95
81
72
100
85
73
104
88
75
107
91
78
109
93
79
113
97
82
120
104
90
131
117
102
151
138
123
162
148
133
168
155
141
172
158
145
174
160
146
173
159
146
172
158
145
171
157
144
169
155
143
162
148
136
200
184
170
209
190
176
209
191
176
208
190
175
206
188
174
204
186
172
202
184
169
198
179
165
191
173
159
179
162
149
160
142
133
139
120
110
122
102
91
111
94
82
105
88
77
100
83
73
100
83
75
102
85
77
105
88
80
108
91
83
108
91
83
106
89
81
101
84
76
94
78
70
87
72
64
77
66
57
68
57
49
60
49
41
54
47
38
56
47
39
61
50
42
66
53
44
68
56
47
69
57
49
69
56
51
71
56
51
74
59
52
81
64
57
92
75
67
101
82
74
106
86
77
114
95
87
137
118
111
170
151
144
194
174
167
208
188
181
217
199
191
224
207
199
230
213
205
234
217
209
236
219
211
238
221
212
239
222
214
238
221
213
237
220
212
235
218
210
232
215
207
228
211
203
224
207
200
219
204
197
215
200
193
211
196
192
207
191
185
201
184
177
191
174
167
172
155
148
133
117
110
95
81
73
82
69
62
89
76
69
99
85
76
101
87
78
101
86
77
99
84
75
95
80
71
92
78
69
91
77
68
92
78
69
91
78
69
93
80
70
93
80
71
94
80
71
96
80
69
99
83
71
103
88
75
108
92
79
110
94
80
117
101
87
126
111
97
137
123
109
149
136
122
160
146
132
168
154
141
171
157
144
174
160
147
174
160
147
174
160
147
172
158
145
169
155
143
162
149
136
200
184
170
209
190
176
209
190
176
208
189
175
207
187
173
204
185
171
200
181
167
193
175
162
184
167
154
169
154
142
150
134
125
131
114
105
119
100
90
110
94
83
102
86
76
95
78
70
95
78
70
98
82
73
100
84
76
102
85
77
100
84
75
94
79
70
86
71
63
75
61
53
62
50
44
48
41
34
37
31
25
29
23
18
26
23
17
28
24
18
31
25
21
37
29
23
43
35
28
49
40
33
55
44
40
62
50
45
72
58
51
84
68
60
95
77
69
104
84
75
110
90
79
123
103
94
149
129
122
178
158
151
197
177
170
209
189
182
217
200
192
224
207
199
229
212
204
233
216
208
236
219
211
237
220
212
238
221
213
237
220
212
235
218
210
233
216
208
229
212
204
224
207
200
219
202
195
213
197
190
208
192
185
203
187
183
199
182
178
193
176
171
182
165
159
160
143
136
125
109
101
102
86
79
95
80
72
95
81
73
98
84
75
99
85
76
99
85
76
97
84
75
96
82
73
95
81
72
94
80
71
95
82
73
96
83
74
97
83
74
96
81
71
95
79
69
95
79
68
99
83
71
106
89
77
110
94
81
114
98
84
119
103
89
125
109
95
132
117
104
147
132
120
159
145
132
167
153
140
171
157
144
174
160
147
174
161
147
174
161
147
172
159
145
169
156
143
161
149
136
201
183
169
209
190
176
208
189
175
207
188
174
205
186
172
202
183
169
197
178
165
189
172
159
176
161
149
159
145
135
141
126
117
125
109
100
114
97
88
105
88
79
95
79
70
89
72
64
91
74
66
94
78
69
95
80
71
94
78
70
90
74
66
79
66
57
64
53
46
49
38
32
31
23
21
13
11
9
6
6
5
5
5
5
5
6
6
6
6
6
7
7
7
10
9
8
16
14
12
23
19
16
34
25
23
47
38
33
64
52
44
81
66
58
96
77
68
106
86
76
115
95
84
132
112
103
158
138
131
182
162
155
197
177
170
209
189
182
217
199
191
224
207
199
229
212
204
232
215
208
235
218
211
236
219
212
236
219
212
236
219
211
234
217
209
231
214
206
227
210
202
221
204
196
213
196
189
207
190
183
201
184
177
196
179
173
190
173
169
184
166
163
171
154
148
148
131
124
119
102
95
98
82
74
91
76
68
91
77
68
93
79
70
92
79
70
90
77
68
90
77
68
89
76
67
88
75
66
90
77
68
92
80
71
94
83
73
95
81
72
96
80
70
97
81
70
99
82
73
100
84
72
104
88
76
110
95
82
116
100
87
119
103
90
122
106
91
127
112
99
142
128
115
157
143
130
167
153
140
171
157
144
174
160
147
174
161
146
174
161
146
173
159
146
168
158
144
159
150
137
200
183
169
208
189
175
207
188
174
205
187
173
202
185
171
199
181
167
193
176
162
183
167
154
166
151
139
146
131
120
128
113
104
115
98
90
104
87
79
94
77
69
86
69
61
83
66
58
86
71
62
89
74
65
89
75
66
85
70
62
77
63
55
62
51
43
43
35
28
24
18
14
12
9
8
6
5
5
4
5
4
4
5
4
4
6
5
4
5
5
4
5
5
4
6
5
4
6
5
6
6
6
13
9
8
27
21
18
49
39
33
73
59
51
94
75
66
108
88
78
121
101
90
140
120
112
165
145
138
185
165
158
198
178
171
209
189
182
216
199
191
223
206
198
228
212
204
231
215
208
233
217
210
234
218
211
235
218
211
235
216
209
232
214
207
228
211
204
223
206
199
217
200
193
208
191
184
201
184
177
195
178
172
188
172
168
182
166
163
174
157
154
160
143
137
137
120
113
107
90
83
87
71
63
79
65
57
78
66
57
75
63
55
69
58
50
64
55
46
66
57
48
66
57
48
66
57
48
72
61
53
79
69
60
87
77
68
93
82
73
99
85
75
100
85
75
99
83
75
99
84
74
102
88
77
108
93
83
113
98
87
115
100
89
116
101
88
122
107
94
134
120
107
151
137
124
164
150
137
170
156
143
173
160
146
175
161
147
174
161
147
173
160
146
169
158
144
160
151
137
197
183
169
206
189
174
205
188
174
203
186
171
199
182
168
194
179
164
187
172
156
174
158
144
152
136
123
129
112
101
111
95
87
100
84
76
91
76
68
83
68
60
78
63
55
80
64
56
83
68
60
84
69
61
81
67
59
74
60
53
62
50
42
45
36
28
26
20
16
11
9
8
6
6
6
5
5
6
5
6
6
4
6
5
5
7
6
4
6
5
4
6
5
4
6
5
5
6
5
4
5
5
4
5
5
9
8
7
30
24
20
60
47
40
89
70
62
110
90
80
126
106
95
147
127
119
170
150
143
188
168
161
201
181
174
211
191
184
216
199
191
223
206
198
228
211
204
231
215
208
232
216
209
232
217
210
233
216
209
234
215
209
231
212
206
226
209
202
219
202
195
212
195
188
204
187
180
197
180
174
191
174
169
182
167
164
176
160
157
166
150
147
151
134
127
122
105
99
91
75
68
70
56
49
59
48
42
51
43
36
40
33
27
30
26
20
27
24
18
27
24
17
26
24
17
28
25
19
38
32
27
54
46
39
70
61
53
85
74
65
94
80
71
96
83
74
97
83
74
100
86
77
103
89
80
107
93
84
111
97
88
113
99
89
115
101
88
121
107
95
131
117
105
145
131
118
157
143
130
166
152
139
171
157
144
174
160
147
174
161
147
173
160
146
170
158
144
162
151
137
196
183
168
203
190
174
203
188
173
201
185
170
197
181
166
189
175
159
177
164
148
160
145
130
133
117
105
110
93
84
94
79
72
85
72
65
78
67
59
74
62
54
72
60
52
76
61
55
78
64
57
78
63
56
73
59
52
63
52
43
51
41
32
35
27
21
18
12
11
9
6
6
8
7
7
7
7
7
7
7
7
6
7
7
6
8
7
6
7
7
0
0
0
0
0
0
4
5
5
4
5
5
3
5
4
4
5
5
15
12
11
43
32
27
80
62
55
109
90
82
131
111
101
153
133
125
175
156
148
192
172
165
204
184
177
213
194
187
219
201
194
224
207
199
229
212
204
232
215
208
233
216
209
233
216
209
234
217
210
233
216
209
231
213
206
225
208
201
218
202
195
210
193
186
202
185
178
195
177
173
188
171
168
179
164
161
172
155
153
161
144
141
139
122
116
104
88
82
72
57
51
47
36
32
31
24
23
18
14
12
7
6
6
4
4
4
4
4
3
3
4
3
4
4
4
6
6
6
9
9
8
22
18
14
42
35
30
63
52
44
80
66
57
89
75
66
95
81
72
100
86
77
103
89
80
105
91
82
108
94
85
111
97
87
117
103
90
125
111
101
134
121
110
144
130
118
154
140
127
162
148
135
169
155
142
172
158
145
173
160
146
173
160
145
172
158
143
164
152
137
196
183
168
202
189
173
201
188
172
199
184
169
193
179
164
184
170
155
167
153
139
142
127
113
113
97
86
91
75
67
77
65
57
71
60
53
65
55
48
62
51
45
62
50
44
65
53
47
69
57
49
69
57
49
65
52
45
55
45
36
45
35
26
29
21
15
15
8
8
12
7
7
15
11
11
9
9
9
8
8
8
8
8
8
9
10
9
30
30
30
97
97
97
109
109
109
34
34
34
4
6
5
3
5
4
4
5
5
7
6
5
27
20
16
66
52
46
107
88
81
135
115
107
158
139
131
181
163
155
197
179
171
208
190
182
217
199
191
222
205
197
227
210
202
230
213
206
233
216
209
234
217
210
235
218
211
236
219
212
235
218
211
232
215
208
225
210
202
218
202
195
211
194
187
202
185
178
194
176
172
187
170
168
180
164
161
172
155
153
157
140
136
126
109
102
84
69
63
49
38
33
22
16
15
6
6
5
3
5
3
4
4
4
4
4
4
4
4
4
4
4
4
4
4
4
5
5
5
5
5
5
7
6
5
14
11
10
33
26
21
58
48
40
76
63
55
87
73
65
94
79
71
97
83
74
100
86
77
102
88
79
106
92
82
116
102
91
127
114
104
136
124
113
143
132
118
153
140
127
162
148
135
168
154
141
171
157
144
173
159
146
174
160
145
172
158
143
165
152
137
195
183
168
202
189
173
201
187
171
197
183
167
191
178
162
179
166
151
153
139
127
120
105
94
91
77
67
72
59
52
61
51
43
54
44
38
49
38
34
45
35
31
47
36
32
52
41
36
58
47
40
62
50
42
60
49
40
55
44
36
48
36
28
31
22
16
15
9
8
18
13
12
20
16
15
10
10
10
8
9
9
9
10
10
17
18
18
78
78
78
186
186
186
155
155
155
48
49
49
5
7
6
4
6
5
4
5
5
6
6
6
18
13
12
53
42
36
101
84
76
137
118
111
165
146
138
189
172
164
206
189
181
215
198
191
222
205
197
226
209
202
230
213
206
232
215
208
235
218
211
237
220
214
239
222
216
239
222
217
237
221
215
233
217
211
227
212
206
220
204
198
213
196
190
205
187
182
197
179
176
191
173
171
183
168
165
175
158
155
152
135
132
109
93
87
62
50
46
25
19
18
5
6
5
4
5
5
3
5
4
3
3
3
0
0
0
0
0
0
4
4
4
5
5
5
5
5
5
5
5
5
5
5
5
7
6
6
17
12
9
38
30
23
62
50
42
77
64
56
85
72
63
91
78
69
95
81
72
98
84
74
102
88
79
113
99
89
123
110
100
132
121
109
141
131
117
153
140
127
162
148
135
167
154
141
170
157
144
172
159
146
172
159
146
171
159
143
164
152
137
194
182
167
202
187
172
201
186
170
197
181
166
187
174
158
171
157
142
137
124
112
100
86
78
75
61
55
58
46
41
45
36
31
39
30
24
38
29
24
44
33
28
49
39
32
56
46
37
65
50
43
70
55
48
71
56
48
69
55
47
62
48
41
40
30
24
24
17
15
30
25
23
22
20
19
10
10
10
8
9
9
8
10
9
21
22
22
92
92
92
195
195
195
109
109
109
28
29
28
6
8
7
4
6
5
4
6
5
8
7
7
16
10
9
43
34
27
93
78
68
137
118
111
170
151
143
198
179
172
214
197
189
222
205
198
227
210
202
230
213
206
232
215
208
235
218
211
237
222
215
240
224
219
241
225
222
240
225
222
238
223
220
234
219
216
229
214
211
221
206
203
215
200
196
210
193
190
204
186
184
197
180
178
189
174
171
179
162
160
146
129
127
91
77
72
37
30
27
8
7
6
3
5
4
3
5
4
3
5
4
17
17
17
74
74
74
70
70
70
20
20
20
5
5
5
4
4
4
4
4
4
5
5
5
6
6
6
11
9
7
26
20
15
49
39
31
67
56
47
78
67
57
85
73
64
90
76
67
93
79
70
96
82
72
104
89
77
115
101
89
127
115
103
138
127
116
151
138
126
160
146
133
165
152
138
167
156
142
168
159
144
169
160
145
169
159
144
163
153
138
193
179
165
201
185
170
199
183
168
194
178
163
182
167
153
156
142
128
120
106
95
85
71
66
62
50
45
47
36
32
37
28
23
39
31
24
51
41
34
64
51
44
72
59
51
77
64
55
85
67
58
88
71
61
90
74
63
90
74
66
81
66
58
50
39
33
36
28
25
43
37
33
25
23
21
10
10
10
8
9
8
7
9
8
12
13
13
45
45
45
88
88
88
25
25
25
6
7
6
6
7
6
4
6
5
5
7
6
10
9
10
21
15
15
38
30
24
87
73
63
137
118
109
175
155
147
205
185
178
220
203
195
227
210
202
231
214
207
234
217
210
237
220
213
238
223
216
240
225
218
242
227
222
243
228
225
241
228
225
239
226
223
235
222
219
231
216
213
224
209
206
220
205
202
216
200
197
212
195
193
206
190
188
198
183
180
183
167
164
142
126
123
76
63
60
21
16
15
5
5
5
4
5
5
4
5
6
20
21
22
87
87
87
170
170
171
123
123
123
36
36
36
6
6
6
5
5
5
6
6
6
6
6
5
8
7
6
10
6
5
17
12
8
35
28
21
53
43
35
66
56
47
75
65
55
79
67
58
82
70
61
84
71
62
91
78
67
102
89
78
117
104
92
129
117
105
142
129
115
151
139
124
159
148
134
163
153
140
166
156
144
168
158
146
167
158
144
162
153
138
193
179
164
199
184
169
196
180
165
189
173
158
171
155
142
137
123
111
104
90
81
73
62
57
53
43
39
43
34
29
43
34
28
55
44
37
72
59
51
84
68
60
91
73
65
95
78
68
101
81
71
104
85
74
106
89
77
106
89
80
94
78
69
55
44
37
47
38
33
53
47
41
27
25
21
9
11
10
7
9
8
6
8
7
6
8
7
5
7
6
1
3
2
5
7
6
6
7
7
6
6
6
4
6
5
6
8
7
21
18
18
35
30
29
38
31
27
81
68
58
134
116
105
175
156
147
208
188
181
224
207
199
231
214
206
235
218
211
238
221
214
241
225
218
242
227
220
243
228
221
244
229
224
243
229
226
241
230
226
240
228
224
237
225
221
234
220
216
229
214
211
225
210
207
222
207
205
219
204
201
215
200
197
207
192
189
189
173
171
143
127
125
66
55
53
17
14
13
6
6
6
5
7
6
5
7
9
38
38
40
132
132
133
200
200
200
114
114
114
30
30
30
5
5
5
5
5
5
7
7
6
8
8
6
13
11
9
13
7
7
15
9
7
27
20
17
43
35
27
58
49
41
68
58
49
71
62
53
72
63
53
73
63
54
78
68
58
89
77
67
103
90
80
117
103
91
127
114
101
139
127
113
151
141
128
158
149
137
164
154
143
166
157
145
167
158
144
161
152
137
191
178
163
196
183
167
192
178
162
182
166
151
154
139
126
120
106
94
93
79
70
68
57
52
51
41
37
46
37
32
55
45
37
71
59
50
84
69
61
93
76
68
99
80
71
104
84
74
109
89
78
113
93
82
116
97
86
116
96
89
101
84
76
58
46
39
53
44
39
59
52
47
29
26
24
9
11
9
7
8
8
4
6
5
4
6
5
4
6
5
4
6
5
4
6
5
5
7
6
5
6
5
4
6
5
9
10
8
37
35
31
50
45
42
42
35
30
73
61
53
129
110
100
172
152
144
208
189
182
228
211
203
235
218
211
239
222
215
241
225
218
243
228
222
245
230
223
246
231
224
246
231
226
245
231
227
242
230
227
242
229
226
241
227
224
239
224
221
235
220
217
232
217
214
230
214
213
226
211
210
223
208
206
217
202
199
200
183
181
149
133
131
65
57
54
17
15
14
7
7
7
6
8
7
6
7
7
33
33
33
105
106
106
99
99
99
27
27
27
5
5
5
5
5
5
5
5
5
6
6
6
9
9
7
19
15
13
18
12
11
18
11
11
27
20
18
40
31
25
51
42
34
59
50
41
63
54
45
65
56
48
67
58
49
71
61
52
79
68
59
90
78
69
100
87
77
110
98
88
123
112
102
140
130
119
154
144
131
161
152
137
165
156
141
167
157
142
161
152
137
191
177
162
195
181
165
190
175
159
173
158
143
139
124
111
110
95
84
85
71
62
62
51
46
50
40
36
53
42
37
66
53
46
77
64
55
87
72
63
95
78
70
99
81
72
105
85
75
110
90
79
114
94
83
118
98
87
117
99
91
105
87
79
65
53
45
55
46
41
59
52
49
36
32
31
11
12
11
6
7
6
4
5
5
4
5
5
4
5
5
4
5
5
4
5
5
5
7
6
4
6
5
5
7
5
19
18
16
54
50
45
59
53
48
44
36
32
69
56
49
124
104
94
170
151
143
213
195
188
233
216
208
239
222
214
241
225
218
242
227
223
245
230
225
246
231
226
247
232
227
247
232
229
247
232
229
244
232
228
243
232
228
243
230
226
241
227
224
239
224
221
237
222
219
235
220
219
233
218
217
231
216
215
226
210
209
209
193
191
157
142
139
71
63
60
22
19
18
8
8
7
5
7
6
4
6
5
5
7
6
2
4
3
3
3
3
5
5
5
5
5
5
6
6
6
6
6
6
7
7
7
11
11
10
26
21
18
28
21
19
27
19
16
40
32
28
51
42
35
54
45
37
55
45
36
54
44
36
54
45
38
52
45
38
54
46
40
58
50
43
66
58
50
79
68
61
92
82
73
110
100
90
130
120
110
149
138
125
160
148
134
165
154
139
167
156
142
163
151
137
191
176
161
194
178
163
187
171
156
166
149
135
129
113
100
99
85
74
75
61
53
57
47
41
52
42
38
57
46
42
68
54
47
77
62
54
83
69
60
89
73
65
93
76
68
96
77
70
101
82
72
107
88
77
113
93
83
113
96
88
104
88
80
74
61
53
58
48
42
60
52
49
43
38
37
15
15
13
6
6
6
5
5
5
4
4
4
4
4
4
5
5
5
4
5
4
5
6
5
4
6
5
7
9
7
35
32
29
64
57
52
60
52
47
43
35
30
73
58
54
128
110
100
184
167
158
227
210
202
239
222
214
242
225
218
243
227
220
244
229
225
246
231
227
248
233
229
248
233
229
248
233
229
247
232
228
244
232
228
244
232
227
243
231
226
243
228
225
241
226
223
240
225
222
239
224
221
238
223
221
236
221
221
232
216
216
216
201
200
164
150
147
78
68
66
32
28
26
13
13
11
5
7
6
4
6
5
4
6
5
4
6
5
4
6
5
4
6
5
5
6
5
5
6
5
6
6
6
8
8
8
15
14
12
36
30
26
41
33
28
37
27
22
60
49
42
76
64
54
76
63
54
70
56
47
60
48
40
50
42
34
40
34
28
36
30
26
36
31
26
44
38
33
58
49
45
74
65
58
95
85
77
118
108
98
144
132
121
156
143
130
164
150
137
167
153
140
162
150
136
189
173
159
192
176
161
184
167
153
159
141
127
118
101
90
85
72
63
64
54
45
53
44
39
53
43
39
58
47
43
65
51
44
70
55
48
75
60
53
78
63
56
81
66
58
81
66
58
83
68
59
90
74
65
98
81
73
101
85
77
97
81
74
79
65
58
63
52
44
61
53
47
51
45
40
28
24
21
10
9
8
5
5
5
4
4
4
4
4
4
4
5
5
4
6
5
5
7
6
5
6
6
20
17
15
53
46
42
66
57
52
54
45
40
47
37
33
87
74
70
151
135
127
212
195
187
237
220
213
241
224
217
244
227
220
245
228
221
245
230
223
247
232
225
247
232
226
249
232
226
248
231
225
246
229
223
244
229
222
243
228
222
242
227
221
241
226
223
241
226
223
241
225
223
240
225
222
239
224
222
238
223
221
235
220
217
219
204
203
168
153
152
85
75
72
47
41
38
24
22
20
7
8
8
4
6
5
3
5
4
3
5
4
3
5
4
3
4
4
4
5
4
4
4
4
6
6
6
8
8
8
21
18
16
47
41
36
49
41
36
43
32
26
79
63
54
102
85
72
104
86
72
97
79
67
86
71
60
73
62
52
58
48
40
45
36
31
39
30
27
39
30
28
48
38
36
58
49
44
82
73
66
115
105
96
141
131
121
154
142
130
162
149
136
164
153
139
159
150
136
188
173
158
191
175
160
181
164
149
149
131
117
105
89
79
73
60
53
57
46
39
50
41
35
52
42
37
57
46
42
61
48
41
63
49
41
66
51
44
70
55
48
72
58
50
69
57
48
67
55
46
72
58
50
79
65
56
84
69
60
83
69
60
77
63
54
66
54
45
65
54
48
59
51
46
45
39
34
27
23
20
14
11
9
7
6
5
5
5
5
5
5
5
4
6
5
5
6
6
15
15
12
43
36
32
63
54
50
62
53
47
50
40
35
64
54
49
121
108
102
187
170
163
231
214
206
240
223
216
241
224
217
243
226
219
245
228
221
246
230
223
246
231
224
246
230
223
246
228
221
245
226
220
244
225
219
241
223
217
240
223
217
240
224
217
239
223
218
240
223
220
239
223
221
239
223
221
239
224
221
238
223
220
236
221
218
221
206
205
172
159
157
95
85
81
56
50
47
34
31
30
12
12
12
4
6
5
3
5
4
3
5
4
3
5
4
3
4
4
4
4
4
4
4
4
5
5
5
8
8
7
31
28
24
57
51
45
51
43
36
51
39
32
97
81
69
119
100
86
119
100
86
115
96
82
106
88
76
94
80
70
83
70
61
70
58
52
58
47
44
48
38
35
43
34
31
51
42
38
71
62
56
102
93
83
131
119
108
149
136
124
159
146
133
162
151
137
158
148
134
187
172
157
189
173
158
177
160
145
142
124
110
94
80
70
67
53
48
52
41
37
48
39
34
50
40
35
58
47
43
59
49
41
58
46
39
63
49
42
69
54
47
70
57
49
67
56
47
66
52
44
65
51
43
68
54
45
73
59
50
74
60
52
73
59
50
71
56
49
71
57
51
68
57
52
62
53
47
52
44
39
39
33
27
27
22
18
19
15
11
15
13
11
15
13
11
24
21
17
43
38
32
64
55
48
67
57
49
62
51
43
64
53
48
104
94
87
170
155
149
218
201
194
237
220
213
240
223
216
242
225
218
243
226
219
244
226
219
244
227
220
244
226
219
243
225
218
243
222
217
241
220
215
241
220
215
240
219
214
239
220
214
239
221
214
239
222
215
238
221
217
238
221
218
237
221
218
236
221
218
237
222
219
236
220
218
223
209
207
179
167
165
107
97
93
61
55
52
44
39
37
23
21
21
8
9
8
5
6
5
4
6
5
4
4
4
4
5
5
4
4
4
4
4
4
4
4
4
15
13
12
49
44
40
64
57
51
46
37
31
68
55
46
117
99
87
130
111
97
128
109
95
122
102
89
114
95
84
106
88
79
98
82
74
89
74
67
76
63
58
60
49
44
46
36
32
49
40
35
66
57
51
92
82
73
123
110
97
146
132
119
158
145
131
161
151
136
157
148
134
186
170
156
188
172
157
173
157
143
134
118
105
87
75
65
62
51
45
49
39
34
45
36
31
49
40
35
59
49
45
61
50
45
59
46
41
65
50
43
70
55
48
74
58
51
75
60
53
72
57
50
68
54
46
68
54
45
71
57
48
73
58
50
72
58
50
73
58
51
74
59
52
74
60
54
73
62
54
71
60
52
64
54
46
56
47
39
50
41
34
47
39
33
50
41
35
61
52
44
77
64
55
84
71
61
88
74
65
93
80
72
114
102
96
167
153
146
213
198
191
234
217
210
238
221
214
239
222
215
241
224
217
242
223
217
242
222
216
241
221
216
241
221
215
241
220
215
241
220
215
241
219
215
240
219
214
239
218
213
237
216
211
236
216
210
235
217
211
234
216
212
234
217
214
233
218
215
233
218
215
234
219
217
234
218
218
226
211
211
191
176
176
132
120
117
81
72
67
62
54
49
43
38
34
20
18
16
7
6
6
4
6
5
4
5
4
3
5
4
4
6
5
5
6
5
10
11
10
36
33
30
65
58
54
61
53
48
54
44
37
98
81
72
129
109
98
131
112
98
126
106
94
118
99
88
112
92
82
104
86
77
97
81
73
90
76
67
82
68
60
69
55
49
50
40
35
47
39
33
61
52
45
82
72
63
114
102
90
143
129
116
157
144
131
160
149
135
156
147
133
186
171
157
188
172
157
171
155
140
127
112
99
83
72
62
60
50
43
47
38
33
44
35
30
51
42
37
62
53
48
62
52
47
62
50
45
69
54
47
73
58
51
78
62
55
81
65
57
80
64
57
78
63
55
75
61
52
74
59
51
74
59
51
74
59
52
74
59
52
75
60
53
77
62
55
80
67
59
82
70
61
82
69
61
82
69
60
84
70
62
86
73
65
92
76
66
101
86
75
116
98
87
129
112
101
141
124
115
158
142
135
188
172
165
221
205
198
236
220
213
240
223
216
241
224
217
241
223
217
241
222
217
240
220
215
239
217
212
237
214
210
237
214
209
237
214
210
237
216
211
238
216
212
238
216
211
235
214
209
233
212
207
233
211
206
231
210
205
229
209
205
229
210
207
228
212
209
230
215
212
232
217
214
234
218
217
230
214
214
209
193
193
168
155
152
124
111
105
98
86
79
76
68
60
51
44
39
25
22
19
10
10
8
5
6
5
4
6
4
6
7
6
17
15
14
35
33
30
60
55
50
69
62
55
60
50
43
87
72
64
115
97
88
122
104
93
118
99
86
112
94
83
108
90
80
104
85
76
96
78
70
90
73
65
86
72
63
81
67
59
72
60
52
52
43
37
43
34
29
52
43
37
72
63
55
102
90
81
135
122
109
154
140
127
160
148
135
156
146
132
188
172
158
189
173
158
171
155
140
125
110
98
82
70
62
57
48
40
46
36
31
45
36
31
54
45
40
63
54
49
65
55
50
67
55
49
72
57
50
76
61
54
82
66
58
87
70
62
88
71
63
84
68
60
79
64
56
76
62
54
74
60
53
74
60
53
75
60
53
76
61
54
80
65
58
89
74
67
97
82
74
103
88
80
111
95
87
120
103
95
125
108
100
131
113
103
147
129
120
169
150
140
185
171
161
202
188
180
219
204
197
234
217
211
242
225
219
243
227
220
243
226
219
242
225
219
241
224
217
240
219
214
237
214
210
234
208
204
231
203
200
230
202
199
230
203
200
232
206
202
233
208
204
233
208
204
230
207
203
228
205
201
227
202
198
226
201
197
224
201
197
224
204
199
224
208
205
227
212
209
231
216
213
235
220
217
235
219
218
224
209
209
202
187
184
177
162
157
151
137
131
127
115
107
103
92
84
73
64
58
47
41
36
33
28
23
31
26
21
37
32
27
52
45
41
69
61
55
76
66
56
76
63
53
91
76
66
103
86
78
105
88
80
102
86
76
101
85
74
100
83
74
94
78
70
86
69
61
80
64
56
79
63
55
77
64
55
75
63
55
69
59
52
52
43
38
41
32
28
45
37
32
62
53
47
89
79
71
126
116
103
152
138
125
160
146
133
157
144
131
190
174
160
192
174
160
173
156
141
126
110
99
83
68
60
55
43
36
43
34
29
47
38
33
57
48
43
64
55
50
67
56
52
69
56
51
74
59
52
78
63
56
84
68
61
88
72
65
89
72
64
86
71
63
82
67
60
76
65
57
75
64
56
76
64
57
78
64
57
82
67
60
89
74
67
99
84
77
111
96
88
123
107
100
138
121
114
151
135
128
163
147
140
177
162
155
197
182
175
217
203
195
228
216
212
236
224
220
241
229
224
246
232
228
248
233
229
246
231
227
245
229
223
244
227
220
240
222
215
238
214
210
233
207
204
227
197
195
223
190
188
219
187
185
220
189
186
221
191
189
223
194
191
223
195
192
223
195
192
221
194
190
219
193
189
217
192
188
217
193
189
219
196
192
222
204
198
226
209
206
232
215
213
236
221
218
238
222
220
235
220
218
227
212
209
215
200
197
202
187
183
185
171
164
164
150
142
138
124
116
108
95
87
86
74
66
80
69
60
82
72
64
86
74
66
88
75
67
90
76
67
94
79
70
96
79
71
94
77
69
92
77
68
90
75
67
87
72
64
79
66
57
69
58
49
63
52
43
61
50
42
64
52
45
66
55
50
66
56
51
64
55
50
51
41
39
37
30
27
39
32
29
58
50
45
88
79
71
125
115
104
152
138
125
160
146
133
158
144
132
192
175
161
194
176
162
178
160
145
132
116
105
82
67
60
51
39
33
43
34
29
48
40
35
61
52
47
65
55
51
64
54
49
66
54
49
70
56
50
75
61
54
81
67
59
86
71
64
89
74
66
89
74
66
85
72
64
79
69
60
78
68
60
79
69
61
81
68
62
86
73
66
92
79
71
103
89
81
120
105
97
141
124
117
163
146
139
183
167
160
201
186
179
218
204
198
232
220
214
240
229
223
244
234
230
247
237
232
248
238
234
249
240
235
250
238
235
249
235
231
246
231
225
242
226
219
236
218
212
233
207
204
224
196
193
214
182
180
209
173
171
206
170
169
207
171
169
209
174
173
211
177
176
212
178
177
212
178
177
210
179
177
209
179
176
208
178
176
208
180
178
212
186
183
218
197
192
225
206
203
231
213
211
236
221
218
239
224
222
240
225
223
240
225
222
237
222
219
231
216
213
222
208
203
210
196
190
190
175
169
162
146
137
131
116
105
111
96
85
102
90
81
99
86
77
96
82
73
94
80
71
92
78
69
91
75
67
90
74
66
87
73
64
83
68
60
76
61
54
66
54
47
58
47
40
56
46
39
56
47
40
60
50
44
61
51
46
59
50
45
56
48
43
46
38
35
32
25
24
35
27
25
55
46
42
88
78
71
125
114
104
152
139
126
160
146
133
159
145
133
193
175
162
196
177
163
183
165
151
146
129
118
87
73
65
49
39
32
43
34
29
52
43
38
63
54
49
63
54
49
57
48
43
56
45
41
57
46
42
64
54
46
73
61
53
82
68
61
85
71
64
84
71
63
80
70
61
77
67
59
76
66
59
78
68
63
80
69
65
82
71
65
88
78
69
104
90
82
129
114
105
157
140
132
185
168
161
208
192
185
225
210
203
236
224
220
243
233
228
246
237
232
249
240
235
251
242
237
252
243
238
252
243
238
250
240
236
247
236
231
245
230
224
239
223
216
231
213
206
224
198
194
211
182
179
200
166
164
197
157
156
196
155
155
197
157
156
200
159
160
202
161
161
203
161
162
202
162
163
200
162
163
199
163
162
198
164
163
199
167
166
204
174
172
213
188
184
223
202
199
231
213
210
237
222
219
242
226
225
244
228
228
245
230
227
244
230
227
241
227
224
236
224
221
231
217
214
218
204
200
193
180
174
161
146
138
136
120
112
123
108
100
113
99
91
106
91
83
99
85
76
94
80
71
90
76
67
87
73
64
84
70
62
80
65
58
72
57
50
64
52
47
60
50
45
61
51
46
62
52
48
63
53
48
63
53
49
61
52
47
55
46
42
40
34
31
29
22
21
30
23
22
47
39
36
79
70
63
120
110
100
151
138
125
161
147
134
159
145
133
194
176
163
198
178
166
187
168
156
155
139
127
94
81
73
50
39
34
43
34
29
53
44
39
62
53
46
63
53
45
55
45
40
48
39
34
47
38
33
53
43
37
60
50
45
68
57
51
71
60
52
70
60
51
70
61
52
71
62
56
72
63
58
72
63
58
70
60
56
73
62
56
90
79
70
114
98
91
142
125
117
173
156
148
203
186
179
224
208
201
237
222
216
244
232
228
248
238
233
250
241
236
252
242
240
253
243
241
253
243
240
251
242
237
248
238
234
245
233
228
242
226
219
235
218
211
224
203
197
212
184
180
198
165
162
188
148
148
186
142
139
186
142
140
189
145
143
194
149
150
196
149
151
196
149
151
194
149
151
192
149
151
190
148
150
189
150
151
188
153
153
192
159
158
203
175
172
218
195
193
228
210
207
236
221
218
241
226
223
244
229
227
244
232
228
245
233
229
244
233
229
242
231
227
240
228
224
232
220
216
216
205
200
194
180
174
170
155
148
151
136
129
133
118
111
119
104
96
108
93
85
99
85
77
93
79
70
88
73
66
84
69
62
79
64
57
75
60
53
70
59
51
68
58
51
68
57
53
68
58
54
69
58
54
68
57
53
63
54
49
54
45
41
41
33
30
29
22
22
27
21
20
40
34
31
72
64
57
118
108
97
151
137
125
161
147
134
159
145
133
195
176
163
197
177
166
187
168
157
157
140
128
94
82
73
52
42
36
45
35
31
51
41
36
63
53
46
68
56
49
63
53
46
56
47
41
51
42
37
49
40
35
48
39
34
51
42
36
53
43
37
55
45
38
61
52
45
67
58
53
67
58
53
61
52
47
61
50
46
81
69
63
106
93
86
128
112
105
156
139
132
189
172
164
216
200
193
232
216
209
241
227
220
245
234
229
248
238
234
251
242
237
252
242
240
253
243
241
252
242
240
250
240
236
247
235
231
242
229
226
238
221
214
229
210
204
215
193
188
199
170
167
183
147
145
174
132
132
173
127
124
173
127
124
178
131
128
184
136
137
187
138
141
186
137
140
184
137
140
182
137
139
180
137
139
178
136
138
174
134
135
176
138
138
188
156
154
207
181
180
223
203
201
232
216
213
238
224
220
243
229
226
244
233
229
246
235
231
248
237
233
247
236
232
245
234
230
241
229
225
233
220
217
218
203
198
197
182
175
174
159
152
149
134
127
129
114
107
115
100
93
103
89
81
95
81
73
91
76
69
86
71
64
83
67
60
79
65
57
75
63
55
72
62
55
71
60
55
70
59
55
70
59
55
68
57
53
60
51
46
50
41
37
40
31
30
29
22
21
27
20
20
40
32
30
72
63
56
118
108
98
150
137
124
160
146
133
160
146
134
194
176
163
198
178
166
188
168
157
159
140
129
98
86
77
60
49
43
53
41
37
56
45
40
67
55
48
74
60
53
73
63
54
70
59
53
65
54
50
60
50
46
55
46
41
52
43
38
50
41
36
50
41
36
57
48
43
59
50
45
55
46
41
55
46
41
72
62
57
100
87
81
121
106
99
143
127
119
173
156
148
202
185
177
222
207
200
235
220
213
242
228
221
245
234
229
249
239
234
251
242
237
252
243
239
252
243
238
251
242
237
249
238
234
247
234
231
243
228
225
235
217
212
226
204
199
210
185
182
193
161
160
174
136
134
164
122
120
159
112
110
154
106
104
159
109
107
169
119
118
173
124
125
174
125
128
175
126
129
172
125
127
169
124
125
163
117
119
152
107
109
153
110
111
168
133
133
190
160
161
208
184
184
221
203
201
234
219
216
242
227
224
244
233
229
247
236
232
248
237
233
249
238
234
247
236
232
244
233
229
240
225
222
229
214
209
212
197
191
191
176
170
163
148
141
137
122
116
119
104
97
104
90
83
96
81
74
90
75
68
85
71
64
81
67
59
78
64
57
73
62
54
70
60
52
68
57
52
67
56
52
66
55
51
62
51
47
54
44
40
46
37
33
38
33
30
30
25
23
29
22
21
43
34
32
75
66
59
118
107
97
150
136
124
160
146
134
159
145
134
193
174
163
198
178
167
190
170
159
163
143
133
110
95
88
74
60
53
67
52
46
67
53
47
70
56
49
74
59
52
77
63
56
77
65
57
75
64
56
72
62
54
69
60
53
64
55
50
56
47
42
52
43
38
51
42
37
50
41
36
54
44
40
71
61
56
96
82
76
116
100
93
133
117
110
158
141
134
186
169
162
210
193
185
224
209
202
233
218
211
241
226
219
244
233
229
247
237
232
249
240
235
250
241
236
250
241
236
249
240
235
247
236
232
245
234
230
242
230
226
238
220
217
230
209
205
218
196
191
202
175
172
184
151
148
170
132
130
154
112
108
141
93
91
140
92
90
151
100
99
159
109
108
164
113
113
166
116
116
163
114
113
156
109
108
139
93
92
125
81
81
136
95
96
154
118
118
173
143
144
190
165
166
212
195
192
233
217
214
242
227
224
244
233
229
246
235
231
248
237
233
248
237
233
247
236
232
245
233
229
241
227
224
233
218
215
220
205
202
203
188
184
176
161
157
148
133
129
123
109
105
104
90
86
90
78
74
83
71
66
77
66
61
72
62
56
69
58
53
66
56
50
63
54
49
61
51
46
59
49
44
58
48
43
53
44
39
46
36
33
41
32
30
38
33
30
34
29
26
32
26
23
46
36
34
80
71
63
126
112
104
153
139
129
162
148
138
160
146
137
194
175
164
199
179
168
192
172
161
169
149
138
119
103
96
84
69
62
75
60
53
72
57
50
72
57
50
75
60
53
77
63
56
77
66
57
77
67
58
79
68
61
78
68
62
73
64
59
63
54
49
51
42
38
47
37
33
52
43
38
71
61
56
91
80
74
111
97
90
129
113
105
149
132
125
174
157
150
196
179
172
214
197
190
226
210
203
235
220
213
242
227
220
246
233
228
248
236
231
249
238
233
249
240
235
249
240
235
248
239
234
248
238
233
247
236
232
245
233
229
243
226
223
237
219
215
229
209
204
218
195
191
207
179
176
193
159
157
173
134
131
151
107
105
140
94
93
146
96
96
152
102
101
155
105
103
155
105
104
152
103
102
140
93
91
116
70
70
120
78
78
139
100
100
154
120
120
172
143
144
197
175
175
221
204
202
236
220
218
243
228
225
245
232
229
246
234
230
247
234
231
246
235
231
245
234
230
244
231
228
241
226
223
235
220
217
224
209
206
209
195
192
187
173
170
159
146
142
134
120
117
111
99
95
92
81
77
79
68
64
72
62
57
67
58
52
64
54
49
61
52
47
58
49
44
56
47
42
53
44
39
50
41
37
45
35
32
37
28
26
37
28
27
40
33
31
38
32
29
37
29
27
50
40
38
85
74
67
130
116
108
155
141
132
162
148
139
160
147
138
197
178
167
203
183
172
198
178
167
178
158
148
130
113
105
92
76
69
82
67
60
77
62
55
75
60
53
75
60
53
72
60
51
70
60
51
71
61
53
72
62
57
71
61
56
65
56
51
55
47
42
47
38
35
47
38
36
61
52
48
82
73
66
101
90
82
122
106
98
144
127
120
167
150
143
188
171
164
205
188
181
219
202
195
230
214
207
238
222
215
243
228
221
247
232
225
249
234
227
249
234
228
247
236
232
246
237
232
246
237
232
246
237
232
245
235
231
245
233
230
244
229
226
241
224
219
236
218
211
230
209
204
222
200
195
211
183
180
193
160
158
170
130
130
150
107
108
145
97
99
145
97
97
145
97
96
144
96
95
140
92
90
126
79
77
118
76
77
142
104
105
165
132
131
181
152
153
199
176
176
221
204
202
234
219
216
241
226
223
244
229
226
246
231
228
245
230
227
244
230
227
242
230
226
243
229
226
242
227
224
239
224
221
234
219
216
224
210
207
211
199
195
192
181
177
169
158
154
148
137
133
126
115
111
100
89
85
81
70
66
70
60
56
65
56
51
59
50
45
56
47
42
52
43
38
50
41
36
45
36
31
39
30
26
33
24
22
33
23
22
39
29
28
43
34
33
42
32
31
43
33
30
56
47
41
94
82
74
135
121
113
156
142
133
163
149
140
161
147
139
203
183
173
213
193
182
211
191
180
193
173
162
148
130
122
103
87
79
86
71
63
80
65
58
76
61
54
73
58
51
66
54
46
59
50
42
55
46
40
51
43
40
49
43
40
47
40
37
42
36
32
42
33
30
48
39
36
66
57
52
83
73
66
105
92
84
130
113
107
158
139
133
179
160
154
197
179
173
212
195
188
225
208
201
236
219
212
241
225
218
244
229
222
246
231
224
246
231
224
246
231
225
244
232
228
244
233
229
245
234
230
243
234
229
243
233
229
243
232
228
241
229
225
240
225
220
237
220
214
233
212
207
226
205
200
218
195
191
208
180
177
187
154
152
162
124
123
147
101
103
139
92
93
136
90
91
134
87
88
129
83
85
125
80
83
144
106
109
179
146
149
201
174
175
213
192
192
226
208
207
236
221
218
241
226
223
243
228
225
244
229
226
244
229
226
244
229
226
243
228
225
242
228
224
240
225
222
238
223
220
235
220
217
229
216
212
221
209
205
210
199
195
195
183
179
175
164
160
155
144
140
133
122
118
104
94
90
80
71
66
68
59
54
60
51
47
53
43
40
48
38
36
43
33
31
37
28
25
31
22
18
30
21
17
33
24
22
42
33
32
48
38
37
47
38
36
46
36
34
46
36
32
63
54
47
102
92
83
137
126
116
155
144
134
162
150
140
159
148
139
214
195
185
226
206
196
225
205
195
213
193
183
178
160
152
123
106
99
91
76
67
81
67
59
77
62
55
72
57
50
60
49
42
48
39
33
42
33
29
39
33
30
38
33
31
38
33
30
39
33
29
42
34
30
49
40
35
63
53
48
79
69
62
107
93
86
138
121
114
165
147
141
188
168
162
205
188
181
220
203
196
230
213
206
238
221
214
242
225
218
244
228
221
244
228
221
244
229
222
244
229
222
241
229
225
241
228
225
241
229
225
240
229
225
240
229
225
239
228
224
238
226
222
237
222
217
234
217
211
230
210
206
226
205
201
221
199
195
214
189
185
198
169
166
175
140
138
152
109
110
137
92
93
132
86
88
129
83
86
128
83
86
138
97
100
173
140
143
205
178
179
223
201
200
230
212
211
235
220
217
240
225
222
243
228
225
244
229
226
244
229
226
244
229
226
243
228
225
241
226
223
240
225
222
237
222
219
235
220
218
232
217
214
226
212
209
219
207
203
209
198
194
195
183
179
177
164
161
157
145
141
133
122
118
104
94
89
77
68
63
62
53
48
51
42
38
42
34
31
36
27
26
31
22
21
30
21
19
32
23
20
42
33
30
52
43
40
57
47
45
54
44
43
49
39
38
46
37
34
50
40
36
73
64
57
116
106
96
144
133
123
158
146
137
164
152
142
159
148
139
224
205
197
233
213
206
232
212
205
224
204
197
198
179
171
147
128
121
102
85
77
86
71
64
80
65
58
71
56
49
56
46
40
46
37
33
43
34
32
39
33
30
38
33
30
39
34
30
45
36
32
48
39
35
55
46
41
68
57
53
89
76
71
117
102
96
148
131
124
174
157
150
195
178
171
213
196
189
225
208
201
234
217
210
240
223
216
243
226
219
243
226
219
242
225
218
242
225
218
242
225
219
240
225
222
238
223
220
237
223
220
237
223
220
236
223
220
234
222
218
234
220
216
232
216
211
230
212
207
227
207
205
224
203
202
221
199
197
217
192
189
205
178
175
184
152
151
160
122
121
139
96
97
131
85
87
130
84
87
134
90
94
158
121
125
194
166
167
217
195
194
227
209
207
232
216
214
236
221
218
238
223
220
240
225
222
242
227
224
242
227
224
242
227
224
241
226
223
240
225
222
238
223
220
235
219
218
232
217
217
229
214
212
225
210
207
218
204
201
208
196
192
196
183
180
180
165
162
161
146
143
137
125
121
107
97
92
77
68
63
58
50
45
45
37
32
32
27
24
26
20
18
26
19
17
35
26
24
45
36
33
56
47
43
61
52
47
61
51
49
57
47
46
51
41
40
49
39
36
56
46
41
88
78
69
132
119
110
153
140
130
162
148
139
166
152
143
161
148
140
228
209
202
237
217
210
234
215
208
227
207
200
208
188
181
165
147
140
115
98
90
92
78
69
82
67
60
69
55
48
54
44
39
45
36
32
43
34
30
44
35
31
48
40
36
54
43
40
59
49
42
67
55
49
76
63
56
89
75
69
111
97
90
134
119
112
161
144
137
183
167
160
202
187
180
218
202
195
229
212
205
236
219
212
240
223
216
241
224
217
240
223
216
239
222
215
239
222
215
238
221
214
236
219
213
234
218
214
232
217
214
232
217
214
231
217
214
229
215
212
227
212
209
227
210
206
225
207
204
224
204
202
222
201
200
219
198
197
216
193
191
205
181
180
187
158
159
166
133
132
142
103
103
132
90
91
134
90
92
144
105
108
178
148
150
205
183
183
220
202
200
226
210
208
230
215
212
233
218
215
235
220
217
236
221
219
238
223
221
238
223
222
238
223
220
237
222
219
237
221
219
235
220
219
234
218
219
232
216
217
230
215
214
226
210
209
219
204
203
210
199
195
199
186
183
184
171
167
168
153
150
145
132
129
115
104
100
87
76
72
62
52
49
42
33
31
29
23
21
22
16
16
22
17
16
31
23
23
45
36
34
56
47
44
61
51
49
62
52
50
58
48
46
53
44
41
53
44
40
65
56
50
104
93
84
143
129
120
159
145
136
165
151
142
167
153
144
162
149
140
230
212
205
239
220
213
238
219
212
232
213
206
218
199
191
181
163
156
128
111
104
96
81
73
82
68
60
68
55
48
57
47
42
56
47
41
61
51
45
67
57
52
72
61
55
75
63
58
80
68
60
87
74
66
96
82
75
110
95
88
128
112
105
148
132
125
169
152
145
190
174
167
210
194
187
224
209
202
233
218
211
239
222
215
241
224
217
241
224
217
238
221
214
235
219
212
233
217
210
230
214
207
228
212
205
226
211
206
226
211
208
226
211
208
226
211
208
225
210
207
223
208
205
224
207
204
222
204
201
221
201
199
220
200
199
217
196
195
213
192
191
204
180
180
189
161
161
169
138
137
147
110
111
135
95
95
139
100
101
161
128
129
192
166
166
210
190
189
219
203
201
225
210
207
229
214
211
230
215
212
231
216
213
232
217
214
233
218
216
234
219
217
234
219
216
234
219
216
234
218
217
234
218
219
232
216
217
231
215
216
230
214
215
226
211
211
221
206
205
213
201
197
202
190
186
190
178
174
175
161
158
154
141
138
127
115
112
97
87
83
70
60
57
48
39
37
33
26
26
27
21
20
23
18
17
26
20
19
36
28
26
47
38
36
57
48
46
63
53
52
63
53
51
62
53
48
64
55
50
80
70
64
118
107
99
151
137
128
163
148
140
168
153
145
169
155
146
163
150
141
232
214
207
242
223
216
242
223
216
237
219
212
225
208
200
194
177
169
139
123
115
97
82
75
77
64
58
67
55
50
67
56
51
72
62
56
79
69
61
88
74
67
92
78
71
93
79
72
96
82
73
100
86
78
109
94
86
121
106
99
136
120
113
155
138
131
176
159
152
199
182
175
219
202
195
228
213
206
234
219
212
236
221
214
236
220
213
234
218
211
231
215
208
227
212
205
224
209
202
221
206
199
221
205
198
221
206
201
222
207
203
222
207
204
222
207
204
222
207
204
221
206
203
221
204
201
220
202
200
218
200
198
217
197
196
214
193
192
208
187
186
197
174
174
184
157
158
167
137
138
146
114
114
136
101
101
148
115
114
174
146
145
196
171
172
210
191
189
219
203
200
223
208
205
226
211
208
227
212
209
228
213
210
228
213
211
229
214
211
229
214
211
229
214
211
229
214
213
230
214
215
231
215
216
231
215
216
232
216
217
230
214
215
228
212
211
223
208
206
216
202
199
205
193
189
192
181
177
180
165
162
158
146
142
131
120
116
105
95
91
82
72
69
62
53
49
49
40
39
40
34
31
33
28
25
30
25
22
33
27
25
43
36
34
57
47
46
66
56
53
70
60
56
71
62
57
76
66
62
95
85
79
131
121
112
157
143
135
166
151
144
170
155
147
170
156
148
164
150
142
233
214
207
244
224
217
244
225
218
241
224
216
233
216
208
212
195
187
162
146
138
104
89
82
76
61
55
71
57
51
74
63
56
81
69
61
87
74
67
95
80
73
100
85
77
104
87
79
107
91
83
112
96
87
118
102
94
127
111
103
141
124
117
162
145
138
187
170
163
207
190
183
222
205
198
227
211
204
230
215
208
230
215
208
228
213
206
226
211
204
224
209
202
224
208
201
222
205
198
220
204
197
220
204
197
221
204
198
220
205
199
222
207
204
222
207
204
221
206
203
218
203
198
217
201
195
215
198
193
215
197
194
212
193
191
208
187
186
198
177
176
187
163
164
174
148
149
158
129
131
143
113
114
139
108
109
156
128
128
176
151
151
192
169
169
207
187
185
216
198
196
220
204
202
222
207
204
223
208
205
224
209
207
225
209
208
224
208
208
223
207
207
223
207
207
223
207
208
225
209
210
228
212
213
230
214
214
231
216
214
231
215
213
229
214
211
225
210
207
218
203
200
208
194
190
195
182
178
179
167
163
158
147
143
133
122
118
111
100
96
92
82
77
75
65
61
64
54
50
57
48
44
50
41
37
43
35
31
42
33
31
47
38
36
54
44
43
65
55
51
73
63
58
80
67
64
89
76
71
112
99
92
144
131
123
162
148
140
169
154
147
172
157
150
172
158
150
165
151
143
232
213
206
243
223
216
244
225
218
243
225
218
239
222
214
224
207
199
183
167
159
124
108
101
87
72
65
83
68
61
87
74
66
94
80
72
101
86
79
107
92
83
111
95
87
115
98
90
119
102
94
122
105
97
127
110
102
134
117
109
149
132
124
173
156
149
195
178
171
209
192
185
217
200
193
222
206
199
222
207
200
223
207
200
222
207
200
223
208
201
224
208
201
223
206
199
223
205
199
222
203
197
220
202
196
219
202
195
218
202
195
218
202
199
217
202
199
217
202
198
213
198
193
213
197
191
212
194
189
209
191
189
205
185
184
197
176
175
185
163
164
173
150
151
160
135
136
149
121
122
141
112
114
141
112
114
156
128
130
170
146
146
182
161
160
196
175
174
206
187
186
211
195
193
216
201
198
219
204
201
220
205
202
220
204
205
220
204
205
219
203
204
217
201
202
218
202
203
219
203
204
222
206
207
225
209
209
228
212
211
229
214
211
228
213
210
224
209
206
217
204
201
207
194
190
195
181
178
177
166
162
157
146
142
136
124
120
116
105
101
98
87
83
82
72
68
71
61
56
63
53
49
54
45
40
47
38
34
43
33
31
42
32
31
45
37
35
56
47
43
70
60
55
85
71
66
100
85
79
127
112
104
153
138
131
166
151
144
171
156
149
173
159
151
172
158
150
166
152
144
229
209
203
240
220
213
242
223
216
243
224
217
242
225
217
233
216
208
201
184
176
146
131
123
106
90
82
98
83
76
103
87
80
109
92
85
114
97
89
118
101
93
121
104
96
123
106
98
126
109
101
129
112
104
134
117
109
143
124
117
158
140
133
180
164
157
197
180
173
207
190
183
214
197
190
218
202
195
220
203
196
221
204
197
222
207
200
223
208
201
224
209
202
223
206
199
222
203
197
220
200
195
218
197
192
214
196
190
211
194
188
210
193
190
209
193
190
208
193
189
206
191
187
205
188
185
203
186
183
200
181
179
194
174
173
185
164
163
173
151
153
161
139
141
148
125
128
142
115
117
138
111
112
138
111
113
149
124
125
161
138
137
173
152
151
186
165
164
196
177
176
205
187
185
209
194
191
213
198
195
216
201
198
217
201
201
216
200
201
216
200
201
215
199
200
215
199
200
214
198
199
216
200
201
219
203
203
222
206
206
223
210
207
223
210
207
223
208
205
215
204
200
207
195
191
196
184
181
179
168
164
161
148
145
141
127
124
122
111
107
104
93
89
90
79
75
79
68
64
69
58
54
57
47
43
44
35
33
38
29
27
36
27
26
34
28
25
45
37
33
67
56
51
89
74
68
114
98
91
142
126
118
160
145
137
169
155
147
172
158
150
174
160
151
173
159
150
166
152
144
230
214
207
241
225
218
244
226
219
246
227
220
244
226
219
238
221
213
218
201
193
176
160
152
129
113
105
113
97
89
115
96
89
117
97
90
118
100
93
122
103
96
124
105
98
126
107
100
129
110
102
132
114
106
138
120
113
148
129
122
163
145
137
183
166
159
198
181
173
207
190
182
214
197
190
218
201
194
221
204
197
222
205
198
223
206
199
222
206
199
220
204
197
218
199
193
214
194
189
211
190
185
207
187
183
204
184
181
202
182
179
201
181
180
200
181
180
198
180
178
197
179
177
196
178
176
192
174
172
188
170
168
182
163
161
174
153
153
163
141
144
152
130
133
140
118
121
136
109
113
133
107
109
134
108
109
141
116
117
152
129
129
164
143
142
177
156
155
188
169
167
196
178
177
202
186
186
207
192
192
211
195
195
213
197
198
213
197
198
213
197
198
213
197
198
213
197
198
213
197
198
214
198
199
215
200
200
215
202
202
215
204
202
216
204
201
215
203
199
211
200
196
206
195
191
197
186
182
183
172
168
166
153
150
148
133
130
129
116
113
111
98
94
98
84
81
88
75
71
79
67
63
69
59
55
59
50
46
52
43
40
45
36
32
40
33
29
48
39
35
69
59
54
98
83
76
128
112
105
153
138
130
165
151
142
172
157
149
174
160
152
175
161
152
173
159
150
166
153
144
232
218
211
242
227
220
245
229
222
246
229
222
245
227
220
240
223
215
230
213
205
198
181
173
157
139
131
130
113
105
124
104
97
124
104
97
124
104
97
126
106
99
127
106
100
128
108
101
129
109
102
131
112
104
136
118
110
146
126
119
161
142
135
182
164
156
197
179
172
207
189
181
215
197
190
220
202
195
222
204
197
221
203
195
219
201
194
217
199
193
214
196
189
211
192
186
208
188
182
205
185
180
202
183
181
200
180
179
198
178
176
197
177
175
195
175
173
192
172
171
191
171
169
188
168
167
184
165
163
179
160
158
174
154
153
166
145
144
156
134
137
145
123
126
134
112
115
129
103
106
127
101
103
129
103
104
135
109
110
144
121
121
156
135
135
170
150
149
181
162
161
189
172
170
195
179
180
201
185
186
204
188
189
208
192
192
209
193
194
211
195
196
212
196
197
212
196
197
213
197
198
213
197
198
212
198
198
211
199
198
211
200
198
209
198
196
207
196
192
205
194
190
201
190
186
195
184
180
185
173
169
171
158
154
153
139
136
134
119
116
116
101
97
102
87
83
93
79
75
87
74
70
81
69
66
74
65
60
69
60
55
65
56
51
62
53
49
63
53
49
80
68
63
112
97
90
141
126
119
161
146
139
170
156
147
173
159
150
175
161
152
176
162
153
174
160
151
166
153
144
232
218
211
243
228
221
245
230
222
246
229
221
245
228
220
242
225
217
235
218
210
218
201
193
190
172
164
159
139
132
139
120
113
133
113
106
130
110
103
129
108
102
128
108
101
127
107
100
128
108
101
129
110
102
132
113
106
142
122
115
158
139
132
181
162
155
197
177
170
207
188
181
213
196
188
216
199
191
216
198
191
214
195
188
213
193
187
212
191
186
210
190
184
208
190
184
207
190
183
205
188
182
203
186
183
200
182
180
198
179
177
195
177
171
191
173
168
187
169
166
185
165
164
181
160
159
176
156
155
170
150
149
165
144
143
158
137
136
149
127
130
138
116
119
127
105
108
120
98
99
120
96
96
124
98
99
130
105
106
139
116
118
151
130
132
164
144
146
174
156
157
181
165
165
187
172
170
193
177
177
196
180
181
199
183
184
202
186
187
205
189
190
207
191
192
209
193
194
210
194
195
211
196
196
211
198
196
209
198
195
208
197
194
206
195
192
204
192
188
203
189
186
198
186
182
193
182
178
187
173
170
175
160
157
158
143
140
136
121
118
118
103
98
105
90
84
97
82
76
92
77
73
87
74
70
81
70
66
77
68
63
74
65
60
73
62
58
73
62
58
92
80
75
126
111
105
153
138
132
167
152
145
173
159
151
175
161
152
176
162
153
175
161
152
174
160
151
167
153
145
232
218
211
243
228
221
245
229
222
245
229
221
244
227
219
241
224
216
238
221
213
230
212
204
214
196
188
187
169
161
161
141
134
142
122
114
132
112
103
129
109
100
127
107
100
128
108
101
128
108
101
130
110
103
134
114
107
143
123
116
160
140
133
180
160
153
193
174
166
201
183
175
205
188
180
206
189
182
206
188
181
205
187
180
207
186
181
207
186
181
207
186
181
208
189
183
207
190
183
206
189
182
203
187
181
199
183
178
196
179
174
191
174
167
186
169
164
181
163
161
178
158
156
173
152
151
168
147
146
162
141
140
156
135
134
150
129
128
141
120
120
131
109
110
121
99
99
113
92
89
113
90
88
116
92
90
123
99
99
133
111
111
147
126
126
158
139
139
168
149
150
174
157
157
180
164
163
185
169
170
189
173
174
192
176
177
195
179
180
198
182
183
201
185
186
203
188
189
205
191
191
207
193
193
207
194
193
206
194
192
205
194
190
204
192
188
202
188
184
201
185
183
198
184
180
193
180
176
187
172
169
176
162
158
158
145
142
136
123
119
118
104
99
108
92
85
101
85
78
95
79
73
89
75
70
85
72
66
80
69
62
76
67
60
74
63
56
80
67
61
107
93
87
141
126
119
163
149
141
172
158
149
176
162
153
177
163
154
178
163
154
177
162
153
175
160
151
167
153
145
233
218
211
243
227
220
244
228
221
243
228
220
242
225
217
240
223
215
239
222
214
234
217
209
226
209
201
210
193
185
185
165
158
156
136
128
138
118
109
132
112
103
130
110
102
130
110
103
131
111
104
134
114
107
139
120
112
149
130
122
162
142
135
173
155
147
180
163
155
186
170
162
190
174
166
194
177
170
196
180
173
198
181
175
202
181
176
203
183
178
204
184
178
204
184
179
203
184
178
201
183
177
197
179
173
193
175
169
188
171
165
183
165
159
178
160
156
173
154
152
169
148
147
165
144
143
160
139
138
154
133
132
148
127
126
141
120
119
132
111
110
121
100
99
111
90
88
104
83
79
102
81
77
105
83
79
111
90
88
123
101
100
138
117
116
151
131
130
160
141
140
167
150
148
173
157
157
178
163
163
183
167
167
186
170
170
189
173
173
192
176
176
195
179
179
198
184
184
200
187
187
201
187
188
201
188
187
201
188
186
200
188
185
201
187
184
200
184
181
199
183
181
197
181
178
192
177
174
184
170
167
174
161
158
157
146
142
135
123
118
118
104
98
109
93
86
103
87
80
98
82
75
93
78
72
89
75
68
83
71
63
79
68
60
79
67
59
93
80
73
127
112
106
157
142
135
171
157
149
176
162
154
178
164
155
180
164
156
180
164
155
179
163
154
175
161
152
167
154
146
232
216
208
241
225
217
241
225
217
241
224
217
241
224
216
240
223
215
238
221
213
236
219
211
233
216
208
223
206
198
202
183
176
174
154
146
150
130
122
139
119
111
136
116
108
135
115
108
136
116
109
140
121
114
145
127
120
153
135
127
161
143
135
166
149
141
171
154
146
175
159
151
179
163
156
184
168
161
188
172
165
193
176
169
197
176
171
198
178
173
197
179
172
195
176
170
193
174
168
191
171
166
188
168
163
184
164
159
180
160
155
175
155
152
170
150
148
166
145
144
162
141
140
157
136
135
152
131
130
145
124
123
138
117
116
129
108
107
118
97
96
107
86
85
98
77
76
93
72
70
91
70
66
93
72
67
98
77
73
110
89
85
127
106
102
142
121
120
152
132
131
159
141
139
165
149
147
171
156
154
176
161
159
181
165
163
184
168
166
187
172
170
191
176
174
195
179
179
197
182
182
197
182
183
196
182
181
196
182
179
196
182
179
197
182
179
196
181
178
196
180
177
193
178
175
189
174
171
184
169
166
172
160
156
155
143
139
134
121
115
118
103
97
108
93
86
104
88
81
100
84
77
96
81
74
94
79
72
90
75
68
88
74
66
91
77
70
115
101
94
149
134
127
169
154
147
177
163
154
180
166
157
181
167
158
181
166
158
180
165
157
179
164
156
176
162
153
168
155
147
230
212
205
239
221
213
240
222
214
239
222
214
239
222
214
239
222
214
239
222
214
237
220
212
234
217
209
227
210
202
209
191
184
186
167
160
161
142
135
147
127
120
144
124
118
144
124
117
145
125
118
148
129
122
152
133
126
155
137
129
158
141
133
161
144
136
165
148
140
168
151
144
172
156
149
177
162
154
182
166
159
186
169
161
189
168
163
187
169
163
185
167
161
181
163
157
179
160
155
179
160
154
178
159
153
175
156
150
171
152
147
167
147
145
162
141
140
159
138
137
155
134
133
149
128
127
143
122
121
133
112
111
121
101
100
110
89
88
99
78
77
91
70
69
85
64
63
84
63
59
84
63
59
85
64
59
88
67
64
99
78
74
114
93
88
129
108
105
140
120
117
149
130
127
156
139
137
163
147
145
169
154
151
174
159
156
178
163
160
181
166
163
186
171
168
190
174
174
193
177
177
194
178
177
193
177
175
192
177
174
192
177
174
191
177
174
190
177
174
190
177
173
188
175
171
185
172
169
180
167
164
170
158
154
154
140
136
135
119
112
118
102
95
108
92
85
103
87
80
100
84
77
97
82
75
95
80
73
95
80
73
97
83
75
111
96
88
138
124
116
164
149
142
176
161
154
181
166
158
182
168
159
182
168
159
182
168
159
181
167
158
179
165
156
176
162
153
168
155
147
228
208
201
238
218
211
239
220
213
238
221
213
238
221
213
238
221
213
238
221
213
237
220
212
235
218
210
228
210
202
213
195
187
192
174
166
170
150
143
157
137
130
152
132
125
151
131
124
151
131
124
153
133
126
154
135
128
154
136
128
155
137
130
155
138
130
157
139
132
159
141
134
163
146
138
168
151
144
173
156
148
175
157
150
177
156
150
175
156
149
172
154
148
171
152
146
171
153
147
172
155
148
172
155
148
170
153
146
166
149
142
163
142
141
157
136
135
153
132
130
148
127
124
139
118
116
128
107
105
115
94
92
102
81
79
92
71
70
85
64
63
82
61
60
82
61
59
82
61
57
82
61
58
84
63
59
87
66
65
94
74
71
104
84
79
115
94
90
126
105
100
136
116
111
145
127
124
153
136
134
160
144
141
165
150
147
170
155
152
175
160
157
180
165
162
185
169
168
188
172
172
189
174
172
189
174
171
189
174
171
188
174
171
186
174
170
185
174
170
184
173
169
182
170
166
179
168
164
175
163
159
167
153
149
152
137
132
134
117
110
119
102
95
109
93
86
102
85
78
99
83
75
97
82
74
97
82
74
100
85
78
109
95
87
132
118
109
156
143
134
173
159
151
180
165
158
183
169
160
183
169
160
183
169
160
183
169
160
182
168
159
180
166
157
176
162
153
168
155
146
226
207
200
236
217
210
238
219
212
238
221
213
238
221
213
238
221
213
237
220
212
236
219
211
234
217
209
226
209
201
213
194
187
194
175
167
175
155
148
161
141
134
155
135
128
153
133
126
153
133
126
153
133
126
152
132
125
152
133
126
151
132
125
149
130
123
149
129
122
151
132
125
156
137
129
160
141
134
164
145
137
166
146
139
166
146
140
166
146
139
166
147
140
165
147
140
167
150
143
168
151
144
167
150
143
165
148
141
161
144
138
159
138
137
154
133
132
147
126
124
138
117
114
124
104
100
111
90
86
98
77
73
89
68
65
84
64
63
82
63
61
84
63
62
87
66
65
88
67
66
88
67
66
88
68
66
90
71
69
94
75
71
98
80
74
104
83
78
111
90
85
121
101
96
132
113
111
142
125
123
151
134
132
156
141
138
160
145
142
165
150
147
172
157
154
178
162
160
182
166
165
184
169
166
185
170
167
185
171
168
183
171
168
181
170
166
180
169
165
178
167
163
175
164
160
171
160
156
168
154
151
161
146
140
149
133
126
134
117
110
122
105
98
113
96
88
104
87
79
99
83
75
99
82
75
101
86
78
108
94
85
124
110
102
148
134
125
167
153
144
179
165
156
184
169
161
186
172
163
185
171
162
185
171
162
184
170
161
182
168
159
180
166
157
177
163
154
169
156
147
227
207
200
236
216
209
237
218
211
236
219
211
237
220
212
237
220
212
236
219
211
234
217
209
231
213
205
224
206
199
213
193
186
195
175
168
177
157
150
162
142
135
153
133
126
148
128
121
148
128
121
147
127
120
147
127
120
145
125
118
143
123
116
142
122
115
143
123
116
147
127
120
152
132
125
156
136
129
159
139
132
159
139
132
159
139
132
160
140
133
161
141
134
161
143
136
163
145
138
163
146
139
162
145
138
159
141
135
155
136
130
152
131
128
146
125
122
138
117
113
124
104
99
109
89
83
98
77
71
90
69
64
87
66
62
88
67
64
89
69
66
93
74
70
96
77
73
98
78
75
99
78
77
99
79
78
97
79
77
98
80
76
98
80
74
99
79
74
103
82
77
111
90
85
120
103
99
131
113
109
140
123
119
146
131
126
151
136
131
157
141
136
162
146
142
168
152
147
172
156
151
174
159
154
176
161
157
177
163
158
177
164
160
175
164
160
173
163
158
171
160
156
168
156
152
164
151
147
160
145
140
154
138
132
145
128
121
135
118
111
127
110
103
119
102
95
111
94
87
107
90
82
106
89
82
109
95
86
120
106
98
138
124
116
159
145
136
174
159
151
182
168
159
186
172
163
187
173
164
187
173
164
186
172
163
185
171
162
183
169
160
180
166
157
177
164
155
170
157
148
227
208
201
237
217
210
237
218
211
236
219
211
236
219
211
236
219
211
234
217
209
232
215
207
229
211
204
224
205
198
213
193
186
197
177
170
179
159
152
163
143
136
151
131
124
143
124
117
138
119
112
133
114
107
133
114
107
134
114
107
135
115
108
138
118
111
142
122
115
146
126
119
150
130
123
153
133
126
154
134
127
154
134
127
154
134
127
154
134
127
155
135
128
156
137
130
157
138
131
157
139
132
156
138
132
153
134
128
149
128
123
143
123
118
136
115
110
126
106
101
113
92
87
102
81
75
95
75
68
93
72
67
93
72
67
96
75
70
99
78
73
102
82
77
104
85
79
106
85
81
107
86
83
107
87
85
106
88
85
105
88
83
102
85
78
101
81
76
101
81
76
105
85
80
112
95
88
121
104
97
129
112
106
136
120
113
143
126
119
149
133
126
155
138
131
158
141
134
161
144
137
161
146
139
163
148
142
166
151
145
168
153
149
168
154
150
166
153
149
163
151
147
160
147
143
156
141
137
151
136
129
147
131
124
141
124
117
136
119
112
132
115
108
126
109
102
121
104
97
119
102
95
119
103
96
124
110
103
135
121
114
150
136
130
167
153
145
178
164
155
183
169
160
187
173
164
187
173
164
188
174
165
187
173
164
185
171
162
184
170
161
182
168
159
179
165
156
170
157
148
228
209
202
237
218
211
237
219
212
237
220
212
236
219
211
235
218
210
233
216
208
232
215
207
229
211
204
225
205
198
215
195
188
198
178
171
179
159
152
162
144
136
148
130
122
132
114
107
113
99
92
103
88
80
108
92
84
118
100
92
128
109
101
136
116
109
142
122
115
146
126
119
148
128
121
148
128
121
148
128
121
149
129
122
150
130
123
149
129
122
148
128
121
148
128
121
149
129
122
149
130
123
148
128
122
146
125
120
142
121
116
136
115
110
128
107
102
118
97
92
108
88
82
101
81
74
98
78
71
98
78
72
99
79
73
101
80
75
103
83
78
105
84
79
106
86
80
108
87
82
110
90
85
111
93
88
113
95
90
112
95
89
108
92
85
105
87
81
103
83
78
104
83
78
107
87
82
113
96
89
121
104
97
128
111
104
134
117
110
140
123
116
146
129
122
149
132
125
151
134
127
150
134
127
152
136
129
154
138
131
157
141
135
158
142
136
158
142
137
154
140
137
151
137
134
147
132
128
142
127
120
140
123
116
139
122
115
138
121
114
136
120
113
133
117
110
132
116
109
132
117
110
136
121
115
140
128
123
148
137
131
159
148
142
171
159
151
179
166
157
184
170
161
186
172
163
187
173
164
187
173
164
186
172
163
186
172
163
185
171
162
183
169
160
180
166
157
171
158
149
230
212
205
239
221
213
240
223
215
239
222
214
237
220
212
235
218
210
233
216
208
232
215
207
229
211
203
224
205
198
217
197
190
199
179
172
179
159
152
159
140
133
138
120
112
111
94
87
81
70
62
72
60
51
82
68
60
98
81
73
117
99
91
133
113
106
140
120
113
142
122
115
142
122
115
142
123
116
145
126
118
146
128
120
145
126
118
143
123
116
142
122
115
141
121
114
141
121
114
141
121
114
140
119
114
138
118
112
134
114
108
129
109
103
123
103
97
115
95
89
109
89
82
104
84
77
103
83
76
103
83
76
103
83
77
104
83
77
103
83
77
102
82
76
104
83
77
106
86
80
109
91
84
112
95
88
115
98
91
115
98
91
113
96
89
110
93
86
107
89
83
105
86
80
107
87
81
110
93
86
116
99
92
122
105
98
128
111
104
133
116
109
138
121
114
140
123
116
142
125
118
142
125
118
143
125
118
144
126
119
146
129
122
148
131
124
149
132
126
145
130
126
142
127
122
138
123
117
135
119
112
135
119
111
137
120
113
139
122
115
141
125
118
142
126
119
144
129
122
147
133
127
152
139
134
155
144
139
161
149
144
167
154
149
174
162
154
180
167
158
184
170
161
185
171
162
185
171
162
185
171
162
185
171
162
185
171
162
184
170
161
182
168
159
180
166
157
172
158
150
232
215
208
242
225
217
243
226
218
241
224
216
238
221
213
236
219
211
234
217
209
232
215
207
229
211
203
223
206
198
217
198
191
200
180
173
178
158
151
152
132
125
125
106
99
99
79
73
67
51
45
66
52
44
75
60
52
92
75
67
111
93
86
124
104
97
128
108
101
131
111
104
135
115
108
140
121
114
144
126
118
142
125
117
140
121
114
139
119
112
138
118
110
137
117
110
137
117
110
137
117
110
137
116
110
133
113
106
130
110
103
125
106
98
121
101
94
116
96
89
111
91
84
109
89
82
107
87
81
106
86
79
105
85
77
103
83
75
100
80
72
99
79
72
101
81
74
104
84
77
107
89
82
111
93
86
114
97
90
115
98
91
115
98
91
113
96
89
111
94
87
109
92
85
109
92
85
112
95
88
115
98
91
120
103
96
125
108
101
129
112
105
132
115
108
133
115
109
134
117
110
134
117
110
135
115
110
135
116
110
137
119
112
139
122
115
140
123
117
138
123
116
134
119
113
131
116
108
130
113
106
132
115
108
136
119
112
142
125
118
147
131
124
153
137
130
158
143
138
161
149
144
164
153
148
167
155
150
170
157
150
173
158
151
177
163
156
181
167
158
183
169
160
185
171
162
185
171
162
185
171
162
184
170
161
183
169
160
182
168
159
181
167
158
180
166
157
171
157
149
232
216
208
241
224
216
242
225
217
240
223
215
238
221
213
237
220
212
234
217
209
232
215
207
229
212
204
224
206
198
218
198
191
200
181
174
173
155
148
144
126
118
120
101
94
100
81
74
67
51
44
71
56
49
84
69
62
98
83
75
107
90
82
107
89
81
106
88
80
115
97
89
129
111
103
138
120
112
139
121
113
136
119
111
137
117
110
136
116
107
135
115
106
135
115
107
134
114
107
134
114
107
134
114
107
131
111
104
127
107
100
123
103
96
120
100
93
116
96
89
113
93
86
111
91
85
109
89
82
106
86
79
103
83
75
99
80
70
97
77
67
97
77
69
99
79
72
101
81
74
104
84
77
108
89
82
113
96
88
117
100
93
117
100
93
116
99
92
114
97
90
112
95
88
111
94
87
112
95
88
114
97
90
117
100
93
121
104
97
123
106
99
125
108
101
126
107
102
127
108
102
128
108
102
129
108
103
130
110
103
130
113
105
131
115
108
132
117
110
132
117
110
130
115
108
128
112
105
128
111
103
131
112
105
136
118
111
145
128
121
155
138
131
164
149
142
171
156
152
173
161
157
173
161
157
175
161
155
175
160
153
175
160
153
179
164
156
182
167
159
183
169
160
184
170
161
185
171
162
184
170
161
183
169
160
182
168
159
181
167
158
180
166
157
178
164
155
171
157
149
230
214
206
240
223
215
240
223
215
240
223
215
238
221
213
237
220
212
235
218
210
232
215
207
229
212
204
224
206
199
217
197
190
201
182
175
173
156
148
145
129
121
122
105
97
104
85
78
76
60
53
83
69
62
95
80
73
98
83
76
94
79
71
87
71
62
88
72
64
105
89
81
123
107
99
129
112
104
131
113
105
132
114
106
133
113
106
133
113
104
133
113
102
133
113
105
132
112
105
131
111
104
130
110
103
128
108
101
125
105
98
122
102
95
120
100
92
118
98
90
116
96
87
113
93
85
112
92
83
108
88
79
103
83
74
99
79
69
98
78
67
98
78
68
98
78
69
99
79
70
101
81
72
107
87
79
115
97
89
119
103
95
121
104
97
119
102
95
116
99
92
113
96
89
112
95
88
111
94
87
112
95
88
113
96
89
116
99
92
118
101
94
120
103
96
121
102
96
121
102
96
123
103
97
123
104
97
124
105
98
125
108
100
125
109
101
127
111
104
128
113
105
128
113
105
128
112
105
129
112
105
134
116
108
142
123
116
152
135
128
164
148
141
174
159
153
180
165
162
181
168
165
181
168
164
179
166
160
177
164
157
176
163
155
178
166
156
181
168
159
184
170
161
184
170
161
184
170
161
183
169
160
182
168
159
181
167
158
181
167
158
180
166
157
177
163
154
170
157
148
229
212
205
239
222
214
240
223
215
240
223
215
238
221
213
236
219
211
235
218
210
231
214
206
229
211
203
225
206
199
218
198
191
204
185
178
180
163
155
154
138
130
130
113
105
111
94
87
91
76
69
94
79
72
94
79
72
88
73
66
80
65
57
78
63
55
87
73
65
105
91
82
111
97
88
116
99
91
123
104
97
126
106
99
128
108
100
129
109
100
130
110
100
130
111
103
130
110
103
130
110
103
128
108
101
127
107
100
124
104
97
122
102
94
120
100
91
119
99
89
118
98
88
116
96
86
115
95
85
112
92
81
107
87
77
103
83
72
102
82
71
101
81
70
99
80
69
99
79
68
101
81
71
108
89
79
118
100
92
123
106
98
123
106
99
122
105
98
118
101
94
114
97
90
112
95
88
111
94
87
111
94
87
113
95
88
115
98
91
116
99
92
117
99
92
117
100
93
118
101
94
119
101
94
119
101
94
120
102
94
121
104
96
122
106
98
124
108
100
125
111
103
127
113
104
130
115
107
135
118
110
143
126
118
152
135
128
163
147
140
174
158
151
181
166
160
185
170
167
186
172
169
186
171
168
182
170
166
179
168
161
177
167
158
178
167
158
181
168
159
184
170
161
185
171
162
185
171
162
183
169
160
182
168
159
182
168
159
181
167
158
179
165
156
177
163
154
169
156
147
229
212
205
239
222
214
240
223
215
240
223
215
239
222
214
237
220
212
235
218
210
232
215
207
229
211
203
225
206
198
218
198
191
205
186
179
184
167
160
162
146
138
140
123
116
122
105
98
101
86
79
91
76
69
82
67
60
76
61
54
76
61
53
80
65
57
94
80
72
101
87
79
95
81
72
104
87
79
108
91
83
113
95
88
119
100
93
122
104
96
124
107
98
125
107
99
126
107
99
126
106
99
125
105
98
124
104
97
122
102
96
121
101
94
120
100
91
120
99
89
119
99
90
119
99
90
117
97
89
115
95
84
113
93
81
110
90
78
108
88
75
106
86
74
104
84
73
103
83
72
104
84
75
111
91
83
119
100
93
123
105
98
124
106
99
122
105
98
119
102
95
116
99
92
114
96
90
112
95
88
113
94
88
114
96
89
115
98
90
116
99
91
116
99
91
116
99
92
117
100
93
116
99
93
116
99
92
117
100
92
119
102
94
119
104
95
120
106
97
123
109
100
126
112
103
131
116
109
139
123
116
150
134
127
162
146
139
172
157
150
181
166
160
186
171
166
188
173
170
188
173
170
187
173
169
184
172
168
181
170
165
179
169
162
179
169
160
181
170
161
184
171
162
186
172
163
185
171
163
183
169
161
182
168
159
181
167
158
180
166
157
179
165
156
177
163
154
169
156
147
230
213
206
239
222
215
240
223
215
239
222
214
239
222
214
238
221
213
236
219
211
233
216
208
229
211
204
223
204
197
215
196
189
203
184
178
186
168
161
167
150
143
149
132
125
129
113
106
99
84
77
78
63
56
71
57
50
72
57
50
76
61
54
88
73
66
98
83
76
90
76
68
88
74
66
92
76
68
93
76
69
98
82
74
106
90
82
112
96
88
115
100
92
117
101
93
119
102
94
121
101
94
120
101
94
119
100
93
118
99
92
119
99
92
118
98
90
118
99
89
119
100
92
119
100
93
119
100
92
118
99
90
118
99
87
116
97
84
113
93
80
111
91
79
109
89
78
109
89
79
110
90
82
115
95
88
121
101
94
124
104
98
123
105
99
122
104
98
119
102
95
116
99
92
114
97
90
114
96
89
115
95
89
114
97
89
115
98
90
115
98
90
115
98
90
114
97
90
114
97
90
114
97
90
114
97
89
115
98
90
115
99
91
116
101
92
117
103
94
120
106
97
124
109
101
131
115
108
140
124
117
153
137
130
166
151
144
176
161
154
183
168
163
187
172
169
189
174
171
189
174
171
187
173
170
184
173
169
182
171
166
181
170
163
181
169
161
182
171
161
184
172
162
186
172
162
185
171
161
184
170
160
182
168
159
181
167
158
180
166
157
180
166
157
177
163
154
169
156
147
230
213
206
238
221
214
240
222
215
239
222
215
240
221
214
238
220
212
236
219
211
232
215
207
226
209
201
219
202
194
210
193
186
199
180
174
185
165
159
169
151
144
152
134
128
128
111
105
90
75
68
69
56
48
67
55
47
71
56
49
81
66
59
94
79
72
90
76
69
84
69
62
86
71
64
83
67
60
82
67
60
86
71
64
94
78
71
100
85
77
104
89
82
105
91
83
108
92
84
110
93
85
111
93
86
110
93
85
110
93
86
113
94
86
113
94
86
112
96
87
114
97
89
115
98
90
117
100
92
118
101
93
120
101
91
119
100
89
117
97
86
114
94
84
113
93
83
114
94
86
115
96
88
119
99
92
122
103
96
124
105
98
123
104
98
120
103
97
118
101
93
115
98
91
114
97
90
113
97
89
114
96
88
113
97
88
113
97
88
114
97
89
113
97
89
112
95
87
111
94
87
111
95
87
110
95
86
110
96
87
111
97
88
112
98
89
113
99
91
116
102
93
121
105
96
128
111
104
137
120
113
150
134
127
165
150
143
176
161
155
183
168
164
187
172
169
189
174
171
189
174
170
187
173
170
184
173
168
182
171
164
182
170
162
183
168
161
185
170
162
186
172
162
186
172
160
186
172
160
184
170
159
183
169
160
182
168
159
181
167
158
179
165
156
177
163
154
169
156
147
229
212
206
238
221
214
240
221
215
241
221
215
241
220
215
239
218
213
235
215
209
229
212
204
223
206
198
215
198
190
205
188
181
195
177
170
184
163
158
169
149
144
149
130
125
122
103
97
82
67
60
67
52
45
67
54
46
76
61
54
90
75
68
91
76
69
82
67
60
83
68
61
81
66
59
78
63
56
78
63
56
80
65
58
83
68
60
87
73
65
89
75
67
91
77
68
93
79
70
96
80
72
98
83
74
99
84
75
101
85
77
101
85
76
101
85
76
102
86
78
105
88
80
107
90
82
110
94
86
114
97
89
117
99
91
118
99
90
118
98
89
116
96
88
116
96
87
116
96
89
117
98
90
119
101
94
121
103
96
122
104
97
121
103
96
118
101
94
115
98
91
113
96
89
112
95
87
110
94
86
110
94
86
110
95
86
110
95
86
109
93
85
108
93
85
107
91
84
106
90
83
106
90
83
105
90
83
106
91
83
106
94
85
108
94
85
109
95
87
112
98
89
117
101
93
124
107
100
133
116
108
145
128
121
161
145
138
174
159
152
183
168
163
187
172
168
188
173
168
188
173
169
187
172
169
184
171
167
182
169
164
182
168
162
183
168
161
186
171
163
187
173
163
188
174
161
187
173
160
185
171
159
184
170
159
182
168
157
181
167
156
180
166
157
177
163
154
169
155
147
230
213
207
238
221
214
241
222
216
241
220
215
239
218
213
237
216
210
231
211
205
224
206
199
218
200
193
209
191
184
201
183
176
193
174
168
183
162
158
168
147
142
148
127
122
117
98
93
76
60
54
65
50
43
72
57
50
86
71
64
92
77
70
83
68
61
82
67
60
81
66
59
78
63
56
77
62
55
77
62
55
78
64
56
79
64
56
81
67
58
79
65
56
81
66
58
83
68
60
85
71
62
86
72
64
88
74
65
88
73
65
85
72
63
84
71
62
86
73
64
90
74
66
93
78
70
98
81
73
103
87
79
109
93
85
112
96
88
114
96
88
114
95
88
113
95
87
113
95
88
114
96
89
115
99
91
116
99
91
116
99
91
115
98
91
112
96
88
108
92
84
107
91
83
104
89
82
103
89
81
103
90
81
103
90
81
102
90
81
101
88
80
100
87
79
100
86
78
99
84
77
99
84
77
100
85
78
101
86
79
101
89
81
104
91
82
106
92
84
110
96
87
114
98
90
120
104
96
128
111
104
139
122
115
156
139
132
170
155
148
180
165
161
185
170
166
187
172
167
187
172
168
186
172
168
184
170
166
183
168
165
182
167
163
182
168
159
185
171
161
188
173
162
189
174
161
188
174
161
186
172
159
184
170
157
183
169
156
181
167
155
180
166
156
177
163
153
169
155
146
228
212
205
238
220
214
239
220
214
238
218
212
236
216
209
232
212
205
227
207
200
219
199
193
212
191
186
204
184
178
198
177
172
191
171
167
183
163
160
170
150
145
149
129
124
115
95
90
69
53
47
66
51
45
79
64
58
93
78
72
86
71
65
82
67
60
81
66
59
79
64
57
77
62
55
77
62
55
79
64
57
79
64
57
79
64
57
78
64
55
77
63
54
77
62
55
79
64
57
81
66
59
81
66
59
79
65
57
76
62
55
72
61
53
71
61
52
72
61
52
77
63
55
80
65
58
85
70
62
89
75
66
97
82
74
101
87
78
103
89
80
103
88
80
102
88
79
103
89
80
105
90
81
105
91
82
106
92
83
105
90
82
103
88
80
100
85
78
97
83
75
94
83
74
93
82
74
92
82
73
93
83
74
94
83
74
94
82
74
93
81
73
93
82
74
94
81
73
94
80
73
94
80
73
94
80
73
95
81
73
98
84
75
100
86
77
102
88
79
106
92
83
110
96
87
116
101
92
124
108
99
135
119
111
150
134
126
166
151
145
178
163
159
184
169
166
187
172
169
186
173
169
185
173
169
183
171
167
181
168
164
180
166
161
180
166
158
184
169
158
187
171
159
188
173
160
187
173
160
186
173
159
185
171
156
183
169
155
182
168
155
181
167
154
178
164
151
170
156
144
226
210
202
235
216
210
235
215
210
233
212
207
231
210
205
226
206
199
220
200
193
212
191
186
207
186
181
202
181
176
198
177
172
192
172
167
184
165
161
172
151
147
147
126
121
105
86
81
68
52
45
73
57
50
91
76
69
93
78
71
84
69
62
83
68
61
80
65
58
78
63
56
78
63
56
79
64
57
80
65
58
78
64
57
77
63
55
76
61
54
76
61
53
77
62
55
78
63
56
79
64
57
76
61
54
72
57
50
70
56
49
66
55
47
65
55
46
64
55
46
69
57
48
71
58
50
75
61
54
80
65
57
84
69
62
88
73
65
88
76
67
88
76
67
87
75
66
89
77
68
90
78
69
90
78
69
91
78
69
91
79
70
89
77
69
87
75
67
85
74
66
84
74
65
83
74
65
83
74
65
84
74
65
85
75
68
85
75
69
86
76
69
88
78
69
89
77
69
90
77
69
90
77
70
91
79
70
93
80
72
96
82
74
98
84
75
101
87
78
104
90
81
108
94
85
113
99
90
120
105
97
131
116
107
145
129
122
162
147
141
177
162
157
183
168
165
187
172
169
186
173
170
184
173
169
182
171
166
179
167
162
177
164
158
178
164
156
182
168
157
185
170
157
188
172
159
188
172
159
187
173
158
185
172
156
184
170
156
182
168
154
181
167
154
178
164
151
170
157
145
222
205
197
230
210
205
229
208
204
226
205
200
222
201
196
217
196
191
211
190
185
206
185
180
203
183
178
201
181
176
198
178
173
193
174
168
183
166
159
167
147
141
136
116
110
88
69
64
73
55
48
86
70
63
97
82
75
89
74
67
87
72
65
84
69
62
80
65
58
79
64
57
79
64
57
80
65
58
80
65
58
79
65
58
79
64
57
78
63
56
78
63
56
78
63
56
77
62
55
75
60
53
74
59
52
71
56
48
69
55
47
65
54
46
63
53
44
63
53
44
65
55
46
67
55
47
70
55
48
72
59
51
75
62
54
77
63
56
76
66
58
77
67
59
76
66
58
76
66
58
77
67
59
77
67
59
77
67
59
78
68
60
78
69
61
77
68
60
76
67
59
77
67
58
77
68
59
78
69
60
79
70
62
80
71
65
81
72
66
83
73
67
85
75
66
86
76
67
86
76
67
87
78
69
88
78
69
90
80
71
95
81
73
97
83
75
100
85
77
102
89
80
105
91
82
111
97
88
117
103
94
127
113
104
140
126
118
158
143
136
173
158
154
181
166
163
186
171
167
186
173
169
185
173
168
182
170
166
177
167
160
175
164
156
176
162
154
180
166
155
184
169
157
188
172
159
188
173
159
187
172
158
185
172
156
184
170
156
182
168
155
181
167
154
178
164
151
170
157
144
216
197
191
223
203
198
221
200
195
217
196
191
213
192
187
210
189
184
206
185
180
202
181
176
200
181
175
199
181
174
195
178
171
190
172
166
177
160
153
155
135
130
121
102
97
81
64
57
82
65
59
98
82
76
97
82
75
92
77
70
89
75
68
85
70
63
82
67
60
81
66
59
81
66
59
81
66
59
81
66
59
81
66
59
80
65
58
79
64
57
79
64
57
77
62
55
75
60
53
74
59
52
73
59
51
72
57
49
70
56
48
66
55
47
64
54
45
64
54
45
65
55
46
67
54
46
68
54
47
68
57
48
69
59
50
69
59
51
70
61
55
70
60
55
69
60
54
70
61
55
70
61
55
70
61
55
71
62
57
72
63
58
73
64
58
73
64
59
73
64
57
73
64
56
74
65
59
74
65
59
76
67
61
77
68
60
79
70
62
80
71
63
82
73
64
83
74
65
85
75
66
86
77
68
88
78
69
90
79
71
94
79
72
96
81
74
98
83
76
101
86
78
104
89
81
109
95
86
115
101
92
125
111
102
137
123
114
153
138
131
170
155
149
180
165
159
185
170
164
187
172
166
187
172
167
185
170
167
179
166
162
174
162
157
173
162
153
178
165
153
182
168
155
185
171
158
186
172
159
186
173
159
185
172
156
184
170
155
181
167
154
181
167
154
178
165
152
170
157
144
208
189
183
214
194
188
213
192
187
209
188
183
205
184
179
202
181
176
200
179
174
198
177
172
196
176
171
194
175
169
190
172
167
180
163
157
163
146
139
138
119
113
106
88
82
86
69
62
97
80
73
106
90
83
101
86
79
98
83
76
93
78
71
87
72
65
85
70
63
83
68
61
82
67
60
81
66
59
81
66
59
82
67
60
81
66
59
80
65
58
78
63
56
75
60
53
74
59
52
73
58
51
73
58
50
71
56
48
69
55
47
67
55
47
67
55
47
67
57
48
66
57
48
67
56
48
68
56
47
66
56
47
67
58
50
67
57
51
66
57
52
66
56
52
66
56
51
67
57
50
67
57
51
68
59
52
69
60
53
69
60
55
70
61
56
69
60
55
71
62
56
71
62
56
72
63
58
73
64
59
74
65
60
76
67
61
79
69
61
81
71
62
82
72
63
83
74
65
86
76
67
86
77
68
88
76
68
91
78
71
94
80
73
96
81
74
98
83
76
100
85
77
104
89
81
108
94
85
115
101
92
123
109
100
134
120
112
150
135
128
169
154
147
179
164
157
185
170
163
187
172
165
187
172
166
186
171
166
180
167
161
176
162
157
174
161
154
177
164
154
182
168
156
184
170
158
186
172
159
186
172
159
186
172
157
184
170
157
182
168
155
181
167
154
178
165
152
171
158
145
201
181
176
207
186
181
205
184
179
202
181
176
199
178
173
197
176
171
196
175
170
194
173
168
191
170
165
187
167
162
180
162
159
164
146
142
142
125
119
122
105
98
98
82
75
89
72
65
108
91
84
111
95
89
109
94
87
104
89
82
97
82
75
91
76
68
87
72
65
86
71
63
85
70
63
83
68
61
82
68
60
82
67
60
80
66
58
79
64
57
77
62
55
76
61
54
74
59
52
72
57
50
72
57
50
71
56
49
71
56
49
70
56
48
69
56
48
67
57
48
66
57
48
67
57
48
66
56
47
66
56
47
66
57
49
66
57
50
66
56
51
66
55
50
67
56
51
67
57
48
67
58
49
67
58
50
68
59
50
69
60
53
69
60
55
70
61
56
70
61
56
71
62
57
72
63
58
72
63
58
74
64
59
75
65
60
77
67
60
80
70
61
82
72
63
82
72
63
85
75
66
87
76
68
90
77
69
93
78
71
94
79
73
96
81
74
97
83
76
100
85
78
102
87
79
107
93
84
113
99
90
122
108
99
133
119
111
148
133
126
166
151
144
177
162
155
184
169
162
187
172
165
187
172
165
186
171
164
181
166
158
177
162
155
176
161
154
177
162
154
181
167
156
183
169
156
185
171
157
185
171
158
184
170
157
183
169
156
182
168
155
181
167
154
178
164
152
170
157
145
196
176
171
202
181
176
200
179
174
197
176
171
194
173
168
192
172
167
191
171
166
190
169
164
186
166
160
180
159
154
167
148
143
147
129
123
129
112
105
114
97
90
94
77
70
102
85
78
119
102
95
121
105
98
118
102
95
111
96
89
103
87
79
97
80
72
91
76
68
89
74
66
87
72
65
85
70
63
84
70
62
82
68
60
81
67
58
80
66
58
78
63
56
76
61
54
75
60
53
73
58
52
72
57
51
71
56
49
71
56
49
72
57
50
70
57
49
69
59
50
68
59
50
69
59
50
68
58
50
67
57
48
66
57
48
67
57
49
67
57
49
67
56
48
67
57
49
67
57
48
66
57
49
67
58
49
67
58
50
69
60
51
70
61
53
70
61
56
70
61
56
70
61
56
71
62
57
72
62
57
73
63
58
76
66
58
78
68
59
80
70
61
81
71
62
82
72
63
85
74
65
88
75
67
90
76
68
92
78
69
94
79
72
96
81
74
98
83
76
99
84
77
101
87
79
105
91
82
111
98
89
119
105
96
130
116
107
146
132
124
163
148
140
175
160
153
182
167
160
186
171
164
187
172
165
186
171
164
182
167
159
178
164
156
176
162
153
176
162
151
180
166
154
184
168
155
186
170
156
186
171
156
185
171
156
184
170
156
182
168
155
182
168
155
179
165
152
171
157
145
192
172
167
198
178
173
196
175
170
193
172
167
188
169
163
185
166
160
183
165
158
181
162
156
178
158
152
171
150
145
156
137
132
138
119
113
123
106
99
109
92
85
97
79
73
116
98
92
130
113
106
132
116
109
128
112
105
120
104
97
109
92
85
101
84
76
95
79
71
92
76
68
90
75
67
86
72
63
85
71
62
83
69
60
81
67
58
79
65
57
78
63
56
76
62
55
75
61
54
74
60
53
73
58
51
72
57
50
72
57
50
71
56
50
71
57
50
70
58
50
70
58
50
69
58
49
69
58
49
68
58
49
67
57
48
67
57
48
67
57
48
67
57
50
67
57
51
67
58
51
68
58
51
68
59
52
69
60
53
69
60
53
69
60
54
70
61
56
70
60
54
70
61
54
72
62
55
73
62
56
74
62
56
77
64
56
78
66
58
79
68
59
81
70
61
83
72
63
85
75
66
88
76
68
90
77
69
92
78
70
94
79
72
96
81
74
97
82
75
99
85
77
101
87
79
105
91
82
111
97
88
119
105
96
129
115
106
144
129
120
160
145
137
171
157
149
180
165
158
185
170
163
187
172
165
185
170
163
182
168
160
180
165
157
177
163
154
176
162
152
179
165
153
184
168
155
185
169
155
185
170
155
184
171
155
184
170
156
183
169
156
181
167
154
179
165
152
170
157
145
189
169
164
195
174
169
193
172
167
190
170
165
185
168
161
180
163
156
175
158
151
170
153
146
166
147
141
159
139
133
147
126
121
133
114
108
113
96
89
94
77
70
106
88
82
131
112
107
142
125
118
144
127
120
139
122
115
127
110
103
116
99
91
107
90
82
100
83
75
96
79
71
93
76
68
87
73
65
85
71
62
84
70
61
82
68
59
81
67
59
79
64
57
78
63
56
77
62
55
75
61
53
75
60
53
74
59
52
74
59
52
73
58
51
73
58
51
71
57
50
71
57
49
71
57
49
71
57
50
69
59
50
69
59
50
69
59
50
68
58
50
68
59
52
68
59
53
68
59
53
68
59
53
69
60
54
69
60
55
70
61
55
71
61
56
72
61
56
71
60
53
71
61
52
73
62
53
75
62
54
77
62
55
79
64
57
80
66
58
82
67
59
83
68
61
84
72
63
84
74
65
86
75
66
89
75
68
92
77
70
94
79
72
97
82
74
98
83
76
100
86
77
102
88
79
105
91
82
111
97
88
119
105
96
129
115
106
144
128
119
158
143
135
170
156
148
179
164
157
184
169
162
186
171
164
186
171
164
184
169
162
180
165
158
177
163
154
176
162
153
179
165
155
182
167
155
184
168
154
184
169
154
183
170
154
183
169
156
182
168
155
182
168
155
179
165
152
171
157
145
187
167
162
192
171
166
191
171
165
188
170
163
184
167
160
179
162
155
174
156
149
169
152
145
163
146
139
154
136
130
139
121
115
116
99
92
90
73
66
95
78
71
122
105
98
146
128
122
155
135
129
155
136
130
148
130
123
135
118
110
124
105
98
115
95
88
107
90
82
100
84
76
94
80
71
90
76
67
88
74
65
86
72
63
83
69
61
81
67
59
81
66
59
79
65
57
78
64
55
77
63
54
75
60
53
75
60
53
74
59
52
74
59
52
72
59
51
71
60
51
70
59
50
69
59
50
68
58
49
69
59
50
69
60
51
69
59
50
68
58
49
69
60
51
69
59
51
68
58
50
69
60
52
70
61
52
70
61
52
70
61
52
70
61
52
71
61
53
71
61
53
72
61
53
75
61
54
76
61
54
79
64
57
80
66
57
81
67
59
83
69
61
84
69
62
84
70
63
86
72
64
88
74
67
90
75
68
92
77
70
93
78
71
95
81
73
98
84
75
99
85
76
102
88
79
107
92
83
113
97
88
121
106
97
130
116
107
142
127
119
157
142
134
170
155
148
179
164
157
184
169
162
186
171
164
186
171
164
185
170
163
181
166
159
178
163
156
177
162
154
179
165
156
181
166
157
183
168
156
183
169
155
183
169
156
182
168
155
181
167
154
181
167
154
179
165
152
171
158
146
182
162
157
189
169
163
188
168
162
185
167
160
181
164
157
178
161
154
173
154
148
165
148
141
157
140
133
143
126
119
117
101
94
87
70
63
88
71
64
112
94
88
141
124
117
159
141
135
165
146
140
163
144
138
156
137
131
144
125
118
132
113
105
122
102
95
112
95
87
104
89
80
99
85
76
94
80
71
91
77
68
89
75
66
85
71
63
84
69
61
83
68
60
80
66
58
79
65
56
78
63
55
76
61
54
76
61
54
75
60
53
76
61
54
73
60
52
70
60
51
69
60
51
70
60
51
69
59
50
69
59
50
69
59
50
69
59
50
69
59
50
70
60
51
69
60
51
69
59
51
71
61
52
71
61
52
70
61
52
69
60
51
70
60
51
70
60
51
72
61
52
74
61
53
76
61
54
77
62
55
79
64
57
80
66
57
80
66
58
81
67
59
84
69
62
86
71
64
88
73
66
89
74
67
91
76
69
92
77
70
94
80
71
95
81
73
96
82
73
99
85
76
103
87
79
107
91
83
114
97
89
122
107
98
131
116
107
143
128
119
156
141
134
170
155
147
178
163
156
183
168
161
185
170
163
186
171
164
184
169
162
181
166
159
179
164
157
177
163
155
178
164
155
181
167
157
182
168
156
183
169
156
183
169
156
182
168
155
181
167
154
181
167
154
179
165
152
171
158
145
176
157
152
183
162
157
183
162
157
180
159
154
174
156
149
169
150
144
162
142
136
153
135
128
139
122
115
115
98
91
88
71
64
86
69
62
101
83
77
134
114
109
159
140
134
171
154
147
174
157
150
172
153
147
165
145
139
154
135
128
141
122
115
129
110
103
119
102
94
111
95
87
105
91
82
100
86
77
96
82
73
93
79
70
88
74
66
86
72
63
84
70
62
82
68
60
80
66
58
80
65
58
78
63
56
76
61
54
76
61
54
76
61
54
73
61
53
72
61
53
71
61
52
70
60
51
70
60
51
68
58
50
67
59
50
69
60
51
71
61
52
70
60
51
71
61
52
71
61
52
71
61
52
71
61
52
71
61
52
71
61
52
72
62
53
72
62
53
74
61
53
76
61
54
77
62
55
78
63
56
79
64
57
81
66
58
81
67
59
81
66
59
82
67
60
84
69
62
86
71
64
88
73
66
89
74
67
91
76
69
92
78
69
95
81
72
97
83
74
100
86
77
105
89
80
109
92
84
115
98
90
123
106
98
133
116
108
145
129
121
157
142
134
169
155
146
178
163
156
183
168
161
185
170
163
185
170
163
184
169
162
180
165
158
177
162
155
176
161
153
178
164
155
180
166
157
181
167
155
182
168
155
182
168
155
181
167
154
180
166
153
179
165
152
178
164
151
170
157
145
166
149
142
173
153
148
172
151
146
167
146
141
159
139
133
151
132
125
142
124
117
131
114
107
110
94
86
86
69
62
85
68
61
95
77
70
121
101
95
154
134
129
173
154
148
180
163
156
182
165
158
179
162
155
172
154
147
163
145
137
150
133
125
138
121
113
129
112
104
120
104
96
114
97
89
106
92
83
101
87
78
97
83
74
93
79
70
90
76
67
88
74
65
85
71
62
83
68
60
80
65
59
79
64
57
76
61
54
76
61
54
74
59
52
71
59
51
70
59
50
70
60
51
71
61
52
69
59
50
70
60
52
70
61
52
71
61
52
70
60
51
71
61
52
71
61
53
71
61
52
70
60
51
70
60
51
70
60
51
71
61
52
72
62
53
73
62
53
74
61
53
76
61
54
77
63
54
79
64
56
78
64
56
80
65
58
81
66
59
82
67
60
82
67
60
84
69
62
87
72
65
88
73
66
90
75
68
90
75
68
93
79
70
95
80
71
98
81
73
101
85
76
105
88
80
110
93
85
116
99
91
125
108
100
135
119
110
146
131
123
159
144
136
171
156
149
178
163
156
183
168
161
186
171
164
186
171
164
183
168
161
181
166
159
177
162
154
175
161
152
177
163
154
180
166
156
181
167
155
182
168
155
181
167
154
181
167
154
180
166
153
179
165
152
178
164
151
171
157
145
157
141
133
164
143
137
160
139
133
153
132
127
146
126
119
136
118
111
127
110
102
113
96
88
92
75
67
89
72
64
96
78
71
115
97
89
148
128
121
171
150
145
182
162
156
186
167
161
186
168
161
185
167
160
180
162
154
171
154
146
161
144
136
149
132
124
138
121
113
130
114
106
123
107
99
116
100
92
109
94
85
103
89
80
98
84
75
94
80
71
90
76
67
88
72
64
85
70
62
81
66
58
79
64
57
78
63
56
76
61
54
75
60
53
73
59
52
71
60
51
71
61
52
70
60
51
70
60
51
69
59
50
70
60
51
69
60
51
70
61
52
70
60
51
70
60
51
71
61
52
71
61
52
70
60
51
71
60
51
72
62
53
73
63
54
75
64
55
76
63
55
76
61
54
77
62
54
78
63
55
80
65
57
80
65
58
81
66
59
81
66
59
83
68
61
84
69
62
85
70
63
88
73
66
89
74
67
90
75
68
92
78
69
96
80
72
99
82
74
102
85
77
106
89
81
111
94
86
118
101
93
127
110
102
136
121
113
147
133
125
161
146
138
172
157
150
179
164
157
183
168
161
185
170
163
185
170
163
182
167
160
180
166
158
176
162
153
175
161
152
176
162
153
179
165
156
181
167
155
181
167
154
181
167
154
179
165
152
179
165
152
178
164
151
177
163
150
170
157
144
149
133
125
154
135
128
150
130
123
143
123
117
134
117
109
125
108
100
107
91
83
93
76
68
92
75
67
99
82
74
116
96
89
145
125
118
169
149
142
181
161
155
188
167
162
191
170
165
191
171
165
190
170
164
186
166
159
179
161
154
169
152
144
159
142
134
149
132
124
140
123
115
132
115
107
124
108
100
117
102
93
110
96
87
104
90
81
99
85
76
94
80
71
91
74
66
87
70
62
84
67
59
80
66
59
77
62
55
75
60
53
75
60
53
75
60
53
73
59
52
72
61
52
71
61
52
71
60
51
71
61
52
71
60
51
71
61
52
72
62
53
72
62
53
72
62
53
71
61
52
72
62
53
72
61
52
74
61
52
74
62
53
73
63
54
73
63
54
75
63
55
77
62
55
78
63
56
78
63
55
80
65
58
80
65
58
79
65
58
81
66
59
82
67
60
84
69
62
85
70
63
86
71
64
88
73
66
90
76
68
94
80
71
97
81
73
101
84
76
104
87
79
108
91
83
114
97
89
121
104
96
129
113
105
140
124
116
151
136
129
163
148
141
174
159
152
180
165
158
184
169
162
185
170
163
185
170
163
183
168
161
180
166
158
176
162
153
175
161
152
176
162
153
179
165
155
180
166
154
180
166
153
181
167
154
180
166
153
180
166
153
178
164
151
177
163
150
171
157
144
139
121
114
144
124
117
140
120
113
132
113
106
118
100
93
100
84
76
93
76
68
91
75
67
98
82
73
115
98
90
143
123
116
167
147
140
181
161
154
187
167
160
191
171
164
193
173
166
193
173
166
193
173
166
190
170
163
184
166
159
177
160
152
167
150
142
158
141
133
148
131
123
140
124
115
132
117
108
125
110
101
118
104
95
111
97
88
103
89
80
99
84
76
95
78
70
91
74
66
87
70
62
82
67
60
79
64
57
77
62
55
76
62
53
76
62
53
76
62
54
75
60
53
75
60
53
75
61
54
75
62
54
75
61
54
74
60
53
74
60
52
72
60
52
71
61
52
72
62
53
74
62
53
74
60
53
75
60
53
74
62
54
74
64
55
74
64
55
75
62
54
77
62
55
77
62
55
79
64
57
79
64
57
79
64
57
79
64
57
80
65
58
80
65
58
82
67
60
86
71
64
88
73
67
90
76
68
93
79
70
94
80
71
98
83
74
100
86
77
105
90
81
111
96
87
115
101
92
122
107
99
132
116
108
143
126
118
155
139
131
166
151
143
175
160
153
180
165
158
184
169
162
186
171
164
185
170
163
183
168
161
180
165
158
177
163
154
175
161
152
176
162
152
177
163
152
179
165
153
181
167
154
181
167
154
181
167
154
179
165
152
179
165
152
177
163
150
170
157
144
