P3
# Created by GIMP version 3.0.2 PNM plug-in
228 300
255
144
171
178
144
171
178
145
173
179
146
175
181
145
174
180
140
171
176
140
171
176
140
171
176
139
170
175
139
170
175
138
169
174
138
169
174
137
168
173
136
167
172
136
167
172
136
167
172
136
167
172
136
167
172
135
166
171
135
166
171
134
167
173
137
167
172
142
168
172
158
180
180
177
195
194
188
202
200
200
213
210
206
219
215
209
222
217
209
221
217
209
221
215
208
219
213
205
216
210
204
215
209
203
214
208
203
214
207
204
215
207
206
218
209
207
219
209
207
219
209
207
219
209
207
218
210
206
217
209
208
219
211
209
220
212
209
220
212
209
220
212
208
219
211
206
217
209
206
217
209
206
217
209
207
218
210
208
219
211
209
220
212
210
221
213
210
220
212
211
221
213
208
220
212
148
156
148
157
160
155
197
205
197
206
216
205
204
215
185
144
152
97
111
118
77
194
203
187
205
218
209
206
217
209
208
219
211
209
220
212
167
177
169
180
190
182
210
220
212
207
217
209
207
217
209
206
217
209
206
218
210
207
220
211
207
220
211
206
219
210
206
219
210
209
220
212
208
219
211
207
218
210
207
218
210
207
218
210
207
219
210
203
215
205
138
147
139
113
120
113
136
141
135
136
141
135
192
197
191
211
216
210
206
211
205
203
208
202
201
205
203
197
202
201
193
199
197
186
194
191
179
188
185
173
183
181
165
175
174
158
168
168
152
162
163
146
156
157
141
151
153
138
148
150
136
146
148
135
145
147
117
127
129
146
156
159
158
170
173
156
171
171
164
179
175
169
180
175
138
145
141
142
148
144
185
191
187
194
200
196
202
208
204
209
215
210
213
218
212
218
220
215
222
224
219
229
231
226
240
242
237
240
245
239
229
234
228
218
223
217
210
215
209
201
206
200
194
199
193
185
190
185
178
183
179
170
175
171
161
166
165
152
161
160
148
161
159
146
161
158
148
160
158
150
159
158
150
160
159
150
160
159
150
160
159
152
162
161
154
164
163
156
165
161
154
165
159
154
165
159
155
166
158
156
168
159
161
166
160
161
166
160
161
166
160
161
166
160
161
166
160
161
166
160
161
166
160
161
166
160
161
166
160
161
166
160
159
168
159
158
168
159
158
168
159
157
169
159
157
169
159
157
169
159
157
169
159
157
169
159
157
169
159
157
169
159
157
169
159
157
169
159
157
169
159
158
170
160
158
170
160
157
170
160
157
170
160
157
170
160
157
170
160
157
170
160
157
170
160
158
170
160
158
170
160
157
169
159
157
169
159
157
169
157
157
169
156
157
169
156
157
169
156
157
169
156
157
169
156
157
169
156
157
169
156
157
169
156
157
169
156
157
169
157
157
169
159
157
169
159
158
170
160
158
170
160
158
170
160
158
170
160
159
171
161
159
171
161
159
171
161
159
171
161
159
171
161
159
171
161
160
170
161
160
170
161
160
170
161
161
171
162
161
171
162
160
172
162
161
173
163
162
174
164
162
175
166
162
175
166
163
176
167
165
178
169
166
179
170
169
179
171
171
181
172
172
182
173
180
190
179
188
198
187
144
171
178
144
171
178
145
173
179
146
175
181
145
174
180
141
170
176
141
170
176
140
170
176
140
169
175
140
169
175
138
169
174
138
169
174
137
168
173
136
167
172
136
167
172
137
166
172
137
166
172
136
166
172
136
165
171
136
165
171
135
166
171
136
166
171
141
166
170
149
171
172
162
181
181
173
190
189
185
201
199
192
207
204
200
215
211
206
218
214
209
220
215
208
219
213
205
216
210
204
215
209
203
214
208
202
213
206
203
214
206
205
217
208
206
218
208
206
218
208
207
218
209
207
218
210
206
217
209
206
217
209
207
218
210
207
218
210
206
217
209
205
216
208
206
217
209
206
217
209
206
217
209
206
217
209
207
218
210
207
218
210
207
218
210
207
218
210
208
219
211
208
220
212
151
159
152
154
157
152
194
201
194
205
215
204
200
212
179
135
145
87
116
123
85
201
210
195
205
218
209
206
217
209
207
218
210
208
219
211
168
178
170
180
189
181
209
219
211
206
216
208
206
215
208
206
216
208
205
217
209
206
218
210
207
218
210
207
218
210
207
218
210
208
219
211
207
218
210
206
217
209
206
217
209
206
217
209
206
218
208
203
215
205
139
148
140
111
118
111
135
140
134
134
139
133
191
195
190
211
216
210
209
214
208
208
213
207
207
212
208
204
209
206
200
206
203
195
202
198
188
197
193
182
193
189
175
186
183
167
178
176
161
171
170
155
165
165
149
159
160
143
153
154
138
148
150
135
145
146
115
125
126
143
152
156
150
161
164
148
163
163
154
169
167
161
172
169
133
141
137
138
144
140
174
180
176
184
191
187
193
199
195
202
207
203
207
212
206
211
215
210
217
219
214
224
226
222
236
239
233
238
243
237
227
232
226
217
222
216
209
214
208
200
205
199
194
199
193
185
190
185
177
182
178
169
174
170
160
166
164
152
161
160
148
161
159
146
161
158
148
160
158
150
159
158
150
160
159
150
160
159
150
160
159
152
162
161
154
164
163
155
166
161
154
165
159
154
165
159
155
166
158
156
167
159
161
166
160
161
166
160
161
166
160
161
166
160
161
166
160
161
166
160
161
166
160
161
166
160
161
166
160
161
166
160
159
168
159
158
168
159
158
168
159
157
169
159
157
169
159
157
169
159
157
169
159
157
169
159
157
169
159
157
169
159
157
169
159
157
169
159
157
169
159
158
170
160
158
170
160
158
170
160
158
171
161
158
171
161
158
171
161
158
171
161
158
170
160
158
170
160
158
170
160
157
169
159
157
169
159
157
169
158
157
169
157
157
169
157
157
169
157
157
169
157
157
169
157
157
169
157
157
169
157
157
169
157
157
169
157
157
169
158
157
169
159
157
169
159
158
170
160
158
170
160
158
170
160
158
170
160
159
171
161
159
171
161
159
171
161
159
171
161
159
171
161
159
171
161
160
170
161
160
170
161
160
170
161
161
171
162
161
171
162
160
172
162
161
173
163
162
174
164
162
175
166
162
175
166
163
176
167
165
178
169
166
179
170
169
179
171
171
181
172
172
182
173
181
191
180
191
201
190
143
170
177
145
172
179
145
173
179
145
174
180
145
174
180
141
170
176
141
170
176
140
169
175
140
169
175
140
169
175
138
169
174
138
169
174
137
168
173
136
167
172
136
167
172
136
166
172
137
166
172
136
165
171
136
165
171
136
165
171
135
164
170
136
164
170
139
164
168
140
163
166
147
168
170
158
177
178
169
188
188
178
196
195
189
205
202
198
212
207
205
216
211
207
218
212
205
216
210
205
216
210
203
214
208
201
212
206
202
213
207
204
215
207
205
216
207
205
217
207
206
218
209
207
218
210
206
217
209
205
216
208
206
217
209
206
217
209
205
216
208
204
215
207
206
217
209
206
217
209
206
217
209
206
217
209
206
217
209
206
217
209
206
217
209
206
217
209
207
218
210
208
220
211
155
163
156
150
153
148
192
199
192
204
214
203
195
207
172
130
140
81
122
128
93
204
213
200
205
217
208
205
217
209
206
217
209
208
218
210
169
179
171
178
185
178
211
218
211
207
214
207
206
213
206
205
213
206
205
215
207
206
216
208
207
217
209
207
217
209
207
217
209
207
217
209
206
217
209
205
216
208
205
216
208
205
216
208
205
217
208
202
214
204
141
150
142
111
117
111
133
138
132
134
139
133
189
194
188
209
214
208
207
212
206
208
213
207
209
214
210
208
214
210
206
212
208
202
210
205
196
205
200
192
201
196
185
195
191
178
188
184
170
180
178
164
174
172
158
168
168
152
162
163
147
157
158
138
148
149
115
125
126
141
151
153
143
155
156
141
156
156
145
159
159
152
162
162
129
138
136
131
140
135
165
174
169
173
182
177
181
190
185
191
199
194
198
205
200
202
207
203
209
214
210
218
222
218
229
233
229
234
239
233
223
228
222
215
220
214
209
214
208
200
205
199
193
198
192
185
190
185
176
181
177
168
173
169
160
165
163
152
161
160
148
160
158
147
161
158
149
160
158
150
160
159
150
160
159
151
161
160
151
161
160
153
163
162
154
164
163
154
166
161
154
165
159
155
166
160
156
167
159
157
167
159
161
166
160
161
166
160
161
166
160
161
166
160
161
166
160
161
166
160
161
166
160
161
166
160
161
166
160
161
166
160
159
168
159
158
168
159
158
168
159
157
169
159
157
169
159
157
169
159
157
169
159
157
169
159
157
169
159
157
169
159
157
169
159
157
169
159
157
169
159
158
170
160
159
171
161
160
172
162
160
172
162
160
172
162
159
171
161
159
171
161
159
171
161
159
171
161
159
171
161
158
170
160
157
169
159
157
169
158
157
169
157
157
169
157
157
169
157
157
169
157
157
169
157
157
169
157
157
169
157
157
169
157
157
169
157
157
169
158
157
169
159
157
169
159
158
170
160
158
170
160
158
170
160
158
170
160
159
171
161
159
171
161
159
171
161
159
171
161
159
171
161
159
171
161
160
170
161
160
170
161
160
170
161
161
171
162
161
171
162
160
172
162
161
173
163
162
174
164
162
175
166
162
175
166
164
177
168
165
178
169
166
179
170
169
179
171
171
181
172
173
183
174
182
192
181
194
204
193
143
170
177
145
172
179
145
173
179
144
173
179
146
175
181
141
168
175
141
168
175
141
168
175
141
168
175
141
168
175
138
169
174
138
169
174
137
168
173
136
167
172
136
167
172
137
165
171
137
164
171
137
164
171
137
164
171
137
164
171
136
164
170
137
163
168
138
163
168
139
163
168
143
164
169
143
165
169
152
173
176
164
184
183
175
192
190
186
201
197
196
208
203
203
214
208
204
215
209
203
214
208
202
213
207
201
212
206
202
213
207
204
215
208
204
215
207
205
216
208
206
218
209
206
217
209
205
216
208
205
216
208
205
216
208
205
216
208
204
215
207
204
215
207
205
216
208
205
216
208
205
216
208
206
217
209
206
217
209
206
217
209
206
217
209
206
217
209
206
217
209
206
218
210
160
168
160
147
150
145
192
199
192
203
213
203
187
200
161
128
137
76
128
134
101
205
213
201
204
217
208
205
216
208
206
217
209
207
218
210
171
181
173
175
182
175
211
218
211
206
213
206
205
211
205
204
210
204
206
213
206
207
214
207
208
215
208
208
215
208
208
215
208
206
216
208
206
216
208
206
216
208
206
216
208
206
216
208
206
218
208
200
212
202
143
152
144
111
118
111
133
138
132
134
139
133
189
194
188
210
215
209
208
213
207
208
213
207
209
214
208
209
215
209
209
216
209
206
214
207
202
212
204
199
209
202
194
203
197
187
196
191
181
190
185
174
183
179
166
176
174
160
170
169
154
164
164
146
156
155
120
130
129
143
153
154
141
153
154
135
151
151
140
154
155
144
154
156
126
134
134
126
135
130
158
167
162
163
172
167
172
181
176
181
190
185
187
196
191
191
200
195
199
206
202
209
215
211
221
226
222
230
235
229
221
226
220
211
216
210
208
213
207
199
204
198
192
197
191
184
189
184
177
182
178
168
173
169
159
164
163
152
161
160
147
160
157
147
162
159
149
161
159
151
160
159
151
161
160
152
162
161
153
163
162
153
163
162
154
165
163
152
166
160
153
166
159
156
167
161
158
168
160
160
167
160
161
166
160
161
166
160
161
166
160
161
166
160
161
166
160
161
166
160
161
166
160
161
166
160
161
166
160
161
166
160
159
168
160
159
169
160
158
169
159
157
169
159
157
169
159
157
169
159
157
169
159
157
169
159
158
170
160
158
170
160
158
170
160
158
170
160
158
170
160
159
171
161
160
172
162
161
171
162
161
171
162
161
171
162
160
170
161
160
170
161
160
171
162
160
172
162
160
172
162
159
171
161
158
170
160
157
169
159
157
169
159
157
169
159
157
169
159
157
169
159
157
169
159
157
169
159
157
169
159
158
170
160
158
170
160
158
170
160
158
170
160
158
170
160
159
171
161
159
171
161
159
171
161
159
171
161
159
171
161
159
171
161
159
171
161
159
171
161
159
171
161
159
171
161
160
170
161
160
170
161
160
170
161
161
171
162
161
171
162
160
172
162
161
173
163
162
174
164
163
176
167
163
176
167
164
177
168
165
178
169
167
180
171
169
179
171
171
181
172
174
184
175
183
193
182
195
205
194
143
170
177
145
172
179
145
173
179
144
173
179
146
175
181
141
168
175
141
168
175
141
168
175
141
168
175
141
168
175
139
169
174
138
169
174
137
168
173
136
167
172
136
167
172
137
165
171
137
164
171
137
164
171
137
164
171
137
164
171
137
164
169
138
163
168
138
163
168
139
162
168
139
162
168
137
161
166
140
164
168
147
168
169
160
177
177
174
189
186
185
196
191
193
204
198
196
207
201
199
210
204
201
211
206
201
212
207
202
213
208
204
215
209
204
215
209
205
216
208
206
217
209
206
217
209
205
216
208
204
215
207
204
215
207
204
215
207
204
215
207
204
215
207
204
215
207
204
215
207
204
215
207
205
216
208
205
216
208
205
216
208
205
216
208
205
215
207
205
216
208
205
217
209
162
171
163
144
148
143
189
197
191
203
214
203
180
192
152
122
131
69
134
139
110
207
216
205
204
217
208
205
216
208
206
216
208
208
218
210
174
183
175
175
180
174
211
216
210
206
211
205
205
210
204
204
209
203
205
212
205
206
213
206
207
214
207
208
215
208
208
215
208
207
215
208
207
215
208
207
215
208
207
215
208
207
215
208
206
217
207
202
214
204
145
154
146
112
119
112
134
139
133
134
139
133
189
194
188
210
215
209
208
213
207
208
213
207
209
215
208
210
216
210
211
218
211
209
217
210
207
217
209
207
216
208
202
210
202
195
204
196
192
199
194
185
192
188
177
187
184
169
179
178
162
172
170
153
163
161
125
135
133
148
158
159
146
157
159
136
151
152
137
151
153
139
148
153
122
131
131
121
131
126
146
156
150
154
164
159
162
173
167
170
180
175
174
185
181
181
191
187
187
196
193
200
207
204
213
218
215
222
227
221
216
221
215
205
210
204
203
208
202
197
202
196
192
197
191
184
189
184
177
182
178
168
173
169
159
164
163
152
161
160
147
160
157
147
162
159
149
161
159
151
160
159
151
161
160
152
162
161
153
163
162
153
163
162
154
165
163
151
166
160
153
166
159
156
166
161
158
168
160
160
167
160
161
166
160
161
166
160
161
166
160
161
166
160
161
166
160
161
166
160
161
166
160
161
166
160
161
166
160
161
166
160
160
169
161
160
170
161
159
169
160
157
169
159
157
169
159
157
169
159
157
169
159
157
169
159
159
171
161
159
171
161
160
172
162
160
172
162
160
172
162
159
171
161
160
172
162
161
171
162
161
171
162
161
171
162
160
170
161
160
170
161
160
171
162
160
172
162
160
172
162
159
171
161
158
170
160
157
169
159
157
169
159
157
169
159
157
169
159
157
169
159
157
169
159
158
170
160
158
170
160
159
171
161
159
171
161
159
171
161
159
171
161
159
171
161
159
171
161
159
171
161
159
171
161
159
171
161
159
171
161
159
171
161
159
171
161
159
171
161
160
172
162
160
172
162
160
171
161
160
170
161
160
170
161
161
171
162
161
171
162
160
172
162
161
173
163
162
174
164
163
176
167
163
176
167
164
177
168
165
178
169
167
180
171
169
179
171
171
181
172
174
184
175
184
194
183
196
206
195
141
166
173
147
172
179
145
173
179
145
174
180
144
175
180
141
170
176
141
170
176
140
168
175
140
167
174
141
168
175
139
168
174
139
168
174
138
167
173
137
166
172
137
166
172
137
164
171
137
164
171
137
164
171
137
164
171
137
164
171
138
164
169
139
164
169
139
164
169
137
164
169
135
162
166
135
161
166
136
160
164
137
160
162
145
166
165
156
176
174
168
183
182
181
192
192
190
200
199
196
205
202
201
208
204
203
210
207
204
212
209
206
216
212
205
216
210
204
217
210
205
217
209
205
216
208
205
216
208
203
214
206
203
214
206
203
214
206
203
214
206
202
213
205
204
215
207
203
214
206
202
213
205
203
214
206
205
216
208
205
216
208
205
216
208
204
215
207
204
215
207
205
216
208
168
178
171
137
146
139
187
198
191
200
213
199
180
188
145
121
126
66
137
144
117
203
214
204
205
213
206
206
214
207
208
215
208
206
213
206
178
185
178
173
178
172
212
217
211
205
210
204
203
208
202
202
207
201
205
210
204
206
211
205
207
212
206
207
213
207
208
214
207
209
214
208
209
214
208
209
214
208
209
214
208
209
214
208
208
215
208
206
213
206
148
155
148
113
120
113
133
140
133
134
141
134
185
192
185
207
216
208
205
215
207
205
215
207
206
216
208
207
217
209
208
218
210
208
218
210
209
219
211
209
218
212
205
214
209
202
210
205
196
204
199
190
199
194
185
195
190
178
188
183
172
182
177
162
173
167
126
137
132
157
169
166
153
165
164
142
155
155
139
151
152
137
148
150
119
129
129
117
127
125
139
149
147
146
156
155
153
164
164
160
170
169
166
176
173
171
182
178
178
188
183
189
200
194
202
211
206
213
219
215
206
212
207
201
207
201
197
204
197
193
200
194
189
195
191
184
190
186
176
182
178
168
174
170
161
168
164
151
163
161
148
160
158
149
161
159
149
161
159
150
162
160
151
162
160
152
163
162
153
164
163
153
165
163
153
165
163
154
166
160
155
166
160
158
167
159
160
167
160
161
166
159
161
166
160
161
166
160
161
166
160
161
166
160
161
166
160
161
166
160
161
166
160
161
166
160
161
166
160
162
168
161
160
170
162
159
170
162
159
170
162
158
169
161
158
169
161
158
170
160
158
170
160
158
170
160
158
170
160
158
170
160
160
170
161
160
170
161
160
170
161
161
171
162
161
171
162
161
171
162
161
171
162
161
171
162
161
171
162
161
171
162
160
170
161
160
170
161
160
170
161
159
169
160
159
169
160
159
170
161
159
171
161
159
171
161
159
171
161
159
171
161
159
171
161
159
171
161
159
171
161
159
171
161
159
171
161
159
171
161
158
171
161
159
171
161
159
171
161
160
170
161
160
170
161
159
171
161
159
171
161
160
172
162
160
172
162
160
172
162
161
171
162
161
171
162
160
170
161
160
170
161
160
170
161
161
171
162
161
171
162
162
172
163
163
173
164
163
174
164
163
175
167
164
177
168
165
178
169
166
179
170
166
179
170
169
179
170
171
181
172
175
185
174
184
194
183
196
207
194
140
165
172
147
172
179
145
173
179
145
174
180
144
175
180
141
170
176
141
170
176
140
168
175
140
167
174
141
168
175
139
168
174
139
168
174
138
167
173
137
166
172
137
166
172
137
164
171
137
164
171
137
164
171
137
164
171
137
164
171
138
164
170
139
164
169
140
165
170
142
167
172
141
167
170
140
164
169
138
161
167
136
158
163
138
159
163
145
165
168
154
170
172
166
180
180
176
188
188
185
195
193
192
200
198
197
205
202
201
210
207
205
216
212
204
215
209
203
216
209
204
216
209
205
216
208
205
216
208
203
214
206
203
214
206
203
214
206
203
214
206
201
212
204
202
213
205
201
212
204
200
211
203
201
212
204
203
214
206
204
215
207
204
215
207
204
215
207
204
215
207
205
216
208
172
182
174
134
144
136
185
196
189
198
213
198
178
185
142
119
123
64
143
150
123
203
214
204
205
213
206
207
214
207
207
215
208
206
214
206
180
187
180
172
177
171
211
216
210
205
210
204
203
208
202
202
207
201
204
209
203
205
210
204
206
211
205
206
211
205
207
212
206
208
213
207
208
213
207
208
213
207
209
214
208
209
214
208
208
215
208
206
213
206
148
155
148
113
120
113
133
140
133
134
141
134
185
192
185
206
216
208
205
215
207
205
215
207
205
216
208
207
217
209
208
218
210
208
218
210
209
219
211
211
220
214
209
218
213
205
214
209
202
211
206
196
205
200
192
201
196
186
195
190
181
190
185
170
179
174
133
142
137
165
176
173
160
172
170
150
162
161
145
157
157
140
151
152
119
130
130
115
125
124
135
145
144
140
150
150
146
156
157
150
160
161
156
166
165
161
172
169
168
179
175
179
190
186
191
201
196
204
210
207
198
204
200
193
199
194
191
198
191
189
196
189
186
192
188
181
187
183
174
180
176
167
173
169
160
167
164
151
163
161
148
160
158
149
161
159
149
161
159
150
162
160
151
163
161
152
164
162
153
165
163
153
165
163
153
165
162
155
166
160
155
166
160
158
167
159
160
167
160
161
166
159
161
166
160
161
166
160
161
166
160
161
166
160
161
166
160
161
166
160
161
166
160
161
166
160
161
166
160
162
168
161
160
170
162
159
170
162
159
170
162
159
170
162
159
170
162
159
171
161
159
171
161
159
171
161
159
171
161
159
171
161
160
170
161
160
170
161
160
170
161
161
171
162
161
171
162
161
171
162
161
171
162
161
171
162
161
171
162
161
171
162
160
170
161
160
170
161
160
170
161
160
170
161
160
170
161
160
171
161
159
171
161
159
171
161
159
171
161
159
171
161
159
171
161
159
171
161
159
171
161
159
171
161
159
171
161
159
171
161
158
171
161
159
171
161
159
171
161
160
170
161
160
170
161
159
171
161
159
171
161
160
172
162
160
172
162
160
172
162
161
171
162
161
171
162
160
170
161
160
170
161
160
170
161
161
171
162
161
171
162
162
172
163
163
173
164
163
173
164
163
175
167
164
177
168
165
178
169
166
179
170
166
179
170
169
179
170
171
181
172
176
186
175
186
196
185
198
209
196
139
164
171
147
172
179
145
173
179
144
173
179
144
175
180
142
171
177
141
169
176
141
169
175
139
166
173
142
169
176
140
168
175
140
168
174
139
167
174
138
166
173
137
166
172
137
165
172
137
164
171
137
164
171
137
164
171
137
164
171
138
164
171
138
163
169
141
166
170
146
171
174
150
172
174
148
170
174
140
162
168
136
156
163
134
154
162
135
156
164
140
159
164
150
166
170
161
176
178
172
185
185
181
193
192
189
200
197
196
207
203
203
214
210
202
214
208
202
215
208
204
215
208
205
216
208
205
216
208
203
214
206
203
214
206
203
214
206
202
213
205
201
212
204
200
211
203
200
211
203
199
210
202
199
210
202
201
212
204
203
214
206
203
214
206
203
214
206
203
214
206
204
215
207
175
186
178
132
142
134
185
196
189
198
212
198
174
181
139
116
121
62
147
154
127
202
214
203
202
212
204
205
215
207
205
215
207
204
214
206
180
190
182
170
175
169
210
215
209
205
210
204
203
208
202
202
207
201
203
208
202
204
209
203
204
209
203
205
210
204
206
211
205
207
212
206
207
212
206
208
213
207
208
213
207
208
213
207
208
215
208
205
212
205
149
156
149
112
119
112
132
139
132
134
141
134
184
190
184
206
216
208
205
215
207
205
215
207
206
216
208
207
217
209
208
218
210
208
218
210
209
219
211
211
221
213
210
220
212
208
218
210
206
216
208
201
211
203
197
206
200
193
202
197
190
199
194
177
186
181
138
147
142
173
184
180
168
180
177
159
170
169
154
166
165
148
159
160
122
133
132
115
125
123
134
144
143
136
146
146
139
149
150
142
152
153
147
157
158
152
162
162
159
169
167
169
180
177
181
190
187
194
200
198
189
195
193
185
191
187
185
191
186
184
191
186
182
188
184
177
183
179
172
178
174
166
172
168
159
166
163
151
162
160
148
160
158
148
160
158
149
161
159
150
162
160
151
163
161
152
164
162
153
165
163
153
165
163
154
166
163
155
166
161
156
167
160
159
167
159
160
167
160
161
166
159
161
166
160
161
166
160
161
166
160
161
166
160
161
166
160
161
166
160
161
166
160
161
166
160
162
167
161
162
167
161
160
170
162
159
170
162
159
170
162
160
171
163
160
171
163
159
171
162
159
171
161
159
171
161
160
172
162
160
172
162
160
170
161
160
170
161
160
170
161
161
171
162
161
171
162
161
171
162
161
171
162
161
171
162
161
171
162
161
171
162
161
171
162
160
170
161
160
170
161
161
171
162
161
171
162
160
171
161
159
171
161
159
171
161
159
171
161
159
171
161
159
171
161
159
171
161
159
171
161
159
171
161
159
171
161
159
171
161
158
171
161
159
171
161
159
171
161
160
170
161
160
170
161
159
171
161
159
171
161
160
171
162
160
172
162
161
171
162
161
171
162
161
171
162
161
171
162
160
170
161
161
171
162
161
171
162
161
171
162
162
172
163
163
173
164
163
174
165
163
175
167
164
177
168
165
178
169
166
179
170
166
179
170
169
179
170
171
181
172
177
187
176
188
198
187
199
210
197
136
161
168
146
171
178
145
173
179
143
172
178
144
175
180
143
172
178
140
169
175
141
170
176
138
165
172
142
169
176
142
169
176
141
168
175
140
167
174
139
166
173
138
165
172
138
165
172
138
165
172
138
165
172
137
164
171
137
164
171
137
164
171
136
162
168
142
166
170
151
173
175
159
180
179
160
180
180
150
170
173
140
161
166
134
156
163
130
152
163
132
154
160
137
157
162
147
166
169
155
172
174
165
181
181
175
190
188
187
201
196
195
208
204
198
211
204
200
212
206
203
214
207
204
215
207
204
215
207
202
213
205
202
213
205
202
213
205
202
213
205
201
212
204
200
211
203
200
211
203
200
211
203
200
211
203
201
212
204
202
213
205
203
214
206
202
213
205
202
213
205
204
215
207
178
189
181
130
140
132
184
196
188
197
211
197
172
179
136
114
119
60
150
156
130
201
213
202
201
211
203
205
215
207
203
213
205
204
214
206
182
192
184
167
172
166
210
215
209
205
210
204
203
208
202
202
207
201
203
208
202
203
208
202
203
208
202
204
209
203
206
211
205
207
212
206
207
212
206
207
212
206
207
212
206
207
212
206
208
215
208
205
212
205
152
158
152
111
118
111
131
138
131
135
142
135
182
188
182
207
216
208
205
215
207
205
216
208
206
216
208
207
217
209
208
218
210
208
218
210
209
219
211
210
220
212
210
220
211
209
219
210
207
217
209
204
214
206
202
210
204
200
207
203
197
204
199
186
193
188
143
149
145
182
191
187
177
188
184
169
179
177
163
173
172
156
166
165
124
134
133
117
127
126
139
149
148
139
149
148
138
148
149
139
149
150
141
151
153
144
154
155
150
160
161
160
170
170
170
179
178
183
189
189
180
186
184
177
183
181
178
184
180
178
184
180
175
181
177
172
178
174
168
174
170
164
170
166
158
165
162
150
161
159
148
160
158
148
160
158
149
161
159
150
162
160
152
164
162
152
164
162
153
165
163
154
166
164
155
167
164
155
166
161
157
167
161
159
167
160
160
167
160
161
166
159
161
166
160
161
166
160
161
166
160
161
166
160
161
166
160
161
166
160
161
166
160
161
166
160
162
167
161
162
167
161
160
170
162
159
170
162
159
170
162
159
170
162
159
170
162
159
171
161
159
171
161
159
171
161
159
171
161
159
171
161
160
170
161
160
170
161
160
170
161
161
171
162
161
171
162
161
171
162
161
171
162
161
171
162
161
171
162
161
171
162
161
171
162
161
171
162
161
171
162
160
170
161
160
170
161
159
171
161
159
171
161
159
171
161
159
171
161
159
171
161
159
171
161
159
171
161
159
171
161
159
171
161
159
171
161
159
171
161
158
171
161
159
171
161
159
171
161
160
170
161
160
170
161
160
170
161
160
170
161
161
171
162
161
171
162
161
171
162
161
171
162
161
171
162
161
171
162
161
171
162
161
171
162
161
171
162
161
171
162
162
172
163
163
173
164
164
174
165
163
175
167
164
177
168
165
178
169
166
179
170
166
179
170
169
179
170
171
181
172
178
188
177
188
198
187
200
210
198
134
158
165
146
171
178
145
173
180
143
172
178
144
175
180
143
172
178
140
169
175
141
170
176
138
165
172
142
169
176
144
170
177
143
169
176
142
168
175
140
166
173
139
165
172
138
165
172
138
165
172
138
165
172
137
164
171
137
164
171
137
164
172
136
162
168
143
166
171
156
176
178
168
187
186
171
191
187
165
185
182
151
172
172
140
164
168
132
156
163
128
152
158
128
151
156
134
155
160
142
162
165
152
170
172
161
178
176
171
188
182
180
195
190
191
204
197
197
208
202
201
212
205
203
214
206
203
214
206
202
213
205
202
213
205
202
213
205
202
213
205
201
212
204
200
211
203
200
211
203
200
211
203
200
211
203
201
212
204
201
212
204
202
212
205
201
212
204
202
213
205
204
215
207
182
192
184
128
138
130
183
194
187
195
209
194
169
176
133
112
116
57
155
161
135
200
212
201
202
212
204
203
214
206
201
211
203
202
213
205
183
193
185
165
171
165
209
214
208
204
209
203
203
208
202
202
207
201
203
208
202
203
208
202
203
208
202
203
208
202
204
209
203
206
211
205
206
211
205
207
212
206
207
212
206
207
212
206
207
214
207
206
213
206
154
161
154
111
118
111
131
138
131
135
142
135
182
189
182
207
216
208
205
215
207
205
216
208
206
216
208
207
217
209
208
218
210
208
218
210
209
219
211
210
220
211
210
220
211
209
219
210
208
218
209
207
217
208
208
215
209
206
212
208
203
209
205
192
198
194
149
155
151
189
199
195
186
197
193
178
189
185
172
182
181
163
173
172
129
139
137
120
131
129
145
155
154
144
154
154
141
151
152
139
149
151
138
147
151
139
149
151
142
152
153
151
161
162
160
169
170
172
178
178
170
177
176
169
176
173
170
177
174
171
177
173
168
174
170
165
171
167
162
168
164
160
166
162
156
164
161
150
161
159
148
160
158
148
160
158
149
161
159
150
162
160
152
164
162
152
164
162
153
165
163
154
166
164
155
167
164
155
166
161
157
168
161
159
168
160
160
167
160
161
166
159
161
166
160
161
166
160
161
166
160
161
166
160
161
166
160
161
166
160
161
166
160
161
166
160
162
167
161
162
167
161
160
170
162
159
170
162
159
170
162
159
170
162
159
170
162
159
171
161
159
171
161
159
171
161
159
171
161
159
171
161
160
170
161
160
170
161
160
170
161
161
171
162
161
171
162
161
171
162
161
171
162
161
171
162
161
171
162
161
171
162
161
171
162
161
171
162
161
171
162
160
170
161
160
170
161
159
171
161
159
171
161
159
171
161
159
171
161
159
171
161
159
171
161
159
171
161
159
171
161
159
171
161
159
171
161
159
171
161
158
171
161
159
171
161
159
171
161
160
170
161
160
170
161
161
169
161
161
169
161
162
170
162
162
170
162
162
171
162
161
171
162
161
171
162
161
171
162
161
171
162
161
171
162
161
171
162
161
171
162
162
172
163
163
173
164
164
174
165
163
175
167
164
177
168
165
178
169
166
179
170
166
179
170
169
179
170
171
181
172
179
189
178
189
199
188
201
212
199
134
154
159
149
173
177
145
174
178
142
173
177
144
175
181
141
173
178
138
169
174
140
169
175
140
167
174
143
169
176
146
169
175
144
168
174
142
167
173
140
167
171
139
167
171
140
166
171
140
165
170
139
164
169
138
163
168
138
163
168
136
164
168
135
161
167
141
164
169
159
179
181
174
192
189
182
197
194
178
194
191
167
183
182
154
172
174
142
161
165
132
154
159
128
151
156
126
150
154
129
152
155
135
158
160
145
164
165
158
174
174
168
183
180
179
194
188
189
204
195
198
210
202
200
211
205
201
212
206
203
214
206
202
213
205
200
212
204
200
213
204
200
213
204
198
211
202
198
211
202
199
211
203
201
212
204
201
212
204
200
211
203
200
211
203
200
211
203
201
211
203
203
212
204
184
191
184
128
135
128
186
192
188
198
208
191
165
173
120
113
116
61
160
161
143
204
209
203
199
210
202
203
214
206
199
210
202
200
211
203
185
196
188
163
169
163
208
213
207
204
209
203
203
208
202
203
208
202
203
208
202
203
208
202
203
208
202
203
208
202
203
208
202
204
209
203
205
210
204
206
211
205
206
211
205
206
211
205
207
212
206
205
210
204
158
163
157
112
117
111
131
136
130
136
142
135
178
184
177
209
216
209
205
214
207
206
216
208
205
216
208
205
217
208
205
216
208
206
217
209
207
217
209
209
217
210
210
217
210
210
217
210
209
216
209
209
216
209
208
216
209
207
216
208
206
215
208
194
203
196
152
160
153
195
206
199
194
205
200
183
194
188
181
191
186
173
183
178
131
140
135
125
136
131
153
163
159
150
161
159
145
157
157
142
153
154
141
150
152
138
148
149
137
147
149
144
154
156
150
160
163
159
169
171
159
170
170
157
168
168
160
171
169
161
172
170
160
171
169
158
170
168
156
169
166
153
167
164
151
164
161
149
159
158
149
159
158
149
159
158
150
161
159
151
161
160
154
164
163
154
165
161
153
164
161
154
165
161
155
166
161
155
166
158
155
166
158
156
168
159
158
168
159
158
168
159
159
169
161
160
168
161
161
168
161
163
168
162
164
167
162
162
168
162
162
169
162
162
169
162
162
169
162
162
169
162
161
171
162
161
171
162
160
171
162
160
170
161
160
170
161
160
170
161
160
170
161
160
170
161
160
170
161
160
170
161
161
171
162
161
171
162
161
171
162
161
171
162
161
171
162
162
172
163
162
172
163
162
172
163
161
171
162
161
171
162
161
171
162
161
171
162
161
171
162
161
171
162
161
171
162
160
170
161
160
170
161
160
170
161
160
170
161
160
170
161
160
171
161
161
171
162
161
171
162
160
170
161
160
170
161
159
171
161
159
171
161
159
171
161
160
170
161
160
170
161
160
170
161
161
171
162
161
171
162
161
171
162
161
171
162
161
171
162
161
171
162
161
171
162
162
172
163
162
172
163
162
172
163
163
173
164
163
173
164
163
174
164
163
175
165
163
175
165
164
175
167
166
177
169
166
177
169
166
178
169
168
179
171
169
179
171
172
182
173
180
190
180
190
200
190
202
212
200
132
150
154
149
172
176
144
174
178
142
173
177
144
175
181
142
174
179
139
170
175
141
170
176
139
166
173
142
168
175
146
169
175
144
168
174
142
167
172
140
167
171
139
167
171
141
166
171
140
165
170
139
164
169
138
163
168
138
163
168
136
164
168
134
161
166
141
163
169
161
180
183
178
195
192
190
204
200
189
203
200
179
194
193
168
183
184
155
172
174
143
161
165
134
154
159
127
149
153
125
148
151
126
150
152
133
152
155
146
161
163
155
171
170
166
181
177
176
191
184
187
200
194
195
206
201
200
211
205
201
212
205
201
212
204
201
212
204
200
212
203
200
212
203
199
211
202
199
210
202
199
210
202
200
211
203
200
211
203
200
211
203
200
211
203
200
211
203
201
211
203
203
212
204
186
192
186
128
134
128
183
189
185
196
206
189
162
171
116
113
115
61
163
164
147
205
209
204
199
210
202
204
215
207
199
210
202
200
211
203
185
196
188
162
168
161
207
212
206
204
209
203
203
208
202
203
208
202
203
208
202
203
208
202
203
208
202
203
208
202
203
208
202
204
209
203
205
210
204
206
211
205
205
210
204
205
210
204
207
212
206
205
210
204
158
163
157
112
117
111
131
136
130
136
141
135
176
182
176
208
215
208
205
214
207
206
216
208
205
216
208
204
217
208
205
216
208
206
217
209
207
217
209
208
216
209
209
216
209
209
216
209
208
215
208
208
215
208
208
215
208
208
215
208
208
215
208
198
205
198
155
162
155
201
211
204
202
213
207
190
201
195
188
197
192
181
190
185
135
144
138
131
141
134
162
173
168
160
171
168
155
167
165
150
161
161
145
155
156
141
151
152
139
149
150
141
151
153
144
155
157
153
164
166
153
165
165
152
164
164
155
167
165
157
169
167
156
168
166
155
168
165
152
167
164
150
165
162
148
163
160
149
159
158
149
159
158
149
159
158
150
160
159
151
161
160
154
164
163
154
165
161
153
164
160
154
165
160
155
166
160
155
166
158
155
166
158
156
168
159
157
169
159
157
169
159
158
169
161
159
169
161
161
169
161
163
168
162
163
168
162
162
169
162
162
169
162
162
169
162
162
169
162
162
169
162
161
171
162
161
171
162
161
171
162
160
170
161
160
170
161
160
170
161
160
170
161
160
170
161
160
170
161
160
170
161
161
171
162
161
171
162
161
171
162
161
171
162
161
171
162
162
172
163
162
172
163
162
172
163
161
171
162
161
171
162
161
171
162
161
171
162
161
171
162
161
171
162
161
171
162
160
170
161
160
170
161
160
170
161
160
170
161
160
170
161
160
170
161
161
171
162
161
171
162
160
170
161
160
170
161
160
170
161
159
171
161
159
171
161
160
170
161
160
170
161
160
170
161
161
171
162
161
171
162
161
171
162
161
171
162
161
171
162
161
171
162
161
171
162
162
172
163
162
172
163
162
172
163
163
173
164
163
173
164
163
174
165
163
175
165
163
175
165
164
175
167
166
177
169
166
177
169
166
177
169
168
179
171
169
179
171
172
182
174
180
190
181
192
202
191
203
213
202
128
147
151
148
171
175
144
174
178
141
172
177
144
174
181
143
175
180
139
170
175
140
169
175
138
166
173
141
167
174
146
169
175
144
168
174
142
167
172
140
167
171
139
167
171
140
166
171
140
165
170
139
164
169
138
163
168
138
163
168
136
163
168
135
161
167
141
162
169
157
176
179
177
193
190
194
207
202
198
210
206
191
204
202
181
194
194
170
183
184
158
173
176
146
163
166
136
154
158
129
149
153
125
146
151
125
144
148
131
148
151
141
157
158
153
168
167
163
178
175
174
187
184
185
197
193
194
205
200
197
209
203
199
211
204
200
212
204
200
211
203
200
211
203
199
210
202
199
210
202
199
210
202
199
210
202
199
210
202
200
211
203
200
211
203
200
211
203
201
211
203
203
212
204
188
195
188
128
134
127
181
187
183
195
205
188
161
169
115
110
112
59
164
165
149
204
208
203
199
210
201
203
214
206
199
210
202
199
210
202
186
196
188
161
166
160
207
212
206
203
208
202
203
208
202
202
207
201
202
207
201
203
208
202
203
208
202
203
208
202
203
208
202
204
209
203
205
210
204
205
210
204
204
209
203
204
209
203
206
211
205
205
210
204
159
163
158
112
117
111
131
136
130
136
141
135
175
181
175
208
215
208
205
214
207
205
215
207
205
216
208
205
216
208
206
216
208
207
217
209
208
217
209
208
216
208
208
215
208
208
215
208
206
213
206
206
213
206
208
214
207
209
214
208
209
214
208
201
206
200
159
164
158
207
215
208
208
219
212
197
208
200
194
204
197
187
197
189
139
149
141
137
146
139
171
180
175
169
179
176
165
175
173
160
170
169
155
164
164
151
160
161
146
155
156
144
153
155
144
154
156
148
160
161
148
160
160
148
160
159
150
162
160
152
164
162
153
165
163
151
165
162
149
164
161
148
163
160
147
162
159
149
159
158
149
159
158
149
159
158
151
161
160
152
162
161
154
164
163
154
165
161
153
164
160
154
165
160
155
166
160
155
166
158
156
167
159
156
168
159
157
169
159
157
169
159
158
169
161
158
169
161
160
169
161
162
169
162
163
168
162
162
169
162
162
169
162
162
169
162
162
169
162
162
169
162
161
171
162
161
171
162
161
171
162
160
170
161
160
170
161
160
170
161
160
170
161
160
170
161
160
170
161
160
170
161
161
171
162
161
171
162
161
171
162
161
171
162
161
171
162
162
172
163
162
172
163
162
172
163
161
171
162
161
171
162
161
171
162
161
171
162
161
171
162
161
171
162
161
171
162
161
171
162
160
170
161
160
170
161
160
170
161
160
170
161
160
170
161
161
171
162
161
171
162
160
170
161
160
170
161
160
171
161
159
171
161
159
171
161
160
170
161
160
170
161
160
170
161
161
171
162
161
171
162
161
171
162
161
171
162
161
171
162
161
171
162
161
171
162
162
172
163
162
172
163
162
172
163
163
173
164
163
173
164
163
174
164
163
175
165
163
175
165
164
175
167
166
177
169
166
177
169
166
177
169
168
178
170
169
179
171
173
183
174
181
191
182
193
203
192
204
214
203
125
144
148
147
170
174
144
174
178
141
172
177
143
173
180
144
176
181
140
170
175
141
170
176
140
168
174
140
166
173
145
169
175
144
168
174
142
167
172
140
167
171
139
167
171
140
165
170
139
164
169
138
163
168
138
163
168
138
163
168
136
163
167
137
162
168
141
162
169
157
174
177
177
192
190
193
206
200
200
213
206
198
209
205
192
203
202
184
194
195
175
185
187
162
174
176
150
164
167
136
153
158
126
145
151
124
144
148
125
143
147
131
149
152
140
155
157
150
166
168
162
175
175
174
186
183
183
195
191
192
205
199
196
209
202
199
211
203
200
210
202
201
211
203
200
210
202
200
210
202
199
210
202
199
210
202
199
210
202
199
210
202
199
210
202
199
210
202
201
211
203
203
212
204
191
198
191
127
133
127
179
185
181
196
206
189
159
168
113
107
109
56
161
161
145
203
207
201
199
208
200
203
213
205
199
209
201
198
208
200
188
197
190
160
165
159
208
213
207
202
207
201
201
206
200
200
205
199
200
205
199
201
206
200
202
207
201
202
207
201
202
207
201
203
208
202
205
210
204
205
210
204
205
210
204
205
210
204
206
211
205
206
211
205
159
164
158
112
117
111
131
136
130
137
142
136
174
180
173
208
215
208
205
214
206
204
214
206
205
215
207
205
216
208
206
216
208
207
216
208
208
215
208
208
215
208
208
215
208
208
215
208
205
212
205
205
212
205
207
212
206
209
212
206
209
212
207
202
205
200
162
165
159
209
216
209
210
221
213
200
211
202
200
210
202
192
202
194
142
151
143
142
149
142
177
185
179
175
184
180
172
182
179
168
178
176
163
172
171
158
167
166
153
161
163
151
159
161
149
159
160
150
161
163
146
158
158
145
157
156
146
158
156
148
160
158
149
161
159
148
161
159
146
161
158
145
161
158
146
161
158
149
159
158
149
159
158
150
160
159
151
161
160
152
162
161
154
164
163
154
165
161
153
164
160
154
165
160
155
166
160
155
166
158
156
167
159
157
169
159
157
169
159
157
169
159
157
170
161
158
169
161
159
169
161
162
169
162
162
169
162
162
169
162
162
169
162
162
169
162
162
169
162
162
169
162
161
171
162
161
171
162
161
171
162
161
171
162
161
171
162
161
171
162
161
171
162
161
171
162
161
171
162
161
171
162
162
172
163
162
172
163
162
172
163
162
172
163
162
172
163
162
172
163
162
172
163
162
172
163
162
172
163
162
172
163
161
171
162
161
171
162
161
171
162
161
171
162
161
171
162
161
171
162
161
171
162
161
171
162
160
170
161
160
170
161
160
170
161
161
171
162
161
171
162
161
171
162
161
171
162
161
171
162
160
172
162
160
172
162
160
170
161
160
170
161
160
170
161
161
171
162
161
171
162
161
171
162
161
171
162
161
171
162
161
171
162
161
171
162
162
172
163
162
172
163
162
172
163
163
173
164
163
173
164
162
174
164
163
175
165
164
176
166
164
175
167
164
175
167
165
176
168
166
177
169
167
178
170
168
178
170
173
183
174
182
192
183
193
203
192
205
215
204
122
140
144
146
169
173
144
174
177
141
172
177
143
173
180
144
176
181
140
170
175
142
171
177
141
169
175
138
164
171
144
167
173
143
167
172
141
166
171
140
167
171
139
167
171
140
165
170
139
164
169
138
163
168
138
163
168
138
163
168
137
162
167
137
162
168
142
161
168
156
172
176
177
191
188
192
205
197
200
212
204
200
211
205
199
208
206
196
204
203
189
196
197
175
184
186
163
175
178
150
165
171
135
153
159
128
147
153
123
141
148
125
143
148
128
145
150
137
152
158
146
160
162
160
172
170
171
183
180
181
193
189
187
199
194
194
206
198
199
209
201
200
210
202
200
210
202
200
210
202
200
210
202
199
210
202
199
210
202
199
210
202
199
210
202
199
210
202
200
210
202
201
210
203
193
200
193
128
134
128
177
184
179
196
206
188
156
165
110
106
108
55
155
156
140
201
205
199
200
208
201
204
212
205
200
208
201
199
207
200
189
197
190
158
163
157
206
211
205
201
206
200
200
205
199
199
204
198
199
204
198
200
205
199
201
206
200
201
206
200
201
206
200
203
208
202
205
210
204
205
210
204
205
210
204
205
210
204
206
211
205
206
211
205
160
165
159
113
118
112
132
137
131
136
141
135
173
179
173
207
214
207
204
213
205
203
213
205
204
214
206
205
215
207
205
214
207
207
214
207
207
214
207
208
215
208
208
215
208
208
215
208
205
212
205
205
212
205
208
211
205
209
210
205
210
211
206
204
205
200
163
164
159
210
217
209
212
223
214
203
215
205
204
214
205
196
206
197
146
155
146
146
153
145
184
191
184
182
191
186
181
190
186
179
187
184
173
181
179
168
175
175
163
171
171
161
168
170
158
166
168
154
165
167
146
158
158
143
155
155
145
157
155
146
158
156
146
158
156
145
158
156
145
160
157
144
160
157
145
160
157
149
159
158
149
159
158
150
160
159
151
161
160
152
162
161
154
164
163
154
165
161
153
164
160
154
165
160
155
166
160
155
166
158
156
167
159
157
169
159
157
169
159
157
169
159
157
170
161
157
170
161
159
169
161
160
170
162
162
169
162
162
169
162
162
169
162
162
169
162
162
169
162
162
169
162
161
171
162
161
171
162
161
171
162
161
171
162
161
171
162
161
171
162
161
171
162
161
171
162
161
171
162
161
171
162
162
172
163
162
172
163
162
172
163
162
172
163
162
172
163
162
172
163
162
172
163
162
172
163
162
172
163
162
172
163
161
171
162
161
171
162
161
171
162
161
171
162
161
171
162
161
171
162
161
171
162
161
171
162
160
170
161
160
170
161
160
170
161
161
171
162
161
171
162
161
171
162
161
171
162
161
171
162
160
172
162
160
172
162
160
170
161
160
170
161
160
170
161
161
171
162
161
171
162
161
171
162
161
171
162
161
171
162
161
171
162
161
171
162
162
172
163
162
172
163
162
172
163
163
173
164
163
173
164
162
174
164
163
175
165
164
176
166
164
175
167
164
175
167
165
176
168
166
177
169
167
178
170
169
179
171
174
184
176
183
193
184
194
204
194
206
216
205
123
135
140
148
167
174
145
172
179
143
172
179
143
173
178
146
175
181
140
170
175
140
171
176
141
170
176
139
164
171
142
168
173
141
168
172
140
167
171
139
167
171
139
167
171
140
165
171
139
164
171
138
163
170
138
163
170
138
163
170
138
162
168
139
161
169
143
161
169
156
172
176
172
188
185
188
202
196
199
211
204
203
211
206
202
208
204
199
208
204
195
205
203
186
196
196
176
186
186
166
177
179
152
163
165
140
153
156
128
143
147
125
142
145
123
141
146
125
144
148
131
148
151
144
158
159
155
169
169
165
177
176
175
187
184
185
196
192
194
204
198
199
209
202
199
209
200
200
209
199
200
209
200
199
210
202
200
211
203
200
211
203
199
210
202
198
209
201
200
209
202
201
210
203
193
202
194
133
136
131
176
183
177
195
206
184
153
161
106
107
109
62
157
158
141
201
205
197
201
206
200
207
212
206
201
206
200
200
206
199
193
198
192
156
161
155
204
209
203
203
208
202
200
205
199
199
204
198
200
205
199
200
205
199
200
205
199
201
206
200
201
206
200
203
208
202
204
209
203
205
210
204
205
210
204
205
210
204
204
209
203
205
210
204
163
168
162
115
120
114
130
135
129
139
144
138
169
175
169
209
214
208
206
211
205
206
211
205
206
212
205
206
212
205
206
212
205
207
212
206
207
212
206
206
213
206
206
213
206
206
213
206
205
211
205
206
211
205
208
211
205
209
211
206
209
211
206
202
204
199
160
164
159
211
217
210
214
221
214
208
213
207
209
213
207
204
208
202
149
153
147
148
154
147
192
199
192
190
197
190
189
196
189
187
194
188
182
189
183
177
183
179
171
179
175
168
177
174
166
175
174
165
174
175
153
162
163
146
156
156
146
156
156
145
157
156
144
158
156
143
157
155
144
159
156
145
160
157
145
160
157
149
159
158
149
159
158
149
159
158
150
160
159
152
162
161
154
164
163
154
165
161
154
165
160
154
165
158
154
165
158
156
167
159
156
167
159
157
168
160
158
169
161
158
169
161
157
170
161
158
169
161
159
169
161
162
170
162
163
170
163
164
169
163
164
169
163
163
169
162
163
168
162
163
168
162
161
171
162
161
171
162
161
171
162
161
171
162
161
171
162
161
171
162
161
171
162
161
171
162
161
171
162
161
171
162
162
172
163
162
172
163
162
172
163
162
172
163
162
172
163
162
172
163
162
172
163
162
172
163
162
172
163
162
172
163
162
172
163
162
172
163
162
172
163
161
171
162
161
171
162
161
171
162
161
171
162
161
171
162
161
171
162
161
171
162
161
171
162
161
171
162
161
171
162
161
171
162
161
171
162
161
171
162
161
171
162
161
171
162
161
171
162
161
171
162
161
171
162
161
171
162
161
171
162
161
171
162
161
171
162
161
171
162
161
171
162
161
171
162
162
172
163
162
172
163
162
172
163
163
173
164
163
173
164
163
175
165
164
176
166
164
176
166
164
175
167
164
175
167
165
176
168
166
177
169
167
178
170
169
179
171
175
185
176
185
195
186
195
205
194
207
217
206
121
133
138
145
164
170
145
171
179
143
172
180
143
172
177
147
174
181
140
170
175
140
171
176
142
171
176
139
164
171
142
169
173
140
168
172
139
167
171
139
167
171
139
167
171
140
165
172
139
164
171
138
163
170
138
163
170
138
163
170
137
162
168
138
161
168
141
160
168
154
172
175
170
186
183
185
201
194
198
209
203
203
210
206
202
208
204
199
208
203
198
209
205
195
205
203
188
198
197
178
188
188
165
175
176
153
165
166
139
154
156
132
148
150
123
141
145
121
140
144
121
139
143
130
145
148
142
156
157
150
163
163
162
174
172
173
184
181
183
194
190
191
201
195
197
207
199
199
209
200
200
210
201
199
210
202
200
211
203
200
211
203
199
210
202
198
209
201
200
209
202
201
210
203
195
204
196
134
137
132
174
181
174
193
204
180
151
159
105
109
110
66
159
160
142
202
205
198
201
206
200
207
212
206
200
205
199
200
205
199
194
199
193
155
160
154
203
208
202
201
206
200
199
204
198
198
203
197
199
204
198
199
204
198
199
204
198
200
205
199
200
205
199
202
207
201
203
208
202
204
209
203
204
209
203
204
209
203
204
209
203
205
210
204
163
168
162
115
120
114
129
134
128
139
144
138
168
173
167
209
214
208
206
211
205
206
211
205
206
211
205
206
211
205
206
211
205
206
211
205
206
211
205
206
212
206
206
213
206
206
213
206
206
211
205
206
211
205
209
211
206
209
211
206
209
211
206
201
204
199
160
165
159
211
216
210
214
219
213
208
211
206
210
212
207
206
208
203
150
153
147
150
157
150
197
204
197
196
203
196
195
202
195
194
200
194
190
196
190
184
191
185
181
187
183
177
185
181
175
183
181
174
183
182
161
170
169
153
162
161
151
161
160
148
159
158
145
160
157
144
159
156
145
160
157
145
160
157
146
160
157
149
159
158
149
159
158
149
159
158
150
160
159
152
162
161
154
164
163
154
165
161
154
165
160
154
165
157
154
165
157
156
167
159
156
167
159
157
168
160
158
169
161
158
169
161
157
170
161
158
169
161
159
169
161
162
170
163
164
171
164
163
170
163
163
170
163
163
169
163
163
169
163
163
169
163
161
171
162
161
171
162
161
171
162
161
171
162
161
171
162
161
171
162
161
171
162
161
171
162
162
172
163
162
172
163
162
172
163
162
172
163
162
172
163
162
172
163
162
172
163
162
172
163
162
172
163
162
172
163
162
172
163
162
172
163
162
172
163
162
172
163
162
172
163
161
171
162
161
171
162
161
171
162
161
171
162
161
171
162
161
171
162
161
171
162
161
171
162
161
171
162
161
171
162
161
171
162
161
171
162
161
171
162
161
171
162
161
171
162
161
171
162
161
171
162
161
171
162
161
171
162
161
171
162
161
171
162
161
171
162
161
171
162
161
171
162
161
171
162
162
172
163
162
172
163
162
172
163
163
173
164
163
173
164
164
175
165
164
176
166
164
176
166
163
174
166
165
176
168
165
176
168
166
177
169
167
178
170
169
179
171
176
186
177
186
196
187
196
206
195
208
218
207
119
132
136
142
161
167
145
171
179
144
171
180
144
171
177
147
174
181
141
170
176
140
171
176
142
171
176
140
164
171
141
168
173
140
168
172
140
168
172
139
167
171
139
167
171
140
165
172
139
164
171
138
163
170
138
163
170
138
163
170
137
162
167
137
161
167
139
160
167
152
171
174
169
186
182
185
200
194
197
209
203
202
209
205
202
208
204
200
209
204
199
210
205
198
209
205
195
206
203
190
200
199
178
188
188
167
178
179
152
165
167
141
156
157
131
148
150
124
142
145
121
139
143
125
140
145
128
143
146
137
151
152
147
161
161
160
172
171
171
183
181
181
192
188
188
199
193
194
204
197
198
208
200
198
209
201
199
210
202
200
211
203
199
210
202
198
210
201
200
209
202
201
210
202
196
205
198
136
139
133
172
179
172
192
203
178
152
159
109
112
111
70
162
162
143
204
206
199
200
206
199
206
211
205
201
206
200
200
205
199
194
199
193
155
160
154
203
208
202
199
204
198
198
203
197
197
202
196
198
203
197
198
203
197
199
204
198
199
204
198
199
204
198
201
206
200
202
207
201
203
208
202
203
208
202
203
208
202
204
209
203
204
209
203
164
169
163
115
120
114
129
134
128
139
144
138
166
171
165
208
213
207
206
211
205
206
211
205
206
211
205
206
211
205
206
211
205
205
210
204
205
210
204
206
212
205
206
212
206
206
212
206
206
211
205
208
211
205
209
211
206
209
211
206
209
211
206
201
204
199
159
164
158
211
216
210
213
218
212
207
210
205
210
212
207
206
207
203
150
153
147
152
158
152
201
208
201
203
209
202
202
209
202
202
207
200
198
203
196
192
198
191
189
195
189
187
193
189
184
192
188
184
190
189
170
177
176
161
169
168
157
166
164
152
163
161
146
161
158
144
159
156
145
160
157
145
160
157
146
160
157
149
159
158
149
159
158
149
159
158
151
161
160
152
162
161
154
164
163
154
165
161
154
165
160
154
165
157
154
165
157
156
167
159
156
167
159
157
168
160
158
169
161
158
169
161
157
170
161
158
170
161
159
170
162
162
170
163
163
170
163
163
170
163
163
170
163
163
170
163
164
171
164
164
171
164
161
171
162
161
171
162
161
171
162
161
171
162
161
171
162
161
171
162
161
171
162
161
171
162
163
173
164
163
173
164
162
172
163
162
172
163
162
172
163
162
172
163
162
172
163
162
172
163
162
172
163
162
172
163
162
172
163
162
172
163
162
172
163
162
172
163
162
172
163
161
171
162
161
171
162
161
171
162
161
171
162
161
171
162
161
171
162
161
171
162
161
171
162
161
171
162
161
171
162
161
171
162
161
171
162
161
171
162
161
171
162
161
171
162
161
171
162
161
171
162
161
171
162
161
171
162
161
171
162
161
171
162
161
171
162
161
171
162
161
171
162
161
171
162
162
172
163
162
172
163
162
172
163
163
173
164
163
173
164
163
175
165
164
176
166
164
176
166
163
174
167
165
176
168
165
176
168
166
177
169
167
178
170
170
180
172
177
187
178
187
197
188
197
207
196
209
219
208
118
134
137
140
160
166
146
171
179
144
171
180
146
171
177
147
174
181
142
172
178
140
171
176
142
171
177
141
165
172
140
167
172
140
168
172
140
168
172
140
168
172
139
167
171
139
165
171
139
164
171
138
163
170
138
163
170
137
162
169
136
162
167
136
160
166
137
159
165
150
170
172
167
186
182
185
201
194
198
209
203
202
209
204
201
207
203
201
210
205
201
212
206
200
211
206
199
210
206
196
207
204
190
200
199
178
189
189
166
177
179
154
168
169
143
159
160
131
149
151
123
141
146
122
139
145
123
138
143
127
142
145
134
148
150
146
159
159
157
169
168
168
179
177
178
189
185
186
197
191
193
204
197
195
206
198
198
209
201
199
210
202
199
210
202
199
210
202
200
210
202
201
210
202
196
205
198
140
142
137
173
179
171
200
210
184
168
173
127
122
120
82
169
167
148
206
207
201
201
206
200
206
211
205
203
208
202
201
206
200
196
201
195
156
161
155
202
207
201
199
204
198
198
203
197
197
202
196
199
204
198
199
204
198
199
204
198
199
204
198
199
204
198
200
205
199
201
206
200
202
207
201
203
208
202
203
208
202
203
208
202
203
208
202
166
171
165
114
119
113
128
133
127
139
144
139
164
169
163
207
212
206
205
210
204
205
210
204
206
211
205
206
211
205
206
211
205
205
210
204
205
210
204
205
211
205
206
211
205
206
211
205
208
210
205
209
211
206
210
211
206
209
211
206
209
211
206
201
204
198
158
163
157
210
215
209
213
218
212
208
211
205
210
212
207
205
207
202
149
151
146
152
157
151
202
207
201
205
210
204
206
211
205
207
211
205
204
208
201
198
203
196
196
201
195
194
200
194
194
200
196
194
199
197
179
185
183
168
175
173
163
172
169
158
168
165
151
166
163
146
161
158
145
160
157
146
161
158
146
160
158
149
159
158
149
159
158
150
160
159
151
161
160
153
163
162
153
163
163
155
165
162
155
166
161
155
166
158
155
166
158
155
166
158
156
167
159
158
169
161
158
169
161
158
169
161
158
171
162
159
170
162
160
170
162
163
170
163
163
170
163
162
171
163
162
171
163
162
171
163
162
171
163
162
171
163
161
171
162
161
171
162
161
171
162
161
171
162
161
171
162
161
171
162
161
171
162
161
171
162
162
172
163
162
172
163
162
172
163
162
172
163
162
172
163
161
171
162
161
171
162
162
172
163
162
172
163
162
172
163
161
171
162
161
171
162
161
171
162
161
171
162
161
171
162
161
171
162
161
171
162
161
171
162
161
171
162
161
171
162
161
171
162
161
171
162
161
171
162
161
171
162
161
171
162
161
171
162
161
171
162
161
171
162
161
171
162
161
171
162
161
171
162
161
171
162
161
171
162
161
171
162
161
171
162
161
171
162
161
171
162
161
171
162
162
172
163
162
172
163
162
172
163
162
172
163
162
172
163
163
173
164
163
173
164
163
174
165
163
175
165
163
175
165
164
174
167
165
176
168
165
176
168
166
177
169
167
178
170
169
179
171
177
187
178
188
198
189
199
209
198
209
219
208
120
136
140
137
158
164
145
171
179
144
171
180
146
171
177
148
174
181
143
172
178
140
171
176
142
171
177
141
165
172
140
167
172
140
168
172
140
168
172
139
167
171
137
165
169
139
165
171
139
164
171
138
163
170
138
163
170
137
162
169
134
161
166
133
160
165
135
158
164
149
169
171
166
184
181
184
200
194
198
209
203
202
209
204
201
207
203
201
210
205
201
212
206
200
211
205
199
210
205
199
210
206
197
207
205
190
201
200
179
190
191
167
180
181
156
172
172
145
162
163
134
152
156
127
144
151
122
139
145
122
137
141
123
138
141
131
145
147
141
154
155
152
164
163
163
175
172
174
185
180
184
195
188
191
202
194
196
207
199
199
210
202
199
210
202
199
210
202
200
210
202
201
210
202
197
206
198
141
144
138
173
180
171
198
207
181
161
164
121
125
121
86
166
164
145
206
208
202
202
207
201
207
212
206
204
209
203
202
207
201
197
202
196
157
162
156
203
208
202
200
205
199
198
203
197
197
202
196
198
203
197
198
203
197
198
203
197
199
204
198
199
204
198
200
205
199
201
206
200
202
207
201
203
208
202
203
208
202
203
208
202
203
208
202
166
171
165
114
119
113
128
133
127
139
144
138
164
169
163
207
212
206
205
210
204
205
210
204
206
211
205
206
211
205
206
211
205
205
210
204
205
210
204
206
211
205
206
211
205
208
210
205
207
209
204
209
210
205
210
211
206
209
211
206
209
211
206
201
204
198
158
163
157
210
215
209
213
218
212
208
211
205
210
212
207
205
207
202
150
152
147
153
158
152
203
208
202
207
212
206
208
213
207
210
214
208
209
212
205
207
210
203
203
208
201
202
207
201
201
206
201
200
205
204
185
191
189
176
182
180
171
178
176
164
175
172
157
171
168
152
167
164
148
163
159
147
162
159
147
161
159
149
159
158
149
159
158
150
160
159
151
161
160
153
163
162
153
164
162
155
165
162
155
166
161
155
166
158
155
166
158
155
166
158
156
167
159
158
169
161
158
169
161
158
169
161
158
171
162
159
170
162
160
170
162
163
170
163
163
170
163
161
171
163
161
171
163
161
171
163
161
171
163
161
171
163
161
171
162
161
171
162
161
171
162
161
171
162
161
171
162
161
171
162
161
171
162
161
171
162
162
172
163
162
172
163
162
172
163
162
172
163
162
172
163
161
171
162
161
171
162
162
172
163
162
172
163
162
172
163
161
171
162
161
171
162
161
171
162
161
171
162
161
171
162
161
171
162
161
171
162
161
171
162
161
171
162
161
171
162
161
171
162
161
171
162
161
171
162
161
171
162
161
171
162
161
171
162
161
171
162
161
171
162
161
171
162
161
171
162
161
171
162
161
171
162
161
171
162
161
171
162
161
171
162
161
171
162
161
171
162
161
171
162
162
172
163
162
172
163
162
172
163
162
172
163
162
172
163
163
173
164
163
173
164
163
174
165
163
175
165
163
175
165
164
174
167
165
176
168
165
176
168
166
177
169
167
178
170
171
181
173
178
188
179
189
199
190
201
211
200
211
220
209
125
137
141
132
157
159
143
171
176
145
171
178
147
170
178
148
174
181
145
171
178
144
170
177
143
169
176
141
166
173
139
166
171
139
167
171
140
168
172
138
166
170
137
165
169
139
164
171
140
163
171
140
163
171
139
163
171
137
161
168
133
160
166
132
160
165
135
159
163
148
167
168
168
181
181
184
195
192
198
208
204
201
209
206
200
209
204
200
209
204
200
210
205
200
211
205
201
212
206
201
211
206
200
209
204
196
205
201
189
198
195
181
192
190
169
182
179
157
172
170
148
162
163
139
153
156
128
143
147
123
138
142
121
136
140
124
139
143
130
144
148
140
153
156
150
163
164
160
173
172
171
183
181
182
193
189
190
201
196
197
209
203
198
211
203
198
211
204
198
210
202
200
210
202
196
208
198
138
148
134
170
178
165
211
219
190
170
169
129
127
119
85
154
149
126
205
205
196
201
207
200
207
213
207
202
209
202
201
207
201
198
204
197
158
163
157
203
208
202
201
206
200
199
204
198
198
203
197
198
203
197
198
203
197
198
203
197
198
203
197
198
203
197
200
205
199
201
206
200
202
207
201
203
208
202
203
208
202
202
208
201
203
209
202
168
173
167
116
119
114
130
132
127
142
145
140
164
166
161
207
212
206
204
209
203
204
210
204
204
211
204
205
211
204
204
211
204
205
210
204
205
210
204
207
211
204
207
210
204
206
209
203
206
209
202
207
209
203
208
210
204
208
211
205
208
211
205
200
204
197
158
161
154
212
215
208
215
219
212
207
210
203
209
212
205
205
207
201
148
151
145
154
158
151
204
208
201
208
211
204
210
213
207
211
214
207
211
214
207
210
213
206
208
212
205
208
212
205
208
212
207
210
215
213
193
199
197
182
188
186
176
183
181
170
178
175
162
174
168
156
168
162
153
165
159
151
163
158
150
161
157
150
160
157
150
161
157
150
160
157
151
162
158
153
164
160
154
165
160
154
165
160
154
165
159
154
165
159
155
166
159
155
168
159
156
169
160
157
170
161
157
170
161
158
170
161
160
170
162
161
169
162
162
169
162
164
169
163
164
169
163
164
169
162
163
170
162
163
170
162
161
171
162
161
171
162
161
171
162
161
171
162
161
171
162
162
172
163
162
172
163
161
171
162
161
171
162
161
171
162
162
172
163
162
172
163
163
173
164
162
172
163
161
171
162
161
171
162
161
171
162
162
172
163
162
172
163
162
172
163
162
172
163
162
172
163
161
171
162
161
171
162
161
171
162
161
171
162
161
171
162
161
171
162
161
171
162
161
171
162
161
171
162
161
171
162
161
171
162
161
171
162
161
171
162
161
171
162
161
171
162
161
171
162
161
171
162
161
171
162
161
171
162
161
171
162
161
171
162
161
171
162
161
171
162
161
171
162
161
171
162
161
171
162
162
172
163
162
172
163
162
172
163
162
172
163
162
172
163
163
173
164
163
173
164
163
174
164
163
175
165
163
176
166
163
176
167
164
175
167
165
176
168
166
177
169
168
179
171
172
180
173
181
189
181
193
200
192
204
211
200
214
221
211
129
141
145
128
153
154
142
172
175
146
171
178
146
170
179
148
173
181
146
171
178
145
170
177
144
169
176
142
167
174
138
166
170
139
167
171
140
168
172
139
167
171
137
165
169
139
163
171
140
163
171
140
163
171
140
163
171
137
160
168
134
159
166
132
159
165
135
160
163
147
165
166
167
179
180
183
192
190
198
207
204
200
209
205
200
209
204
200
209
204
199
209
204
200
211
205
201
212
206
202
211
206
200
209
204
196
205
200
192
201
196
187
197
193
182
194
190
172
184
181
162
174
174
152
163
165
141
154
156
130
144
147
122
137
141
121
135
140
123
136
142
127
141
145
137
151
153
146
160
161
157
170
170
170
181
179
178
190
186
187
199
195
192
204
198
195
208
202
199
209
202
202
209
201
201
210
200
148
157
140
172
176
158
205
207
172
165
156
113
140
124
83
149
139
107
197
195
182
201
206
200
207
213
207
203
209
203
202
208
201
199
205
198
158
163
157
202
207
201
202
207
201
199
204
198
198
203
197
198
203
197
198
203
197
198
203
197
198
203
197
198
203
197
200
205
199
201
206
200
202
207
201
202
207
201
202
207
201
201
208
201
203
209
202
168
173
167
116
119
114
130
132
127
143
145
140
163
165
160
207
211
205
203
208
202
203
210
203
204
211
204
204
211
204
204
211
204
205
210
204
205
210
204
207
211
204
207
210
203
206
209
202
206
209
202
206
209
202
207
210
203
207
210
203
207
210
203
200
203
196
157
160
153
212
215
208
216
219
212
206
209
202
209
212
205
204
207
200
148
151
144
154
157
150
204
207
200
208
211
204
210
213
206
212
215
208
211
214
207
211
214
207
212
215
208
213
216
209
215
218
213
216
221
218
197
202
199
187
192
189
182
187
184
175
182
177
166
177
169
159
170
163
155
166
160
153
164
158
151
162
158
150
161
157
150
161
157
149
160
156
151
162
158
153
164
160
154
165
159
154
165
159
153
164
158
154
165
159
155
166
160
155
168
159
156
169
160
157
170
161
157
170
161
157
170
161
161
169
162
162
169
162
163
169
162
164
169
163
164
169
163
164
169
162
163
170
162
163
170
162
161
171
162
161
171
162
161
171
162
161
171
162
161
171
162
162
172
163
162
172
163
161
171
162
161
171
162
161
171
162
162
172
163
162
172
163
163
173
164
162
172
163
161
171
162
161
171
162
161
171
162
162
172
163
162
172
163
162
172
163
162
172
163
162
172
163
161
171
162
161
171
162
161
171
162
161
171
162
161
171
162
161
171
162
161
171
162
161
171
162
161
171
162
161
171
162
161
171
162
161
171
162
161
171
162
161
171
162
161
171
162
161
171
162
161
171
162
161
171
162
161
171
162
161
171
162
161
171
162
161
171
162
161
171
162
161
171
162
161
171
162
161
171
162
162
172
163
162
172
163
162
172
163
162
172
163
162
172
163
163
173
164
163
173
164
162
174
164
163
175
165
164
176
166
163
176
167
164
175
167
165
176
168
167
177
169
169
179
171
174
181
174
183
190
182
195
201
194
206
212
202
217
223
213
132
147
149
125
148
150
143
171
175
144
171
177
145
170
179
148
173
180
146
171
178
145
170
177
144
169
176
142
167
174
138
165
170
139
167
171
140
168
172
138
166
170
137
165
169
139
163
171
140
163
171
140
163
171
139
162
170
137
160
168
134
159
166
133
159
165
134
159
162
145
164
165
165
178
178
181
191
189
196
205
202
199
208
205
200
209
204
200
209
204
199
209
203
198
209
203
200
211
205
202
211
206
199
208
203
197
206
201
194
203
198
191
200
197
189
200
196
181
191
189
173
184
183
166
176
177
155
166
167
143
155
157
132
145
147
125
139
142
121
135
138
122
136
139
126
140
143
134
148
150
145
158
159
157
169
168
166
178
176
177
188
185
185
196
192
193
203
199
200
206
201
205
207
201
204
207
200
158
160
148
188
185
162
205
193
154
180
159
112
161
135
87
154
139
100
195
192
176
201
206
200
207
212
206
204
209
203
203
208
202
201
206
200
159
164
158
200
205
199
202
207
201
199
204
198
198
203
197
198
203
197
198
203
197
198
203
197
198
203
197
198
203
197
200
205
199
201
206
200
202
207
201
201
206
200
201
206
200
201
208
201
202
208
202
169
173
168
116
119
114
130
132
127
142
144
139
161
163
158
206
211
205
203
208
202
203
210
203
204
211
204
204
211
204
205
210
204
205
210
204
206
209
204
207
210
204
207
210
203
206
209
202
206
209
202
206
209
202
206
209
202
206
209
202
206
209
202
200
203
196
158
161
154
212
215
208
216
219
212
206
209
202
209
212
205
204
207
200
147
150
143
153
156
149
203
206
199
207
210
203
210
213
206
212
215
208
212
215
208
212
215
208
214
217
210
218
221
214
221
224
218
221
226
222
201
206
202
191
196
192
186
191
187
179
186
181
170
181
173
163
174
167
157
168
162
154
165
159
152
163
158
150
161
157
150
161
157
149
160
156
151
162
158
153
164
159
154
165
159
154
165
159
153
164
158
154
165
159
155
166
160
155
168
159
156
169
160
157
170
161
157
170
161
157
170
161
160
170
162
161
169
162
163
170
163
164
169
163
164
169
163
164
169
162
163
170
162
163
170
162
161
171
162
161
171
162
161
171
162
161
171
162
161
171
162
162
172
163
162
172
163
161
171
162
161
171
162
161
171
162
162
172
163
162
172
163
163
173
164
162
172
163
161
171
162
161
171
162
161
171
162
162
172
163
162
172
163
162
172
163
162
172
163
162
172
163
161
171
162
161
171
162
161
171
162
161
171
162
161
171
162
161
171
162
161
171
162
161
171
162
161
171
162
161
171
162
161
171
162
161
171
162
161
171
162
161
171
162
161
171
162
161
171
162
161
171
162
161
171
162
161
171
162
161
171
162
161
171
162
161
171
162
161
171
162
161
171
162
161
171
162
161
171
162
162
172
163
162
172
163
162
172
163
162
172
163
162
172
163
163
173
164
163
173
164
162
174
164
163
175
165
163
176
166
163
176
167
164
175
167
165
176
168
167
177
169
169
179
171
175
182
175
184
191
183
197
203
195
208
214
204
219
225
215
133
150
152
125
145
148
145
169
174
142
169
176
143
168
177
147
172
179
146
171
178
145
170
177
145
170
177
144
169
176
135
163
167
139
167
171
139
167
171
138
166
170
138
166
170
140
164
171
139
162
170
138
161
169
137
160
168
135
158
166
134
157
165
133
158
164
134
159
162
142
163
163
161
176
176
180
190
188
192
201
198
198
207
204
198
207
202
199
208
203
200
210
205
197
208
202
198
208
202
200
209
204
199
208
203
196
206
201
194
204
199
194
203
200
192
201
198
190
197
196
186
194
194
178
188
187
167
177
177
159
169
170
148
158
160
136
148
149
127
141
142
122
136
139
123
137
140
126
140
144
133
147
150
144
158
158
156
169
168
167
178
176
176
186
183
185
194
190
194
201
196
203
205
200
205
206
200
164
163
152
200
193
162
227
207
159
191
160
107
177
144
90
170
153
112
199
196
182
203
206
201
207
211
205
207
210
205
204
207
201
203
207
201
160
165
159
199
204
198
202
207
201
200
205
199
198
203
197
198
203
197
198
203
197
199
204
198
199
204
198
199
204
198
200
205
199
201
206
200
202
207
201
203
208
202
203
208
202
201
208
201
200
206
200
169
174
168
117
120
114
130
132
127
143
145
140
157
159
155
206
211
205
204
209
203
203
210
203
203
209
203
204
209
203
204
209
203
206
208
203
206
208
203
207
209
203
206
209
202
205
208
201
205
208
201
205
208
201
206
209
202
206
209
202
206
209
202
199
202
195
158
161
154
211
214
207
214
217
210
207
210
203
208
211
204
203
206
199
146
149
142
154
157
150
204
207
200
207
210
203
210
213
206
213
216
209
213
216
209
213
216
209
215
218
211
218
221
214
224
227
221
225
228
223
206
209
205
195
198
194
190
193
188
183
189
183
174
185
177
167
178
171
161
172
166
156
167
161
152
163
159
151
162
158
150
161
157
149
160
156
150
161
157
152
163
159
153
164
158
153
164
158
153
164
158
154
165
159
155
166
160
155
168
159
156
169
160
157
170
161
157
170
161
157
170
161
159
169
161
160
170
162
162
170
163
163
170
163
163
170
163
164
169
162
163
170
162
163
170
162
161
171
162
161
171
162
162
172
163
162
172
163
162
172
163
162
172
163
162
172
163
162
172
163
162
172
163
162
172
163
162
172
163
162
172
163
162
172
163
162
172
163
162
172
163
162
172
163
162
172
163
162
172
163
162
172
163
162
172
163
162
172
163
162
172
163
161
171
162
161
171
162
161
171
162
161
171
162
161
171
162
161
171
162
161
171
162
161
171
162
161
171
162
161
171
162
161
171
162
161
171
162
161
171
162
161
171
162
161
171
162
161
171
162
161
171
162
161
171
162
161
171
162
161
171
162
161
171
162
161
171
162
161
171
162
161
171
162
161
171
162
161
171
162
162
172
163
162
172
163
162
172
163
162
172
163
162
172
163
163
173
164
163
173
164
163
174
165
163
175
165
163
175
165
162
176
167
164
176
168
166
177
169
167
178
170
168
178
170
174
181
174
187
194
186
198
203
196
209
215
205
221
227
217
135
155
156
124
142
146
145
167
173
143
171
177
144
169
178
147
172
179
146
171
178
145
170
177
145
170
177
144
169
176
136
163
168
138
166
170
136
164
168
137
165
169
137
165
169
139
163
171
139
162
170
138
161
169
135
158
166
134
157
165
135
156
165
134
157
164
134
158
161
141
162
162
160
175
174
179
189
187
192
201
198
198
207
204
198
207
202
199
208
203
200
210
204
200
211
205
197
208
202
197
206
201
198
207
202
196
206
200
194
204
199
194
203
200
195
201
199
194
199
199
193
199
198
189
196
194
181
190
189
171
180
179
159
169
169
148
160
160
138
152
152
128
142
143
125
139
142
123
136
142
125
140
143
132
147
147
142
155
155
155
165
164
164
173
172
174
183
180
181
191
185
193
198
191
203
206
199
162
163
152
199
193
153
221
199
136
198
165
98
185
151
87
179
164
120
204
204
191
205
207
202
209
211
206
208
210
205
204
206
201
204
206
201
161
166
160
201
206
200
203
208
202
200
205
199
198
203
197
199
204
198
199
204
198
199
204
198
199
204
198
199
204
198
200
205
199
201
206
200
202
207
201
203
208
202
203
208
202
201
208
201
200
206
200
169
174
168
117
120
114
130
132
127
142
144
139
156
158
153
205
210
204
203
208
202
202
209
202
203
209
203
204
209
203
206
208
203
206
208
203
207
208
203
207
209
203
206
209
202
205
208
201
205
208
201
205
208
201
206
209
202
206
209
202
206
209
202
197
200
193
157
160
153
211
214
207
214
217
210
207
210
203
208
211
204
203
206
199
146
149
142
154
157
150
204
207
200
207
210
203
210
213
206
212
215
208
212
215
208
212
215
208
215
218
211
218
221
214
226
228
222
230
232
227
210
212
207
201
203
198
194
196
191
185
190
184
176
187
179
169
180
173
163
174
168
158
169
163
154
165
161
151
162
158
150
161
157
149
160
156
150
161
157
152
163
159
153
164
158
153
164
158
153
164
158
154
165
159
155
166
160
155
168
159
156
169
160
157
170
161
157
170
161
157
170
161
158
169
161
160
170
162
161
171
163
162
170
163
163
170
163
164
169
162
163
170
162
163
170
162
161
171
162
161
171
162
162
172
163
162
172
163
162
172
163
162
172
163
162
172
163
162
172
163
162
172
163
162
172
163
162
172
163
162
172
163
162
172
163
162
172
163
162
172
163
162
172
163
162
172
163
162
172
163
162
172
163
162
172
163
162
172
163
162
172
163
161
171
162
161
171
162
161
171
162
161
171
162
161
171
162
161
171
162
161
171
162
161
171
162
161
171
162
161
171
162
161
171
162
161
171
162
161
171
162
161
171
162
161
171
162
161
171
162
161
171
162
161
171
162
161
171
162
161
171
162
161
171
162
161
171
162
161
171
162
161
171
162
161
171
162
161
171
162
162
172
163
162
172
163
162
172
163
162
172
163
162
172
163
163
173
164
163
173
164
163
174
165
163
175
165
163
175
165
162
176
167
164
176
168
166
177
169
167
178
170
168
178
170
176
183
176
188
195
187
198
204
197
209
215
205
221
227
217
138
158
162
123
139
142
146
165
171
144
170
177
144
172
177
147
171
179
147
171
178
144
168
176
144
168
176
143
167
174
139
163
170
139
163
170
138
162
169
138
163
169
138
163
169
139
162
168
137
160
167
136
159
166
135
158
165
134
157
164
135
156
165
134
157
164
134
158
162
142
162
163
160
174
175
177
187
186
192
201
198
199
206
203
198
205
201
200
206
202
200
208
203
201
211
205
201
211
206
197
207
202
193
204
198
194
205
200
195
204
201
193
202
199
193
201
198
195
200
199
193
200
198
191
199
197
191
199
197
183
192
189
172
182
179
162
172
171
150
163
161
141
154
154
132
144
146
126
138
142
124
136
139
126
141
141
132
147
147
141
153
154
153
162
164
165
172
173
170
179
175
181
189
184
195
202
196
158
163
152
206
198
143
229
208
120
191
163
74
176
145
65
178
164
115
207
207
191
206
208
202
210
212
207
208
210
205
204
206
201
204
206
201
163
168
162
199
204
198
204
209
203
200
205
199
199
205
198
200
205
199
200
205
199
200
205
199
199
204
198
199
204
198
201
208
201
202
208
201
202
208
202
202
209
202
202
209
202
202
209
202
200
206
200
170
175
169
117
120
115
129
131
126
142
144
139
154
156
151
205
210
204
202
207
201
201
208
201
204
209
202
206
209
202
206
209
202
206
209
202
206
209
202
206
209
202
205
208
201
204
207
200
204
207
200
205
208
201
205
208
201
205
208
200
205
208
200
197
200
192
157
160
151
211
214
205
214
217
209
207
210
202
208
211
203
203
206
198
145
148
140
154
157
150
204
207
200
208
211
204
211
214
207
212
215
208
211
214
207
211
214
207
213
216
209
219
222
215
226
228
222
230
232
227
212
214
209
203
205
200
195
199
193
186
192
186
178
189
181
171
182
175
166
177
171
160
171
165
155
166
161
151
162
157
150
161
155
149
160
155
150
161
156
151
162
157
152
163
157
152
163
157
153
164
158
154
165
159
154
166
159
155
169
159
156
169
160
158
170
161
159
170
162
160
169
162
160
170
162
161
171
162
161
171
162
161
171
162
162
171
162
162
170
162
162
171
162
162
171
162
162
172
163
162
172
163
162
172
163
162
172
163
162
172
163
162
172
163
162
172
163
163
173
164
163
173
164
163
173
164
162
172
163
162
172
163
162
172
163
162
172
163
162
172
163
162
172
163
162
172
163
162
172
163
162
172
163
162
172
163
162
172
163
162
172
163
161
171
162
161
171
162
161
171
162
161
171
162
161
171
162
161
171
162
161
171
162
161
171
162
161
171
162
161
171
162
161
171
162
161
171
162
161
171
162
161
171
162
161
171
162
161
171
162
161
171
162
161
171
162
161
171
162
161
171
162
161
171
162
161
171
162
161
171
162
161
171
162
161
171
162
161
171
162
162
172
163
162
172
163
162
173
164
162
173
164
162
173
164
162
173
164
163
173
165
163
175
166
164
175
166
164
175
166
164
175
167
165
176
168
166
177
169
167
178
170
168
179
171
176
185
175
187
196
186
199
206
196
210
217
206
221
227
217
142
161
167
121
136
140
146
163
169
146
170
176
145
173
176
148
171
179
148
171
179
144
167
175
144
167
175
143
166
174
139
162
170
139
162
170
139
162
170
139
162
170
139
162
170
138
161
167
136
159
165
136
159
165
135
158
164
134
157
163
135
156
164
134
157
164
134
158
162
142
161
163
160
173
174
175
185
184
190
199
196
198
204
202
198
204
200
200
205
201
200
207
202
199
208
203
201
210
205
200
211
205
198
209
203
191
202
197
194
203
200
194
203
200
193
201
198
194
200
198
193
200
198
192
201
198
192
201
198
191
200
197
184
193
190
176
186
183
164
175
172
155
166
165
147
158
158
137
147
150
128
139
141
126
139
140
126
142
142
129
144
145
140
150
152
151
157
159
160
169
166
171
182
177
180
190
184
156
162
149
211
204
139
225
205
98
176
151
49
164
134
50
180
165
121
207
206
194
206
207
202
210
212
207
208
210
205
204
206
201
204
206
201
165
170
164
197
202
196
204
209
203
200
205
199
200
205
199
200
205
199
200
205
199
200
205
199
200
205
199
200
205
199
202
209
202
202
209
202
202
209
202
202
209
202
202
209
202
202
209
202
200
206
200
171
176
170
117
120
115
128
130
125
142
144
139
154
155
151
205
210
204
202
207
201
201
208
201
205
209
202
206
209
202
206
209
202
206
209
202
206
209
202
206
209
202
205
208
201
204
207
200
204
207
200
205
208
201
205
208
200
205
208
199
205
208
199
196
199
190
156
159
150
210
213
204
214
217
208
207
210
201
208
211
202
203
206
197
144
147
139
153
156
149
203
206
199
208
211
204
210
213
206
211
214
207
211
214
207
211
214
207
213
216
209
219
222
215
225
228
221
230
232
227
212
214
209
203
205
200
194
199
193
186
192
186
179
189
181
173
183
176
167
176
171
161
170
165
156
165
161
151
162
156
150
161
155
149
160
154
150
161
155
151
162
156
152
163
157
152
163
157
153
164
158
154
165
159
154
166
159
155
169
159
157
169
160
159
170
162
160
170
162
161
169
162
161
171
162
161
171
162
161
171
162
161
171
162
161
171
162
162
172
163
162
172
163
162
172
163
162
172
163
162
172
163
162
172
163
162
172
163
162
172
163
162
172
163
162
172
163
162
172
163
162
172
163
162
172
163
162
172
163
162
172
163
162
172
163
162
172
163
162
172
163
162
172
163
162
172
163
162
172
163
162
172
163
162
172
163
162
172
163
162
172
163
161
171
162
161
171
162
161
171
162
161
171
162
161
171
162
161
171
162
161
171
162
161
171
162
161
171
162
161
171
162
161
171
162
161
171
162
161
171
162
161
171
162
161
171
162
161
171
162
161
171
162
161
171
162
161
171
162
161
171
162
161
171
162
161
171
162
161
171
162
161
171
162
161
171
162
161
171
162
162
172
163
162
172
163
162
173
164
162
174
164
162
174
164
162
173
165
163
174
166
164
175
167
164
175
167
164
175
167
164
175
167
165
176
168
166
177
169
166
177
169
168
179
171
176
186
176
188
197
186
200
208
197
211
218
208
222
228
218
145
164
170
120
135
138
145
162
168
146
170
177
145
173
176
148
171
179
148
171
179
144
167
175
144
167
175
143
166
174
139
162
170
139
162
170
139
162
170
139
162
170
139
162
170
138
161
167
136
159
165
136
159
165
135
158
164
134
157
163
135
156
164
134
157
164
134
157
161
141
160
162
158
172
173
173
183
182
188
197
194
196
203
200
197
203
199
199
204
200
198
205
201
198
207
202
198
207
202
198
209
203
196
207
201
195
206
201
190
199
196
190
199
196
193
201
198
194
200
198
194
201
198
193
202
199
193
202
199
192
201
198
190
199
195
186
196
192
177
188
183
169
179
176
158
167
167
148
158
159
139
149
151
132
144
145
126
142
142
125
141
141
131
143
145
137
147
149
149
160
157
162
174
170
170
179
174
155
160
146
212
206
132
220
202
84
175
150
47
166
137
58
187
173
133
206
205
197
204
208
202
209
213
207
207
211
206
203
207
202
203
208
202
169
173
168
196
201
195
205
210
204
200
205
199
200
205
199
202
207
201
202
207
201
201
206
200
201
206
200
201
206
200
202
209
202
202
209
202
202
209
202
202
209
202
202
209
202
201
208
201
200
206
200
173
178
172
117
120
115
129
130
126
142
144
139
153
155
150
205
209
203
202
207
201
201
208
201
205
209
202
206
209
202
206
209
202
206
209
202
206
209
202
206
209
202
205
208
201
204
207
200
204
207
200
205
208
201
205
208
200
205
208
199
205
208
199
195
198
189
155
158
149
210
213
204
214
217
208
207
210
201
207
210
201
202
205
196
143
146
138
153
156
149
202
205
198
207
210
203
209
212
205
211
214
207
211
214
207
211
214
207
213
216
209
219
222
215
225
227
221
230
232
227
212
214
209
202
205
200
194
199
193
186
192
186
179
189
181
173
183
176
167
176
171
161
170
165
156
165
161
151
162
156
150
161
155
149
160
154
150
161
155
151
162
156
152
163
157
152
163
157
153
164
158
154
165
159
154
166
159
155
169
159
157
169
160
158
169
161
160
170
162
161
170
162
161
171
162
161
171
162
161
171
162
161
171
162
161
171
162
163
173
164
163
173
164
163
173
164
162
172
163
162
172
163
162
172
163
162
172
163
162
172
163
162
172
163
162
172
163
161
171
162
161
171
162
161
171
162
162
172
163
162
172
163
162
172
163
162
172
163
162
172
163
162
172
163
162
172
163
162
172
163
162
172
163
162
172
163
162
172
163
162
172
163
161
171
162
161
171
162
161
171
162
161
171
162
161
171
162
161
171
162
161
171
162
161
171
162
161
171
162
161
171
162
161
171
162
161
171
162
161
171
162
161
171
162
161
171
162
161
171
162
161
171
162
161
171
162
161
171
162
161
171
162
161
171
162
161
171
162
161
171
162
161
171
162
161
171
162
161
171
162
162
172
163
162
172
163
162
173
164
162
174
164
162
174
164
162
173
165
163
174
166
163
174
166
164
175
167
164
175
167
164
175
167
165
176
168
166
177
169
166
177
169
168
180
171
177
187
177
189
199
188
201
209
198
212
219
209
223
229
219
145
165
171
123
138
141
142
159
165
147
171
178
144
172
176
147
170
178
148
171
179
144
167
175
142
165
173
141
164
172
140
163
171
138
161
169
138
161
169
139
162
170
139
162
170
138
161
167
136
159
165
136
159
165
135
158
164
134
157
163
135
156
164
133
156
163
134
157
161
140
159
162
155
169
170
173
183
181
187
196
193
197
203
201
197
203
199
198
203
199
197
204
200
196
205
200
196
206
200
195
206
200
196
207
200
195
206
201
195
204
201
188
197
194
188
196
194
194
200
198
192
200
196
192
201
196
192
201
196
193
202
197
193
202
197
192
201
195
187
195
190
180
188
184
172
179
178
162
170
170
151
159
161
141
153
154
129
146
146
124
141
141
125
141
141
128
141
142
142
156
154
150
164
160
157
166
162
150
155
140
217
212
129
212
197
72
172
149
46
166
136
63
191
176
139
205
205
196
202
207
201
209
214
208
207
212
206
203
208
202
203
208
202
172
177
171
194
199
193
206
211
205
201
206
200
201
206
200
201
206
200
201
206
200
201
206
200
202
207
201
202
207
201
202
209
202
202
209
202
202
209
202
202
209
202
202
209
202
201
208
201
201
207
200
174
179
173
116
119
114
129
131
126
143
145
140
150
152
147
202
207
201
201
206
200
201
208
201
205
209
202
206
209
202
206
209
202
205
208
201
205
208
201
206
209
202
205
208
201
204
207
200
204
207
200
204
207
200
205
208
199
205
208
199
205
208
199
196
199
190
155
158
149
209
212
203
212
215
206
207
210
201
208
211
202
202
205
196
142
145
136
155
158
151
202
205
198
207
210
203
208
211
204
210
213
206
210
213
206
210
213
206
212
215
208
218
221
214
224
226
220
231
233
228
210
212
207
200
203
198
192
197
191
186
191
185
179
188
180
173
181
175
168
176
171
163
170
166
156
165
161
150
161
155
149
160
154
149
160
154
150
161
155
151
162
156
152
163
157
152
163
157
153
164
158
154
165
159
154
166
159
154
168
159
156
169
160
158
169
161
160
170
162
162
170
163
161
171
162
161
171
162
161
171
162
162
172
163
162
172
163
162
172
163
162
172
163
162
172
163
162
172
163
162
172
163
162
172
163
162
172
163
162
172
163
162
172
163
162
172
163
161
171
162
161
171
162
161
171
162
162
172
163
162
172
163
162
172
163
162
172
163
162
172
163
163
173
164
163
173
164
163
173
164
163
173
164
163
173
164
163
173
164
163
173
164
162
172
163
161
171
162
161
171
162
161
171
162
161
171
162
161
171
162
161
171
162
161
171
162
161
171
162
161
171
162
161
171
162
161
171
162
161
171
162
161
171
162
161
171
162
161
171
162
161
171
162
161
171
162
161
171
162
161
171
162
161
171
162
162
172
163
162
172
163
162
172
163
162
172
163
162
172
163
162
172
163
162
172
163
161
173
163
161
173
163
161
173
163
162
173
165
162
173
165
162
173
165
163
174
166
164
175
167
164
175
167
165
176
168
166
177
169
165
176
168
170
181
173
177
187
177
190
200
189
202
210
199
213
221
210
224
230
220
148
167
173
123
139
142
138
155
161
146
170
177
143
171
174
147
170
178
148
171
179
144
167
175
142
165
173
141
164
172
140
163
171
138
161
169
138
161
169
139
162
170
139
162
170
138
161
167
136
159
165
136
159
165
135
158
164
134
157
163
135
156
164
133
156
163
134
157
161
139
158
161
154
168
169
171
181
179
185
194
191
195
201
199
197
203
199
198
203
199
197
204
199
195
204
199
195
204
199
194
205
199
194
205
199
194
205
200
192
201
198
192
201
198
189
197
194
189
195
193
193
200
197
192
201
196
192
201
196
193
202
197
193
202
197
193
202
195
192
199
192
190
196
191
185
191
188
176
182
181
164
171
172
153
164
166
141
157
157
131
150
150
128
145
145
130
144
145
143
159
157
136
152
146
146
157
153
143
149
130
223
219
129
205
192
58
168
145
40
165
137
66
193
180
148
200
201
195
200
207
200
207
214
207
206
213
206
203
209
202
203
209
202
172
177
171
194
199
193
206
211
205
201
206
200
201
206
200
201
206
200
201
206
200
201
206
200
202
207
201
202
207
201
202
209
202
202
209
202
202
209
202
202
209
202
202
209
202
201
208
201
201
207
200
175
180
174
119
122
116
129
131
126
143
145
140
150
152
147
202
207
201
201
206
200
201
208
201
205
209
202
206
209
202
206
209
202
205
208
201
205
208
201
206
209
202
205
208
201
204
207
200
204
207
200
204
207
200
205
208
199
205
208
199
205
208
199
196
199
190
155
158
149
210
213
204
213
216
207
205
208
199
207
210
201
201
204
195
141
144
136
155
158
151
202
205
198
206
209
202
207
210
203
209
212
205
210
213
206
210
213
206
212
215
208
218
221
214
224
226
220
231
233
228
210
212
207
200
203
198
192
197
191
185
191
185
179
186
179
173
180
174
168
174
170
162
168
164
156
164
160
151
161
155
149
160
154
149
160
154
150
161
155
151
162
156
152
163
157
152
163
157
153
164
158
154
165
159
154
166
159
154
168
159
156
169
160
158
169
161
160
170
162
162
170
163
161
171
162
161
171
162
161
171
162
162
172
163
162
172
163
162
172
163
162
172
163
162
172
163
162
172
163
162
172
163
162
172
163
162
172
163
162
172
163
162
172
163
162
172
163
161
171
162
161
171
162
161
171
162
162
172
163
162
172
163
162
172
163
162
172
163
162
172
163
163
173
164
163
173
164
163
173
164
163
173
164
163
173
164
163
173
164
163
173
164
162
172
163
161
171
162
161
171
162
161
171
162
161
171
162
161
171
162
161
171
162
161
171
162
161
171
162
161
171
162
161
171
162
161
171
162
161
171
162
161
171
162
161
171
162
161
171
162
161
171
162
161
171
162
161
171
162
161
171
162
161
171
162
162
172
163
162
172
163
162
172
163
162
172
163
162
172
163
162
172
163
162
172
163
161
173
163
161
173
163
161
173
163
162
173
165
162
173
165
162
173
165
163
174
166
164
175
167
164
175
167
165
176
168
166
177
169
165
176
168
170
181
173
179
189
178
191
201
190
202
210
199
213
221
210
224
230
220
147
169
174
125
139
143
138
151
156
146
166
172
143
168
174
145
168
176
147
170
178
143
166
174
141
164
172
141
164
172
139
163
169
138
162
168
137
162
168
138
163
169
138
162
168
137
161
166
137
160
165
137
160
165
136
160
165
134
158
163
134
157
163
133
157
162
133
158
161
138
158
160
153
166
168
168
179
178
183
193
191
191
201
198
195
204
200
196
204
199
196
204
200
196
205
201
196
205
201
195
205
201
195
205
201
195
203
200
194
200
198
194
201
198
193
200
196
191
199
195
189
198
193
188
199
192
191
201
194
193
203
196
192
203
196
192
202
195
193
201
195
193
200
196
192
198
195
186
192
188
175
181
179
165
174
172
153
165
163
145
158
157
137
151
152
141
154
156
138
151
149
129
145
143
139
149
146
143
145
122
221
216
127
198
187
56
163
141
28
167
143
63
192
182
150
194
197
193
198
204
201
206
213
208
207
213
207
203
209
202
203
209
202
174
177
171
193
196
191
207
211
205
202
205
199
202
205
199
202
206
199
202
206
199
203
206
200
203
207
200
203
207
200
204
208
201
204
208
201
204
208
201
204
208
201
204
208
201
203
207
201
202
205
200
179
182
176
120
122
117
128
130
125
144
146
140
148
151
145
204
208
201
202
206
199
203
207
200
205
208
201
205
208
201
205
208
201
205
208
201
205
208
201
204
208
201
204
208
201
203
208
201
203
208
201
203
208
201
204
208
200
205
208
199
205
208
199
196
199
190
155
158
149
210
213
204
213
216
207
205
208
199
206
209
200
200
203
194
140
143
135
154
157
149
202
205
197
206
209
200
207
210
202
209
212
204
210
213
206
210
213
206
211
214
207
218
221
214
225
227
220
230
232
225
209
212
205
201
203
197
194
197
191
186
191
185
178
186
179
170
180
173
164
175
169
158
170
164
152
164
159
150
161
155
149
160
154
149
160
154
150
161
155
151
162
156
152
163
157
152
163
157
153
164
158
154
165
159
155
166
160
155
168
159
157
168
160
158
169
161
159
170
161
161
171
162
161
171
162
161
171
162
161
171
162
162
172
163
162
172
163
162
172
163
162
172
163
162
172
163
162
172
163
162
172
163
162
172
163
162
172
163
162
172
163
161
171
162
161
171
162
161
171
162
162
172
163
162
172
163
162
172
163
162
172
163
162
172
163
162
172
163
162
172
163
163
173
164
163
173
164
163
173
164
163
173
164
163
173
164
164
174
165
163
173
164
162
172
163
162
172
163
162
172
163
161
171
162
161
171
162
161
171
162
161
171
162
161
171
162
161
171
162
161
171
162
161
171
162
161
171
162
161
171
162
162
172
163
162
172
163
162
172
163
162
172
163
162
172
163
162
172
163
162
172
163
162
172
163
161
171
162
161
171
162
162
172
163
162
172
163
162
172
163
164
171
163
163
172
163
161
173
163
160
173
163
160
173
163
161
174
164
161
174
164
162
174
165
163
175
166
164
176
167
165
176
168
165
176
168
167
178
170
166
177
169
170
181
173
179
190
179
192
202
191
203
211
200
215
221
211
226
231
221
147
170
174
127
140
145
137
149
152
146
165
169
144
166
174
144
167
175
146
169
177
143
166
173
141
164
172
141
164
172
139
164
169
138
163
168
138
163
168
138
163
168
137
162
167
137
161
165
137
161
165
137
161
165
137
161
165
134
158
162
134
157
162
134
158
162
133
158
160
137
158
160
152
166
168
168
178
178
183
193
191
190
201
197
193
204
200
193
204
198
194
204
200
195
204
201
195
204
201
195
204
201
195
204
201
195
202
200
195
200
198
193
199
197
193
199
195
191
200
195
189
199
193
188
199
191
189
200
192
191
202
194
191
202
194
192
202
195
192
201
196
193
201
196
192
198
194
193
199
195
186
193
188
176
186
180
166
177
169
156
168
160
155
168
164
151
165
164
134
146
143
133
143
141
142
148
137
163
163
128
222
219
149
180
169
70
158
140
47
158
141
66
175
168
137
184
186
182
191
197
194
203
209
204
207
212
207
202
207
200
202
207
200
175
177
172
192
194
189
209
211
206
203
205
200
203
205
200
203
206
199
203
206
199
203
206
199
204
207
200
204
207
200
205
208
201
205
208
201
205
208
201
205
208
201
205
208
201
205
207
201
204
206
200
181
184
178
120
122
117
127
130
124
144
147
141
147
150
143
205
208
201
203
206
199
204
207
200
205
208
201
205
208
201
205
208
201
205
208
201
205
208
201
204
208
201
203
208
201
203
208
201
203
208
201
203
208
201
205
208
200
206
209
200
206
209
200
196
199
190
156
159
150
210
213
204
212
215
206
205
208
199
206
209
200
200
203
194
140
143
134
154
157
148
202
205
196
205
208
199
207
210
201
209
212
203
210
213
204
210
213
204
211
214
205
218
221
213
225
228
219
229
232
223
209
212
203
200
203
196
194
196
190
186
190
185
177
187
179
170
181
173
163
175
169
156
170
163
150
164
159
149
160
154
149
160
154
149
160
154
150
161
155
151
162
156
152
163
157
152
163
157
153
164
158
154
165
159
155
166
160
155
168
159
157
168
160
158
170
160
159
171
161
161
171
162
161
171
162
161
171
162
161
171
162
162
172
163
162
172
163
162
172
163
162
172
163
162
172
163
162
172
163
162
172
163
162
172
163
162
172
163
162
172
163
161
171
162
161
171
162
161
171
162
162
172
163
163
173
164
162
172
163
162
172
163
162
172
163
162
172
163
162
172
163
163
173
164
163
173
164
163
173
164
163
173
164
163
173
164
164
174
165
163
173
164
162
172
163
162
172
163
162
172
163
161
171
162
161
171
162
161
171
162
161
171
162
161
171
162
161
171
162
161
171
162
161
171
162
161
171
162
161
171
162
162
172
163
162
172
163
162
172
163
162
172
163
162
172
163
162
172
163
162
172
163
162
172
163
161
171
162
161
171
162
162
172
163
162
172
163
163
172
163
165
170
163
163
171
163
161
173
163
160
173
163
159
174
163
161
174
164
161
174
164
161
174
164
162
175
165
164
176
167
165
176
168
165
176
168
166
177
169
166
177
169
171
182
174
179
191
180
193
203
192
205
213
202
216
223
213
228
232
222
148
170
175
127
142
146
132
148
151
145
166
169
144
166
174
144
167
175
146
169
177
143
166
174
141
164
172
141
164
172
140
165
170
139
164
169
138
163
168
138
163
168
137
162
167
137
161
165
137
161
165
137
161
165
137
161
165
134
158
162
134
157
162
133
158
162
133
158
160
137
158
160
152
166
168
168
178
178
183
193
191
190
201
197
192
203
199
192
203
197
193
203
199
194
203
200
194
203
200
194
203
200
194
203
200
194
202
199
194
200
198
193
199
197
191
200
195
191
200
195
192
202
195
190
201
193
187
198
190
188
199
191
191
202
194
192
203
195
192
202
194
193
201
195
196
203
197
198
204
198
193
200
194
184
195
189
177
188
182
170
182
174
172
186
174
152
166
152
141
153
130
139
146
116
153
155
116
153
155
102
156
158
99
132
129
67
117
110
57
133
127
80
146
144
124
176
177
172
182
188
182
198
204
198
204
210
203
200
205
198
201
205
199
175
177
172
192
194
189
210
212
207
204
206
201
204
206
201
203
206
199
203
206
199
204
207
200
204
207
200
204
207
200
205
208
201
205
208
201
205
208
201
205
208
201
205
208
201
206
209
202
204
207
200
182
185
178
120
123
116
127
130
123
144
147
140
147
150
143
205
208
201
203
206
199
204
207
200
205
208
201
205
208
201
205
208
201
205
208
201
205
208
201
205
208
201
204
208
201
204
208
201
204
208
201
205
208
201
206
209
201
207
210
201
207
210
201
196
199
190
156
159
150
210
213
204
212
215
206
205
208
199
206
209
200
200
203
194
140
143
134
154
157
148
202
205
196
205
208
199
207
210
201
209
212
203
210
213
204
210
213
204
211
214
205
218
221
212
225
228
219
229
232
223
209
212
203
199
202
195
193
195
189
186
190
184
178
187
179
170
181
173
163
175
168
156
170
163
150
164
159
149
160
154
149
160
154
149
160
154
150
161
155
151
162
156
152
163
157
152
163
157
153
164
158
154
165
159
155
166
160
155
168
159
157
168
160
158
170
161
159
171
161
161
171
162
161
171
162
161
171
162
161
171
162
162
172
163
162
172
163
162
172
163
162
172
163
162
172
163
162
172
163
162
172
163
162
172
163
162
172
163
162
172
163
161
171
162
161
171
162
161
171
162
162
172
163
163
173
164
162
172
163
162
172
163
162
172
163
162
172
163
162
172
163
163
173
164
163
173
164
163
173
164
163
173
164
163
173
164
164
174
165
163
173
164
162
172
163
162
172
163
162
172
163
161
171
162
161
171
162
161
171
162
161
171
162
161
171
162
161
171
162
161
171
162
161
171
162
161
171
162
161
171
162
162
172
163
162
172
163
162
172
163
162
172
163
162
172
163
162
172
163
162
172
163
162
172
163
161
171
162
161
171
162
162
172
163
162
172
163
162
172
163
162
172
163
162
172
163
161
173
163
160
173
163
160
173
163
161
174
164
161
174
164
161
174
164
162
175
165
164
176
167
165
176
168
165
176
168
165
176
168
166
177
169
173
184
175
180
192
181
194
204
193
206
214
203
218
224
214
229
233
224
149
170
175
130
147
151
128
146
148
143
166
169
144
166
173
143
166
174
144
167
175
144
167
175
142
165
173
140
163
171
139
164
169
138
163
168
138
163
168
138
163
168
137
162
167
137
161
165
137
161
165
137
161
165
137
161
165
135
159
163
135
158
163
133
158
162
132
157
159
137
158
160
151
165
167
167
177
177
182
191
189
190
199
196
193
202
199
193
202
197
193
202
198
194
203
200
194
203
200
193
202
199
193
202
199
193
201
198
192
200
197
190
199
196
191
200
195
190
201
195
190
201
194
190
201
193
190
201
193
190
201
193
190
201
193
190
201
193
191
201
193
193
201
194
195
202
195
199
205
199
195
201
194
191
199
192
188
195
192
182
189
181
176
184
165
152
162
133
130
139
91
151
156
91
143
144
81
151
153
89
139
145
82
119
124
76
104
105
78
103
105
80
112
115
99
159
165
155
172
179
170
186
193
184
198
204
197
197
202
195
200
205
199
178
180
175
188
190
185
212
214
209
203
205
200
204
206
201
204
207
200
204
207
200
204
207
200
205
208
201
205
208
201
205
208
201
205
208
201
205
208
201
205
208
201
205
208
201
205
208
200
204
207
199
184
187
179
120
123
115
127
130
122
143
146
139
145
148
141
206
209
202
204
207
200
204
207
200
205
208
201
205
208
201
204
207
200
204
207
200
204
207
200
204
207
200
204
207
200
204
207
200
205
208
201
207
210
203
208
211
203
208
211
202
208
211
202
198
201
192
156
159
150
210
213
204
213
216
207
204
207
198
204
207
198
199
202
193
139
142
133
154
157
148
203
206
197
205
208
199
207
210
201
209
212
203
210
213
202
210
213
202
212
215
204
217
220
209
226
229
219
230
233
224
208
211
203
199
202
195
192
195
189
185
189
183
179
186
179
170
180
173
163
173
168
156
169
162
150
162
157
147
158
152
147
158
152
147
158
152
148
159
153
150
161
155
151
162
156
152
163
157
152
163
157
153
164
158
155
166
160
155
168
159
157
169
160
159
171
162
160
172
162
161
171
162
161
171
162
161
171
162
161
171
162
162
172
163
162
172
163
162
172
163
162
172
163
162
172
163
161
171
162
161
171
162
161
171
162
161
171
162
161
171
162
161
171
162
161
171
162
161
171
162
162
172
163
163
173
164
162
172
163
162
172
163
163
173
164
163
173
164
163
173
164
163
173
164
164
174
165
165
175
166
165
175
166
165
175
166
163
173
164
163
173
164
163
173
164
163
173
164
163
173
164
162
172
163
162
172
163
161
171
162
161
171
162
161
171
162
161
171
162
161
171
162
161
171
162
161
171
162
161
171
162
160
170
161
162
172
163
162
172
163
162
172
163
162
172
163
162
172
163
162
172
163
162
172
163
162
172
163
162
172
163
163
173
164
163
173
164
162
173
164
161
173
163
161
173
163
161
173
163
161
173
163
161
173
163
161
174
164
161
174
164
161
174
164
162
175
165
163
176
166
164
175
167
164
175
167
165
176
168
166
177
169
174
185
176
181
193
181
194
204
193
207
215
203
219
225
215
230
234
225
148
169
174
132
151
154
123
144
145
140
165
167
145
166
174
144
166
174
144
167
175
144
167
175
142
165
173
140
163
171
139
164
169
138
163
168
138
163
168
138
163
168
137
162
167
137
161
165
137
161
165
137
161
165
137
161
165
135
159
163
135
158
163
133
158
162
132
157
159
136
158
159
150
164
166
167
176
176
182
191
189
190
198
196
192
200
197
192
200
196
192
201
197
192
201
198
192
201
198
191
200
197
191
200
197
191
200
197
190
199
196
189
198
195
188
199
193
188
199
193
189
200
193
190
201
193
190
201
193
190
201
193
190
201
193
190
201
192
191
201
192
193
201
193
195
202
194
199
205
198
197
202
195
200
203
195
203
206
190
191
194
170
171
173
143
166
167
134
173
173
133
174
175
118
154
152
98
165
165
110
137
139
78
132
133
91
118
112
89
107
102
76
98
100
78
119
125
111
159
167
155
178
186
175
188
194
186
189
194
188
195
200
194
177
179
174
187
189
184
212
214
209
203
205
200
204
206
201
204
207
200
204
207
200
204
207
200
205
208
201
205
208
201
206
209
202
206
209
202
206
209
202
205
208
201
205
208
201
205
208
199
204
207
198
184
187
178
121
124
115
128
131
122
145
148
141
145
148
141
205
208
201
205
208
201
205
208
201
206
209
202
206
209
202
205
208
201
204
207
200
204
207
200
205
206
200
205
206
200
205
206
200
206
207
201
208
210
203
208
211
203
208
211
202
208
211
202
198
201
192
156
159
150
210
213
204
213
216
207
204
207
198
204
207
198
199
202
193
139
142
133
154
157
148
203
206
197
205
208
199
207
210
201
209
212
203
210
213
202
210
213
202
212
215
204
217
220
209
226
229
219
230
233
224
208
211
203
199
202
195
192
195
189
185
188
183
178
185
178
170
178
172
163
173
167
157
169
162
150
162
157
147
158
152
147
158
152
147
158
152
148
159
153
150
161
155
151
162
156
152
163
157
152
163
157
153
164
158
155
166
160
155
168
159
157
169
160
159
171
162
160
172
162
161
171
162
161
171
162
161
171
162
161
171
162
162
172
163
162
172
163
162
172
163
162
172
163
162
172
163
161
171
162
161
171
162
161
171
162
161
171
162
161
171
162
161
171
162
161
171
162
161
171
162
162
172
163
163
173
164
162
172
163
162
172
163
163
173
164
163
173
164
163
173
164
163
173
164
164
174
165
165
175
166
165
175
166
165
175
166
163
173
164
163
173
164
163
173
164
163
173
164
163
173
164
162
172
163
162
172
163
161
171
162
161
171
162
161
171
162
161
171
162
161
171
162
161
171
162
161
171
162
161
171
162
160
170
161
162
172
163
162
172
163
162
172
163
162
172
163
162
172
163
162
172
163
162
172
163
162
172
163
162
172
163
163
173
164
163
173
164
162
173
164
160
173
163
160
173
163
160
173
163
161
173
163
161
173
163
161
174
164
161
174
164
161
174
164
162
175
165
163
176
166
164
175
167
164
175
167
165
176
168
166
177
169
174
185
176
183
195
183
196
206
195
208
216
205
220
226
216
231
235
226
145
167
172
136
155
159
121
141
142
141
163
166
144
166
173
143
166
173
145
168
174
145
168
174
142
165
172
140
163
170
139
163
168
138
163
167
138
162
167
139
162
167
139
161
166
138
160
165
138
160
164
138
160
165
138
160
165
136
159
163
134
158
163
134
158
162
134
157
159
135
156
157
147
163
165
166
176
176
182
190
189
190
198
195
192
199
196
192
198
195
193
199
197
193
200
199
193
200
198
192
199
197
192
199
197
190
200
196
188
198
195
187
197
192
186
197
191
186
197
190
188
198
191
190
200
192
191
201
193
189
200
192
190
201
193
190
200
192
191
201
194
194
201
193
198
202
192
211
213
200
213
215
198
226
226
202
223
224
189
215
214
173
202
200
159
198
194
159
201
194
161
197
192
151
190
187
140
183
181
130
138
137
83
120
113
75
131
117
79
147
134
92
131
129
99
123
129
111
121
125
108
155
162
147
178
186
175
182
188
183
189
194
191
175
177
173
183
185
180
212
214
209
205
207
203
204
206
202
204
207
200
205
208
201
205
208
201
205
208
201
205
208
201
207
210
203
207
210
203
207
210
203
206
209
202
205
208
201
205
208
200
205
208
199
185
188
179
122
125
116
128
131
122
147
150
142
144
147
139
205
208
200
206
208
201
207
209
201
207
210
203
207
210
203
206
209
202
205
208
201
205
208
201
205
207
200
205
206
200
205
206
200
207
208
202
209
210
204
208
211
203
208
211
202
208
211
202
198
201
192
156
159
150
211
214
205
213
216
207
204
207
198
205
208
199
199
202
193
138
141
132
154
157
148
202
205
196
205
208
199
207
210
201
209
212
202
209
212
202
209
212
202
211
214
204
216
219
209
226
228
219
230
232
223
208
211
203
199
202
195
191
195
189
184
188
183
178
184
177
170
177
171
164
172
167
158
168
162
151
162
157
147
158
152
147
158
152
147
158
152
148
159
153
149
160
154
150
161
155
152
163
157
153
163
157
154
164
159
156
166
160
156
168
160
158
169
161
159
170
161
160
171
161
160
170
161
161
171
162
162
172
163
162
172
163
162
172
163
162
172
163
162
172
163
162
172
163
162
172
163
161
171
162
161
171
162
161
171
162
161
171
162
161
171
162
161
171
162
161
171
162
161
171
162
162
172
163
162
172
163
162
172
163
162
172
163
163
173
164
163
173
164
163
173
164
163
173
164
164
174
165
165
175
166
165
175
166
165
175
166
164
174
165
164
174
165
163
173
164
163
173
164
163
173
164
162
172
163
162
172
163
161
171
162
161
171
162
161
171
162
161
171
162
161
171
162
161
171
162
161
171
162
161
171
162
161
171
162
161
171
162
161
171
162
162
172
163
162
172
163
162
172
163
162
172
163
162
172
163
162
172
163
162
172
163
163
173
164
163
173
164
162
173
164
159
173
162
159
172
162
160
172
162
161
173
163
162
174
164
162
173
165
162
173
165
162
173
165
163
175
166
164
176
168
164
176
168
164
176
168
164
176
167
166
178
169
175
187
177
185
196
184
198
208
196
209
217
206
221
228
217
232
237
227
144
166
172
138
158
162
121
139
141
142
161
165
144
166
172
142
165
171
145
168
174
145
168
174
142
165
171
140
163
169
139
163
168
138
162
166
140
161
166
140
161
166
140
161
166
139
160
165
139
160
165
139
160
165
139
160
165
137
158
163
135
157
163
134
158
162
136
157
160
136
155
158
144
162
164
163
175
174
180
189
187
189
198
195
191
198
196
192
198
194
191
199
197
191
199
198
191
199
197
191
199
196
191
199
195
189
199
195
187
198
193
185
196
190
186
197
190
186
197
189
187
197
189
188
198
190
190
200
192
188
199
191
189
200
192
190
200
192
193
202
192
202
208
196
234
236
223
250
249
232
250
249
222
229
230
188
209
208
166
247
245
202
233
229
187
216
211
172
207
200
163
197
191
149
193
190
141
212
209
155
145
141
88
119
107
64
145
128
74
155
140
87
162
158
123
147
151
134
141
145
127
126
133
117
152
161
150
172
177
172
185
187
185
174
177
171
181
183
178
209
211
206
204
206
202
203
205
202
205
207
201
206
209
202
206
209
202
206
209
202
206
209
202
207
210
203
208
211
204
208
211
205
207
210
203
206
209
202
206
209
201
206
209
200
186
189
180
124
127
118
128
131
122
148
151
142
143
146
137
205
207
199
207
208
200
208
209
201
207
210
202
207
210
203
207
209
203
206
208
202
206
208
202
206
207
201
206
207
201
206
207
201
207
208
202
209
210
204
208
211
203
208
211
202
208
211
202
198
201
192
157
160
151
211
214
205
213
216
207
204
207
198
206
209
200
199
202
193
138
141
132
155
158
149
202
205
196
205
208
199
207
210
201
208
211
202
208
211
202
208
211
202
210
213
204
215
218
209
225
227
219
228
231
222
207
210
202
198
202
195
190
195
188
184
189
183
178
183
177
171
177
171
165
171
167
158
167
162
152
161
157
147
158
152
147
158
152
147
158
152
148
159
153
149
160
154
150
161
155
152
163
157
153
163
157
155
164
159
157
166
161
156
167
159
157
168
160
159
169
161
160
170
161
160
170
161
161
171
162
162
172
163
163
173
164
162
172
163
162
172
163
162
172
163
162
172
163
162
172
163
161
171
162
161
171
162
161
171
162
161
171
162
161
171
162
161
171
162
161
171
162
162
172
163
162
172
163
162
172
163
162
172
163
162
172
163
163
173
164
163
173
164
163
173
164
164
174
165
165
175
166
165
175
166
165
175
166
165
175
166
164
174
165
164
174
165
163
173
164
163
173
164
163
173
164
162
172
163
162
172
163
161
171
162
161
171
162
161
171
162
161
171
162
161
171
162
161
171
162
161
171
162
161
171
162
161
171
162
161
171
162
161
171
162
161
171
162
163
173
164
162
172
163
162
172
163
162
172
163
162
172
163
162
172
163
163
173
164
163
173
164
162
173
163
159
172
162
159
172
162
160
172
162
161
173
163
162
174
164
162
173
165
162
173
165
162
173
165
163
174
166
165
176
168
164
177
168
164
177
168
163
176
167
165
178
168
175
188
178
186
196
185
199
208
197
210
218
207
221
229
218
232
238
228
145
167
173
139
159
163
120
138
140
140
159
163
145
167
172
142
165
171
145
168
174
145
168
174
142
165
171
140
163
169
139
163
168
138
162
166
140
161
166
140
161
166
140
161
166
140
161
166
140
161
166
140
161
166
139
160
165
137
158
163
135
157
163
135
158
162
137
157
161
137
156
159
144
161
163
162
174
173
179
188
186
188
197
194
191
198
196
192
198
194
190
198
195
189
198
196
189
198
195
189
198
194
189
198
193
188
198
192
186
197
191
184
195
188
185
196
188
185
196
188
185
196
187
186
196
188
187
197
189
188
198
190
190
198
191
191
199
191
193
201
187
229
233
219
252
252
240
253
252
232
229
228
190
198
198
147
210
208
167
254
253
215
234
231
189
217
214
170
241
236
198
240
236
194
207
203
154
195
191
136
160
154
100
156
143
94
161
145
89
154
140
85
165
157
118
159
156
131
156
157
136
154
157
138
142
145
131
158
162
153
177
179
172
168
171
164
174
176
170
202
204
198
201
203
198
203
205
201
206
209
202
207
210
203
207
210
203
207
210
203
207
210
203
208
211
204
209
212
205
210
213
206
208
211
204
207
210
203
207
210
202
207
210
201
188
191
182
126
129
120
128
131
122
148
151
142
143
146
137
205
207
199
207
208
200
208
209
201
208
209
202
208
209
203
208
209
203
208
209
203
208
209
203
207
208
202
207
208
202
207
208
202
207
208
202
209
210
204
208
211
203
208
211
202
208
211
202
198
201
192
157
160
151
211
214
205
213
216
207
204
207
198
206
209
200
199
202
193
138
141
132
155
158
149
202
205
196
205
208
199
207
210
201
208
211
202
208
211
202
208
211
202
210
213
204
215
218
209
225
227
218
227
230
221
206
209
201
198
201
194
190
195
188
184
189
183
178
183
177
171
177
171
165
171
167
158
167
162
152
161
157
147
158
152
147
158
152
147
158
152
148
159
153
149
160
154
150
161
155
152
163
157
153
163
157
155
164
159
157
166
161
155
166
158
156
167
159
159
169
160
160
170
161
160
170
161
161
171
162
162
172
163
163
173
164
162
172
163
162
172
163
162
172
163
162
172
163
162
172
163
161
171
162
161
171
162
161
171
162
161
171
162
161
171
162
161
171
162
161
171
162
162
172
163
162
172
163
162
172
163
162
172
163
162
172
163
163
173
164
163
173
164
163
173
164
164
174
165
165
175
166
165
175
166
165
175
166
165
175
166
164
174
165
164
174
165
163
173
164
163
173
164
163
173
164
162
172
163
162
172
163
161
171
162
161
171
162
161
171
162
161
171
162
161
171
162
161
171
162
161
171
162
161
171
162
161
171
162
161
171
162
161
171
162
161
171
162
163
173
164
162
172
163
162
172
163
162
172
163
162
172
163
162
172
163
163
173
164
163
173
164
162
173
163
159
172
162
159
172
162
160
172
162
161
173
163
162
174
164
162
173
165
162
173
165
162
173
165
163
174
166
165
176
168
164
177
168
164
177
168
163
176
167
166
179
169
175
188
178
187
197
186
200
209
198
211
219
208
222
230
219
233
239
229
147
166
173
142
160
165
123
138
141
139
157
161
145
165
171
143
166
172
144
167
173
144
167
173
142
165
171
140
163
169
140
164
168
139
163
167
140
161
166
140
161
166
140
161
166
140
159
165
140
159
165
140
159
165
140
159
165
138
157
163
137
157
164
137
158
163
138
157
162
138
156
159
145
160
162
162
174
173
177
186
184
188
197
194
191
198
196
192
198
194
189
199
195
188
199
195
188
199
193
186
197
191
185
196
188
184
195
188
184
195
188
184
195
187
184
196
187
184
196
186
185
196
187
185
196
188
186
196
188
188
195
188
190
196
189
191
196
187
209
213
202
249
250
240
254
253
237
234
232
199
200
199
149
200
198
148
238
235
197
252
251
216
215
213
172
209
208
163
250
248
208
230
226
182
193
189
138
177
172
116
166
159
102
177
165
113
189
176
126
183
172
124
172
162
116
166
158
113
159
150
114
164
156
125
170
165
140
151
152
132
169
172
157
159
162
153
167
170
163
192
195
188
196
198
192
202
204
199
207
210
203
206
209
202
206
209
202
207
210
203
209
212
205
210
213
206
210
213
206
210
213
206
209
212
205
207
210
204
208
211
202
206
209
200
191
194
185
127
130
121
128
131
122
148
151
142
143
145
137
204
206
198
207
208
200
207
208
200
208
208
202
208
209
203
208
209
203
208
209
203
208
209
203
207
208
202
207
208
202
207
208
202
207
208
202
209
210
204
208
211
203
208
211
202
208
211
202
199
202
193
157
160
151
212
215
206
215
218
209
204
207
198
205
208
199
198
201
192
136
139
131
158
161
152
203
206
197
206
209
200
207
210
201
208
211
202
208
211
202
208
211
202
210
213
204
217
220
211
225
228
219
228
230
221
205
208
200
197
201
194
189
194
188
183
188
182
178
183
177
170
177
171
164
171
167
158
167
162
152
161
157
147
158
152
147
158
152
148
159
153
148
159
153
148
159
153
150
161
155
152
163
157
154
164
159
156
165
160
157
166
161
155
166
158
156
167
159
158
169
160
160
170
161
161
171
162
161
171
162
162
172
163
163
173
164
162
172
163
162
172
163
162
172
163
162
172
163
162
172
163
161
171
162
161
171
162
161
171
162
161
171
162
161
171
162
162
172
163
162
172
163
162
172
163
162
172
163
162
172
163
163
173
164
163
173
164
163
173
164
163
173
164
163
173
164
165
175
166
166
176
167
165
175
166
165
175
166
165
175
166
164
174
165
163
173
164
163
173
164
163
173
164
163
173
164
162
172
163
162
172
163
162
172
163
162
172
163
162
172
163
161
171
162
161
171
162
161
171
162
161
171
162
161
171
162
161
171
162
161
171
162
161
171
162
162
172
163
162
172
163
162
172
163
162
172
163
162
172
163
162
172
163
162
172
163
161
171
162
161
171
162
160
172
162
159
172
162
159
172
162
160
172
162
161
173
163
162
174
164
162
173
165
163
174
166
163
174
166
164
175
167
165
176
168
163
176
167
163
176
167
165
178
168
167
180
170
176
189
179
188
198
187
201
210
199
213
221
210
224
232
221
234
240
230
146
166
172
144
162
167
123
138
141
137
155
159
145
165
171
142
165
171
143
166
172
143
166
172
142
165
171
140
163
169
140
164
168
139
163
167
140
161
166
140
161
166
140
161
166
140
159
165
140
159
165
140
159
165
140
159
165
138
157
163
137
157
164
137
158
163
138
157
162
139
156
159
145
160
162
161
173
172
176
185
183
187
196
193
191
199
196
192
198
194
189
199
194
188
199
193
188
199
193
186
197
189
185
196
188
184
195
187
184
195
187
184
195
187
183
195
185
183
195
185
184
195
186
184
195
187
186
194
187
187
193
187
188
191
185
205
208
200
243
246
235
252
253
240
239
238
210
204
201
159
209
205
162
228
224
184
252
249
214
241
239
204
228
227
186
218
219
174
218
216
174
194
191
145
182
177
126
174
168
112
166
158
100
161
153
99
169
162
113
170
164
118
172
164
117
178
168
119
179
168
124
172
162
122
165
156
122
160
158
128
166
170
144
157
161
150
164
167
159
181
184
177
186
189
182
192
195
189
199
202
195
203
206
199
206
209
202
207
210
203
209
212
205
211
214
207
211
214
207
210
213
206
209
212
205
208
211
204
208
211
202
206
209
200
192
195
186
128
131
122
129
132
123
148
151
142
143
145
137
204
206
198
207
208
200
207
208
200
208
208
202
209
208
203
209
208
203
209
208
203
209
208
203
208
208
202
207
208
202
207
208
202
207
208
202
209
210
204
208
211
203
208
211
202
208
211
202
199
202
193
157
160
151
212
215
206
215
218
209
204
207
198
205
208
199
198
201
192
136
139
131
158
161
152
203
206
197
206
209
200
207
210
201
208
211
202
208
211
202
208
211
202
210
213
204
217
220
211
225
228
219
228
230
221
205
208
200
197
201
194
189
194
188
183
188
182
178
183
177
170
177
171
164
171
167
158
167
162
152
161
157
147
158
152
147
158
152
148
159
153
148
159
153
148
159
153
150
161
155
152
163
157
154
164
159
156
165
160
157
166
161
155
166
158
156
167
159
158
169
160
160
170
161
161
171
162
161
171
162
162
172
163
163
173
164
162
172
163
162
172
163
162
172
163
162
172
163
162
172
163
161
171
162
161
171
162
161
171
162
161
171
162
161
171
162
162
172
163
162
172
163
162
172
163
162
172
163
162
172
163
163
173
164
163
173
164
163
173
164
163
173
164
163
173
164
165
175
166
166
176
167
165
175
166
165
175
166
165
175
166
165
175
166
163
173
164
163
173
164
163
173
164
163
173
164
162
172
163
162
172
163
162
172
163
162
172
163
162
172
163
161
171
162
161
171
162
161
171
162
161
171
162
161
171
162
161
171
162
161
171
162
161
171
162
162
172
163
162
172
163
162
172
163
162
172
163
162
172
163
162
172
163
162
172
163
161
171
162
161
171
162
160
172
162
159
172
162
159
172
162
160
172
162
161
173
163
162
174
164
162
173
165
163
174
166
163
174
166
164
175
167
165
176
168
163
176
167
163
176
167
165
178
168
167
180
170
176
189
179
189
199
188
202
211
200
214
222
211
225
233
222
235
241
231
144
165
172
145
162
169
124
138
143
136
151
156
147
165
171
142
165
170
142
166
171
143
166
171
142
166
171
140
163
168
142
164
168
142
163
168
141
161
166
140
160
166
140
160
166
140
158
165
140
158
165
140
158
164
139
157
164
139
157
163
138
157
163
138
156
163
138
156
161
139
155
158
145
160
162
160
173
173
174
185
183
185
196
192
189
199
196
190
198
194
188
199
193
187
199
192
187
198
192
186
197
190
185
196
189
184
195
187
183
195
186
183
195
186
181
194
186
182
194
187
183
194
186
184
195
186
185
193
185
187
191
183
209
212
203
245
246
237
251
253
240
241
242
219
214
214
175
211
208
168
242
238
204
241
238
204
244
242
209
211
209
174
198
198
159
192
192
151
181
179
137
182
179
132
180
174
124
173
166
111
165
159
101
162
157
101
159
156
102
169
166
118
164
158
113
160
152
106
162
156
111
168
160
118
172
165
124
167
164
124
170
169
133
162
162
144
157
159
150
172
176
171
176
180
173
184
187
181
191
195
188
199
202
196
205
208
201
207
209
202
209
212
204
211
214
207
211
215
208
210
214
207
208
212
205
207
211
204
209
212
204
207
210
202
193
196
188
129
132
124
129
132
124
148
151
143
142
145
136
203
206
197
207
209
200
207
209
200
208
209
202
209
208
203
209
208
203
209
208
203
209
208
203
208
208
203
207
208
202
207
208
202
208
209
203
209
210
204
209
211
203
208
210
202
208
210
202
200
202
193
158
160
151
212
215
206
215
218
209
205
208
199
205
208
199
198
201
193
136
139
130
158
161
152
204
207
197
206
209
199
207
211
200
208
211
200
208
211
200
208
211
201
210
213
203
217
220
211
226
228
219
227
230
221
204
208
200
197
201
194
189
194
187
182
187
181
178
183
177
170
177
171
164
171
165
158
167
161
152
161
156
148
157
152
148
157
152
148
158
152
148
158
153
148
159
153
150
161
156
152
163
158
154
164
160
155
165
161
156
166
161
155
167
158
157
168
159
158
170
160
160
170
161
160
170
161
161
171
162
162
172
163
163
173
164
162
172
163
162
172
163
162
172
163
162
172
163
161
171
162
161
171
162
161
171
162
161
171
162
161
171
162
161
171
162
162
172
163
162
172
163
162
172
163
162
172
163
162
172
163
163
173
164
163
173
164
163
173
164
163
173
164
163
173
164
164
174
165
166
176
167
165
175
166
165
175
166
165
175
166
164
174
165
163
173
164
163
173
164
163
173
164
162
172
163
162
172
163
162
172
163
162
172
163
162
172
163
162
172
163
161
171
162
161
171
162
161
171
162
161
171
162
161
171
162
161
171
162
161
171
162
161
171
162
162
172
163
162
172
163
162
172
163
162
172
163
162
172
163
162
172
163
162
172
163
161
171
162
161
171
162
161
171
162
160
172
162
159
172
162
160
172
162
161
173
163
162
174
165
163
174
165
163
175
166
164
175
166
164
176
167
165
177
168
164
176
167
164
176
167
165
177
168
169
180
171
179
190
180
191
200
189
203
213
202
215
223
212
227
233
223
236
242
232
143
165
171
146
164
170
125
139
146
135
148
154
148
165
169
143
166
170
142
166
170
143
167
171
142
166
170
140
164
168
144
163
169
143
162
168
141
160
166
140
159
165
140
159
165
140
157
164
140
157
164
140
157
164
139
156
163
139
156
163
138
156
163
138
155
162
137
154
159
138
155
158
145
160
162
160
172
172
174
184
183
185
194
191
188
197
194
189
196
192
188
198
190
188
198
189
188
198
189
186
197
188
185
196
186
184
196
186
182
195
185
182
194
184
181
193
184
183
193
186
185
195
187
185
193
184
188
194
184
218
220
209
246
248
235
253
253
240
221
223
204
195
197
167
220
219
183
226
223
187
228
226
191
210
210
176
194
194
158
182
182
145
181
181
143
180
179
141
184
181
139
185
182
137
185
180
130
177
170
116
169
162
107
164
159
104
163
158
103
173
167
119
166
159
116
161
154
108
164
157
113
168
161
117
176
169
125
171
164
120
177
170
127
166
163
131
159
160
143
164
169
161
166
172
165
175
180
174
182
187
181
191
195
190
199
202
196
205
207
200
210
212
205
209
213
206
209
214
207
209
214
207
208
213
206
208
213
206
210
213
206
209
212
205
195
198
191
129
132
125
129
132
125
149
152
143
141
144
135
203
206
197
207
210
201
207
210
201
208
209
202
208
209
203
208
209
203
208
209
203
208
209
203
208
209
203
208
209
203
208
209
203
208
209
203
209
210
204
210
211
204
209
210
202
208
209
201
201
202
194
159
160
152
212
215
206
215
218
209
205
208
199
205
208
199
199
202
193
136
139
130
158
161
151
204
207
196
206
209
198
207
211
198
208
212
198
209
212
199
209
212
201
210
213
202
217
220
211
226
229
220
227
230
221
203
207
199
196
201
194
188
194
187
181
187
180
176
181
175
170
177
170
164
171
164
157
167
159
153
162
155
151
157
153
150
157
153
149
158
153
149
158
153
149
159
154
150
161
157
152
163
158
154
165
160
155
166
162
155
166
161
155
168
158
157
169
159
159
171
161
159
171
161
160
170
161
161
171
162
162
172
163
163
173
164
162
172
163
162
172
163
161
171
162
161
171
162
161
171
162
161
171
162
161
171
162
161
171
162
161
171
162
161
171
162
162
172
163
162
172
163
162
172
163
162
172
163
162
172
163
163
173
164
163
173
164
163
173
164
163
173
164
163
173
164
164
174
165
165
175
166
165
175
166
165
175
166
165
175
166
164
174
165
164
174
165
164
174
165
163
173
164
162
172
163
162
172
163
162
172
163
162
172
163
162
172
163
162
172
163
161
171
162
161
171
162
161
171
162
161
171
162
161
171
162
161
171
162
161
171
162
161
171
162
162
172
163
162
172
163
162
172
163
162
172
163
162
172
163
162
172
163
162
172
163
161
171
162
161
171
162
161
171
162
160
172
162
160
172
162
161
173
163
161
173
163
163
175
165
163
175
165
163
175
165
164
176
166
165
177
167
166
178
168
165
177
167
165
177
167
166
177
168
171
181
172
181
191
182
193
201
191
203
214
203
216
224
213
229
233
224
236
243
233
143
165
170
148
165
172
127
140
146
134
147
152
147
163
167
144
165
170
143
165
170
144
166
171
144
166
170
141
164
168
144
163
169
143
162
168
141
160
166
140
159
165
140
159
165
140
157
164
140
157
164
140
157
164
139
156
163
139
156
163
138
156
163
138
155
162
137
155
159
138
155
158
145
161
161
160
171
170
175
183
181
186
192
190
189
195
191
190
195
191
188
197
189
187
199
188
187
199
188
186
197
187
185
196
186
184
196
186
183
194
186
183
193
184
184
192
183
185
193
183
187
194
181
199
204
188
230
234
217
250
253
235
249
250
231
229
231
209
182
184
156
166
167
138
179
178
149
178
176
145
172
170
136
170
170
136
174
174
138
176
176
140
178
178
140
181
180
142
199
197
157
214
211
167
224
220
172
213
207
154
182
175
121
172
166
113
174
168
116
175
168
120
168
161
117
164
157
112
164
157
113
169
162
118
177
170
126
169
162
118
179
172
127
169
164
121
162
160
129
161
164
145
157
164
153
164
172
166
172
178
173
181
187
181
189
194
188
196
200
193
204
207
200
207
212
205
208
213
206
209
214
207
209
214
207
209
214
207
211
214
207
210
213
206
196
199
192
129
132
125
129
132
125
149
152
143
141
144
135
203
206
197
207
210
201
207
210
201
208
209
202
208
209
203
208
209
203
208
209
203
208
209
203
208
209
203
208
209
203
208
209
203
208
209
203
209
210
204
210
211
204
209
210
202
208
209
201
201
202
194
159
160
152
212
215
206
215
218
209
205
208
199
205
208
199
199
202
193
136
139
130
158
161
151
204
207
196
206
209
198
207
211
198
209
213
199
210
213
200
210
213
202
210
213
202
217
220
211
226
229
220
227
230
221
203
207
199
196
201
194
188
194
187
180
187
180
175
180
174
168
175
168
163
171
164
157
167
159
153
162
155
152
158
154
151
158
154
150
159
154
150
159
154
150
160
154
150
161
155
152
163
157
154
165
159
155
166
160
155
166
159
155
168
158
157
169
159
159
171
161
159
171
161
160
170
161
161
171
162
162
172
163
163
173
164
162
172
163
162
172
163
161
171
162
161
171
162
161
171
162
161
171
162
161
171
162
161
171
162
161
171
162
161
171
162
162
172
163
162
172
163
162
172
163
162
172
163
162
172
163
163
173
164
163
173
164
163
173
164
163
173
164
163
173
164
164
174
165
165
175
166
165
175
166
165
175
166
165
175
166
165
175
166
165
175
166
164
174
165
163
173
164
162
172
163
162
172
163
162
172
163
162
172
163
162
172
163
162
172
163
161
171
162
161
171
162
161
171
162
161
171
162
161
171
162
161
171
162
161
171
162
161
171
162
162
172
163
162
172
163
162
172
163
162
172
163
162
172
163
162
172
163
162
172
163
161
171
162
161
171
162
161
171
162
160
172
162
160
172
162
161
173
163
161
173
163
163
175
165
163
175
165
163
175
165
164
176
166
165
177
167
166
178
168
165
177
167
165
177
167
167
178
168
172
182
173
183
193
183
194
203
192
204
215
204
217
225
214
230
234
225
237
244
234
144
165
169
148
164
169
132
144
150
132
144
148
147
162
165
144
164
170
144
165
170
144
165
170
144
165
170
143
164
169
143
161
168
142
160
166
141
158
165
140
157
164
140
157
164
139
156
163
139
156
163
139
156
163
139
156
163
138
155
162
138
156
162
138
155
160
137
155
158
140
156
157
143
159
159
159
171
169
172
183
179
184
194
189
187
196
190
188
197
190
187
198
190
186
199
191
186
198
190
184
196
188
183
196
188
184
195
188
184
193
186
184
192
183
186
191
180
200
203
190
225
228
207
246
248
220
250
251
223
244
246
215
217
219
186
200
202
167
177
177
144
164
163
136
187
186
161
199
198
169
190
190
157
176
176
142
176
176
140
175
175
138
182
182
144
212
212
174
231
229
191
235
233
191
247
244
198
208
204
153
183
177
125
181
175
125
201
194
147
177
170
123
171
164
118
170
163
118
167
160
116
173
166
122
179
172
128
169
162
118
179
172
127
177
169
122
174
169
127
167
168
138
157
163
149
152
164
157
160
169
164
170
177
173
179
186
180
187
193
187
195
201
194
202
207
200
207
212
205
210
215
208
209
214
207
209
214
207
211
214
207
211
214
207
198
201
194
132
135
128
129
132
125
150
153
145
141
144
135
202
205
196
208
211
202
208
211
202
208
211
203
208
211
204
208
211
204
207
210
203
207
210
203
208
209
203
208
209
203
208
209
203
208
209
203
208
209
203
208
210
202
207
210
201
207
210
201
200
203
194
158
161
152
212
215
206
215
218
209
205
208
199
205
208
199
199
202
193
136
138
130
159
162
153
204
207
196
205
208
197
207
210
197
208
212
198
210
214
200
210
213
202
211
214
203
215
218
209
225
228
219
227
230
221
203
207
199
194
199
192
187
194
187
181
188
181
176
181
175
168
175
168
163
170
163
157
167
159
153
162
155
152
158
154
151
158
154
150
159
154
150
159
154
149
160
154
150
161
155
152
163
156
153
164
158
154
165
158
154
165
158
155
168
158
157
169
159
158
170
160
159
171
161
162
172
163
161
171
162
162
172
163
162
172
163
161
171
162
161
171
162
161
171
162
161
171
162
161
171
162
161
171
162
161
171
162
162
172
163
162
172
163
162
172
163
162
172
163
162
172
163
163
173
164
163
173
164
163
173
164
163
173
164
163
173
164
163
173
164
163
173
164
163
173
164
165
175
166
166
176
167
166
176
167
166
176
167
166
176
167
166
176
167
165
175
166
163
173
164
163
173
164
163
173
164
162
172
163
162
172
163
162
172
163
162
172
163
162
172
163
161
171
162
161
171
162
161
171
162
161
171
162
161
171
162
161
171
162
161
171
162
161
171
162
161
171
162
161
171
162
162
172
163
162
172
163
162
172
163
161
171
162
161
171
162
161
171
162
161
171
162
161
171
162
160
172
162
160
172
162
161
173
163
162
174
164
162
174
164
163
175
165
164
176
166
164
176
166
165
177
167
166
178
168
165
177
167
165
177
167
166
177
168
174
184
175
184
194
184
195
204
193
206
217
205
219
226
216
232
236
227
239
246
235
143
163
167
149
165
169
135
146
150
129
141
144
147
161
164
145
164
169
145
164
170
145
165
170
145
164
170
144
163
169
144
161
168
143
159
166
141
158
165
140
157
164
140
157
164
139
156
163
139
156
163
139
156
163
139
156
163
138
155
162
138
156
161
138
156
159
137
155
157
140
156
157
143
159
158
158
170
166
172
181
176
184
192
187
187
195
188
189
196
189
190
197
190
191
197
191
191
197
190
190
195
189
187
193
187
184
192
183
186
195
183
204
210
194
227
231
210
243
244
221
250
250
220
240
240
205
214
215
178
208
209
170
210
212
171
208
209
171
200
200
168
166
165
136
176
176
149
196
197
167
197
198
165
189
189
155
188
188
152
189
189
153
211
211
173
244
244
207
226
226
189
244
242
202
219
216
171
185
181
132
184
179
128
180
174
126
200
193
148
177
170
123
172
166
118
171
164
120
172
165
121
179
172
128
184
177
133
173
166
122
181
173
130
186
174
131
184
175
130
173
171
137
158
165
147
142
156
149
149
160
156
159
168
163
168
176
171
177
184
177
185
192
185
194
199
192
201
206
199
205
210
203
206
211
204
208
213
206
211
214
207
211
214
207
198
201
194
132
135
128
129
132
125
150
153
145
141
144
135
202
205
196
208
211
202
208
211
202
208
211
203
208
211
204
208
211
204
207
210
203
207
210
203
208
209
203
208
209
203
208
209
203
208
209
203
208
209
203
207
210
202
207
210
201
207
210
201
200
203
194
158
161
152
212
215
206
215
218
209
205
208
199
205
208
199
199
202
193
136
138
130
159
162
153
204
207
196
205
208
197
207
210
197
208
212
198
210
214
200
210
213
202
211
214
203
215
218
208
225
228
219
227
230
221
203
207
199
194
199
192
187
193
186
181
188
181
176
181
175
168
175
168
163
170
163
157
167
159
153
162
155
152
158
154
151
158
154
150
159
154
150
159
154
149
160
154
150
161
153
152
163
155
153
164
156
154
165
157
154
165
157
155
168
158
157
169
159
157
169
159
159
170
161
162
172
163
161
171
162
162
172
163
162
172
163
161
171
162
161
171
162
161
171
162
161
171
162
161
171
162
161
171
162
161
171
162
162
172
163
162
172
163
162
172
163
162
172
163
162
172
163
163
173
164
163
173
164
163
173
164
163
173
164
163
173
164
163
173
164
163
173
164
163
173
164
165
175
166
166
176
167
166
176
167
166
176
167
166
176
167
166
176
167
165
175
166
163
173
164
163
173
164
163
173
164
163
173
164
163
173
164
162
172
163
162
172
163
162
172
163
161
171
162
161
171
162
161
171
162
161
171
162
161
171
162
161
171
162
161
171
162
161
171
162
161
171
162
161
171
162
162
172
163
162
172
163
162
172
163
162
172
163
162
172
163
161
171
162
161
171
162
161
171
162
160
172
162
160
172
162
161
173
163
162
174
164
162
174
164
163
175
165
164
176
166
164
176
166
165
177
167
166
178
168
166
178
168
166
178
168
167
178
169
175
185
176
185
195
186
196
205
194
207
218
207
219
227
216
232
236
227
239
246
235
143
161
165
149
164
168
136
149
152
126
139
141
146
159
161
145
164
169
145
164
170
145
164
170
145
164
170
144
163
169
144
160
167
143
159
166
142
158
165
141
157
164
141
157
164
139
156
163
139
156
163
139
157
162
139
157
162
139
156
162
137
156
160
137
155
158
142
155
155
151
162
158
158
167
161
176
181
171
193
195
184
200
203
192
197
200
187
199
201
189
200
201
189
201
202
190
201
202
189
196
197
183
205
206
191
220
224
205
230
235
212
238
241
215
238
240
210
227
228
194
214
214
177
198
197
158
199
199
160
209
209
173
218
218
182
233
233
197
240
240
208
202
201
172
166
165
137
181
181
152
180
179
149
175
174
143
188
187
154
210
210
174
231
231
193
233
234
196
226
226
189
237
235
196
188
186
142
181
177
128
186
181
131
189
184
138
190
184
142
172
167
121
173
167
121
172
166
123
175
169
126
184
178
136
189
182
139
178
170
126
182
173
128
186
173
132
186
176
133
176
172
139
148
153
137
139
151
147
140
152
149
147
158
154
157
166
162
166
175
169
176
183
176
186
191
185
194
199
193
201
205
199
204
208
201
208
212
205
211
214
207
212
215
208
199
202
194
133
136
129
129
132
124
150
153
144
141
144
135
202
205
196
208
211
202
208
211
202
207
211
203
207
211
204
208
211
204
208
211
204
207
210
203
208
209
203
208
209
203
208
209
202
208
209
202
208
209
202
207
210
201
207
210
200
207
210
200
199
202
193
159
162
151
212
215
205
215
218
208
206
209
199
206
209
199
199
202
193
135
138
129
159
162
153
204
207
197
205
208
198
207
210
199
208
212
200
210
213
202
210
213
203
211
214
204
215
218
209
225
228
219
226
230
221
202
207
198
195
200
193
188
193
187
181
187
181
176
181
175
168
175
168
163
171
163
156
167
159
152
162
155
151
158
154
151
159
154
150
159
154
150
159
154
150
160
154
150
161
153
152
163
155
153
164
156
154
165
157
154
166
157
155
168
158
157
169
159
157
169
159
159
170
160
161
171
162
162
171
162
163
172
163
163
172
163
162
171
162
162
171
162
161
171
162
161
171
162
161
171
162
161
171
162
161
171
162
161
171
162
162
172
163
162
172
163
162
172
163
162
172
163
163
173
164
163
173
164
163
173
164
163
173
164
163
173
164
164
173
164
164
173
164
164
173
165
166
174
166
166
175
167
166
176
167
166
176
167
166
176
167
165
175
167
165
175
166
164
174
165
163
173
164
163
173
164
164
174
165
164
174
165
163
173
164
162
172
164
162
172
164
161
171
163
161
171
163
161
171
163
161
171
162
161
171
162
161
171
162
161
171
162
161
171
162
161
171
162
161
171
162
161
171
163
162
172
163
162
172
163
163
172
164
163
173
164
161
171
163
161
171
162
161
172
163
160
172
162
161
173
163
162
175
165
162
174
164
162
174
164
163
175
165
164
176
166
164
176
166
165
177
167
166
178
168
167
178
169
167
178
169
168
179
170
177
187
178
186
196
187
198
207
196
210
219
208
221
228
217
232
237
227
240
247
236
143
158
162
148
163
166
137
152
155
125
139
140
143
158
159
144
163
168
144
163
169
144
163
169
144
163
169
143
162
168
142
159
166
142
159
166
141
158
165
140
157
164
140
157
164
139
156
163
139
156
163
139
157
161
139
157
161
139
157
159
138
156
162
144
157
158
183
189
178
192
194
176
194
196
174
205
207
182
212
214
188
211
213
188
208
210
186
208
211
187
208
211
190
209
210
192
209
211
191
206
208
185
210
213
189
220
221
196
220
220
194
212
212
182
201
201
166
190
191
151
183
184
142
195
196
152
213
214
173
215
214
181
229
228
199
242
242
209
228
228
195
241
240
213
202
201
177
164
162
135
166
165
136
173
172
144
191
190
160
207
207
173
226
226
189
225
226
189
238
239
202
217
215
176
182
178
134
182
178
129
186
179
129
204
199
156
196
191
151
171
166
123
174
169
125
172
168
126
173
170
126
189
184
143
193
185
144
181
173
128
182
173
125
183
172
127
184
175
133
179
174
143
156
157
144
142
151
152
139
150
149
140
152
148
148
158
154
157
166
160
167
174
168
176
181
177
183
188
184
193
197
191
201
203
198
207
210
203
210
213
206
211
214
207
199
202
194
135
138
129
129
132
122
150
153
144
141
144
135
202
205
196
208
211
202
208
211
202
207
211
203
206
211
204
208
211
204
208
211
204
207
210
203
207
210
203
207
210
203
207
210
201
207
210
201
207
210
201
206
209
200
206
209
199
206
209
198
199
202
191
160
164
150
213
216
203
216
218
205
207
209
198
207
210
199
200
203
193
135
138
129
159
162
153
204
207
198
205
208
199
207
210
201
208
211
202
210
213
204
210
213
204
211
214
205
215
218
209
224
228
219
224
230
220
201
207
198
195
200
193
188
193
187
181
186
180
176
181
175
168
175
168
162
171
164
155
166
158
151
161
154
150
159
154
150
159
154
150
159
154
150
159
154
150
159
154
150
161
153
152
163
155
153
164
156
154
165
157
155
166
158
155
167
157
156
168
158
157
168
159
159
169
160
161
171
162
163
170
162
164
171
163
164
171
163
163
170
162
163
170
162
161
171
162
161
171
162
161
171
162
161
171
162
161
171
162
161
171
162
162
172
163
163
173
164
163
173
164
163
173
164
163
173
164
163
173
164
163
173
164
163
173
164
163
173
164
164
172
165
165
172
165
165
172
165
167
174
167
167
174
167
166
175
168
166
176
168
166
176
168
165
175
167
165
175
167
164
174
166
163
173
165
163
173
165
163
173
165
163
173
165
163
173
165
163
173
165
163
173
165
162
172
164
162
172
164
162
172
163
161
171
163
161
171
163
161
171
163
161
171
163
161
171
163
161
171
162
161
171
162
161
171
162
161
171
162
161
171
163
161
172
164
161
172
164
160
172
163
159
172
163
159
172
163
160
173
163
162
175
165
163
176
166
162
175
165
162
174
164
164
176
166
165
177
167
164
176
166
165
177
167
166
178
168
168
178
169
168
178
169
169
179
170
178
188
179
187
197
188
200
208
197
212
220
209
222
229
219
233
239
229
241
247
237
140
155
159
147
162
165
139
153
156
126
140
141
142
156
158
143
162
167
143
162
168
143
162
168
143
162
168
142
161
167
142
159
166
142
159
166
141
158
165
140
157
164
140
157
164
139
157
162
139
157
161
139
157
161
139
157
159
139
157
159
143
156
163
148
157
157
200
203
190
199
200
178
197
199
173
206
211
183
209
214
187
206
210
187
205
209
187
204
207
187
201
204
189
199
202
187
198
200
185
196
199
181
194
197
178
190
191
172
187
186
165
191
192
163
205
205
169
204
205
163
198
199
156
198
198
158
210
210
173
235
234
202
240
239
209
219
219
188
238
238
208
253
253
227
250
250
226
199
199
172
166
167
136
182
181
151
189
188
158
195
194
162
215
215
180
230
230
197
236
236
204
195
193
156
180
177
132
181
176
128
184
177
129
208
203
161
198
193
155
171
166
124
175
171
127
192
187
147
177
174
130
190
185
145
193
186
145
182
174
129
183
174
125
182
174
125
185
177
131
179
174
142
168
167
154
150
156
157
143
153
150
139
150
146
141
151
146
146
155
150
156
164
159
167
174
170
174
181
177
183
189
182
189
194
188
198
202
195
205
209
202
209
212
205
199
202
194
135
138
129
129
132
122
150
153
144
141
144
135
202
205
196
208
211
202
208
211
202
207
211
203
206
211
204
208
211
204
208
211
204
207
210
203
207
210
203
207
210
203
207
210
201
207
210
201
207
210
201
206
209
200
206
209
199
206
209
198
199
202
191
160
164
150
213
216
203
216
218
205
207
209
198
207
210
199
200
203
193
135
138
129
159
162
153
204
207
198
205
208
199
207
210
201
208
211
202
210
213
204
210
213
204
211
214
205
215
218
209
224
228
219
224
230
220
201
207
198
195
200
193
188
193
187
181
186
180
176
181
175
168
175
168
162
171
164
155
166
158
151
161
154
149
160
153
149
160
153
149
160
153
149
160
153
150
160
153
150
161
153
152
163
155
153
164
156
154
165
157
155
166
158
155
167
157
156
168
158
157
168
159
159
169
160
161
171
162
163
170
162
164
171
163
164
171
163
163
170
162
163
170
162
161
171
162
161
171
162
161
171
162
161
171
162
161
171
162
161
171
162
162
172
163
163
173
164
163
173
164
163
173
164
163
173
163
163
173
163
163
173
163
163
173
163
163
173
163
164
172
164
165
172
164
165
172
164
167
174
166
167
174
166
167
175
167
167
175
167
167
175
167
166
174
166
166
174
166
164
174
165
163
173
164
163
173
164
163
173
164
163
173
164
163
173
164
163
173
164
163
173
164
162
172
163
162
172
163
162
172
163
161
171
162
161
171
162
161
171
162
161
171
162
161
171
162
161
171
162
161
171
162
161
171
162
161
171
162
161
171
162
161
173
163
161
173
163
159
172
162
158
172
162
158
172
162
162
175
165
164
177
167
164
177
167
163
176
166
162
175
165
164
176
166
165
177
167
165
177
167
166
178
168
167
179
169
169
179
170
169
179
170
170
180
171
178
188
179
187
197
188
201
209
198
213
221
210
224
231
220
233
239
229
240
246
236
134
149
153
147
162
165
141
155
158
124
138
140
140
155
156
143
160
166
143
160
167
143
160
167
143
161
168
142
160
167
141
158
165
141
158
165
141
158
165
141
158
165
141
158
165
139
157
162
139
157
161
139
157
159
139
157
159
139
157
157
141
156
157
143
153
155
161
167
169
165
170
165
159
168
154
166
175
160
179
186
173
186
192
182
191
195
186
193
195
189
192
195
189
193
197
190
192
196
188
190
193
183
191
195
183
192
194
178
220
219
198
244
244
216
241
241
205
216
217
174
204
205
163
223
223
187
243
243
210
242
242
211
209
208
177
231
231
202
253
253
226
252
252
228
246
247
223
227
228
200
179
180
148
165
165
131
173
172
140
188
187
156
216
215
184
232
231
203
211
210
184
180
177
142
179
175
130
181
176
128
186
178
132
210
205
164
195
190
152
172
167
126
200
195
154
212
207
167
177
174
131
189
183
143
194
187
146
184
175
130
185
176
127
184
176
128
185
177
130
180
174
138
181
180
162
164
167
163
153
161
156
144
153
148
140
149
144
142
153
149
145
156
152
155
165
159
164
173
168
171
180
172
180
187
180
187
193
186
197
200
193
203
206
199
196
199
190
135
138
129
131
134
124
151
154
145
140
143
134
202
205
196
210
213
204
208
211
202
206
211
203
206
211
204
208
211
204
208
211
204
207
210
203
207
210
203
207
210
203
207
210
201
206
209
200
206
209
200
206
209
199
206
209
199
206
209
198
198
201
190
159
163
150
213
216
203
216
218
205
207
209
198
208
211
200
199
202
192
134
137
128
161
164
155
205
208
199
205
208
199
207
210
201
209
212
203
210
213
204
210
213
204
211
214
205
215
218
209
224
228
218
224
230
220
200
206
197
195
200
193
188
193
187
181
186
180
175
180
174
168
175
168
162
171
163
155
166
158
150
161
153
148
159
151
148
159
151
149
160
152
149
160
152
149
160
152
150
161
153
152
163
155
153
164
156
154
165
157
155
166
158
155
167
157
157
169
159
158
169
160
160
170
161
161
171
162
164
171
163
164
171
163
164
171
163
164
171
163
164
171
163
162
172
163
162
172
163
161
171
162
161
171
162
161
171
162
162
172
163
162
172
163
162
172
163
163
173
164
163
173
164
163
173
163
164
174
163
164
174
163
164
174
163
164
174
163
165
173
162
166
173
162
166
174
162
167
175
164
167
175
164
168
176
166
169
176
167
169
176
167
168
175
166
168
175
166
165
174
164
164
174
162
164
174
162
164
174
162
164
174
162
164
174
163
164
174
162
163
173
161
162
173
161
162
173
161
162
172
161
161
172
160
161
172
160
162
172
160
162
172
160
161
172
161
161
171
162
161
171
162
161
171
162
161
171
162
162
171
162
163
170
161
163
170
161
161
170
160
160
170
160
159
170
160
159
171
161
161
173
163
162
174
164
160
173
163
159
171
161
159
171
161
161
173
163
160
172
162
160
172
162
161
173
163
162
172
163
163
173
164
165
175
166
168
178
169
178
187
178
185
193
182
191
199
188
199
205
195
203
209
199
205
211
201
133
148
152
147
162
165
143
158
161
125
139
140
140
154
156
144
160
166
143
160
167
143
160
167
144
161
168
143
160
167
141
158
165
141
158
165
141
158
165
141
158
165
141
158
165
139
157
161
139
157
159
139
157
159
139
157
157
139
157
157
140
158
155
141
156
157
144
154
160
144
155
159
143
159
156
154
168
163
171
181
177
182
190
185
189
195
189
191
195
189
192
196
190
191
197
190
202
208
199
192
198
187
193
199
186
211
213
195
225
225
200
216
217
187
219
218
183
218
219
179
188
188
149
219
219
187
233
233
203
201
200
169
224
223
193
252
252
226
251
252
228
246
248
225
220
222
198
194
197
167
188
191
156
213
213
176
197
197
164
172
171
140
203
202
173
208
206
182
198
196
174
176
173
139
178
175
130
181
175
128
187
179
135
205
200
160
191
185
149
173
168
128
223
218
177
211
206
167
177
174
130
187
182
142
193
186
145
185
177
132
188
179
132
188
181
135
187
179
133
181
175
136
190
187
163
177
179
167
166
173
166
156
164
159
146
156
152
141
152
148
139
150
147
142
153
147
151
162
156
160
170
162
169
178
170
176
184
176
187
191
184
196
199
191
191
194
186
134
137
128
130
133
123
151
154
145
140
143
134
202
205
196
211
214
205
208
211
202
206
210
203
206
211
204
208
211
204
208
211
204
207
210
203
207
210
203
207
210
203
207
210
201
206
209
200
206
209
200
206
209
199
206
209
199
206
209
198
197
200
189
159
163
149
213
216
203
216
218
205
207
209
198
208
211
200
198
201
192
134
137
128
161
164
155
205
208
199
205
208
199
207
210
201
209
212
203
210
213
204
210
213
204
211
214
205
215
218
209
224
228
218
224
230
220
200
206
197
195
200
193
188
193
187
181
186
180
175
180
174
168
175
168
161
171
163
155
166
158
150
161
153
147
160
150
147
160
150
148
160
151
148
161
151
149
161
152
150
161
153
152
163
155
152
163
155
153
164
156
154
165
157
155
167
157
156
168
158
157
168
159
159
169
160
160
170
161
163
170
162
163
170
162
163
170
162
162
169
161
162
169
161
160
170
161
160
170
161
160
170
161
160
170
161
160
170
161
162
172
163
162
172
163
162
172
163
162
172
163
162
172
163
161
171
161
161
171
160
161
171
160
161
171
160
161
171
160
164
172
160
164
172
159
164
172
159
163
171
158
163
171
158
164
171
160
164
171
161
164
171
161
163
170
159
163
170
159
160
170
157
159
170
156
159
170
156
156
167
153
156
167
153
156
167
153
155
166
152
154
165
151
155
166
152
155
166
152
154
165
151
154
165
151
154
165
151
152
163
149
152
163
149
152
162
150
150
160
151
150
160
151
150
160
151
150
160
151
151
160
150
151
159
148
151
159
148
150
159
148
149
159
148
149
159
148
148
160
150
150
162
152
149
161
151
149
161
151
149
161
151
150
162
152
151
163
153
151
163
153
152
164
154
153
165
155
155
165
156
156
166
157
158
168
159
159
169
160
167
177
167
174
182
171
184
192
181
193
200
189
201
207
197
208
214
204
133
148
151
147
161
165
145
159
161
124
138
139
140
154
155
145
160
166
145
160
166
145
160
167
145
160
167
145
159
167
141
158
165
141
158
165
141
158
165
141
158
165
141
158
165
140
157
162
140
157
161
140
157
159
140
158
158
140
158
157
143
160
158
144
159
158
144
157
158
143
157
157
141
158
157
152
165
163
169
179
175
182
190
184
188
195
186
191
197
185
191
195
184
189
195
182
209
214
197
207
213
192
225
231
209
228
231
207
232
235
206
237
239
208
233
233
198
199
199
162
163
162
125
173
172
139
194
193
163
229
229
198
249
250
220
251
252
227
240
242
219
214
216
195
193
194
171
183
186
154
191
195
153
240
242
200
248
249
214
224
224
196
173
172
150
187
186
167
195
193
174
174
172
136
181
176
130
181
175
129
187
180
136
197
192
152
197
192
154
171
166
127
234
229
191
217
212
174
182
178
134
182
176
134
192
185
142
187
180
134
190
182
135
191
184
140
189
180
136
181
175
134
206
203
173
188
189
170
178
184
171
170
176
166
160
168
161
150
160
155
145
156
153
141
153
148
145
157
150
150
161
153
159
170
161
166
176
166
178
182
175
188
191
184
185
189
180
133
137
128
128
133
124
151
154
144
139
142
133
201
204
195
211
214
205
209
212
203
207
211
203
207
211
203
208
211
203
208
211
204
208
210
203
207
210
202
207
210
202
207
210
201
206
209
200
206
209
200
206
209
199
206
209
200
206
209
199
198
200
190
160
163
152
213
215
204
216
217
207
207
209
199
207
210
200
199
202
192
135
138
129
162
165
156
204
207
198
206
209
200
208
211
202
209
212
203
210
213
204
210
213
204
211
214
205
215
218
209
224
228
218
224
229
218
199
204
194
195
199
191
188
193
185
181
186
179
175
179
173
168
174
167
162
169
162
156
165
157
151
159
152
147
158
149
147
159
150
148
159
150
149
159
151
149
159
150
151
159
151
152
161
152
152
161
152
153
161
153
154
162
154
154
164
153
155
165
154
156
166
155
158
166
156
159
167
157
160
167
158
161
167
158
160
166
157
158
165
155
158
165
155
158
166
156
157
166
156
157
165
155
156
164
154
156
164
154
155
164
154
155
164
153
155
163
154
155
164
153
155
164
154
155
164
151
155
164
150
155
164
150
154
164
150
155
164
151
155
162
150
155
162
149
155
162
150
155
163
150
156
163
150
156
162
151
156
162
151
156
162
151
156
162
151
156
162
151
154
162
149
153
162
148
153
162
149
154
163
150
154
163
150
154
164
150
154
163
150
153
163
149
154
163
150
154
163
150
153
163
150
154
163
149
154
163
149
154
163
150
154
163
150
156
163
153
157
164
156
156
165
156
155
165
156
154
166
156
154
166
156
155
167
156
155
167
156
155
168
156
155
168
157
155
168
157
156
169
159
157
169
159
157
170
160
158
171
161
159
172
162
161
173
163
162
174
164
162
174
164
163
176
166
165
176
166
166
176
167
167
177
168
167
177
168
168
178
169
175
184
175
186
193
183
199
206
196
208
214
204
216
223
213
228
235
224
133
147
148
146
159
164
145
159
161
124
139
137
137
151
151
146
159
165
146
159
165
146
159
166
145
158
166
145
158
167
142
158
165
141
158
165
141
158
165
140
157
164
140
157
164
141
156
164
141
156
163
142
156
161
143
159
160
143
159
158
143
159
159
143
159
159
143
158
158
141
156
157
142
158
158
152
163
163
168
177
174
182
189
184
188
195
187
192
198
188
201
206
194
217
221
203
225
230
206
226
231
202
232
236
207
229
234
205
219
224
194
218
221
189
212
213
179
178
176
141
200
198
162
206
205
171
226
226
195
252
253
225
249
251
226
243
246
223
214
215
198
191
193
175
186
186
161
178
180
142
220
224
177
248
253
207
236
240
206
238
240
218
228
229
213
175
176
162
190
189
169
174
171
132
183
177
129
182
175
130
184
180
136
202
197
156
204
199
159
174
169
130
235
232
194
222
217
178
185
177
135
182
175
131
189
182
138
188
181
135
189
182
136
189
185
137
188
181
135
182
176
136
214
212
181
217
218
193
188
192
170
181
186
167
178
185
171
161
169
160
151
160
155
145
154
150
144
153
148
145
156
148
151
162
153
158
168
159
170
175
167
179
182
176
175
180
173
131
136
129
127
132
124
149
153
142
137
140
129
199
202
192
210
213
204
209
212
203
209
212
203
208
211
202
207
210
201
208
211
202
208
211
202
207
210
201
207
210
201
207
210
201
206
209
200
206
209
200
206
209
200
206
209
200
206
209
200
199
200
192
162
163
155
213
214
206
216
217
209
206
207
199
206
209
200
199
202
193
137
140
131
163
166
157
204
207
198
206
209
200
209
212
203
210
213
204
210
213
204
211
214
205
211
214
205
214
217
208
223
226
216
218
221
210
189
192
181
183
186
177
178
181
172
173
176
167
168
171
164
164
167
160
160
163
156
156
159
152
151
154
147
147
153
146
147
152
146
148
151
145
147
150
145
147
151
145
147
152
143
148
154
144
148
153
144
148
154
144
149
155
145
149
155
143
150
156
144
151
157
145
151
157
145
151
157
145
152
158
147
153
159
148
153
159
149
153
159
148
153
159
148
154
160
149
154
160
150
154
160
150
155
161
150
155
161
150
155
161
149
155
161
149
156
162
150
158
164
152
158
164
152
158
164
153
158
164
154
158
164
153
158
164
154
159
165
155
161
167
157
161
168
157
161
168
157
162
168
157
163
169
158
164
170
160
165
171
160
164
171
160
164
170
159
164
170
159
163
169
159
163
169
158
163
169
158
162
169
158
162
169
158
162
169
158
161
169
158
161
169
158
164
172
161
164
172
161
164
171
160
164
170
159
164
170
159
164
170
159
164
170
159
165
170
161
165
169
162
162
170
162
160
172
162
158
173
162
157
173
162
158
171
161
158
171
161
159
172
162
159
172
162
159
172
162
160
173
163
160
173
163
161
174
164
161
174
164
161
174
164
163
175
165
164
176
166
164
176
166
165
177
167
166
178
168
168
178
169
168
178
169
167
177
168
168
178
169
177
186
177
188
193
186
200
206
198
210
216
206
218
226
215
229
237
225
133
147
148
146
159
164
147
161
163
126
140
139
134
148
148
146
159
163
146
159
165
146
159
165
145
158
166
145
158
166
143
158
164
142
158
164
142
158
164
141
157
163
141
157
163
142
155
162
142
155
162
143
156
160
144
158
160
144
158
159
144
158
159
144
158
159
143
157
158
142
156
157
143
157
158
152
162
162
166
175
172
180
187
183
188
195
188
199
205
195
217
222
207
228
233
213
218
223
200
220
224
200
214
218
194
205
209
181
204
207
176
214
216
184
218
219
186
227
227
192
224
223
188
238
238
206
251
251
222
248
250
226
234
237
216
209
212
195
189
191
177
184
187
167
179
182
149
207
210
170
247
250
212
240
244
209
209
212
186
198
200
183
202
203
190
195
196
183
189
189
169
176
173
134
182
176
129
181
174
129
185
180
136
216
211
170
195
190
150
174
169
129
235
230
192
221
215
177
182
175
134
179
172
129
187
180
136
186
179
135
189
183
137
188
183
136
186
179
134
180
174
133
191
189
156
233
235
208
216
219
195
187
191
169
185
190
172
175
182
168
165
172
161
154
164
157
147
156
150
140
150
142
142
152
144
150
160
151
159
165
159
167
172
166
166
171
164
130
135
126
126
130
120
147
151
140
134
137
126
194
197
187
207
210
201
209
212
203
209
212
203
208
211
202
207
210
201
208
211
202
208
211
202
207
210
201
207
210
201
207
210
201
206
209
200
206
209
200
206
209
200
206
209
200
206
209
200
200
201
193
163
164
156
214
215
207
216
217
209
206
207
199
206
209
200
199
202
193
137
140
131
165
168
158
206
209
199
206
209
199
209
212
202
210
213
203
210
213
204
211
214
205
212
215
206
213
216
207
219
222
212
206
209
198
180
183
172
179
182
173
176
179
170
173
176
168
172
175
168
167
170
163
165
168
161
161
164
157
156
159
152
152
155
150
149
153
147
148
152
146
148
152
146
148
152
146
149
155
146
150
156
147
150
157
148
151
158
149
152
159
149
154
163
151
156
164
152
157
165
153
158
166
154
158
166
154
160
168
157
161
169
158
161
169
158
161
169
158
161
169
158
161
169
158
161
169
158
162
170
159
162
170
159
162
170
159
163
171
160
164
172
160
163
171
159
163
171
159
163
171
159
163
171
160
163
171
160
163
171
160
163
171
160
164
172
161
168
176
165
167
175
164
165
173
162
165
173
162
166
174
163
167
175
164
166
174
163
166
174
163
166
174
163
166
174
163
164
172
161
163
171
160
163
171
160
164
172
161
164
172
161
163
171
160
162
170
159
162
170
159
163
171
160
163
171
160
163
171
160
164
172
161
164
172
161
164
172
161
164
172
161
164
171
161
164
169
162
162
170
162
160
172
162
158
172
162
158
173
162
159
172
162
159
172
162
159
172
162
159
172
162
159
172
162
160
173
163
160
173
163
161
174
164
161
174
164
161
174
164
163
175
165
164
176
166
164
176
166
165
177
167
166
178
168
168
178
169
168
178
169
167
178
168
168
179
169
176
186
177
188
195
187
201
208
199
210
218
207
219
227
216
231
238
226
132
146
147
146
159
164
146
160
161
128
142
140
132
146
147
144
158
161
145
159
163
145
158
164
144
157
164
144
157
165
144
158
163
142
157
162
143
158
162
143
158
162
142
157
161
143
156
160
143
156
160
143
157
159
143
157
158
143
157
158
143
157
158
143
157
158
143
157
158
143
157
158
143
156
157
152
162
162
166
175
172
180
187
182
189
196
188
192
199
189
197
202
189
198
201
188
196
200
187
196
198
184
193
195
179
203
206
181
215
218
186
231
232
200
250
251
218
245
246
213
243
243
210
250
249
220
245
246
221
227
229
208
206
209
193
187
190
176
189
192
175
200
204
175
211
216
180
241
245
207
234
239
204
201
205
183
185
187
172
186
187
177
187
188
178
189
191
180
184
184
164
177
174
135
182
177
129
180
173
128
190
186
142
224
219
177
189
184
142
174
169
128
224
219
179
213
208
168
180
172
132
178
171
129
184
177
134
183
176
132
190
183
138
189
184
138
188
181
135
180
174
132
181
179
143
206
208
178
242
244
215
213
216
189
186
190
167
182
187
167
176
183
165
164
173
164
156
165
157
148
157
149
144
153
145
143
152
145
149
155
151
157
163
157
161
166
159
132
136
127
125
128
117
143
146
135
131
134
123
187
190
180
203
206
197
207
210
201
209
212
203
209
212
203
209
212
203
208
211
202
208
211
202
208
211
202
208
211
202
208
211
202
208
211
202
208
211
202
208
211
202
208
211
202
208
211
202
201
202
194
165
166
158
214
215
207
216
217
209
206
207
199
207
209
201
199
202
193
138
141
131
166
169
158
205
208
197
208
211
200
209
212
201
210
213
203
211
214
205
211
214
205
212
215
206
213
216
207
214
217
207
213
216
205
206
209
198
202
205
195
197
200
191
192
195
187
186
189
182
181
184
177
174
177
170
170
173
166
164
168
161
155
162
155
150
158
151
147
157
149
147
158
149
147
158
149
150
160
151
151
161
152
151
161
152
152
162
153
154
164
155
157
164
156
158
166
157
159
167
158
159
167
158
160
168
159
162
170
160
163
171
161
163
172
161
163
171
160
163
171
160
163
171
160
163
171
160
163
171
160
162
171
160
162
171
160
162
170
161
162
170
162
162
170
162
163
170
162
163
170
162
164
172
162
164
173
162
164
173
162
164
173
162
165
173
162
165
173
163
165
173
162
164
173
162
165
173
162
166
174
163
167
175
164
167
175
164
166
175
164
164
173
162
164
173
162
164
172
162
164
172
161
164
172
161
163
172
161
163
172
161
163
171
161
163
171
160
163
171
160
163
171
161
163
171
161
163
171
160
162
171
160
162
171
160
162
171
160
162
171
160
162
170
160
163
171
163
164
173
164
160
172
162
159
172
162
159
172
162
159
172
162
159
172
162
159
172
162
159
172
162
159
172
162
160
173
163
160
173
163
161
174
164
161
174
164
161
174
164
163
175
165
164
176
166
165
177
167
166
178
168
167
179
169
166
178
168
166
178
168
167
179
169
168
180
170
176
188
178
188
198
189
198
208
199
210
218
207
222
230
219
231
237
225
133
147
149
143
157
162
146
160
161
130
144
142
130
144
145
143
157
159
144
158
161
145
159
162
144
157
163
144
157
163
144
159
162
143
157
160
142
157
160
142
156
159
141
155
158
144
156
158
145
156
158
145
156
158
144
155
157
144
155
158
144
155
158
144
155
157
144
155
157
142
153
155
141
152
154
147
157
157
162
171
168
176
183
179
183
190
182
186
192
182
187
192
183
186
189
182
184
187
180
184
185
175
201
204
187
221
223
196
235
236
203
249
250
218
247
248
216
240
243
210
239
241
209
232
233
205
211
212
190
186
189
172
169
171
160
167
171
159
195
200
179
205
209
183
207
212
184
203
206
179
177
180
156
164
167
157
166
168
162
165
166
162
166
168
162
168
169
160
172
172
151
178
175
136
181
175
128
183
176
131
198
193
149
216
212
167
183
178
136
171
166
124
189
184
143
195
190
150
174
166
127
175
168
127
181
174
132
176
169
127
183
176
132
188
183
137
189
182
136
181
175
132
178
176
139
189
192
159
221
222
190
245
247
216
213
217
188
187
191
165
184
190
166
178
185
175
167
174
166
157
164
157
151
157
152
146
152
148
143
151
148
148
155
150
152
157
149
132
136
125
129
131
118
141
143
132
126
129
118
178
181
171
194
197
188
200
203
194
205
208
199
207
210
201
208
211
202
208
211
202
208
211
202
208
211
202
208
211
202
208
211
202
208
211
202
208
211
202
208
211
202
208
211
202
208
211
202
201
202
194
165
166
158
214
215
207
216
217
209
206
207
199
207
210
201
200
203
194
138
141
131
167
170
158
205
209
196
208
211
199
209
213
200
210
214
203
211
214
205
211
214
205
212
215
206
213
216
207
214
217
207
214
217
206
211
214
203
205
208
199
200
203
194
195
198
189
187
190
183
182
185
178
175
178
171
171
174
167
165
169
162
156
164
157
150
160
152
147
158
150
145
160
150
145
160
150
148
161
151
149
162
152
150
162
153
151
164
154
154
166
157
155
165
157
156
166
158
157
167
159
157
167
159
159
169
160
160
170
161
161
171
162
162
172
163
161
171
162
161
171
162
161
171
162
161
171
162
161
171
162
161
171
162
161
171
162
161
171
163
161
171
163
161
171
163
161
171
163
161
171
163
163
173
164
163
173
164
163
173
164
163
173
164
163
173
164
163
173
164
163
173
164
163
173
164
163
173
164
164
174
165
165
175
166
165
175
166
165
175
166
163
173
164
163
173
164
162
172
163
162
172
163
162
172
163
162
172
163
162
172
163
163
171
162
163
170
162
163
170
162
163
170
162
163
170
162
162
170
162
161
171
162
161
171
162
161
171
162
161
171
162
162
172
163
164
174
165
164
174
165
161
172
162
160
172
162
160
172
162
159
172
162
159
172
162
159
172
162
159
172
162
159
172
162
160
173
163
160
173
163
161
174
164
161
174
164
161
174
164
163
175
165
164
176
166
165
177
167
166
178
168
167
179
169
165
178
168
165
178
168
167
179
169
169
181
171
176
189
179
188
201
191
198
210
200
210
219
208
224
231
221
232
238
226
135
149
151
141
155
159
145
159
160
133
147
146
129
142
143
142
156
156
144
158
159
144
158
160
144
158
161
143
158
161
144
156
158
143
155
157
142
154
156
140
153
154
139
152
153
140
152
153
141
152
153
140
151
153
139
150
152
139
150
153
139
150
152
139
150
152
139
150
152
139
149
151
138
149
151
140
149
150
147
156
154
157
164
160
166
173
165
172
178
168
174
178
170
173
176
169
172
175
167
176
178
166
201
204
185
214
216
188
226
227
195
243
244
213
231
233
202
223
226
195
211
214
187
199
200
178
175
178
160
169
172
159
169
172
164
169
173
163
175
179
164
177
180
167
177
179
164
173
176
161
174
176
166
175
177
172
178
180
177
179
181
178
180
183
177
181
183
174
181
181
161
187
185
145
184
179
131
185
178
133
211
207
162
193
189
144
181
176
132
171
166
124
174
169
127
183
178
137
179
171
132
172
165
126
178
171
131
176
169
128
173
167
125
187
182
136
189
183
136
181
176
130
178
176
136
187
187
153
198
198
164
225
226
193
241
244
212
221
225
194
189
194
165
184
191
176
180
186
176
171
178
171
161
168
163
153
160
155
145
154
150
146
153
148
147
152
144
126
129
117
125
127
113
140
142
130
124
127
115
167
170
159
185
188
178
192
195
186
200
203
194
204
207
198
207
210
201
207
210
201
208
211
202
208
211
202
208
211
202
208
211
202
208
211
202
208
211
202
208
211
202
208
211
202
208
211
202
201
202
194
165
166
158
214
215
207
216
217
209
207
208
200
207
210
201
199
202
193
139
142
132
167
171
158
206
210
196
207
211
198
209
213
200
210
214
203
211
214
205
211
214
205
212
215
206
213
215
207
214
217
208
215
218
208
213
216
206
208
211
201
202
205
196
196
199
191
188
191
184
183
186
179
176
179
172
172
175
168
166
169
163
159
163
157
153
160
153
149
159
151
148
160
151
148
160
151
148
160
152
149
161
153
150
163
154
152
165
156
154
166
158
155
166
157
156
167
158
157
167
159
158
168
159
159
169
161
160
170
161
161
171
162
162
172
163
161
171
162
161
171
162
161
171
162
161
171
162
161
171
162
161
171
162
161
171
162
161
171
163
161
171
163
161
171
163
161
171
163
161
171
163
163
173
164
163
173
164
163
173
164
163
173
164
163
173
164
163
173
164
163
173
164
163
173
164
163
173
164
164
174
165
165
175
166
165
175
166
165
175
166
164
174
165
163
173
164
162
172
163
162
172
163
162
172
163
162
172
163
162
172
163
162
171
162
162
170
162
162
170
162
162
170
162
162
170
162
162
171
162
161
171
162
161
171
162
161
171
162
161
171
162
162
172
163
166
176
167
162
172
163
161
171
162
161
171
162
160
172
162
159
172
162
159
172
162
159
172
162
159
172
162
159
172
162
160
173
163
160
173
163
161
174
164
161
174
164
161
174
164
163
175
165
164
176
166
165
177
167
165
178
168
166
179
169
164
179
168
165
179
169
167
180
170
170
182
173
177
190
180
188
201
191
200
211
200
212
221
209
224
232
220
233
238
227
134
149
152
140
154
157
144
158
159
138
149
151
129
141
141
142
154
154
147
159
159
144
158
158
144
158
158
142
158
157
142
153
154
141
151
153
140
150
152
140
150
152
140
150
152
140
150
152
140
150
152
140
150
152
140
150
152
140
150
152
139
149
151
139
149
151
138
148
150
137
147
149
137
147
149
139
148
150
143
150
151
152
158
156
163
169
163
175
181
171
183
187
179
185
188
181
187
189
180
186
188
177
192
194
181
196
198
179
201
203
180
207
209
188
202
204
183
195
197
177
187
190
174
183
185
176
182
185
175
181
184
176
181
184
177
181
184
177
182
185
178
183
186
179
183
186
179
183
186
179
183
186
179
185
188
181
186
189
182
187
190
183
187
190
183
187
190
181
181
182
162
185
183
145
184
179
131
187
182
134
210
208
161
182
178
133
179
175
130
172
167
124
170
165
123
170
165
123
174
169
129
171
166
126
177
172
132
174
169
129
166
161
120
177
173
125
188
184
134
179
175
127
178
173
132
184
179
144
196
195
161
200
200
167
236
237
205
245
249
216
226
229
198
194
199
176
184
188
173
183
188
180
171
178
171
162
172
164
152
161
157
148
155
151
145
150
143
124
128
117
122
125
112
128
130
118
122
125
114
163
166
157
177
181
174
183
188
182
191
195
187
198
201
192
204
207
198
206
209
200
208
211
202
208
211
202
208
211
202
209
212
203
208
211
202
208
211
202
209
212
203
209
212
203
209
212
203
202
203
195
167
168
160
215
216
208
216
217
209
207
208
200
207
210
201
197
200
191
142
145
134
168
172
158
206
210
196
206
209
198
209
212
201
210
213
203
211
214
205
211
214
205
213
214
206
214
215
207
216
218
209
216
219
210
214
217
208
210
213
204
203
206
197
197
200
191
191
194
187
182
185
178
177
180
173
171
174
167
165
169
162
158
163
157
153
159
153
150
159
151
149
160
152
149
160
152
149
160
152
150
161
153
152
163
155
153
164
156
154
165
157
155
167
157
156
168
158
158
168
159
159
169
160
160
170
161
160
170
161
161
171
162
162
172
163
161
171
162
161
171
162
161
171
162
161
171
162
161
171
162
161
171
162
161
171
162
161
171
162
161
171
162
161
171
162
162
172
163
162
172
163
163
173
164
163
173
164
163
173
164
163
173
164
163
173
164
163
173
164
163
173
164
163
173
164
163
173
164
163
173
164
164
174
165
165
175
166
165
175
166
165
175
166
164
174
165
162
172
163
162
172
163
162
172
163
162
172
163
162
172
163
161
171
162
161
171
162
161
171
162
161
171
162
161
171
162
161
171
162
161
171
162
161
171
162
161
171
162
161
171
162
161
171
162
161
171
162
161
171
162
160
172
162
160
172
162
160
172
162
160
172
162
160
172
162
160
172
162
160
172
162
160
172
162
160
173
163
160
173
163
160
173
163
161
174
164
162
175
165
163
176
166
164
177
167
164
177
167
165
178
168
165
179
169
163
179
169
164
181
171
167
181
172
171
182
174
180
191
182
191
201
191
203
212
201
214
222
210
224
231
218
233
239
227
134
149
152
137
151
154
145
159
160
139
150
152
127
139
139
142
154
154
147
159
159
144
158
158
144
158
158
142
158
157
144
155
156
143
153
155
142
152
154
141
151
153
141
151
153
142
152
154
142
152
154
142
152
154
141
151
153
141
151
153
140
150
152
140
150
152
140
150
152
140
150
152
140
150
152
141
149
151
141
149
150
148
155
154
159
165
161
171
177
170
180
185
179
185
189
183
188
192
184
190
192
183
191
194
182
191
193
180
191
194
180
188
191
178
186
188
177
185
186
176
184
186
176
185
188
179
183
186
177
184
187
179
184
187
180
183
186
179
183
186
179
184
187
180
185
188
181
185
188
181
186
189
182
187
190
183
188
191
184
188
191
184
188
191
184
189
191
183
183
184
166
172
170
133
180
175
128
182
176
130
188
185
140
180
176
131
180
176
131
174
169
126
169
164
122
164
159
118
165
160
120
167
162
122
175
170
130
174
169
129
164
159
118
164
158
112
179
174
127
181
176
128
178
172
131
179
173
137
188
188
154
192
193
159
206
207
176
240
244
211
244
248
216
230
233
205
202
207
184
194
199
185
185
191
182
177
183
177
166
173
168
158
164
158
151
155
146
126
129
117
121
123
109
124
127
116
113
116
106
149
153
146
168
173
168
175
180
175
182
187
179
189
193
183
195
199
190
200
205
195
205
209
200
207
210
201
208
211
202
209
212
203
208
211
202
208
211
202
209
212
203
209
212
203
209
212
203
203
204
196
168
169
161
215
216
208
216
217
209
207
208
200
207
210
201
197
200
191
143
146
136
170
174
160
206
210
196
206
209
198
209
212
201
210
213
203
211
214
205
211
214
205
214
215
207
216
217
209
217
218
210
216
219
209
214
217
207
210
213
204
204
207
197
198
201
192
192
195
188
184
187
180
177
180
173
171
174
167
165
169
162
158
163
157
153
159
153
150
159
151
149
160
152
149
160
152
149
160
152
150
161
153
152
163
155
153
164
156
154
165
157
155
167
157
156
168
158
158
168
159
159
169
160
160
170
161
160
170
161
161
171
162
162
172
163
161
171
162
161
171
162
161
171
162
161
171
162
161
171
162
161
171
162
161
171
162
161
171
162
161
171
162
161
171
162
162
172
163
162
172
163
163
173
164
163
173
164
163
173
164
163
173
164
163
173
164
163
173
164
163
173
164
163
173
164
164
174
165
164
174
165
165
175
166
165
175
166
165
175
166
165
175
166
164
174
165
162
172
163
162
172
163
162
172
163
162
172
163
162
172
163
161
171
162
161
171
162
161
171
162
161
171
162
161
171
162
161
171
162
161
171
162
161
171
162
161
171
162
161
171
162
161
171
162
161
171
162
161
171
162
160
172
162
160
172
162
160
172
162
160
172
162
160
172
162
160
172
162
160
172
162
160
172
162
160
173
163
160
173
163
160
173
163
161
174
164
162
175
165
162
176
166
163
177
167
163
177
167
164
178
168
164
180
169
163
179
169
164
181
171
166
180
171
172
183
175
183
194
185
194
204
193
205
215
204
216
224
212
225
232
220
234
240
228
137
152
155
137
151
154
144
158
159
140
152
153
126
138
138
142
154
154
147
159
159
145
159
159
144
158
158
142
158
157
145
156
157
145
155
157
143
153
155
143
153
155
143
153
155
143
153
155
143
153
155
143
153
155
142
152
154
142
152
154
141
151
153
141
151
153
141
151
153
141
151
153
141
151
153
141
150
152
140
150
151
142
151
151
150
158
156
163
169
167
173
179
175
179
186
180
186
192
185
190
195
187
191
194
185
190
193
182
188
192
181
186
189
180
185
187
179
185
188
181
186
189
180
186
189
180
185
188
179
185
188
180
185
188
181
185
188
181
185
188
181
185
188
181
186
189
182
186
189
182
186
189
182
188
191
184
189
192
185
190
193
186
190
193
186
190
193
185
184
185
167
168
166
129
177
171
125
177
171
126
176
173
128
179
175
128
179
175
129
174
170
127
172
167
127
165
160
121
161
156
116
162
157
117
173
168
128
176
171
131
166
161
121
162
155
112
166
159
113
182
175
129
179
172
131
178
170
134
183
182
148
191
192
158
190
191
159
207
210
177
237
240
209
244
247
215
231
234
205
210
214
193
198
202
188
187
192
185
178
183
177
171
174
168
161
164
153
132
133
120
123
124
108
124
127
114
111
115
104
140
146
136
160
166
159
168
175
168
174
180
172
181
187
177
187
193
183
191
197
187
198
204
194
204
208
199
207
210
201
208
211
202
208
211
202
208
211
202
209
212
203
210
213
204
210
213
204
203
204
196
169
170
162
216
217
209
216
217
209
208
209
201
207
210
201
197
200
191
146
149
138
171
175
161
205
209
195
206
209
198
209
212
201
210
213
203
211
214
205
212
215
206
213
215
207
216
217
209
217
219
210
217
220
209
214
217
206
211
214
203
205
208
197
199
202
192
192
195
188
184
187
180
177
180
173
171
174
167
166
169
162
157
163
157
152
158
151
150
160
152
149
160
152
149
160
152
150
161
153
151
162
154
153
164
156
154
165
157
154
165
157
155
167
157
156
168
158
157
168
159
158
168
159
159
169
160
160
170
161
161
171
162
162
172
163
161
171
162
161
171
162
161
171
162
161
171
162
161
171
162
161
171
162
161
171
162
162
172
163
162
172
163
162
172
163
162
172
163
162
172
163
162
172
163
162
172
163
162
172
163
163
173
164
163
173
164
163
173
164
164
174
165
165
175
166
166
176
167
166
176
167
166
176
167
166
176
167
166
176
167
166
176
167
165
175
166
163
173
164
163
173
164
163
173
164
162
172
163
162
172
163
161
171
162
161
171
162
161
171
162
161
171
162
161
171
162
161
171
162
161
171
162
161
171
162
161
171
162
161
171
162
161
171
162
161
171
162
161
171
162
160
172
162
160
172
162
160
172
162
160
172
162
160
172
162
160
172
162
160
172
162
160
172
162
160
173
163
161
174
164
162
175
165
163
176
166
162
176
166
160
176
165
161
177
166
163
179
168
163
179
168
164
181
170
164
181
171
165
181
171
166
180
171
174
185
177
185
196
187
194
204
194
206
215
204
217
225
213
226
233
221
236
242
230
138
153
156
136
150
153
143
158
158
143
154
156
126
138
138
141
153
153
146
158
158
145
159
159
144
158
158
142
158
157
145
156
158
145
155
157
143
153
155
144
154
156
144
154
156
143
153
155
143
153
155
143
153
155
142
152
154
142
152
154
141
151
153
141
151
153
141
151
153
141
151
153
141
151
153
140
150
152
140
150
151
140
149
151
142
150
151
151
159
160
160
168
167
169
177
173
178
186
180
185
192
184
187
193
185
188
194
184
186
192
182
184
190
181
183
188
181
184
189
183
186
190
182
186
189
180
185
188
179
185
188
180
185
188
181
185
188
181
185
188
181
185
188
181
186
189
182
186
189
182
186
189
182
188
191
184
189
192
185
190
193
186
190
193
186
190
193
186
187
188
171
168
165
130
175
169
124
176
170
126
175
172
127
178
174
126
178
174
127
177
172
129
173
168
128
162
157
119
160
155
115
161
156
116
171
166
126
175
170
130
170
165
125
162
153
114
162
154
111
167
159
116
179
171
130
179
171
133
179
178
143
191
192
158
189
190
158
189
192
160
210
213
181
240
240
209
240
242
211
224
228
200
206
210
189
202
206
192
192
195
187
185
188
179
172
173
161
138
139
122
146
145
126
146
151
133
119
126
108
141
148
133
157
165
152
160
167
155
168
175
164
174
181
171
180
187
177
184
191
181
191
198
188
198
202
193
202
205
196
205
208
199
208
211
202
209
212
203
210
213
204
210
213
204
210
213
204
203
204
196
169
170
162
216
217
209
217
218
210
209
210
202
208
211
202
197
200
191
147
150
139
172
176
162
206
210
196
206
209
198
209
212
201
210
213
203
211
214
205
212
215
206
214
215
207
216
217
209
218
220
211
217
220
208
215
218
206
212
215
203
206
209
197
199
202
191
192
195
188
184
187
180
177
180
173
171
174
167
166
169
162
157
162
156
151
158
151
151
160
152
149
160
152
149
160
152
150
161
153
152
163
155
154
165
157
154
165
157
154
165
157
155
167
157
156
168
158
157
168
158
158
168
159
159
169
160
160
170
161
161
171
162
162
172
163
161
171
162
161
171
162
161
171
162
161
171
162
161
171
162
161
171
162
161
171
162
162
172
163
162
172
163
162
172
163
162
172
163
162
172
163
162
172
163
162
172
163
162
172
163
163
173
164
163
173
164
163
173
164
164
174
165
165
175
166
166
176
167
166
176
167
166
176
167
166
176
167
166
176
167
166
176
167
165
175
166
163
173
164
163
173
164
163
173
164
162
172
163
162
172
163
161
171
162
161
171
162
161
171
162
161
171
162
161
171
162
161
171
162
161
171
162
161
171
162
161
171
162
161
171
162
161
171
162
161
171
162
161
171
162
160
172
162
160
172
162
160
172
162
160
172
162
160
172
162
160
172
162
160
172
162
160
172
162
160
173
163
161
174
164
163
176
166
163
176
166
162
176
166
161
178
166
162
179
167
162
179
168
163
180
168
164
181
170
164
181
171
165
181
171
166
180
171
175
186
178
185
196
187
195
205
195
207
216
205
217
225
213
226
234
221
237
243
231
140
154
157
135
149
151
145
159
160
144
157
158
127
139
139
139
151
151
145
157
157
144
158
158
144
158
158
142
158
157
145
156
158
145
155
157
143
153
155
144
154
156
144
154
156
143
153
155
143
153
155
143
153
155
142
152
154
142
152
154
141
151
153
141
151
153
141
151
153
141
151
153
141
151
153
140
150
152
140
150
151
140
150
151
140
148
150
144
153
155
150
158
158
158
167
164
169
177
173
179
186
180
184
191
183
187
193
185
186
191
185
184
189
183
183
188
182
184
189
184
186
190
183
186
189
181
185
189
180
185
188
180
185
188
181
185
188
181
185
188
181
185
188
181
186
189
182
186
189
182
186
189
182
188
191
184
189
192
185
190
193
186
190
193
186
190
193
185
190
192
176
167
165
132
174
169
124
174
169
124
174
171
126
177
173
125
177
173
127
177
172
130
199
194
155
183
178
141
160
155
115
161
156
116
168
163
123
174
169
129
174
169
129
163
154
116
163
154
113
164
155
112
166
157
116
175
167
129
175
173
138
192
192
160
189
189
158
185
188
156
188
191
159
203
202
173
229
229
199
236
238
208
211
214
189
206
210
187
208
213
191
211
217
192
204
206
176
207
206
169
212
211
171
205
210
169
197
205
165
198
208
170
199
209
172
183
193
159
181
190
167
178
187
169
175
185
168
177
186
172
186
192
181
192
196
187
197
200
192
202
205
196
207
210
199
208
212
201
209
214
203
209
213
203
210
213
203
203
205
196
170
172
163
217
218
209
218
219
210
210
212
202
209
212
202
199
202
191
149
152
140
173
177
163
207
210
197
207
210
198
209
212
200
210
213
202
211
214
205
212
215
206
215
217
208
217
219
209
219
221
210
218
221
207
215
219
205
212
215
202
206
209
196
199
202
192
192
195
188
184
187
181
177
180
173
170
174
167
165
169
162
156
163
156
151
158
151
150
160
152
149
160
152
149
160
152
150
161
153
152
163
154
154
165
156
154
165
157
154
166
157
155
167
157
156
168
158
157
168
159
158
168
159
159
169
160
160
170
161
161
171
162
161
171
162
161
171
162
161
171
162
161
171
162
161
171
162
161
171
162
161
171
162
161
171
162
162
172
163
162
172
163
162
172
163
162
172
163
162
172
163
162
172
163
162
172
163
162
172
163
163
173
164
163
173
164
163
173
164
164
174
165
165
175
166
166
176
167
166
176
167
166
176
167
166
176
167
166
176
167
166
176
167
165
175
166
163
173
164
163
173
164
163
173
164
162
172
163
162
172
163
161
171
162
161
171
162
161
171
162
161
171
162
161
171
162
161
171
162
161
171
162
161
171
162
161
171
162
161
171
162
161
171
162
161
171
162
161
171
162
160
172
162
160
172
162
160
172
162
160
172
162
160
172
162
160
172
162
160
172
162
160
172
162
160
173
163
162
174
164
162
176
166
162
176
166
162
177
166
161
179
167
162
180
168
163
180
168
163
180
169
164
181
170
164
181
171
165
181
171
166
181
171
175
186
178
185
197
187
197
206
196
208
218
207
218
226
214
227
234
222
237
243
231
142
156
157
133
147
148
147
161
162
143
157
157
127
141
141
138
150
150
146
159
159
144
158
158
144
158
158
142
158
157
145
156
158
145
155
157
144
154
156
145
155
157
143
153
155
143
153
155
143
153
155
143
153
155
142
152
154
142
152
154
141
151
153
141
151
153
141
151
153
141
151
153
141
151
153
140
150
152
140
150
152
140
150
152
139
149
151
140
150
152
144
152
151
149
155
153
159
165
162
168
174
170
179
186
180
185
190
184
186
191
184
185
190
183
184
189
182
184
189
182
184
189
182
185
190
183
186
190
183
186
189
182
186
189
182
186
188
182
185
188
181
185
188
181
185
188
181
186
189
182
187
190
183
188
191
184
189
192
185
191
194
187
191
194
187
191
195
187
191
195
182
170
169
144
173
169
126
173
170
122
173
170
125
177
172
129
177
172
130
179
174
134
206
201
163
195
189
152
170
165
125
161
156
116
165
160
120
173
168
128
174
169
128
164
158
116
163
154
113
167
155
115
162
153
112
165
160
118
176
172
134
193
189
159
199
196
171
188
189
159
188
190
155
190
189
158
201
201
170
236
235
207
218
218
189
222
224
188
239
244
203
233
235
191
207
200
151
189
176
120
184
172
108
176
166
106
164
159
101
165
164
108
170
172
120
173
173
124
177
179
134
181
188
146
181
191
154
184
193
163
186
191
168
189
191
177
191
193
184
194
198
188
201
207
193
203
209
197
207
214
202
207
214
202
208
213
203
204
205
197
174
175
168
217
218
208
218
220
207
211
213
200
211
213
200
200
202
190
151
153
140
176
178
165
207
209
196
209
211
198
211
213
200
212
214
202
212
215
204
214
217
206
216
220
206
217
221
207
219
222
208
221
222
208
217
219
206
213
215
204
207
209
199
200
203
195
193
194
189
185
188
183
175
180
174
169
175
169
161
171
163
154
164
155
150
160
151
150
161
151
149
161
151
149
161
151
150
162
152
152
164
154
154
166
156
155
167
157
155
167
157
154
167
157
156
168
158
157
169
159
158
170
160
160
170
161
161
171
162
161
171
162
161
171
162
161
171
162
161
171
162
161
171
162
161
171
162
161
171
162
161
171
162
161
171
162
161
171
162
162
172
163
163
173
164
162
172
163
162
172
163
163
173
164
163
173
164
163
173
164
163
173
164
163
173
164
163
173
164
164
174
165
165
175
166
166
176
167
166
176
167
165
175
166
165
175
166
165
175
166
165
175
166
164
174
165
163
173
164
163
173
164
163
173
164
162
172
163
162
172
163
161
171
162
161
171
162
161
171
162
161
171
162
161
171
162
161
171
162
162
171
162
162
171
162
162
171
162
162
171
162
161
171
162
160
172
162
160
172
162
160
172
162
160
172
162
160
172
162
161
173
163
161
173
163
161
173
163
161
173
163
161
173
163
162
174
164
162
175
165
161
176
165
161
178
166
161
179
167
162
178
167
163
179
168
164
180
169
164
180
169
164
180
169
163
181
169
164
182
170
167
183
172
176
189
179
187
198
188
200
208
197
211
219
208
221
227
217
228
234
224
236
242
232
145
158
159
133
146
148
146
159
160
146
159
159
127
140
140
137
149
149
146
159
159
144
158
158
144
158
158
142
158
157
145
156
158
144
155
157
143
154
156
144
155
157
142
153
155
142
153
155
143
153
155
143
153
155
142
152
154
142
152
154
141
151
153
141
151
153
141
151
153
141
151
153
141
151
153
140
150
152
140
150
151
140
150
151
140
150
151
139
149
150
141
150
149
142
149
148
148
155
153
156
163
159
169
176
171
177
182
177
181
186
180
185
190
184
184
189
183
184
189
183
184
189
183
185
190
183
186
190
183
186
189
182
186
189
182
186
188
182
185
188
181
185
188
181
185
188
181
186
189
182
187
190
183
188
191
184
189
192
185
191
194
187
192
195
188
192
195
188
192
194
183
182
182
160
169
166
127
171
169
122
172
169
126
175
170
128
175
170
128
174
169
128
177
172
132
171
166
127
184
179
139
170
165
125
163
159
119
170
165
125
173
168
128
167
161
119
163
154
113
166
154
114
165
156
115
166
160
118
179
176
137
185
182
151
215
214
188
203
203
174
188
192
155
188
191
153
188
189
151
204
202
167
219
215
179
217
213
168
207
197
140
185
163
105
180
148
90
178
142
82
168
129
69
157
119
67
141
109
60
139
116
67
132
114
68
145
128
85
149
135
89
158
151
101
164
163
114
161
166
117
170
177
130
179
185
146
186
190
164
191
194
178
196
200
186
197
201
191
204
207
200
208
211
203
211
213
205
205
206
198
175
176
167
217
219
207
218
220
207
211
213
200
212
214
201
202
204
191
153
154
142
177
179
166
209
211
198
210
212
199
212
214
201
213
215
203
213
216
205
215
219
206
217
221
207
218
222
208
220
223
209
222
223
209
219
221
207
215
217
205
208
210
200
202
204
196
194
195
190
186
189
184
176
181
175
170
177
170
163
172
164
156
164
157
151
161
153
151
161
153
149
160
152
149
160
152
150
161
153
152
163
155
154
165
157
155
166
158
155
166
158
154
167
157
156
168
158
158
170
160
160
171
161
161
171
162
161
171
162
161
171
162
161
171
162
161
171
162
161
171
162
161
171
162
161
171
162
161
171
162
161
171
162
161
171
162
161
171
162
162
172
163
163
173
164
162
172
163
162
172
163
163
173
164
163
173
164
163
173
164
163
173
164
163
173
164
163
173
164
164
174
165
165
175
166
166
176
167
166
176
167
165
175
166
165
175
166
165
175
166
165
175
166
164
174
165
163
173
164
163
173
164
163
173
164
162
172
163
162
172
163
161
171
162
161
171
162
161
171
162
161
171
162
161
171
162
161
171
162
161
171
162
161
171
162
161
171
162
161
171
162
161
171
162
160
172
162
160
172
162
160
172
162
160
172
162
160
172
162
161
173
163
161
173
163
161
173
163
161
173
163
161
173
163
162
174
164
162
175
165
161
176
165
161
178
166
161
179
167
162
178
167
163
179
168
164
180
169
164
180
169
164
180
169
163
181
169
164
182
170
167
183
172
177
190
180
188
200
190
201
209
198
212
220
209
221
228
217
228
234
224
236
242
232
147
158
160
135
146
148
145
156
157
147
159
159
129
141
141
135
147
147
147
159
159
143
157
157
143
158
157
142
158
157
144
156
158
144
156
158
144
155
157
143
155
157
142
153
155
142
153
155
142
153
155
142
153
155
141
152
154
141
152
154
142
152
154
142
152
154
141
151
153
141
151
153
141
151
153
141
151
152
139
149
150
142
152
153
143
153
154
142
152
153
140
150
150
138
148
147
140
150
147
146
156
152
157
167
162
167
174
169
175
180
174
181
186
180
183
188
182
184
189
183
185
190
184
186
191
185
187
191
185
186
189
183
186
189
183
186
188
182
185
188
181
185
188
181
186
189
182
186
189
182
187
190
183
188
191
184
190
193
186
191
194
187
192
195
188
193
196
189
194
196
187
192
194
176
167
167
133
171
169
126
172
167
125
174
169
127
174
169
127
176
171
129
174
169
127
166
161
120
182
177
137
192
187
147
168
163
123
168
163
123
173
168
128
170
165
123
163
154
113
165
153
113
167
158
117
166
161
119
191
188
149
179
177
145
235
234
207
244
246
214
230
235
196
198
210
167
186
191
148
186
186
146
192
188
146
206
195
147
195
169
109
227
189
130
231
190
130
226
186
125
212
170
110
176
129
84
146
103
61
135
103
62
124
97
58
134
108
72
130
106
65
139
117
74
149
131
85
152
140
92
149
142
91
152
154
104
157
161
119
170
174
139
185
189
160
192
195
174
201
203
191
207
208
198
209
211
199
205
208
194
175
179
162
217
220
205
217
219
206
212
214
201
212
214
201
200
202
189
154
156
143
179
181
168
209
211
198
211
213
200
213
215
202
214
216
204
215
218
205
217
219
206
218
221
207
219
222
207
221
223
209
222
223
209
220
222
208
215
217
206
210
212
202
203
206
198
195
196
191
187
190
185
178
183
177
171
178
171
163
172
165
158
164
158
153
160
153
151
160
153
150
160
153
151
161
153
153
163
155
153
163
155
154
164
156
155
165
158
156
166
158
154
167
157
157
169
159
159
171
161
160
172
162
161
171
162
161
171
162
161
171
162
161
171
162
161
171
162
161
171
162
162
172
163
162
172
163
162
172
163
161
171
162
161
171
162
162
172
163
162
172
163
162
172
163
162
172
163
162
172
163
163
173
164
163
173
164
163
173
164
164
174
165
164
174
165
163
173
164
163
173
164
164
174
165
166
176
167
166
176
167
165
175
166
165
175
166
165
175
166
165
175
166
164
174
165
163
173
164
163
173
164
163
173
164
162
172
163
162
172
163
161
171
162
161
171
162
161
171
162
160
170
161
161
171
162
161
172
162
161
172
162
161
172
162
162
173
163
162
173
163
162
173
163
161
173
163
161
173
163
161
173
163
161
173
163
161
173
163
161
173
163
161
173
163
161
173
163
161
173
163
161
173
163
162
174
164
162
174
164
161
176
165
161
178
167
162
179
168
163
179
168
164
180
169
163
179
168
164
180
169
164
181
170
163
181
169
165
182
170
167
183
172
177
190
180
189
200
190
201
209
198
212
220
209
221
228
218
229
235
225
236
242
232
147
158
160
136
146
148
145
156
157
148
159
159
133
144
144
133
145
145
147
159
159
144
158
158
144
158
158
143
159
158
144
158
159
144
158
159
144
158
159
144
158
159
143
157
158
144
156
157
144
155
157
144
155
157
143
154
156
143
154
156
144
154
156
143
153
155
142
152
154
142
152
154
142
152
154
142
152
153
143
153
152
150
160
159
153
163
162
152
162
161
148
158
158
142
153
151
137
148
146
137
149
145
142
154
150
154
162
158
165
170
166
175
180
176
182
187
183
187
192
188
189
194
189
187
192
186
188
192
186
189
191
186
189
191
186
190
192
186
191
194
187
191
194
187
192
195
188
192
195
188
192
195
188
192
195
188
194
197
190
195
198
191
197
200
193
198
201
194
202
203
196
204
207
192
189
192
163
168
167
126
172
166
125
173
168
127
173
168
126
174
170
126
173
169
124
167
163
118
176
171
131
193
188
148
186
181
141
175
170
130
176
171
131
172
166
124
164
155
114
165
153
113
166
157
116
166
161
118
184
184
144
196
195
161
211
212
183
248
252
219
246
252
212
232
247
199
198
202
155
186
180
135
190
178
133
199
175
123
232
197
135
236
197
134
220
179
116
221
181
119
215
178
114
212
166
118
158
115
72
147
112
70
138
107
67
142
110
74
131
100
62
139
106
68
154
121
82
154
124
84
147
122
79
137
125
78
133
125
80
148
143
96
162
158
109
176
171
128
186
182
153
200
196
175
211
208
188
205
203
186
178
177
162
216
217
204
218
220
207
213
215
202
212
214
201
204
206
193
166
168
155
180
182
169
211
213
200
217
219
206
218
220
207
219
221
208
219
221
208
220
222
209
221
223
209
222
225
210
224
226
210
225
226
212
223
225
211
219
221
209
212
214
204
205
208
200
199
200
195
190
193
187
181
186
180
173
180
173
165
174
167
160
165
161
154
160
156
154
160
156
153
161
156
153
162
157
154
163
158
154
163
158
155
164
159
156
165
160
157
167
160
156
168
158
158
171
161
160
172
162
161
173
163
162
172
163
163
173
164
163
173
164
163
173
164
163
173
164
163
173
164
163
173
164
163
173
164
163
173
164
163
173
164
163
173
164
164
174
165
164
174
165
164
174
165
164
174
165
164
174
165
164
174
165
164
174
165
165
175
166
165
175
166
165
175
166
165
175
166
165
175
166
165
175
166
166
176
167
166
176
167
166
176
167
166
176
167
167
177
168
167
177
168
166
176
167
165
175
166
164
174
165
164
174
165
163
173
164
163
173
164
163
173
164
162
172
163
162
172
163
162
172
163
163
173
164
163
174
164
162
174
164
162
174
164
162
174
164
162
174
164
162
174
164
162
174
164
162
174
164
162
174
164
161
173
163
161
173
163
161
173
163
161
173
163
162
174
164
162
174
164
162
174
164
163
175
165
162
175
165
161
176
166
161
178
167
162
180
168
164
180
169
164
180
169
164
180
169
165
181
170
165
182
171
164
182
170
166
183
171
168
184
173
179
192
181
191
202
192
203
211
200
214
222
211
222
229
219
231
237
227
238
244
234
147
158
159
136
147
148
146
156
157
148
158
159
138
149
150
133
145
145
147
159
160
146
160
160
145
159
159
145
160
159
146
160
161
146
160
161
147
161
162
147
161
162
146
160
161
146
160
161
147
160
161
146
159
161
146
159
160
146
159
160
146
157
159
145
156
158
145
155
157
144
154
156
144
154
156
144
154
155
149
159
158
160
170
169
170
181
179
169
180
178
163
174
173
152
163
162
141
153
151
139
152
150
139
152
149
149
158
155
162
168
164
175
181
177
187
192
188
196
201
197
203
208
203
204
209
203
205
209
203
208
211
206
209
211
206
210
212
206
210
213
206
210
213
206
210
213
206
210
213
206
210
213
206
212
215
208
214
217
210
216
219
212
218
221
214
220
223
215
221
223
216
221
224
213
223
226
200
195
194
157
172
167
126
173
168
128
174
169
127
174
169
125
174
169
123
169
164
119
174
169
129
180
175
135
190
185
144
183
178
138
185
180
141
174
168
128
165
156
116
165
154
113
166
157
116
166
160
119
171
171
130
218
219
184
179
182
151
239
243
209
242
250
206
210
220
165
180
177
124
179
165
115
197
174
122
225
187
130
228
189
118
203
165
93
203
159
90
199
152
86
212
169
103
207
161
106
192
148
97
150
111
62
142
103
60
162
122
81
149
111
69
147
107
66
160
118
78
158
119
77
160
126
83
148
122
78
139
116
73
146
122
76
154
133
76
178
158
95
180
163
105
191
177
127
197
185
144
205
194
163
189
180
157
214
212
195
220
222
208
214
216
203
213
214
201
211
212
199
184
186
173
186
189
176
219
223
210
232
234
221
234
236
223
234
236
223
233
235
222
234
236
222
235
237
223
236
239
223
238
240
224
239
240
226
236
238
225
233
234
223
224
226
217
214
217
209
205
206
201
193
196
191
183
188
182
176
182
175
168
176
169
162
167
163
156
163
158
156
162
158
155
163
158
155
164
159
156
164
160
157
164
160
157
164
160
158
165
161
159
167
162
157
169
160
159
171
161
162
173
163
162
174
164
163
173
164
165
175
166
165
175
166
165
175
166
165
175
166
165
175
166
165
175
166
165
175
166
165
175
166
165
175
166
165
175
166
166
176
167
166
176
167
166
176
167
166
176
167
166
176
167
166
176
167
166
176
167
166
176
167
167
177
168
167
177
168
167
177
168
167
177
168
167
177
168
167
177
168
167
177
168
168
177
168
168
177
168
168
177
169
169
179
170
168
178
169
167
177
168
167
177
168
167
177
168
165
175
166
165
175
166
165
175
166
165
175
166
165
175
166
164
174
165
165
175
166
164
175
166
164
176
166
164
176
166
162
174
164
162
174
164
162
174
164
162
174
164
162
174
164
163
175
165
163
175
165
163
175
165
163
175
165
163
175
165
163
175
165
163
175
165
163
175
165
164
176
166
164
176
166
162
177
166
162
179
167
162
180
169
164
180
170
164
180
170
165
181
170
166
182
171
167
183
172
166
184
172
167
184
172
170
186
175
181
194
183
193
204
194
205
213
202
216
224
213
225
231
221
234
239
229
241
246
236
147
159
159
137
149
149
142
154
154
145
157
157
144
156
156
141
153
154
147
158
160
147
158
160
146
157
159
146
157
159
145
159
160
146
161
162
147
162
162
147
162
162
147
162
162
146
162
162
146
162
162
146
162
162
145
161
161
145
161
161
147
160
161
147
158
160
146
157
159
144
155
157
144
155
157
147
157
158
159
169
169
174
184
183
183
195
190
184
197
190
176
187
182
164
174
171
148
160
159
139
153
153
137
152
153
142
155
154
154
163
160
168
177
174
182
190
185
194
200
196
204
210
205
208
213
207
209
214
208
208
213
207
210
215
209
211
215
209
212
215
208
214
217
210
215
218
211
215
218
211
216
219
212
217
220
213
217
220
213
218
221
214
219
222
215
218
223
213
216
223
212
217
222
214
222
224
204
225
226
190
204
204
162
179
174
133
175
170
128
175
169
127
175
168
124
175
168
125
177
172
135
178
173
132
181
176
132
184
179
138
187
182
143
185
178
143
167
160
121
163
155
112
167
155
115
168
156
120
179
179
139
241
243
207
186
191
156
190
196
153
202
208
155
158
158
96
146
132
72
185
161
103
208
175
113
218
175
111
209
163
94
197
152
82
202
156
89
206
159
93
211
165
99
216
171
107
223
179
118
192
150
93
168
127
76
185
143
96
155
112
66
156
112
67
161
117
73
166
123
77
166
122
77
176
136
93
177
140
95
164
124
74
192
149
92
210
165
103
214
172
106
220
183
119
208
176
119
207
183
132
208
190
145
215
206
174
218
215
195
218
216
202
218
213
199
216
215
198
208
209
194
199
203
190
220
228
214
241
244
228
246
245
232
245
246
233
245
247
233
247
249
235
247
249
235
249
251
237
250
251
237
250
251
236
245
247
234
240
241
232
230
232
224
218
221
215
209
211
206
196
199
194
185
190
184
176
182
176
167
175
168
158
168
160
154
165
157
153
164
156
154
164
156
154
164
157
154
165
161
155
166
162
156
165
162
157
166
163
158
167
163
158
170
161
160
172
162
162
172
163
163
173
164
163
173
164
165
175
166
166
176
167
167
177
168
166
176
167
166
176
167
166
176
167
166
176
167
167
177
168
167
177
168
167
177
168
168
178
169
168
178
169
168
178
169
168
178
169
168
178
169
168
178
169
168
178
169
168
178
169
168
178
169
168
178
169
168
178
169
169
179
170
168
178
169
168
178
169
168
178
169
170
177
170
171
177
170
171
178
170
170
178
170
169
179
170
169
179
170
168
178
169
168
178
169
168
178
169
168
178
169
167
177
168
167
177
168
167
177
168
166
176
167
166
176
167
165
176
167
165
177
167
165
177
167
164
176
166
164
176
166
164
176
166
164
176
166
164
176
166
164
176
166
164
176
166
164
176
166
164
176
166
164
176
166
165
177
167
165
177
167
165
177
167
165
178
168
164
178
168
164
180
169
163
182
170
163
183
171
165
182
172
166
182
172
167
183
173
169
182
173
169
182
173
170
185
175
170
184
174
178
191
181
189
202
190
200
211
200
213
220
210
224
230
220
234
237
228
241
244
235
250
252
244
147
159
159
137
149
149
142
154
154
145
157
157
144
156
156
145
156
158
143
154
156
144
155
157
144
155
157
144
155
157
142
153
155
143
154
156
144
155
157
144
155
157
144
155
157
144
155
157
143
155
157
144
155
157
145
156
158
145
156
158
145
156
158
144
155
157
143
154
156
141
152
154
141
152
154
143
154
154
156
166
165
171
181
177
181
192
186
184
195
187
180
189
182
167
176
171
152
163
159
141
153
151
134
147
147
134
146
144
138
147
144
147
156
153
157
165
160
169
175
171
178
183
179
183
188
182
188
193
187
189
194
188
189
194
188
189
193
186
190
193
186
191
194
187
192
195
188
192
195
188
193
196
189
194
197
190
194
197
190
196
199
192
198
201
194
198
202
193
195
202
190
197
200
193
203
205
189
226
227
196
234
234
196
218
214
175
195
192
151
184
180
138
176
170
128
179
172
134
192
188
156
174
171
132
176
173
130
179
174
132
182
177
136
193
183
146
177
168
128
164
155
112
165
156
113
166
158
117
194
192
153
251
253
210
215
220
174
177
178
133
173
168
126
143
127
73
171
147
89
205
175
113
212
176
113
203
159
98
197
152
86
195
151
84
205
161
94
223
178
113
229
185
120
214
168
101
233
187
121
231
185
123
206
162
104
212
167
112
182
136
84
180
134
83
184
138
88
188
142
91
185
139
88
202
157
103
210
165
107
210
162
102
224
174
109
225
174
106
217
167
100
222
175
111
227
184
122
224
185
127
220
185
130
216
190
142
208
192
154
218
206
177
217
207
182
215
210
190
213
212
193
212
212
196
218
223
209
225
228
213
230
229
215
230
230
218
230
232
218
233
235
221
236
238
224
238
240
226
239
241
226
239
240
225
234
236
223
226
227
218
216
218
211
206
208
203
195
197
192
184
187
182
175
180
174
167
173
167
158
167
159
153
166
157
152
164
155
152
164
155
152
164
155
152
164
156
154
163
157
155
164
159
156
165
159
156
166
160
158
167
161
157
169
159
158
170
160
160
171
162
161
171
162
161
171
162
163
173
164
164
174
165
164
174
165
164
174
165
164
174
165
165
174
165
165
174
165
166
175
166
167
176
167
167
176
167
166
176
167
166
176
167
166
176
167
166
176
167
166
176
167
167
177
168
167
177
168
167
177
168
167
177
168
167
177
168
169
179
170
169
179
170
169
179
170
168
178
169
168
178
169
170
176
169
170
176
169
170
177
169
169
177
169
168
178
169
167
177
168
167
177
168
167
177
168
166
176
167
166
176
167
166
176
167
166
176
167
166
176
167
167
177
168
167
177
168
166
177
167
165
177
167
165
177
167
164
176
166
164
176
166
164
176
166
164
176
166
164
176
166
164
176
166
164
176
166
164
176
166
164
176
166
164
176
166
166
178
168
166
178
168
166
178
168
166
178
168
165
178
168
164
180
169
164
182
170
165
183
171
166
183
173
167
183
173
167
183
173
169
182
173
169
182
173
174
187
178
180
193
183
191
204
194
201
213
201
212
223
211
224
230
220
232
238
228
241
244
235
247
250
241
254
255
247
146
158
158
138
150
150
140
152
152
145
157
157
145
157
157
143
154
156
143
154
156
143
154
156
142
153
155
142
153
155
141
152
154
142
152
154
142
152
154
142
152
154
142
152
154
143
152
155
143
152
155
143
152
155
143
152
155
143
152
155
142
152
154
141
152
153
141
151
153
140
150
152
141
151
152
142
152
151
154
163
160
171
180
175
183
191
184
190
197
189
189
195
187
180
185
179
165
172
166
151
160
156
139
150
147
133
144
141
134
143
140
135
144
141
143
151
146
154
160
156
164
169
164
172
177
171
180
185
179
185
190
184
185
190
184
185
189
183
187
190
183
187
190
183
186
189
182
186
189
182
187
190
183
189
192
185
189
192
185
190
193
186
191
194
187
192
195
188
192
196
187
194
196
190
196
197
188
209
211
189
228
230
197
230
227
192
214
211
172
198
194
152
180
176
136
178
173
140
205
204
178
179
178
145
178
176
134
179
175
130
182
177
131
192
183
141
185
177
134
173
168
123
173
171
124
172
172
124
221
226
178
236
245
186
192
200
137
179
178
127
185
175
139
170
153
105
193
169
114
192
162
102
187
152
91
182
138
82
191
148
87
182
140
77
203
161
98
238
196
132
240
198
133
232
188
118
233
188
118
240
195
126
237
190
124
229
183
117
217
170
107
208
161
99
202
155
94
211
164
102
215
168
106
221
173
110
210
162
97
201
152
87
207
157
91
206
154
88
201
151
85
214
166
102
226
179
115
226
181
118
220
176
114
223
183
122
205
174
119
208
184
137
213
193
153
218
204
174
216
206
180
214
209
188
213
215
199
213
213
199
214
215
200
214
216
202
215
217
203
217
219
205
219
221
207
220
222
208
220
222
207
218
219
204
213
215
202
205
207
198
197
200
192
190
192
187
185
187
182
176
179
174
169
174
168
161
167
161
154
161
154
152
161
152
152
160
152
152
160
152
152
160
152
152
161
153
154
163
155
154
163
156
154
164
156
154
165
157
154
166
158
156
168
158
156
168
158
157
168
159
159
169
160
159
169
160
160
170
161
161
171
162
162
172
163
162
172
163
162
172
163
164
171
163
164
171
163
164
171
163
164
171
163
164
171
163
162
172
163
162
172
163
162
172
163
162
172
163
162
172
163
163
173
164
164
174
165
164
174
165
165
175
166
165
175
166
164
174
165
164
174
165
165
175
166
166
176
167
166
176
167
168
175
167
168
174
167
168
175
167
167
175
167
165
175
166
164
174
165
164
174
165
164
174
165
163
173
164
163
173
164
163
173
164
163
173
164
163
173
164
162
172
163
162
172
163
162
173
163
161
173
163
161
173
163
162
174
164
162
174
164
162
174
164
162
174
164
163
175
165
163
175
165
163
175
165
163
175
165
164
176
166
164
176
166
165
177
167
165
177
167
165
177
167
166
178
168
166
179
169
165
179
169
164
181
169
164
182
170
166
183
173
167
183
173
167
182
172
168
181
172
169
182
173
175
188
179
184
197
187
195
207
197
204
214
203
214
223
212
225
231
221
231
237
227
239
242
233
245
248
239
251
253
244
146
158
158
140
152
152
139
151
151
144
156
156
144
156
156
143
154
156
143
154
156
142
153
155
141
152
154
141
152
154
140
152
154
140
152
154
140
152
154
140
152
154
140
152
154
142
153
155
143
153
155
142
153
155
142
152
154
142
152
154
142
152
153
142
152
153
142
152
153
140
150
151
142
152
153
143
154
151
153
163
157
172
179
172
186
191
183
196
199
190
197
200
190
193
195
187
180
184
177
166
172
167
153
160
156
142
152
148
136
145
142
134
143
140
135
143
138
143
149
145
152
158
153
162
167
161
171
176
170
178
183
177
181
186
180
184
188
182
185
188
181
185
188
181
185
188
181
185
188
181
186
189
182
187
190
183
188
191
184
190
193
186
191
194
187
192
195
188
193
195
187
195
196
190
195
196
191
197
198
184
208
210
184
220
219
188
214
213
175
192
190
149
174
170
133
181
177
149
202
203
183
205
206
177
196
195
155
179
176
130
177
173
124
178
174
126
187
186
139
213
216
168
210
219
166
216
229
171
230
247
182
197
210
135
151
157
80
155
150
93
184
172
134
176
161
116
172
149
101
166
138
88
155
123
70
163
124
72
191
151
92
200
161
100
215
176
116
242
203
140
245
206
141
236
196
126
239
198
127
241
200
129
244
201
129
233
189
117
236
188
118
219
171
100
226
178
108
232
184
113
239
191
121
231
183
115
214
165
100
198
149
86
193
143
82
188
138
79
190
142
82
198
152
91
203
157
97
208
164
104
204
160
101
218
175
113
214
175
114
211
176
119
215
181
131
220
189
149
214
192
158
215
205
179
217
213
196
214
212
199
214
214
199
213
216
201
215
217
203
217
219
205
221
223
209
221
223
209
221
222
208
218
219
204
212
214
201
205
206
197
198
200
192
191
193
188
184
186
181
176
180
174
169
174
168
162
168
161
154
161
154
154
159
152
155
159
152
155
159
152
155
159
152
154
159
152
155
162
154
155
162
154
152
164
154
152
165
155
153
166
156
155
167
157
155
167
157
156
167
158
157
167
158
159
169
160
159
169
160
160
170
161
161
171
162
161
171
162
161
171
162
163
170
162
163
170
162
164
170
162
164
170
162
164
170
162
162
172
163
162
172
163
162
172
163
162
172
163
162
172
163
162
172
163
162
172
163
162
172
163
163
173
164
163
173
164
163
173
164
163
173
164
163
173
164
165
175
166
165
175
166
167
174
166
168
173
166
167
174
166
166
175
166
164
174
165
163
173
164
163
173
164
163
173
164
162
172
163
162
172
163
162
172
163
162
172
163
162
172
163
161
171
162
161
171
162
161
172
162
161
173
163
161
173
163
161
173
163
161
173
163
160
172
162
161
173
163
162
174
164
162
174
164
162
174
164
162
174
164
163
175
165
163
175
165
164
176
166
164
176
166
164
176
166
166
176
167
166
178
168
166
179
169
164
180
169
164
180
169
164
181
171
165
181
171
166
182
172
168
181
172
168
181
172
176
187
179
185
196
187
196
206
197
203
213
202
213
222
211
224
230
220
231
236
226
238
241
232
244
247
238
250
252
243
147
159
159
141
153
153
139
151
151
143
155
155
144
156
156
143
155
156
143
155
156
142
154
155
141
152
154
141
152
154
140
154
154
139
154
155
139
154
154
139
154
154
139
154
154
141
154
155
141
154
155
141
154
155
140
153
154
140
153
154
142
152
154
142
152
153
142
152
153
141
151
152
142
152
153
142
152
149
149
157
152
164
171
164
177
181
173
189
190
182
192
194
183
191
192
184
183
186
178
175
180
173
163
169
163
151
160
155
140
150
147
133
142
139
132
140
135
135
141
138
140
146
141
147
153
147
156
162
156
165
171
165
172
177
171
178
182
176
179
182
175
179
182
175
180
183
176
180
183
176
180
183
176
181
184
177
182
185
178
184
187
180
185
188
181
187
189
182
188
189
183
189
190
184
192
192
189
194
195
186
195
198
177
205
205
178
207
207
173
187
188
149
176
174
139
193
192
166
200
205
186
231
235
206
244
246
206
217
217
170
192
191
142
189
191
139
222
227
178
245
254
204
238
253
198
229
248
184
193
213
136
153
163
81
130
125
46
142
129
68
171
155
113
172
151
111
142
114
76
131
101
61
138
108
62
153
119
69
200
163
106
230
191
132
223
187
126
242
205
142
250
214
150
245
207
139
242
205
134
249
211
140
246
206
133
236
193
119
234
188
112
226
178
102
242
194
118
237
189
113
244
196
120
236
186
117
221
171
106
219
169
108
204
153
95
192
141
86
176
126
70
180
132
75
182
135
80
185
140
87
185
143
90
199
157
100
206
166
106
203
163
104
215
173
117
214
171
123
206
175
134
202
187
156
211
204
185
214
211
197
215
214
198
214
215
199
215
217
203
217
219
205
220
222
208
221
223
208
221
223
207
218
219
204
212
214
201
206
207
198
199
201
193
191
194
188
185
187
182
177
180
175
171
175
169
163
168
162
156
162
155
154
160
153
154
160
153
154
160
152
154
160
152
154
160
153
156
161
153
155
162
153
153
163
153
152
165
154
152
166
155
155
166
157
156
166
157
156
167
157
158
167
158
159
169
159
160
169
160
161
170
161
162
171
162
162
171
162
162
171
162
164
169
162
164
169
162
164
169
162
165
170
163
165
170
163
164
172
163
163
173
164
163
173
164
163
173
164
163
173
164
162
172
163
162
172
163
162
172
163
162
172
163
162
172
163
163
173
164
163
173
163
163
173
164
165
175
165
165
175
165
167
174
166
167
174
166
167
174
166
166
175
166
164
174
165
163
173
164
163
173
164
163
173
164
162
172
163
162
172
163
162
172
163
162
172
163
162
172
163
161
171
162
161
171
162
161
172
162
161
173
163
161
173
163
160
172
162
160
172
162
160
171
161
160
172
162
161
173
163
162
174
164
162
174
164
162
174
164
162
174
164
162
174
164
164
176
166
164
176
166
164
176
166
165
175
166
166
177
167
166
179
169
165
179
169
164
180
169
164
180
170
164
180
170
165
181
171
168
181
172
168
181
172
176
187
179
185
196
187
196
206
197
204
213
202
214
222
211
224
230
220
231
236
226
238
241
232
244
247
238
250
252
243
146
158
156
143
155
153
144
156
156
149
161
162
153
164
166
149
164
165
149
165
165
150
164
165
151
165
166
152
164
166
150
163
164
150
162
164
150
162
164
149
162
163
149
162
163
149
161
162
148
161
161
147
160
160
147
160
160
147
160
160
148
158
161
147
157
160
146
156
159
145
154
158
145
154
158
146
156
157
149
159
159
165
174
170
182
188
181
194
200
190
203
207
198
204
207
200
202
205
198
196
199
192
189
192
185
173
180
173
157
168
161
147
157
151
138
146
142
133
139
137
131
139
136
134
143
138
142
151
146
151
159
154
159
166
159
169
175
168
173
178
171
178
181
174
178
181
173
179
180
172
179
180
173
177
180
173
177
180
173
178
181
174
180
183
176
181
184
177
181
184
177
181
184
177
185
188
181
187
190
182
186
189
180
184
187
174
192
195
176
191
194
170
182
185
160
189
194
168
216
230
198
241
254
215
243
254
210
243
252
205
242
249
204
238
250
198
241
252
206
241
253
205
229
245
184
196
212
138
163
167
90
129
126
53
132
123
60
150
134
81
151
132
86
116
93
61
111
84
51
108
76
37
160
125
78
178
141
89
218
181
121
239
204
141
236
202
136
250
217
147
251
217
146
246
208
140
247
208
139
252
211
141
242
199
127
237
193
119
238
193
118
235
189
114
244
198
124
238
191
118
244
197
125
231
185
114
219
173
105
220
173
112
206
158
100
186
138
80
186
137
81
184
136
83
173
125
74
173
126
78
166
120
72
176
134
83
180
141
86
189
150
96
200
160
106
203
163
110
202
164
113
195
166
122
205
190
158
205
198
176
212
206
187
212
206
189
214
213
198
217
215
200
222
221
204
223
223
205
223
223
206
218
219
205
211
213
199
205
207
196
198
200
190
191
194
185
185
188
179
178
181
173
172
175
168
165
168
161
158
161
155
156
160
151
156
160
151
157
160
151
157
160
151
157
160
152
155
160
153
156
161
155
157
162
155
157
163
156
158
164
157
158
164
154
159
165
155
160
166
156
161
167
157
162
168
158
163
169
159
163
169
159
164
170
160
164
170
160
164
170
160
164
170
160
164
170
160
165
171
161
165
171
161
165
171
161
164
171
160
164
172
161
165
173
162
164
172
161
164
172
161
163
172
163
162
172
163
162
172
163
162
172
163
163
173
164
164
174
163
164
174
163
163
174
163
163
174
162
164
175
164
166
176
165
166
176
166
166
176
166
165
175
165
164
174
164
163
173
163
163
173
162
163
173
162
162
172
161
162
172
161
163
171
162
164
171
163
164
171
163
164
171
163
163
170
162
162
170
162
162
172
163
162
172
163
161
171
162
161
171
162
161
171
162
161
171
162
161
171
162
162
172
163
163
173
164
163
174
165
162
174
164
162
174
164
164
176
166
164
176
166
164
176
166
165
175
166
166
176
167
166
178
168
166
178
168
166
178
168
165
179
169
164
181
170
163
183
171
166
182
171
169
181
171
176
188
178
186
198
188
197
206
195
207
214
203
215
221
210
226
229
220
232
235
226
237
240
231
245
248
239
249
252
243
145
157
155
145
157
155
147
159
159
150
162
162
151
162
164
151
165
166
151
165
166
151
164
166
152
163
165
152
163
165
151
165
166
150
165
166
151
165
166
151
166
166
151
166
166
149
164
165
148
163
165
148
162
164
148
163
164
148
163
165
149
160
163
148
157
162
147
156
161
147
156
160
147
156
160
148
158
158
156
165
163
178
185
181
201
206
200
219
224
215
229
233
225
231
234
227
231
234
227
231
234
227
226
229
222
211
217
210
190
199
191
171
180
173
157
163
159
142
148
145
136
144
140
138
148
143
144
153
148
160
168
163
175
182
175
191
197
190
202
207
201
211
216
209
215
218
211
215
218
210
215
218
210
215
218
211
215
218
211
216
219
212
217
220
213
219
222
215
218
221
214
218
221
214
219
222
215
220
223
216
219
222
213
214
218
206
214
217
210
214
218
207
214
220
197
223
232
198
238
252
212
239
253
210
240
252
207
243
252
208
244
253
210
241
254
210
237
253
204
224
245
181
189
210
132
155
165
89
140
132
67
138
126
66
140
126
72
128
110
62
139
119
75
105
77
42
141
110
72
135
102
58
169
133
79
197
159
100
225
187
124
248
211
148
248
211
145
253
218
149
247
210
141
242
203
133
243
202
133
246
204
133
245
202
129
244
200
126
231
187
113
239
195
121
238
194
121
232
188
115
238
193
122
221
177
106
225
180
113
214
168
107
202
157
98
193
147
88
200
154
94
204
159
99
184
139
82
181
136
84
162
117
68
163
121
71
163
123
72
172
132
81
180
140
91
187
147
98
189
149
97
190
154
101
188
160
115
191
172
139
200
187
163
199
189
170
207
199
180
207
200
183
209
204
188
213
212
196
212
211
197
210
211
197
203
205
192
198
200
188
192
195
185
187
190
181
182
185
176
177
180
172
170
173
166
163
165
159
156
158
153
154
157
149
154
157
149
154
158
149
154
158
149
154
158
149
153
159
149
154
160
150
154
160
150
154
160
150
155
161
151
157
163
153
158
164
154
159
165
155
160
166
156
161
167
157
160
166
156
160
166
156
160
166
156
161
167
157
161
167
157
162
168
158
162
168
158
162
168
158
163
169
159
163
169
159
161
169
158
162
170
159
163
171
160
163
171
160
163
171
160
161
171
161
161
171
161
161
171
161
161
171
162
162
172
163
163
172
164
163
172
164
162
172
164
163
172
164
164
173
165
165
174
164
165
175
164
165
175
164
164
174
163
163
173
162
163
173
162
163
173
162
163
173
162
162
172
161
162
172
161
163
171
162
164
171
163
164
171
163
164
171
163
163
170
162
162
170
162
162
172
163
162
172
163
161
171
162
161
171
162
162
172
163
163
173
164
163
173
164
162
172
163
163
173
164
164
174
165
163
175
165
163
175
165
164
176
166
164
176
166
164
176
166
165
175
166
166
176
167
166
178
168
166
178
168
166
178
168
166
179
169
163
181
170
163
183
171
166
182
171
169
182
172
177
189
179
187
199
189
199
207
196
208
215
204
216
222
211
226
229
220
232
235
226
237
240
231
245
248
239
249
252
243
146
158
156
145
157
155
144
156
156
144
156
156
144
155
157
143
155
157
143
155
156
144
154
156
145
155
157
145
155
157
145
154
157
145
154
157
145
154
157
145
155
157
146
155
157
146
156
155
146
156
154
146
155
154
146
156
154
146
156
154
145
155
154
145
154
153
144
154
153
145
154
153
145
154
153
145
155
151
153
161
157
170
177
172
188
192
186
203
206
199
209
212
205
210
213
206
211
214
207
210
213
206
207
210
203
200
204
197
187
193
186
174
180
173
158
164
158
146
151
147
136
143
140
133
143
138
135
144
139
144
153
147
159
166
159
174
181
175
186
193
186
197
203
196
207
211
205
210
213
206
212
215
208
214
217
210
215
218
211
218
221
214
219
222
215
221
224
217
223
226
219
224
227
220
229
232
225
230
233
226
230
233
225
226
231
221
227
232
228
228
235
226
236
247
218
239
253
207
237
252
202
239
253
205
241
253
207
242
253
208
242
253
209
241
254
208
226
243
179
187
209
122
156
172
86
125
123
58
134
118
61
148
128
73
146
122
70
165
135
87
170
138
92
152
116
71
165
129
79
204
166
111
195
157
95
225
186
119
231
192
125
242
203
137
249
209
143
249
210
143
239
200
131
234
191
123
232
188
119
238
195
126
241
197
126
232
189
117
227
184
113
225
182
112
222
178
109
219
175
108
220
176
109
211
168
101
208
166
102
206
163
104
199
156
98
203
160
101
200
156
94
205
162
100
208
165
105
192
149
95
168
126
74
162
121
70
157
117
67
165
125
77
168
127
82
169
128
84
170
129
83
174
132
83
176
136
90
181
148
108
187
164
133
193
176
148
192
177
148
196
186
160
202
197
176
209
209
192
206
208
194
207
208
194
202
204
190
197
199
188
191
194
184
186
189
180
182
185
176
177
180
172
171
174
167
164
166
160
156
158
153
151
156
149
150
155
148
149
154
147
148
153
146
148
153
145
147
153
142
148
154
142
148
154
142
148
154
142
148
154
142
151
157
147
151
157
147
150
156
146
149
155
145
150
156
146
152
158
148
153
159
149
153
159
149
153
159
149
153
159
149
154
159
150
154
160
150
154
160
150
154
160
150
154
160
150
154
162
151
155
163
152
155
163
152
155
163
152
155
163
152
154
164
153
154
164
153
154
164
153
156
166
155
157
167
156
159
167
156
159
167
156
159
167
156
160
168
156
160
168
157
160
170
157
159
170
157
159
170
157
159
170
157
158
169
156
160
169
158
162
170
159
162
170
159
161
169
158
161
169
158
161
169
160
161
168
160
161
168
160
161
168
160
161
168
160
160
168
160
160
170
161
160
170
161
160
170
161
160
170
161
160
170
161
162
172
163
162
172
163
162
172
163
162
172
163
163
173
164
163
174
164
163
174
164
164
175
166
165
175
166
165
175
166
165
175
166
166
176
167
165
177
167
165
177
167
166
178
168
166
179
169
164
182
170
163
182
170
166
182
171
171
183
173
178
190
180
188
199
189
198
207
196
208
216
205
216
222
211
226
229
220
232
235
226
237
240
231
244
247
238
250
253
244
145
157
155
145
157
155
145
157
157
144
156
156
144
155
157
144
155
157
144
154
156
144
153
155
145
153
156
146
153
156
147
152
156
147
152
156
147
152
156
147
152
156
147
152
156
148
153
152
148
154
151
148
154
150
147
153
150
147
153
150
145
153
148
144
153
147
144
153
147
144
153
147
144
153
147
144
153
146
153
160
153
168
174
167
185
188
181
198
200
194
201
203
196
200
203
196
200
203
196
199
202
195
197
200
193
196
199
192
190
193
186
181
184
177
166
171
165
155
160
154
141
148
144
133
143
138
129
138
133
130
138
133
137
144
137
147
153
147
156
162
158
165
172
165
176
181
175
180
184
178
184
189
182
186
189
182
187
190
183
188
191
184
189
192
185
191
194
187
192
195
188
195
198
191
196
199
192
203
206
199
198
201
194
195
201
191
195
203
189
207
220
194
234
252
208
234
253
197
240
253
199
241
253
203
241
254
206
240
254
205
240
253
202
234
245
185
198
209
127
162
171
78
128
124
48
129
108
53
142
114
55
174
143
82
194
158
97
203
162
101
217
172
112
203
161
98
207
166
101
234
193
127
231
191
123
240
201
130
240
198
129
231
188
120
228
185
118
225
181
116
217
173
108
219
172
107
220
172
108
215
169
105
213
169
104
207
164
99
205
162
99
192
149
87
196
152
91
192
149
88
194
150
91
186
145
86
182
141
86
191
150
98
189
148
97
184
144
90
198
157
101
191
149
92
196
154
98
181
140
85
184
144
90
183
144
91
184
144
91
184
144
94
170
129
83
171
130
87
164
123
82
160
118
77
162
119
76
172
131
89
179
144
104
186
156
116
189
164
121
192
173
138
222
211
185
228
225
205
245
246
230
243
244
230
243
245
232
235
237
226
227
230
220
218
221
212
207
210
201
195
198
190
187
190
183
179
182
175
170
172
167
161
166
159
159
165
158
160
165
158
160
166
159
160
165
158
159
164
156
159
165
155
159
165
155
159
165
155
159
164
155
158
164
154
158
164
154
158
164
154
158
164
154
158
164
154
158
164
154
159
165
155
159
165
155
159
165
155
159
165
155
158
164
154
158
164
154
158
164
154
159
165
155
159
164
155
157
165
154
157
165
154
157
165
154
157
165
154
157
165
154
155
165
154
155
165
154
154
164
153
153
163
152
153
163
152
155
163
151
156
163
149
156
163
149
157
164
150
157
164
150
157
167
153
156
167
153
155
166
152
155
166
152
154
165
151
154
163
151
155
162
152
155
162
152
154
162
151
154
162
151
155
162
153
155
162
154
153
160
152
153
160
152
153
160
152
153
161
153
152
162
153
152
162
153
152
162
153
152
162
153
152
162
153
152
162
153
152
162
153
152
162
153
152
162
153
152
162
153
153
163
154
153
163
154
155
165
156
155
165
156
155
165
156
156
166
157
156
166
157
157
168
159
158
170
160
159
171
161
158
171
161
156
174
162
155
175
163
160
176
165
165
178
168
173
185
175
182
193
183
192
201
190
202
209
199
210
216
205
219
222
213
225
228
219
231
234
225
237
240
231
243
246
237
145
157
155
145
157
155
145
157
157
144
156
156
144
155
157
145
155
157
144
154
156
144
152
155
146
152
156
147
152
156
146
152
156
146
153
156
146
152
156
146
153
156
146
153
156
147
154
154
147
155
153
146
154
153
146
154
152
146
154
152
146
153
150
145
152
149
145
152
149
145
152
149
145
152
149
145
152
146
152
159
151
167
172
165
185
188
181
199
200
194
201
204
197
201
204
197
201
204
197
200
203
196
198
201
193
198
200
192
196
196
190
190
191
185
179
182
176
167
172
166
151
159
154
140
149
144
131
140
135
129
138
132
130
137
130
136
143
138
148
154
150
157
163
158
168
174
167
174
179
173
181
185
179
185
188
181
186
189
182
186
189
182
187
190
183
188
191
184
189
192
184
191
194
186
192
195
187
196
199
192
196
200
192
188
195
183
197
209
181
232
248
203
230
253
194
231
253
193
241
254
201
242
254
205
243
255
207
241
255
202
237
251
192
207
216
142
173
175
87
131
121
39
142
120
54
169
136
76
192
152
85
209
167
98
224
179
108
220
173
100
212
164
89
215
169
95
205
161
88
222
178
107
227
184
115
234
193
124
245
200
133
235
190
123
230
185
119
209
164
99
206
161
97
200
151
91
200
151
92
195
148
90
186
141
83
184
140
82
180
138
82
172
129
75
173
131
78
170
127
74
173
130
79
170
130
79
172
132
83
181
141
96
169
129
83
169
129
80
171
130
80
176
135
86
183
142
92
179
140
87
183
145
91
186
148
92
197
158
101
180
140
88
172
132
83
157
116
71
149
109
67
153
115
72
155
116
72
160
120
75
174
133
88
186
146
99
191
154
105
191
161
119
204
184
152
209
198
175
239
233
217
245
244
230
248
250
236
242
244
232
232
234
224
221
224
215
209
213
204
198
202
193
190
193
186
181
184
178
172
175
170
165
172
165
164
171
164
164
171
164
165
171
165
165
171
164
166
171
164
166
171
165
166
171
165
166
171
165
166
171
164
167
173
164
167
173
164
168
174
164
168
174
165
168
174
165
171
177
168
172
178
169
172
178
169
171
177
168
171
177
168
171
177
168
171
177
168
171
177
167
171
177
167
171
177
167
170
177
167
170
177
167
170
177
167
170
177
167
170
177
167
169
178
166
168
178
166
168
178
166
168
178
166
169
178
166
170
177
167
171
177
167
171
177
167
171
177
166
171
177
166
170
178
166
168
178
165
167
177
164
167
178
164
166
177
164
167
175
164
167
174
164
167
174
164
165
172
162
165
172
162
165
172
163
164
172
164
164
171
163
162
169
161
162
169
161
161
169
161
159
169
160
159
169
160
159
169
160
159
169
160
158
168
159
157
167
158
157
167
158
156
166
157
156
166
157
157
166
157
158
167
158
159
167
158
158
166
157
158
166
157
157
166
158
157
167
158
157
167
158
154
166
156
154
166
156
155
167
157
155
169
158
154
171
159
151
170
158
155
170
159
159
172
162
164
176
166
171
182
172
179
187
176
188
195
184
195
201
190
203
206
197
208
211
203
213
216
207
217
220
211
221
224
215
145
157
155
145
157
155
145
157
157
144
156
156
143
154
156
143
154
156
144
154
156
144
153
156
146
152
156
148
153
157
149
153
156
149
153
156
149
153
156
149
153
154
149
153
154
148
154
151
148
154
150
148
154
150
147
153
149
147
153
149
147
153
149
147
153
149
147
153
149
147
153
149
147
153
149
146
153
148
151
157
152
168
173
167
184
188
181
199
202
193
202
205
196
202
205
196
200
203
194
200
203
194
198
201
192
197
200
190
196
198
189
193
196
187
189
192
184
180
183
176
164
170
163
151
161
153
139
148
142
132
141
136
127
136
132
130
138
133
134
141
134
145
152
145
155
160
154
164
169
163
176
180
174
183
185
180
186
188
183
186
189
182
187
190
183
187
191
183
187
193
181
189
192
180
189
192
181
193
195
185
196
199
187
197
202
179
232
241
207
235
253
196
225
251
184
232
254
199
244
252
211
242
255
209
242
255
207
239
253
197
210
223
157
181
186
113
147
140
65
157
133
58
177
141
69
201
159
89
213
166
93
213
165
92
217
167
94
219
167
94
209
157
84
203
152
86
205
155
89
200
150
85
208
159
95
215
165
102
231
183
121
219
173
110
223
179
117
210
168
106
196
155
93
194
149
91
185
139
83
180
136
81
172
131
77
167
127
74
163
122
71
161
120
70
163
124
75
160
123
76
159
123
77
154
118
73
168
131
87
169
132
88
165
127
84
159
122
78
152
115
71
160
123
78
161
124
78
160
126
80
164
130
84
175
139
91
168
130
80
168
128
77
163
123
74
160
117
75
162
121
79
141
102
59
149
111
66
151
113
67
168
130
83
178
139
92
187
148
101
188
155
108
182
157
116
193
172
141
209
191
170
225
216
201
223
223
210
214
217
203
207
210
198
198
205
195
190
199
188
186
190
180
180
181
175
171
175
168
163
168
161
163
165
160
163
165
160
164
166
161
163
165
160
162
164
159
163
165
160
164
166
161
165
167
162
165
167
162
165
167
162
166
168
163
167
169
164
168
170
165
168
171
165
168
171
165
167
173
167
167
174
167
167
174
167
168
175
168
169
176
169
169
174
168
169
174
168
169
174
167
170
175
167
170
176
166
170
175
168
171
176
170
172
177
171
172
177
171
172
177
171
172
177
169
172
178
169
172
178
169
172
178
170
173
178
170
173
179
170
173
179
170
174
179
171
175
180
172
175
180
172
174
180
172
173
181
172
173
181
172
174
181
172
172
180
171
171
180
171
171
180
171
170
180
171
169
178
169
169
178
169
169
178
169
168
178
169
167
177
168
167
177
168
167
177
168
167
177
168
167
177
168
166
176
167
167
177
168
167
177
168
167
177
168
167
177
168
167
177
168
166
176
167
166
176
167
167
177
168
168
178
169
168
178
169
167
177
168
167
177
168
167
177
168
167
178
169
167
179
169
167
179
169
167
180
170
168
181
171
168
181
172
167
181
172
167
181
172
168
181
172
168
181
172
175
185
176
183
192
183
192
200
189
201
209
198
211
217
205
216
222
213
223
228
220
231
234
226
236
239
231
243
244
237
145
157
155
145
157
155
145
157
157
144
156
156
143
154
156
143
154
156
144
154
156
144
153
156
146
152
156
148
153
157
149
153
156
149
153
156
149
153
154
149
153
154
149
153
152
148
154
150
148
154
150
148
154
150
147
153
149
147
153
149
147
153
149
147
153
149
147
153
149
147
153
149
147
153
149
146
152
148
151
157
152
168
173
167
184
188
181
199
202
193
202
205
196
202
205
196
200
203
194
201
204
195
200
203
194
198
201
191
197
200
191
194
197
188
192
195
186
189
192
185
177
183
176
163
173
165
151
161
153
139
148
143
130
138
134
129
137
132
130
137
130
133
140
134
144
149
143
153
158
152
164
168
163
173
175
170
181
182
178
184
187
180
185
188
181
187
190
183
187
191
183
188
191
183
189
193
183
190
194
182
196
201
183
230
236
203
238
253
206
221
251
184
224
251
187
243
254
208
246
253
214
244
252
211
234
253
197
211
231
161
177
181
107
176
168
97
169
149
78
191
156
83
207
163
92
215
167
97
217
164
92
218
165
93
207
151
80
199
142
71
197
141
70
195
138
74
182
127
63
188
135
72
190
140
77
190
141
77
193
146
85
202
156
95
193
150
89
195
153
92
184
144
84
178
137
78
180
137
81
171
129
74
162
121
68
157
116
65
159
117
68
160
119
70
160
122
75
157
120
74
158
122
78
153
117
73
167
130
86
162
126
82
164
127
83
148
112
68
144
107
63
147
110
67
144
109
65
148
114
69
167
134
89
152
117
72
154
116
71
155
117
70
153
112
68
154
112
74
157
116
78
151
112
71
166
128
85
178
140
96
176
138
92
176
138
91
176
140
91
179
146
98
174
144
99
181
153
113
190
166
135
207
193
177
212
211
199
206
208
199
202
204
194
196
199
188
187
193
181
184
187
178
176
179
171
167
171
164
159
165
157
161
163
157
161
163
157
160
163
157
160
163
156
159
161
155
159
162
155
160
163
156
160
163
157
160
163
157
160
163
157
161
164
157
162
165
158
163
166
159
163
166
159
162
166
159
161
168
160
161
168
160
160
167
160
161
168
160
162
169
161
163
168
162
163
168
161
164
169
161
164
169
160
164
170
160
164
169
162
165
170
164
166
171
164
166
171
165
166
171
165
166
172
163
166
172
162
167
173
163
167
173
163
167
173
163
167
173
163
167
173
163
168
174
164
169
175
165
169
175
165
169
176
167
169
176
168
169
176
168
168
175
167
167
174
166
165
174
165
164
174
165
164
174
165
167
177
168
167
177
168
167
177
168
167
177
168
166
176
167
166
176
167
166
176
167
166
176
167
166
176
167
165
175
166
167
177
168
167
177
168
167
177
168
166
176
167
166
176
167
167
177
168
167
177
168
168
178
169
168
178
169
168
178
169
168
178
169
168
178
169
169
179
170
170
180
171
170
181
171
169
181
171
169
182
172
170
183
173
171
182
174
171
182
174
170
181
173
171
182
174
173
184
176
183
193
184
193
202
193
203
211
200
212
219
208
221
227
216
228
234
224
235
240
230
244
247
238
249
252
243
254
254
247
144
156
154
144
156
155
145
157
157
144
156
156
143
154
156
143
154
156
144
154
156
144
153
156
147
152
156
148
153
157
149
153
156
149
153
154
149
153
154
149
153
152
149
153
152
148
154
150
148
154
150
148
154
150
147
153
149
147
153
149
147
153
149
147
153
149
147
153
149
147
153
149
147
153
149
146
152
148
151
156
152
167
172
166
184
188
181
198
201
192
202
205
196
202
205
196
202
205
196
201
204
195
199
202
193
198
201
191
197
200
191
195
198
189
193
196
188
194
197
190
188
193
185
178
185
177
165
172
165
151
158
152
140
147
142
134
140
136
130
136
132
130
136
133
135
141
137
144
149
145
155
159
155
164
166
161
174
176
171
181
184
177
184
187
180
187
190
183
187
190
184
186
189
184
184
190
179
187
195
176
219
227
198
240
252
204
224
253
189
217
251
183
236
253
202
251
252
217
250
251
214
240
252
202
213
235
163
186
196
113
167
153
79
189
162
98
196
160
93
204
157
88
207
154
84
206
150
82
204
146
76
209
151
80
209
150
80
201
142
72
199
140
71
201
140
78
190
131
69
177
123
60
181
131
68
176
129
66
171
125
66
183
138
79
179
136
77
174
133
74
172
132
73
171
130
73
169
128
72
169
128
74
161
120
68
151
109
59
142
100
52
145
104
56
155
116
70
166
128
84
158
122
78
155
120
77
161
127
84
157
123
80
160
126
82
137
103
59
138
103
61
142
107
66
133
98
57
151
118
76
146
113
72
143
109
66
148
112
67
155
118
70
147
109
65
145
105
66
143
102
66
147
107
70
167
128
88
174
135
92
176
138
91
178
142
93
174
141
90
175
141
91
178
144
95
173
138
90
179
147
104
197
176
147
209
201
185
204
201
192
205
201
194
199
196
188
192
194
183
186
189
178
177
181
171
166
172
162
161
166
158
162
165
158
162
165
158
161
164
157
161
164
157
160
163
156
161
164
157
161
164
157
161
164
157
161
164
157
161
164
157
161
164
157
162
165
158
162
165
158
162
165
158
162
165
158
161
167
159
161
167
159
161
167
159
161
167
159
161
167
160
162
167
160
162
167
160
163
168
159
163
169
159
163
169
158
162
168
159
162
168
159
163
169
160
163
169
160
163
169
160
164
170
159
164
170
159
164
170
159
164
170
159
164
170
159
165
171
160
165
171
160
165
171
160
165
171
160
166
172
161
167
173
164
167
174
166
167
174
166
165
172
164
164
171
163
162
171
163
162
172
163
162
172
163
162
172
163
162
172
163
162
172
163
163
173
164
162
172
163
162
172
163
162
172
163
162
172
163
162
172
163
161
171
162
163
173
164
163
173
164
162
172
163
162
172
163
162
172
163
164
174
165
164
174
165
164
174
165
165
175
166
165
175
166
166
176
167
166
176
167
167
176
167
168
177
168
168
178
169
168
179
170
168
180
170
169
180
171
168
179
171
168
179
171
169
180
172
172
183
175
176
186
178
185
195
186
195
204
195
205
213
202
214
221
210
222
228
217
228
234
223
236
241
230
244
247
237
249
252
242
254
255
246
144
156
154
144
156
154
144
156
156
144
156
156
143
154
156
143
154
156
144
154
156
144
154
156
147
153
156
149
154
157
149
153
155
149
153
154
149
153
152
149
153
152
149
154
150
148
154
150
148
154
150
148
154
150
147
153
149
147
153
149
147
153
149
147
153
149
147
153
149
147
153
149
147
153
149
146
152
148
150
156
151
166
171
165
183
187
180
197
200
192
202
205
196
203
206
197
203
206
197
201
204
195
199
202
193
198
201
191
197
200
191
195
198
189
193
196
188
193
196
189
190
195
188
185
192
184
175
181
174
163
170
163
153
160
153
141
147
142
132
138
135
129
135
131
130
135
132
134
138
135
144
148
144
154
156
151
165
167
162
173
176
169
179
182
175
184
187
180
186
189
181
186
190
182
184
192
175
203
216
185
236
251
207
230
254
191
214
250
179
224
250
195
245
252
218
251
252
223
250
254
209
223
240
172
188
198
114
180
166
85
195
165
96
201
160
99
204
157
93
197
143
74
200
142
73
198
140
72
204
145
75
206
148
77
213
157
86
214
158
87
220
165
94
224
169
104
219
166
102
193
143
79
196
148
85
180
134
71
178
134
75
174
130
72
182
141
83
171
131
74
169
130
73
168
130
73
167
128
72
166
126
72
165
124
73
156
114
64
149
107
59
145
103
58
150
111
66
162
124
80
166
130
88
159
124
82
158
123
81
161
126
84
159
124
82
135
100
58
135
100
60
136
101
63
126
92
54
150
117
78
136
103
64
137
104
61
146
113
66
149
115
67
144
107
62
143
105
65
138
99
64
133
93
59
144
104
67
152
114
72
169
131
85
172
134
85
175
138
88
178
139
93
174
135
88
171
131
82
176
139
89
182
154
111
192
171
142
201
185
165
199
187
171
199
194
180
194
193
181
186
189
178
176
182
170
165
172
161
163
166
157
162
165
156
161
164
155
161
164
155
161
164
155
161
164
155
161
164
155
161
164
155
161
164
155
161
164
155
161
164
155
161
164
155
161
164
155
162
165
156
162
165
156
162
165
156
161
167
157
161
167
157
161
167
157
161
167
157
161
167
157
162
167
159
162
168
158
162
168
158
162
168
156
162
168
156
163
169
157
163
169
157
163
169
157
163
169
157
163
169
157
164
170
158
164
170
158
164
170
158
163
169
157
164
170
158
166
172
160
166
172
160
166
172
160
166
172
160
167
173
161
167
174
164
167
174
166
167
174
166
166
173
165
165
172
164
163
172
163
162
172
163
162
172
163
162
172
163
162
172
163
162
172
163
162
172
163
162
172
163
162
172
163
162
172
163
162
172
163
162
172
163
162
172
163
162
172
163
162
172
163
162
172
163
162
172
163
162
172
163
163
173
164
163
173
164
164
174
165
165
175
166
165
175
166
166
176
167
166
176
167
166
175
167
167
174
166
168
176
168
168
178
169
168
178
169
167
179
169
168
178
170
168
178
170
168
178
170
172
182
174
177
187
179
186
196
187
194
203
194
204
212
201
213
220
209
220
226
215
225
231
219
232
237
225
239
242
231
244
247
236
250
253
242
144
156
154
144
156
154
144
156
156
144
156
156
143
154
156
143
154
156
144
154
156
144
154
156
147
153
156
148
154
157
149
153
154
149
153
152
149
153
152
149
154
151
149
154
150
148
154
150
148
154
150
148
154
150
147
153
149
147
153
149
147
153
149
147
153
149
147
153
149
147
153
149
147
153
149
146
152
148
150
156
151
166
171
165
182
186
179
196
199
191
202
205
196
203
206
197
203
206
197
201
204
195
199
202
193
198
201
191
197
200
191
195
198
189
193
196
188
193
196
189
191
195
187
189
194
186
183
188
181
174
179
172
164
169
163
153
158
153
142
147
145
132
138
136
130
135
133
128
132
131
133
137
134
143
145
140
153
156
151
164
167
160
172
175
168
180
183
175
184
187
176
186
191
179
191
200
178
230
245
205
229
252
195
215
252
178
213
245
176
239
254
214
249
253
232
246
252
221
229
246
182
190
201
122
181
167
87
192
159
87
205
168
100
198
152
91
208
156
93
194
137
70
201
143
74
205
148
79
207
149
79
215
160
88
227
174
101
229
178
105
234
184
112
226
179
112
237
191
124
234
188
122
226
180
115
207
162
98
190
145
87
187
144
87
183
141
85
186
146
89
176
137
82
179
143
86
172
135
81
169
129
76
166
125
74
167
123
75
160
117
70
154
112
66
151
112
67
155
117
73
169
133
91
170
136
93
157
124
81
160
127
84
160
126
84
134
100
58
132
97
59
126
92
56
136
102
66
139
106
69
130
97
60
137
104
65
145
112
69
152
117
74
151
116
74
144
106
70
131
91
60
124
84
52
134
95
59
155
116
75
162
123
79
170
132
82
176
135
85
175
132
88
169
126
84
162
121
77
168
129
80
169
134
87
176
144
105
181
154
118
188
171
138
195
187
164
195
190
178
187
189
177
177
184
171
166
173
161
163
167
157
162
165
155
161
164
155
161
164
155
161
164
155
161
164
155
161
164
155
161
164
155
161
164
155
161
164
155
161
164
155
161
164
155
161
164
155
162
165
156
162
165
156
162
165
156
161
167
157
161
167
157
161
167
157
161
167
157
161
167
157
162
168
158
162
168
158
162
168
157
162
168
156
162
168
156
163
169
157
163
169
157
163
169
157
163
169
157
163
169
157
164
170
158
164
170
158
164
170
158
163
169
157
164
170
158
166
172
160
166
172
160
166
172
160
166
172
160
167
173
161
167
174
165
167
174
166
167
174
166
166
173
165
165
172
164
163
172
163
162
172
163
162
172
163
162
172
163
162
172
163
162
172
163
162
172
163
162
172
163
162
172
163
162
172
163
162
172
163
162
172
163
162
172
163
162
172
163
162
172
163
162
172
163
162
172
163
162
172
163
163
173
164
163
173
164
164
174
165
165
175
166
165
175
166
166
176
167
166
176
167
166
175
166
166
173
165
168
175
167
168
177
168
168
178
169
168
178
169
168
178
170
168
178
170
168
178
170
172
182
174
177
187
179
186
196
187
194
203
194
204
212
201
212
219
208
219
225
213
223
229
216
230
235
223
238
241
230
244
247
235
250
252
241
144
156
154
145
155
154
145
155
154
144
154
153
145
154
153
143
153
153
144
154
154
145
155
154
146
155
154
146
155
154
148
154
151
148
154
150
148
154
150
148
154
150
148
154
150
148
154
150
148
154
150
148
154
150
148
154
150
148
154
150
148
154
150
148
154
150
148
154
150
147
153
149
147
153
149
147
152
148
151
156
151
167
170
165
183
186
179
196
198
190
202
204
195
202
205
196
202
205
196
201
204
195
200
203
194
198
201
192
197
200
191
195
198
189
194
197
188
192
195
186
192
195
186
191
194
185
188
192
183
185
188
179
177
180
171
168
171
164
156
159
154
144
148
143
133
138
133
129
135
129
127
133
128
133
138
135
143
147
143
151
156
150
163
169
161
171
175
168
179
183
175
184
193
174
224
236
202
231
253
202
218
252
185
203
244
166
221
250
189
248
254
221
243
254
219
230
252
192
198
217
132
179
171
91
191
155
84
198
155
86
206
165
97
188
139
76
207
156
92
200
147
81
204
150
83
211
157
88
221
167
94
229
176
101
236
186
111
226
178
102
238
191
115
237
192
125
242
199
135
237
192
126
233
186
119
219
174
108
191
148
90
190
148
92
199
159
102
208
168
111
207
167
110
214
178
120
201
164
106
196
156
99
181
140
84
178
135
80
176
131
74
167
124
68
166
125
73
156
119
69
165
131
84
172
141
94
170
139
93
160
128
84
158
124
84
141
105
68
131
97
60
122
90
52
141
108
71
132
97
61
132
96
60
141
106
68
147
112
72
157
122
82
157
122
82
138
103
64
124
89
53
120
85
49
136
101
62
151
114
71
162
125
78
173
134
87
176
135
88
171
130
84
154
113
69
149
108
65
157
117
70
167
129
80
174
139
92
167
135
90
183
156
113
192
170
134
194
183
160
194
190
175
181
185
171
168
174
160
163
168
157
162
167
154
161
166
153
160
165
155
160
164
156
160
164
157
161
164
155
161
164
155
161
164
155
161
164
155
161
164
155
161
164
155
161
164
155
162
165
156
162
165
156
162
165
156
163
166
157
163
166
157
163
166
157
163
166
157
163
166
157
162
168
158
162
168
158
162
168
158
162
168
158
162
168
158
163
169
159
163
169
159
163
169
159
163
169
159
163
169
159
164
170
160
164
170
160
164
170
160
164
170
160
164
170
160
165
169
160
167
170
161
168
171
162
168
171
162
169
172
163
168
173
165
168
173
166
168
173
166
167
172
165
167
172
165
166
173
165
164
172
164
162
172
163
162
172
163
161
173
163
162
172
163
163
171
163
163
171
163
163
171
163
163
171
163
163
172
163
162
172
163
162
172
163
162
172
163
162
172
163
162
172
163
162
172
163
162
172
163
162
172
163
163
173
164
164
174
165
165
175
166
165
175
166
165
175
166
167
177
168
167
176
168
168
175
167
170
177
169
170
177
169
170
177
169
170
177
169
168
178
169
168
178
169
169
179
171
174
184
175
179
188
180
188
196
187
199
205
195
206
212
202
214
217
206
220
223
212
225
229
215
231
235
221
237
241
227
243
247
233
248
252
238
144
156
154
145
155
154
145
155
154
144
154
153
145
154
153
143
153
152
144
154
153
146
155
154
146
155
154
147
155
154
148
154
151
148
154
150
148
154
150
148
154
150
148
154
150
148
154
150
148
154
150
148
154
150
148
154
150
148
154
150
148
154
150
148
154
150
148
154
150
147
153
149
147
153
149
147
152
148
151
156
151
167
170
165
183
186
179
196
198
190
202
204
195
202
205
196
202
205
196
201
204
195
200
203
194
199
202
193
198
201
192
196
199
190
194
197
188
192
195
186
192
195
186
191
194
185
189
192
183
187
190
181
183
186
177
178
181
173
167
169
164
155
158
153
142
147
141
133
139
133
127
133
129
129
133
133
132
136
134
140
145
141
152
157
151
160
165
156
170
175
158
207
219
186
234
253
202
224
253
185
207
248
167
205
246
166
234
253
202
251
254
220
240
250
198
210
223
149
177
171
90
185
156
82
195
146
79
185
132
67
195
147
82
194
144
86
200
150
89
212
161
96
216
163
94
222
168
96
223
169
95
231
177
103
235
183
108
234
183
107
225
175
99
226
178
108
238
194
128
222
175
110
225
177
111
210
166
103
186
144
85
180
139
80
196
157
97
206
167
106
212
173
112
218
181
120
213
176
115
222
183
122
218
179
118
202
162
102
196
155
94
188
147
87
179
141
83
172
137
81
167
134
81
172
140
90
176
144
97
166
132
88
154
118
78
143
105
68
123
88
51
125
93
56
131
97
60
124
89
52
140
104
68
141
106
67
149
114
74
162
128
88
153
119
79
130
95
56
124
90
52
124
90
53
139
104
65
151
114
71
166
128
82
170
130
84
176
135
89
166
125
79
150
109
65
152
111
67
158
116
72
171
126
80
176
133
89
170
130
87
173
136
94
181
147
107
192
167
134
198
182
159
190
185
167
173
175
163
165
170
162
162
168
159
162
166
158
161
164
157
162
163
157
162
163
157
161
164
155
161
164
155
161
164
155
161
164
155
161
164
155
161
164
155
161
164
155
162
165
156
162
165
156
162
165
156
163
166
157
163
166
157
163
166
157
163
166
157
163
166
157
162
168
158
162
168
158
162
168
158
162
168
158
162
168
158
163
169
159
163
169
159
163
169
159
163
169
159
163
169
159
164
170
160
164
170
160
164
170
160
164
170
160
164
170
160
165
169
160
167
170
161
168
171
162
168
171
162
169
172
163
169
173
165
168
173
166
168
173
166
167
172
165
167
172
165
166
173
165
165
172
164
164
171
163
162
172
163
162
172
163
161
173
163
161
173
163
161
173
163
161
173
163
161
173
163
162
172
163
162
172
163
162
172
163
162
172
163
162
172
163
162
172
163
162
172
163
162
172
163
162
172
163
163
173
164
164
174
165
165
175
166
165
175
166
165
175
166
167
176
168
167
176
168
168
175
167
170
177
169
170
177
169
170
177
169
170
177
169
168
178
169
168
178
169
170
180
171
174
184
175
179
189
180
191
199
188
199
205
195
206
212
201
214
217
206
220
223
212
225
229
215
231
235
221
237
241
227
244
248
234
249
253
239
144
156
154
144
155
154
144
154
153
144
154
153
145
154
153
144
154
151
145
154
151
146
154
152
147
154
152
148
154
152
148
154
150
148
154
150
148
154
150
148
154
150
148
154
150
148
154
150
148
154
150
148
154
150
148
154
150
148
154
150
148
154
150
148
154
150
148
154
150
147
153
149
147
153
149
148
153
149
151
156
151
167
170
165
183
186
179
195
197
189
202
204
195
202
205
196
202
205
196
201
204
195
200
203
194
199
202
193
198
201
192
196
199
190
194
197
188
193
196
187
192
195
186
191
194
185
189
192
183
189
192
183
187
190
181
184
187
179
176
178
172
163
167
161
153
158
152
142
148
141
133
139
134
129
134
134
127
132
130
130
136
131
140
146
139
150
155
145
182
188
163
234
250
207
225
253
188
211
251
170
203
248
160
215
250
180
240
254
213
240
251
211
223
233
169
188
181
103
184
152
79
191
145
77
185
131
66
185
131
65
198
148
84
210
161
105
214
165
106
228
177
113
220
169
99
228
175
102
230
174
100
229
174
100
220
166
90
231
177
98
228
174
94
217
164
91
231
182
115
211
163
98
204
156
93
195
151
93
177
136
78
166
126
67
163
124
65
188
150
90
203
166
106
206
171
108
209
174
110
218
182
119
233
197
133
225
189
125
225
187
126
225
188
127
209
174
114
198
164
105
185
153
93
182
150
96
173
140
90
171
136
89
154
115
72
138
98
58
121
84
47
128
94
57
121
87
51
134
101
64
148
114
78
152
118
80
152
119
79
160
127
87
144
110
71
136
103
63
124
90
52
126
92
56
137
102
63
157
120
76
157
119
73
172
133
87
175
134
88
160
119
73
154
113
69
161
120
76
167
124
81
167
122
79
172
128
85
167
126
82
172
133
87
182
144
98
187
151
105
190
164
127
191
179
152
178
177
161
167
171
162
166
167
161
165
166
159
164
165
158
163
164
156
162
163
155
161
164
155
161
164
155
161
164
155
161
164
155
161
164
155
161
164
155
161
164
155
161
164
155
162
165
156
162
165
156
163
166
157
163
166
157
163
166
157
163
166
157
163
166
157
162
168
158
162
168
158
162
168
158
162
168
158
162
168
158
162
168
158
163
169
159
163
169
159
163
169
159
163
169
159
163
169
159
164
170
160
164
170
160
164
170
160
164
170
160
166
170
161
167
170
161
168
171
162
168
171
162
169
172
163
168
173
163
168
174
164
167
173
163
167
173
163
167
173
163
167
173
163
165
172
162
165
172
161
164
172
161
163
172
161
162
173
162
160
173
163
160
173
163
160
173
163
160
173
163
161
173
163
162
172
163
162
172
163
162
172
163
162
172
163
162
172
163
162
172
163
162
172
163
162
172
163
163
173
164
165
174
165
167
174
166
167
174
166
168
175
167
168
175
167
169
176
168
169
176
168
169
176
168
170
177
169
170
177
169
170
178
169
168
178
169
168
178
169
170
180
171
174
184
175
180
190
180
192
200
189
200
206
195
206
212
200
214
218
205
220
224
210
225
229
215
231
235
221
238
242
228
245
249
235
250
254
240
143
155
153
144
154
153
144
154
153
144
154
153
145
154
153
145
154
151
145
154
151
147
153
151
147
153
151
148
153
151
148
154
150
148
154
150
148
154
150
148
154
150
148
154
150
148
154
150
148
154
150
148
154
150
148
154
150
148
154
150
148
154
150
149
155
151
148
154
150
148
154
150
148
154
150
148
154
150
151
157
152
167
170
165
183
186
179
193
195
187
202
204
196
202
205
196
202
205
196
201
204
195
200
203
194
199
202
193
198
201
192
195
198
189
194
197
188
193
196
187
192
195
186
191
194
185
189
192
183
189
192
183
187
190
181
186
189
181
183
186
179
173
177
170
164
169
162
153
159
151
141
148
141
134
140
135
128
135
128
128
136
127
129
137
126
151
158
141
226
234
201
234
252
200
215
253
178
199
248
161
196
243
160
231
254
199
241
253
210
226
243
190
191
192
124
186
156
85
183
137
69
178
128
62
184
133
67
197
147
81
204
155
89
218
170
113
216
167
108
230
180
117
227
176
108
229
176
105
237
181
108
233
176
102
219
162
84
212
154
74
212
154
73
215
157
81
212
160
91
203
154
89
184
136
76
172
129
76
169
128
75
176
136
83
172
133
80
168
131
77
189
153
98
203
166
107
215
180
119
214
179
118
220
186
125
237
205
144
239
205
147
241
207
151
238
204
146
226
194
135
209
177
117
200
167
111
187
153
101
174
137
88
149
109
64
134
92
50
125
87
49
137
102
66
126
92
55
136
103
66
150
117
79
160
127
89
155
122
84
156
122
84
143
110
72
134
100
62
120
86
50
122
88
51
136
102
62
147
110
67
160
122
76
170
131
85
170
129
83
153
112
66
154
113
69
161
120
76
164
122
79
160
119
76
157
118
73
161
123
76
168
131
81
177
140
89
179
143
90
181
151
102
190
169
133
184
173
149
174
170
151
173
168
155
169
166
154
166
166
156
163
166
157
160
164
156
161
164
155
161
164
155
161
164
155
161
164
155
161
164
155
161
164
155
161
164
155
161
164
155
161
164
155
161
164
155
162
165
156
162
165
156
162
165
156
163
166
157
163
166
157
162
167
157
161
167
157
161
167
157
161
167
157
161
167
157
162
168
158
162
168
158
162
168
158
163
169
159
163
169
159
163
169
159
163
169
159
163
169
159
164
170
160
164
170
160
167
171
161
168
171
162
168
171
162
168
171
162
168
171
162
167
172
163
167
173
163
167
173
163
167
173
163
167
173
163
166
172
162
166
172
162
166
172
162
165
173
162
165
173
162
163
172
163
163
172
163
163
172
163
163
172
163
163
172
163
162
172
163
162
172
163
162
172
163
162
172
163
162
172
163
162
172
163
163
173
164
163
173
164
162
172
163
163
173
164
165
174
166
168
175
167
168
175
167
168
175
167
168
175
167
168
175
167
169
176
168
169
176
168
169
176
168
170
177
169
170
178
170
168
178
169
168
178
169
170
180
171
176
186
177
182
192
182
193
201
189
201
207
195
207
213
199
215
219
205
221
225
211
225
229
215
233
237
223
239
243
229
245
249
235
250
254
240
143
155
153
144
154
153
144
154
153
144
154
153
145
154
153
145
154
150
146
153
149
147
153
149
147
153
149
148
153
149
148
154
150
148
154
150
148
154
150
148
154
150
148
154
150
148
154
150
148
154
150
148
154
150
148
154
150
148
154
150
149
155
151
150
156
152
150
156
152
148
154
150
148
154
150
148
154
150
151
157
152
167
170
165
183
186
179
193
195
187
202
204
196
202
205
196
202
205
196
201
204
195
200
203
194
199
202
193
198
201
192
195
198
189
194
197
188
193
196
187
192
195
186
191
194
185
189
192
183
189
192
183
187
190
181
186
189
181
186
189
182
181
185
178
172
177
170
161
168
160
151
158
149
143
150
140
133
140
129
128
136
122
131
139
123
194
202
178
243
252
210
229
252
189
205
250
167
191
246
154
200
244
167
240
255
206
247
252
198
213
220
154
188
171
101
193
149
83
190
139
73
192
141
75
192
143
76
203
153
86
216
166
100
216
169
109
225
177
116
229
180
117
236
185
120
226
174
107
237
180
108
231
173
99
222
162
84
213
152
71
210
148
65
202
141
62
195
140
69
197
146
82
169
121
63
163
122
72
160
120
72
157
117
70
160
121
74
170
133
86
179
142
94
189
152
98
207
171
114
215
181
124
225
192
134
230
199
141
238
205
152
242
209
157
237
204
150
242
210
153
228
196
137
217
184
127
210
175
120
184
146
95
149
108
61
131
88
44
121
81
44
144
108
73
124
90
53
142
110
72
152
120
82
158
126
88
149
117
78
150
118
79
140
108
69
133
101
63
114
81
44
122
88
51
139
104
65
149
112
68
164
126
80
169
130
83
168
127
81
150
109
63
156
115
71
161
120
76
155
114
71
152
111
70
147
107
63
157
118
70
163
125
73
176
138
86
178
139
87
179
142
90
191
157
115
191
165
133
185
166
138
180
168
146
174
166
148
167
167
153
161
167
155
157
166
156
161
164
155
161
164
155
161
164
155
161
164
155
161
164
155
161
164
155
161
164
155
161
164
155
161
164
155
161
164
155
162
165
156
162
165
156
162
165
156
163
166
157
163
166
157
161
166
156
160
166
156
161
167
157
161
167
157
161
167
157
162
168
158
162
168
158
162
168
158
163
169
159
163
169
159
163
169
159
163
169
159
163
169
159
164
170
160
164
170
160
167
171
161
168
171
162
168
171
162
168
171
162
168
171
162
167
172
162
167
173
162
167
173
162
167
173
162
167
173
162
167
172
161
166
172
161
166
172
161
165
173
161
165
173
161
165
171
162
166
170
163
166
170
163
166
170
163
166
170
163
164
171
163
162
172
163
162
172
163
162
172
163
162
172
163
162
172
163
163
173
164
163
173
164
162
172
163
163
173
164
166
174
166
169
174
167
169
174
167
169
174
167
169
174
167
169
175
167
169
176
168
169
176
168
169
176
168
170
177
169
170
178
170
168
178
169
168
178
169
170
180
171
178
188
179
186
195
186
194
202
190
202
208
196
207
213
199
215
219
204
221
225
210
226
230
216
234
238
224
240
244
230
245
249
235
250
254
240
144
152
154
144
152
154
144
153
153
145
154
153
145
154
152
147
153
151
147
153
151
147
153
151
148
154
152
148
154
152
148
154
152
148
154
152
148
154
152
147
153
151
147
153
151
147
153
151
148
154
152
149
155
152
148
154
152
148
154
152
149
155
150
150
155
149
150
155
149
149
154
148
149
154
148
151
154
149
153
156
150
166
169
162
182
185
177
193
196
187
201
204
195
201
204
195
201
204
195
200
203
194
200
203
194
199
202
193
198
201
192
195
198
189
194
197
188
194
197
188
193
196
187
191
194
185
189
192
183
188
191
182
187
190
181
186
189
180
186
189
180
184
187
178
182
185
176
173
177
168
164
168
159
155
158
151
146
148
143
134
143
131
157
165
141
239
244
209
233
252
195
212
252
177
196
252
162
186
240
150
220
248
187
241
254
205
228
231
167
190
175
103
198
160
94
202
150
89
201
152
86
205
156
89
216
164
97
213
160
92
213
159
91
218
167
105
235
184
122
228
176
113
235
181
119
237
183
120
224
169
100
226
170
95
227
170
90
213
152
71
210
147
67
202
136
61
179
126
60
195
151
98
166
124
77
152
114
68
151
111
67
146
108
65
140
106
65
143
109
68
146
110
68
166
124
72
187
143
89
192
149
95
207
165
111
213
171
117
231
190
133
237
201
142
240
207
148
240
206
147
231
198
139
235
203
146
227
191
132
199
158
98
158
113
59
132
86
42
127
86
51
129
95
59
119
90
51
141
115
74
142
115
73
157
127
84
144
113
70
147
115
75
140
108
70
120
88
53
108
75
40
122
88
52
136
102
62
151
114
70
164
126
79
168
129
82
159
118
72
143
102
56
155
115
71
161
120
76
149
108
64
144
102
60
147
104
61
159
117
71
169
126
78
176
133
84
167
126
74
177
137
85
185
146
96
195
157
109
195
162
116
190
168
130
183
169
141
169
170
148
160
171
152
159
167
153
161
167
157
161
167
157
160
166
156
159
165
155
159
165
155
161
164
155
161
164
155
161
164
155
161
164
155
161
164
155
162
165
156
162
165
156
162
165
156
162
165
156
162
165
156
162
165
156
162
165
156
162
165
156
163
166
157
163
166
157
162
168
158
162
168
158
162
168
158
162
168
158
162
168
158
162
170
159
162
170
159
162
170
159
162
169
158
162
169
158
163
169
159
165
171
161
165
171
161
166
172
162
166
172
162
167
173
163
167
173
163
167
173
163
167
173
163
167
173
163
166
172
162
166
172
162
166
172
162
165
171
161
165
171
161
165
171
161
165
171
161
165
171
161
167
171
162
168
171
162
166
172
163
165
172
164
165
172
164
164
171
163
164
171
163
164
172
163
163
173
164
163
173
164
163
173
164
164
174
165
166
174
166
168
173
166
168
173
166
169
174
167
170
175
168
171
176
168
171
177
167
170
178
167
169
177
167
168
177
169
169
179
170
168
178
169
168
178
169
170
180
171
178
188
179
187
197
186
196
204
190
203
209
195
207
214
199
215
219
204
221
225
210
225
232
216
233
240
224
239
244
228
245
249
234
250
254
240
145
152
152
145
152
152
146
153
152
147
154
152
147
154
151
148
154
151
148
154
151
148
154
151
148
154
151
148
154
151
148
154
151
148
154
151
148
154
150
147
153
150
147
153
150
147
153
150
148
154
150
149
155
152
149
155
152
149
155
152
150
155
150
150
155
149
150
155
149
150
155
149
150
155
149
152
155
149
153
156
150
166
169
162
181
184
176
192
195
186
201
204
195
201
204
195
201
204
195
200
203
194
200
203
194
199
202
193
198
201
192
195
198
189
194
197
188
194
197
188
193
196
187
191
194
185
189
192
183
188
191
182
187
190
181
186
189
180
186
189
180
185
188
179
183
186
177
179
182
173
174
176
168
167
168
162
157
160
153
149
158
142
210
219
190
243
253
210
225
254
188
202
251
166
192
248
154
188
234
152
234
253
199
238
247
195
205
200
134
186
158
88
200
157
93
206
158
95
211
162
96
217
168
101
221
168
101
210
157
88
209
155
86
217
166
101
231
178
115
229
175
112
224
170
106
230
175
111
226
171
103
227
171
97
223
165
86
216
155
74
207
143
64
198
133
59
181
128
64
193
151
100
150
110
66
150
112
68
144
109
64
139
105
65
133
100
67
113
82
50
96
67
34
108
78
40
120
86
48
133
95
56
149
107
67
156
110
70
170
123
77
204
161
107
235
197
137
237
204
141
227
194
133
232
197
141
242
208
148
208
170
109
163
116
61
134
89
41
126
86
46
124
87
50
129
99
58
143
116
72
145
117
73
153
123
78
145
114
70
148
117
75
134
102
64
121
88
53
108
74
40
115
81
45
136
101
62
155
118
75
162
124
76
165
125
78
155
114
68
148
107
61
157
116
72
151
111
67
140
99
55
141
100
57
147
104
60
160
118
72
170
127
79
170
127
77
165
124
72
174
133
81
179
139
88
185
145
94
190
153
103
194
164
119
192
169
135
178
170
144
168
169
152
165
167
154
161
167
157
161
167
157
160
166
156
159
165
155
159
165
155
161
164
155
161
164
155
161
164
155
162
165
156
162
165
156
162
165
156
162
165
156
162
165
156
162
165
156
162
165
156
162
165
156
162
165
156
162
165
156
163
166
157
163
166
157
162
168
158
162
168
158
162
168
158
162
168
158
162
168
158
162
170
159
162
170
159
162
170
159
162
170
159
162
170
159
163
169
159
164
170
160
165
171
161
166
172
162
166
172
162
167
173
163
167
173
163
167
173
163
167
173
163
167
173
163
166
172
162
166
172
162
166
172
162
166
172
162
166
172
162
165
172
162
165
172
162
166
172
162
167
172
162
168
171
162
166
171
163
165
172
164
165
172
164
164
171
163
164
171
163
164
172
163
163
173
164
163
173
164
163
173
164
164
174
165
166
174
166
168
173
166
168
173
166
169
174
167
170
175
168
171
177
168
171
177
166
170
178
167
169
177
166
167
177
168
169
179
170
168
178
169
168
178
169
170
180
171
178
188
179
187
197
187
196
204
191
203
209
195
208
214
200
216
220
205
222
226
211
225
232
216
234
240
224
239
244
228
245
248
234
251
254
239
158
163
160
157
163
159
155
161
156
153
159
152
153
159
152
152
158
151
151
157
150
150
156
149
149
155
148
149
155
148
148
154
148
148
154
148
148
154
148
147
154
147
147
154
147
148
154
148
149
155
148
150
156
149
150
156
150
150
156
150
150
156
149
150
155
149
151
156
149
151
156
150
151
156
150
152
155
149
153
156
150
166
169
162
181
184
176
192
195
186
201
204
195
201
204
195
201
204
195
200
203
194
200
203
194
199
202
193
198
201
192
196
199
190
194
197
188
194
197
188
193
196
187
191
194
185
189
192
183
188
191
182
187
190
181
186
189
180
186
189
180
185
188
179
184
187
178
182
185
176
181
183
175
176
177
170
166
170
157
190
199
174
239
251
212
236
253
202
217
254
183
194
247
154
184
237
142
203
242
167
235
252
194
211
213
155
185
164
98
191
153
87
200
156
94
210
164
102
215
166
100
216
167
100
210
158
90
209
156
87
219
165
96
218
166
100
219
166
100
226
172
107
217
162
97
230
175
110
222
168
100
223
167
94
227
169
91
218
157
77
205
142
64
202
139
65
183
130
66
192
151
104
143
106
65
148
110
70
139
109
65
135
106
68
123
93
65
98
74
51
72
55
33
59
48
26
60
46
24
66
48
23
86
62
35
126
99
70
167
132
99
170
128
87
197
151
96
226
182
121
231
193
132
225
190
132
249
220
160
229
195
133
179
130
74
146
96
44
136
91
46
139
99
57
138
106
61
149
120
73
147
118
71
145
114
68
152
120
75
147
115
73
146
113
75
118
85
49
107
73
38
117
83
48
139
104
65
147
110
66
159
122
74
161
123
75
150
112
65
147
109
62
148
110
65
138
101
56
138
99
55
146
105
61
150
107
63
160
118
70
169
126
77
162
118
68
166
124
71
173
131
79
179
138
86
182
142
91
189
148
97
193
154
103
195
163
121
187
166
136
178
166
147
170
166
153
163
166
157
163
166
157
162
165
156
161
164
155
161
164
155
161
164
155
161
164
155
161
164
155
162
165
156
162
165
156
162
165
156
162
165
156
162
165
156
162
165
156
162
165
156
162
165
156
162
165
156
162
165
156
163
166
157
163
166
157
162
167
157
162
168
158
162
168
158
162
168
158
162
168
158
162
169
158
162
169
159
162
170
159
163
171
160
163
171
160
163
170
160
164
170
160
165
171
161
166
172
162
166
172
162
167
173
163
167
173
163
167
173
163
167
173
163
167
173
163
167
173
163
166
172
162
166
172
162
167
173
163
167
173
163
166
174
163
166
174
163
167
173
163
167
172
162
168
171
162
166
172
163
165
172
164
165
172
164
164
171
163
164
171
163
163
172
163
163
173
164
163
173
164
163
173
164
164
174
165
166
174
166
168
173
166
168
173
166
169
174
167
170
175
168
171
176
168
171
177
166
170
178
167
169
177
166
167
177
168
168
178
169
168
178
169
168
178
169
171
181
172
179
189
180
188
197
187
197
205
192
203
210
197
209
215
201
217
221
207
223
227
212
226
232
216
235
239
224
240
243
229
246
248
234
252
254
240
159
163
156
157
162
155
158
163
154
159
165
155
159
165
154
158
164
154
157
163
153
156
162
152
156
162
152
156
162
152
153
158
151
153
158
151
152
157
151
152
157
150
152
157
150
151
156
149
151
156
149
151
156
149
150
155
148
150
155
148
150
155
148
150
155
148
150
155
148
150
155
148
150
155
148
152
155
149
153
156
150
165
168
161
180
183
175
192
195
186
200
203
194
201
204
195
200
203
194
199
202
193
199
202
193
198
201
192
197
200
191
196
199
190
194
197
188
194
197
188
193
196
187
192
195
186
190
193
184
189
192
183
188
191
182
187
190
181
186
189
180
185
188
179
184
187
178
182
185
176
181
184
176
178
181
171
180
185
165
227
235
201
240
254
207
227
252
192
204
246
170
185
240
145
177
226
135
213
248
177
226
241
175
186
176
112
197
162
96
210
165
102
211
167
106
219
173
112
226
177
111
217
168
101
212
160
93
213
160
91
225
172
102
228
175
108
224
170
103
225
170
104
207
152
86
226
169
103
232
177
111
224
168
96
227
169
92
220
159
80
216
153
76
198
138
63
180
127
64
185
145
99
164
129
92
144
105
69
138
106
65
133
104
70
110
84
59
86
68
48
56
44
26
62
49
34
72
56
41
79
62
45
84
65
45
84
63
41
103
82
59
183
152
121
187
142
101
197
141
90
229
180
122
225
187
129
244
214
153
244
212
149
202
158
100
163
113
54
157
107
57
150
106
60
153
118
70
157
127
78
150
119
72
140
108
62
157
125
80
150
117
74
144
111
72
115
81
45
108
74
38
116
82
47
131
96
57
155
118
75
161
123
75
152
114
66
138
101
54
140
102
55
141
104
58
133
96
51
140
101
57
148
107
62
148
105
59
153
111
62
162
119
69
161
118
67
176
133
80
178
136
83
182
140
88
185
144
92
189
147
95
192
147
94
193
156
108
193
162
125
183
164
138
174
166
148
164
167
157
163
166
157
162
165
156
162
165
156
160
163
154
161
164
155
161
164
155
161
164
155
161
164
155
161
164
155
161
164
155
161
164
155
161
164
155
161
164
155
161
164
155
162
165
156
162
165
156
162
165
156
163
166
157
163
166
157
162
167
157
161
167
157
162
168
158
162
168
158
162
168
158
163
169
159
163
169
159
163
169
159
164
170
160
164
170
160
164
170
160
164
170
160
164
170
160
166
172
162
166
172
162
167
173
163
167
173
163
167
173
163
167
173
163
167
173
163
167
173
163
167
173
163
167
173
163
167
173
163
167
173
163
166
174
163
166
174
163
167
173
163
168
173
163
169
172
163
167
172
163
165
172
164
165
172
164
164
171
163
164
171
163
163
172
163
162
172
163
162
172
163
162
172
163
163
173
164
166
174
166
169
174
167
169
174
167
169
174
167
170
175
168
171
177
168
171
177
166
170
178
167
170
178
167
168
178
169
168
178
169
168
178
169
169
179
170
172
182
173
180
190
181
189
199
189
198
206
195
205
211
199
210
216
204
218
222
208
223
227
213
229
233
218
236
239
225
242
244
230
247
249
235
253
254
240
145
148
139
144
147
137
143
146
135
143
147
134
143
147
134
140
146
134
141
147
135
143
149
137
144
150
137
144
150
138
144
150
141
145
150
142
146
151
143
148
153
145
148
153
145
147
153
144
148
153
144
148
153
145
148
154
145
148
153
145
146
152
144
146
151
144
146
151
144
148
153
145
148
153
145
149
152
146
148
151
145
158
161
153
172
175
166
184
187
178
193
196
187
195
198
189
197
200
191
198
201
192
198
201
192
197
200
191
195
198
189
194
197
188
193
196
187
193
196
187
193
196
187
192
195
186
190
193
184
189
192
183
188
191
182
187
190
181
186
189
180
185
188
179
184
187
178
182
185
176
182
185
176
183
186
175
210
217
192
244
252
213
235
253
197
220
252
182
194
246
156
176
237
136
184
228
145
226
251
189
205
213
146
180
158
90
195
154
88
215
169
106
219
175
114
224
175
115
222
173
107
213
164
97
212
161
93
223
170
102
236
182
112
233
180
111
222
168
100
218
163
95
224
167
99
217
159
92
233
178
112
227
171
100
224
166
89
222
160
83
216
153
76
206
147
71
187
133
71
166
125
79
181
148
111
146
107
74
143
106
69
129
97
65
97
74
49
72
57
37
65
53
35
88
77
56
86
74
53
84
70
48
83
68
47
87
69
50
85
63
48
108
87
66
194
159
127
190
134
94
197
142
87
230
186
130
239
200
143
246
210
150
236
198
135
203
160
96
172
123
68
164
118
68
158
121
70
157
125
74
150
119
69
153
121
73
151
118
72
146
113
70
128
95
55
116
82
45
98
64
28
111
77
42
126
92
53
151
114
71
156
119
72
142
105
57
132
96
48
133
97
50
139
102
56
132
95
50
139
101
56
147
106
60
147
105
58
149
107
58
158
116
65
172
128
76
183
139
84
186
143
90
184
141
88
187
146
93
193
150
97
190
144
90
187
148
96
191
158
114
185
163
129
174
166
141
165
166
157
164
165
157
163
164
156
163
164
155
161
162
154
161
164
155
161
164
155
161
164
155
161
164
155
161
164
155
161
164
155
161
164
155
161
164
155
161
164
155
161
164
155
163
166
157
164
167
158
164
167
158
164
167
158
164
167
158
163
168
158
162
169
158
163
169
159
163
169
159
163
169
159
164
170
160
164
170
160
164
170
160
164
170
160
164
170
160
164
170
160
164
170
160
164
170
160
166
172
162
166
172
162
167
173
163
167
173
163
167
173
163
167
173
163
167
173
163
167
173
163
167
173
163
167
173
163
167
173
163
167
173
163
166
174
163
166
174
163
167
173
163
168
173
163
169
172
163
167
172
163
165
172
164
165
172
164
165
172
164
165
172
165
165
173
165
163
174
165
164
174
165
162
172
163
163
173
164
166
174
166
169
174
167
169
174
167
170
175
168
171
176
169
172
178
169
171
177
166
170
178
167
170
179
168
169
179
170
169
179
170
169
179
170
170
180
171
173
183
174
181
191
182
190
200
191
199
207
196
206
212
202
212
218
206
219
222
211
225
229
215
230
234
219
238
240
226
243
245
231
249
250
236
254
255
241
158
164
154
143
148
138
139
145
135
140
144
134
139
142
133
134
140
130
131
137
127
133
139
129
132
138
128
132
138
127
132
135
126
132
135
126
132
136
127
134
137
128
134
137
128
135
138
129
136
138
129
136
138
130
137
139
131
137
139
131
138
142
130
139
143
130
139
143
131
140
144
132
142
146
133
143
146
135
142
145
135
144
147
136
150
153
141
158
162
149
166
170
157
170
174
161
173
176
164
174
177
166
176
179
168
178
181
171
179
182
173
179
182
171
179
182
172
180
183
172
181
184
172
181
184
174
182
185
175
182
185
174
184
187
176
184
188
175
184
188
175
185
188
179
184
186
179
183
185
175
184
185
171
195
199
174
238
247
209
237
252
204
231
252
193
209
250
174
184
238
145
169
235
128
193
234
157
227
246
184
189
185
119
187
156
92
201
158
96
217
171
106
223
177
109
217
168
101
211
161
93
219
168
102
218
169
103
225
177
112
233
185
121
237
190
127
238
188
122
220
166
99
223
165
99
209
149
86
223
165
100
225
171
102
221
160
85
222
158
83
218
156
75
207
149
70
199
141
77
182
132
80
189
156
114
152
115
77
147
112
64
130
99
61
93
71
49
62
53
34
86
82
60
100
93
72
90
79
60
81
64
45
83
66
45
80
64
42
80
61
39
82
63
43
127
101
81
205
164
134
201
146
100
223
175
117
235
196
134
231
197
134
246
211
152
213
176
119
184
143
82
184
143
82
185
150
90
168
140
83
157
126
74
146
113
63
144
112
65
131
98
54
123
89
50
104
70
34
99
64
28
111
76
38
121
86
47
145
110
68
146
111
66
131
96
52
129
95
50
121
86
41
133
98
53
131
97
51
135
99
51
151
111
62
137
97
47
155
115
64
165
126
73
174
134
80
181
140
87
187
146
93
189
148
96
190
149
96
189
148
94
186
144
87
194
149
98
197
153
107
189
158
118
179
165
133
173
166
149
166
164
152
163
166
153
161
166
151
160
163
152
159
164
156
159
164
156
159
164
156
159
164
156
159
164
156
161
164
155
161
164
155
161
164
155
162
165
156
162
165
156
163
166
157
163
166
157
163
166
157
164
167
158
164
167
158
165
168
159
165
168
159
165
168
159
165
168
159
165
168
159
165
168
159
166
169
160
166
170
161
166
169
160
166
169
160
166
170
161
167
170
161
167
170
161
168
171
162
168
171
162
167
172
163
167
173
163
167
173
163
167
173
163
167
173
163
167
173
163
167
173
163
167
173
163
167
173
163
167
173
163
167
173
163
167
173
163
167
173
163
167
173
163
167
173
163
167
172
163
166
172
162
166
172
162
168
174
164
168
174
164
167
173
164
165
172
164
165
172
164
163
173
164
164
174
165
166
175
166
168
175
167
168
175
167
169
176
168
170
177
169
171
178
169
169
179
167
169
179
168
169
178
168
168
178
169
168
178
169
168
178
169
170
180
171
175
185
176
183
193
184
192
202
192
200
208
197
207
213
203
213
219
208
221
224
215
226
229
219
232
236
222
239
241
228
245
247
234
250
251
238
254
254
242
228
234
224
182
188
178
149
155
145
145
150
140
144
149
139
141
147
137
136
142
132
135
141
131
134
140
130
133
139
129
132
137
128
132
137
128
132
137
127
132
137
127
132
137
127
132
135
126
132
134
126
132
135
126
133
135
127
133
135
127
133
136
125
134
137
125
133
137
124
132
135
123
132
135
123
132
135
124
132
135
124
132
135
124
133
137
123
137
141
127
141
145
131
142
146
132
143
147
134
149
152
141
150
153
142
151
154
144
152
155
146
152
155
145
154
157
146
155
159
146
157
160
147
158
160
149
159
161
150
159
162
151
161
164
153
163
167
154
165
169
155
166
169
159
167
170
160
171
174
161
177
182
160
224
233
196
244
253
209
233
254
198
221
252
183
196
249
163
177
237
139
164
227
121
207
245
171
215
231
165
187
172
109
202
165
104
215
168
108
221
172
108
220
170
103
213
160
92
209
157
88
209
159
93
219
172
109
229
185
125
232
190
131
226
183
121
235
188
122
225
175
107
213
159
92
220
163
100
211
153
89
229
174
106
208
148
77
214
150
74
215
153
74
207
149
71
199
140
75
193
140
84
192
156
112
157
120
79
156
120
70
138
104
66
94
69
48
65
54
37
112
108
88
106
100
79
86
75
56
82
65
47
78
60
40
71
55
33
69
55
34
77
57
40
81
57
41
149
121
94
213
169
131
200
151
99
232
190
130
228
191
131
229
195
140
227
192
136
216
180
120
213
176
114
234
202
142
210
180
122
172
140
85
143
107
59
139
103
60
132
98
58
111
76
41
100
65
33
100
65
31
119
84
46
132
97
58
152
117
76
152
117
75
130
95
53
121
86
45
120
86
42
133
99
54
131
97
51
140
104
57
142
102
54
144
104
54
167
127
76
171
132
78
178
139
84
182
142
87
188
147
93
189
148
94
187
145
91
185
142
88
186
142
85
190
143
91
185
137
90
188
152
109
184
163
128
177
164
140
172
165
149
166
166
151
163
166
150
162
165
152
160
165
156
160
166
156
159
165
155
159
165
155
159
165
155
161
164
155
161
164
155
161
164
155
162
165
156
162
165
156
163
166
157
163
166
157
163
166
157
163
166
157
165
168
159
165
168
159
165
168
159
165
168
159
165
168
159
165
168
159
165
168
159
166
169
160
167
170
161
167
170
161
167
170
161
167
170
161
167
170
161
167
170
161
168
171
162
168
171
162
167
172
163
167
173
163
167
173
163
167
173
163
167
173
163
167
173
163
167
173
163
167
173
163
167
173
163
167
173
163
167
173
163
167
173
163
167
173
163
167
173
163
167
173
163
167
173
163
166
172
162
166
172
162
168
174
164
168
174
164
167
173
164
166
171
164
165
172
164
165
173
165
165
175
166
166
175
167
168
175
167
168
175
167
169
176
168
170
177
169
170
178
169
169
179
167
169
179
168
169
179
168
169
179
170
169
179
170
169
179
170
171
181
172
176
186
177
184
194
185
193
203
194
201
209
198
208
214
204
214
220
210
222
225
216
227
230
220
232
236
223
239
241
228
245
247
234
250
251
239
254
254
242
250
252
246
208
212
205
160
165
158
154
159
152
152
158
150
148
154
144
141
148
137
139
146
135
137
144
134
136
143
133
135
142
131
134
141
131
134
140
130
132
139
129
132
138
128
134
138
129
135
138
129
135
138
129
134
137
128
134
137
128
134
137
127
134
137
126
134
137
126
135
138
127
133
136
125
133
136
125
134
137
126
134
137
125
134
138
124
135
139
125
134
138
124
133
137
123
132
136
122
131
134
123
131
134
123
130
133
122
130
133
122
129
133
121
131
135
121
131
135
121
133
136
123
134
136
125
135
137
125
137
139
127
138
140
128
140
142
129
142
144
131
143
145
133
142
146
131
151
156
135
202
211
179
240
252
210
239
251
206
233
254
198
216
248
178
185
243
155
167
236
130
169
226
124
216
248
176
193
205
133
182
161
99
207
171
109
222
176
116
224
174
110
218
168
101
217
165
96
220
167
98
225
175
109
220
174
112
221
178
121
227
186
131
229
188
125
230
186
119
222
175
106
212
163
94
216
165
100
209
156
93
218
161
94
210
156
89
205
142
67
203
142
65
206
146
70
202
144
78
191
138
77
192
153
104
176
136
92
173
132
80
153
114
73
104
75
50
69
56
37
105
98
79
88
81
60
83
72
51
72
56
37
69
53
33
66
53
32
65
53
35
67
51
36
77
59
42
78
59
35
166
136
107
201
156
115
231
186
134
228
192
137
245
213
159
237
207
150
236
207
146
227
195
134
236
203
143
214
180
122
187
150
93
162
123
74
142
103
61
129
91
53
106
69
34
105
70
39
113
78
44
124
89
49
138
103
63
147
112
72
132
97
58
112
77
39
116
80
43
119
84
44
125
90
47
129
95
50
132
96
49
144
104
55
165
125
75
175
135
84
176
136
83
180
141
86
180
141
85
187
146
92
189
146
92
183
139
86
183
137
83
189
142
85
183
134
81
177
126
75
187
145
98
184
155
115
179
161
130
177
166
145
168
166
149
165
168
153
163
166
154
162
165
155
161
164
155
162
165
155
161
164
155
161
164
155
161
164
155
161
164
155
161
164
155
161
164
155
161
164
155
163
166
157
163
166
157
163
166
157
163
166
157
164
167
158
165
168
159
165
168
159
165
168
159
165
168
159
165
168
159
166
169
160
167
170
161
168
171
162
168
171
162
168
171
162
166
171
162
166
172
162
165
171
161
167
173
163
166
172
162
167
173
163
167
173
163
167
173
163
167
173
163
167
173
163
167
173
163
167
173
163
167
173
163
167
173
163
167
173
163
167
173
163
167
173
163
167
173
163
167
173
163
167
173
163
167
173
163
166
172
162
166
172
162
168
174
164
168
174
164
168
173
164
167
172
165
166
172
165
167
173
166
168
175
167
167
176
167
168
175
167
168
175
167
169
176
168
170
177
169
171
179
169
169
180
168
169
179
168
170
180
169
170
180
171
170
180
171
170
180
171
172
182
173
177
187
178
186
196
187
194
204
195
203
211
200
209
215
205
215
221
211
223
226
217
228
231
221
233
237
224
240
242
229
246
248
235
251
252
240
254
254
242
252
253
247
216
219
212
164
169
162
155
162
154
152
160
152
150
158
147
146
154
143
143
151
140
142
150
139
141
149
138
139
147
136
138
146
135
137
145
134
136
144
133
135
143
132
135
141
131
136
141
131
136
141
131
135
141
131
135
141
131
135
139
129
135
138
129
135
138
129
136
139
129
135
138
128
135
138
127
135
138
127
135
138
126
135
139
125
136
140
126
136
140
126
134
138
124
133
137
123
132
135
124
132
135
124
132
135
124
131
134
122
130
133
120
127
131
117
127
131
117
128
131
117
129
129
117
128
128
116
128
128
116
127
127
115
126
127
114
126
128
114
126
128
113
125
130
110
166
175
146
234
246
208
240
253
207
240
251
203
222
251
186
207
244
159
192
244
145
159
224
118
181
224
131
223
241
171
179
178
106
167
143
80
203
169
107
221
177
115
226
178
114
221
173
105
220
170
100
225
172
101
225
174
106
222
172
109
221
173
114
222
175
118
225
181
119
225
180
113
229
182
113
223
175
106
210
160
95
215
165
104
199
143
80
224
169
104
203
146
73
196
136
63
196
134
62
196
139
72
197
142
77
198
154
100
191
149
100
187
142
85
168
125
78
130
98
65
72
56
31
74
66
46
65
57
34
73
62
40
69
55
34
71
57
38
66
55
35
55
46
28
61
52
33
69
55
34
79
60
37
88
65
44
179
141
106
226
187
140
243
212
160
249
223
169
237
210
153
243
217
158
241
215
157
218
186
128
199
159
100
176
136
76
160
120
64
155
113
65
124
85
39
129
92
49
116
82
42
120
86
47
129
94
54
138
103
64
131
97
59
107
71
35
110
74
39
114
78
43
114
79
42
117
82
40
129
95
50
137
100
53
157
117
68
172
132
81
172
132
80
176
136
83
176
138
82
178
140
82
188
146
91
185
141
86
174
127
73
174
125
71
185
134
78
170
119
65
166
113
59
179
130
78
190
151
106
184
157
119
180
162
135
171
164
143
167
166
150
169
170
158
163
166
155
161
164
153
163
166
155
162
165
154
161
164
153
161
164
155
161
164
155
161
164
155
162
165
156
163
166
157
164
167
158
162
165
156
164
167
158
166
169
160
168
171
162
171
174
165
171
174
165
171
174
165
171
174
165
170
173
164
170
173
164
170
173
164
169
172
163
169
172
163
169
172
163
167
173
163
166
173
163
164
170
160
166
172
162
168
174
164
167
173
163
167
173
163
167
173
163
166
172
162
166
172
162
166
172
162
166
172
162
166
172
162
167
173
163
167
173
163
167
173
163
167
173
163
167
173
163
167
173
163
167
173
163
167
173
163
167
173
163
167
173
163
168
174
164
168
174
164
169
174
165
169
173
166
168
173
166
168
173
166
168
175
167
169
176
168
168
175
167
168
175
167
170
177
169
171
178
170
171
179
170
170
180
168
170
180
169
170
180
169
170
180
171
170
180
171
170
180
171
173
183
174
179
189
180
188
198
189
197
207
198
204
212
201
211
217
207
216
222
212
223
227
218
229
232
222
235
238
225
242
244
231
247
249
236
253
254
242
255
255
243
253
253
249
223
225
220
170
173
167
156
163
156
152
162
153
151
159
148
149
157
146
147
155
144
145
153
142
144
152
141
140
150
139
139
149
138
138
148
137
138
148
137
137
146
135
139
145
135
139
145
135
139
145
135
138
144
134
138
144
134
139
143
133
139
142
133
139
142
133
140
143
134
138
141
132
138
141
130
137
140
129
137
140
129
136
140
126
137
141
127
137
141
127
137
141
127
135
139
126
134
137
126
134
137
126
134
138
125
133
137
123
132
136
122
129
133
119
129
133
118
130
132
119
130
130
118
129
129
117
128
128
117
127
127
115
128
127
115
129
128
114
125
127
110
142
148
123
225
235
201
240
252
208
240
254
201
238
253
193
236
246
164
213
211
110
195
212
98
164
212
107
206
232
146
196
195
128
187
166
100
193
161
99
203
165
103
213
165
105
216
165
101
215
163
96
221
167
99
222
170
99
221
168
98
219
165
98
212
156
93
210
154
94
210
161
100
211
163
97
220
171
102
225
175
107
221
169
104
218
168
109
209
157
98
212
156
89
211
158
89
203
143
71
203
140
69
198
141
72
192
138
69
198
152
94
208
165
114
179
131
69
176
130
75
150
117
75
85
68
36
65
56
30
79
71
47
95
85
63
92
79
59
68
55
36
53
45
27
43
38
18
65
55
32
65
50
25
80
64
39
75
51
33
124
93
62
231
202
157
250
227
176
250
229
175
228
205
147
244
222
165
233
210
153
226
195
137
231
188
129
194
151
88
163
121
58
161
120
62
164
125
69
163
128
75
146
112
61
130
97
51
129
94
54
133
98
59
107
72
36
103
68
32
110
74
42
103
67
35
112
76
40
122
87
46
130
96
51
149
113
66
164
124
75
177
137
86
176
136
84
175
136
82
175
137
81
174
136
79
175
133
77
176
131
76
165
117
64
163
111
58
170
118
63
163
111
56
164
109
52
174
120
66
185
137
88
193
155
105
189
160
123
178
161
133
173
163
141
172
166
152
167
168
157
164
166
155
166
168
157
164
166
155
161
163
152
160
163
154
160
163
154
161
164
155
163
166
157
166
169
160
169
172
163
170
173
164
166
169
160
166
169
160
166
169
160
164
167
158
164
167
158
164
167
158
164
167
158
163
166
156
164
167
158
164
167
158
165
168
159
168
171
161
167
171
161
166
173
163
171
179
168
176
183
172
167
175
164
165
173
162
167
174
163
167
173
163
167
173
163
167
173
163
167
173
163
167
173
163
167
173
163
167
173
163
167
173
163
167
173
163
167
173
163
167
173
163
167
173
163
167
173
163
167
173
163
167
173
163
167
173
163
167
173
163
168
174
164
168
174
164
169
174
165
170
173
166
169
173
166
168
173
166
169
174
167
169
175
168
168
175
167
168
175
167
170
177
169
171
178
170
171
179
170
170
180
168
170
180
169
171
181
170
172
181
172
172
181
173
171
181
172
174
184
175
181
191
182
190
200
191
199
209
200
206
213
203
212
218
208
217
223
213
225
228
219
230
233
223
234
238
225
242
244
231
247
249
236
253
254
242
255
255
243
253
254
250
228
231
223
171
176
166
157
164
155
152
161
154
151
160
151
149
158
149
147
156
147
145
154
145
144
153
144
141
151
140
141
151
140
140
150
139
139
149
138
138
148
137
138
147
136
138
147
136
137
146
136
138
147
136
138
147
136
138
144
134
139
144
135
139
145
135
139
144
134
138
144
134
140
142
133
140
141
133
139
141
131
139
141
130
139
142
130
139
142
131
138
141
131
137
140
130
136
139
129
135
138
128
135
138
128
135
137
128
134
136
126
133
136
124
130
135
121
133
136
124
135
139
125
134
139
124
136
136
126
134
131
123
135
135
120
138
138
117
138
138
112
206
210
178
242
251
212
238
253
207
239
254
199
245
247
179
242
203
113
221
157
32
204
190
74
168
203
104
203
219
137
180
160
91
189
149
84
196
149
86
200
153
87
207
157
90
209
156
88
210
156
86
211
155
86
210
157
88
209
154
84
208
149
81
203
140
73
197
134
67
205
149
82
203
150
84
209
159
92
212
162
94
226
175
106
218
172
113
219
172
113
203
154
90
224
175
108
204
153
84
203
142
72
209
146
76
204
142
69
199
144
81
215
170
113
187
136
71
169
119
55
164
124
72
141
115
72
103
89
56
86
73
49
76
64
42
104
96
75
77
73
55
42
37
21
58
53
36
69
58
40
64
48
28
82
66
43
77
54
33
100
69
42
227
202
161
247
235
182
249
236
183
233
211
158
223
200
148
239
225
173
250
231
174
228
189
123
222
178
108
196
157
89
221
182
118
225
186
125
198
162
106
174
139
87
125
91
43
133
98
56
132
97
56
108
73
33
103
68
29
103
69
31
94
59
23
116
81
41
128
93
50
139
103
57
162
126
78
164
126
77
173
132
82
173
129
77
176
130
75
166
118
64
167
119
64
172
123
67
166
117
62
155
104
50
157
106
51
162
110
54
162
110
53
169
114
57
173
118
62
181
128
72
190
145
86
195
159
107
185
161
120
178
164
136
173
164
147
168
168
156
169
171
156
163
166
149
160
164
150
160
163
153
163
166
154
167
170
159
169
172
162
168
171
161
164
167
158
161
164
157
161
164
155
162
165
156
162
165
155
164
167
156
165
168
155
165
169
155
165
169
155
165
169
155
165
169
155
165
169
156
165
169
156
166
170
157
168
171
159
168
171
159
166
171
158
168
172
159
176
181
168
188
192
179
179
183
170
169
173
163
168
172
163
169
173
164
170
173
164
170
173
164
170
173
164
170
173
164
170
173
164
169
172
163
169
172
163
167
173
163
166
174
163
166
174
163
166
174
163
166
174
163
167
173
163
167
173
163
167
173
163
168
174
164
168
174
164
169
174
164
171
174
165
170
174
165
168
174
164
168
175
165
169
176
166
169
177
166
169
177
166
171
178
168
172
180
169
173
181
170
173
180
170
173
180
170
175
182
171
175
182
172
175
182
172
175
182
172
178
184
174
185
192
182
195
202
192
204
211
201
210
214
205
215
219
209
221
224
213
227
230
219
232
235
223
237
239
226
244
246
232
249
251
239
252
254
243
253
254
245
254
254
251
232
235
227
176
182
170
157
165
154
153
161
154
151
161
152
148
158
149
146
156
147
144
154
145
143
153
144
141
151
141
141
151
140
141
151
140
141
151
140
140
150
139
139
149
138
139
149
138
138
148
137
138
148
137
132
142
131
131
138
128
134
140
130
137
143
133
139
145
135
139
145
135
141
144
136
141
143
134
140
142
133
140
143
132
140
143
132
140
143
133
139
142
133
138
141
132
138
141
132
137
140
131
136
140
130
136
140
128
135
139
127
134
138
124
136
140
126
144
147
134
154
155
141
162
161
145
163
163
149
161
160
144
161
157
136
163
161
136
182
185
155
239
247
211
241
254
210
238
253
203
247
250
187
243
201
109
245
155
37
233
145
12
210
190
80
176
196
103
193
193
116
177
140
74
186
137
73
191
140
76
195
146
77
202
150
81
208
154
84
206
150
81
203
145
75
199
142
72
197
138
69
197
136
67
194
130
61
190
125
57
189
128
61
203
147
82
193
141
76
204
151
83
217
162
92
219
168
104
225
175
113
215
166
106
209
161
101
211
163
104
203
145
78
208
147
71
205
143
65
200
144
72
216
168
108
195
142
76
180
128
60
176
128
72
166
129
80
116
88
51
71
51
31
67
53
35
87
80
62
92
87
69
55
48
28
59
51
31
63
50
31
65
48
27
86
68
46
71
49
25
94
60
35
222
196
157
252
245
193
247
237
186
241
220
171
241
220
169
250
237
185
247
225
170
237
203
134
226
186
115
236
197
130
231
192
128
228
190
128
207
170
113
146
109
57
140
105
56
141
107
63
125
90
49
115
80
38
110
75
35
97
63
24
104
70
32
122
87
47
129
95
50
155
119
73
163
126
78
157
118
70
156
114
64
155
109
58
165
117
64
160
109
54
155
105
50
150
100
45
154
104
49
159
109
53
160
110
54
166
115
58
172
120
64
173
120
63
168
114
57
184
130
73
184
138
77
196
158
98
193
166
116
181
163
132
175
163
147
170
168
154
169
170
154
161
164
146
166
169
155
169
173
163
167
170
157
161
164
153
159
162
151
160
163
153
161
164
155
160
163
155
162
165
156
162
165
156
162
165
154
164
167
155
165
169
154
165
169
154
165
169
154
165
169
154
165
169
154
166
170
155
166
170
156
166
170
156
168
172
158
168
172
158
168
172
158
168
172
158
167
171
157
168
172
158
177
181
167
184
187
176
175
178
169
171
174
165
170
173
164
170
173
164
170
173
164
170
173
164
170
173
164
169
172
163
169
172
163
167
173
163
166
174
163
166
174
163
166
174
163
166
174
163
166
174
163
167
173
163
167
173
163
168
174
164
168
174
164
169
174
164
171
174
165
170
175
165
169
175
165
169
176
166
169
177
166
170
178
167
170
178
167
171
179
168
172
180
169
173
181
170
174
180
170
174
180
170
175
181
171
176
182
172
176
182
172
177
183
173
181
187
177
188
194
184
198
204
194
207
213
203
213
216
207
218
221
210
222
225
214
228
232
219
233
237
223
238
240
226
245
247
233
250
252
240
252
254
244
253
254
246
254
254
251
236
238
231
182
188
176
157
165
154
153
161
155
151
161
152
148
158
149
146
156
147
144
154
145
143
153
144
142
152
141
141
151
140
141
151
140
142
152
141
140
150
139
141
151
140
141
151
140
140
150
139
139
149
138
137
147
136
134
142
131
137
143
133
139
146
136
139
146
136
139
146
136
140
145
137
139
144
137
139
144
135
139
144
134
139
144
133
140
144
134
140
143
134
140
143
134
140
143
134
138
141
132
139
142
131
139
142
129
137
141
127
138
142
128
140
143
129
149
150
137
165
160
144
174
167
148
177
171
152
179
177
153
176
175
145
184
184
153
229
235
202
239
253
212
239
254
206
247
252
195
248
207
126
249
156
30
252
144
8
229
138
20
199
173
75
185
180
97
174
149
79
177
123
61
182
126
61
185
131
66
192
139
71
197
142
74
194
137
68
195
136
68
193
133
64
189
129
58
187
124
54
188
126
57
191
128
60
193
129
62
192
132
69
197
140
78
204
149
87
195
139
73
201
141
72
211
151
81
216
159
92
224
172
111
205
157
102
218
172
121
204
151
90
202
144
65
213
152
69
208
151
71
214
162
99
196
142
74
194
139
67
184
129
67
167
118
63
160
116
72
121
90
62
76
55
33
104
91
74
93
82
66
60
48
28
59
49
28
63
47
28
78
61
41
74
56
36
67
44
25
108
71
49
234
208
173
254
249
202
252
245
197
249
232
183
240
217
165
242
225
172
246
225
168
244
213
145
246
211
140
241
206
138
239
202
137
241
205
143
206
167
110
161
123
71
141
104
56
127
93
49
114
79
38
112
77
36
105
70
30
92
57
19
114
80
42
126
91
51
133
98
54
164
128
81
161
125
77
143
105
57
135
93
44
140
95
45
142
94
43
161
111
57
145
96
41
146
97
41
156
107
51
164
115
59
171
122
66
175
125
68
175
125
67
176
125
68
172
120
62
180
128
70
186
139
77
193
151
87
197
164
108
186
162
125
179
164
144
175
172
153
172
172
153
170
172
155
163
167
153
158
163
150
161
165
151
160
163
152
159
162
151
160
163
152
160
163
154
161
164
155
162
165
156
162
165
154
162
166
154
164
168
154
165
169
154
165
169
154
165
169
154
165
169
154
165
169
154
166
170
155
167
171
156
167
171
156
168
172
157
168
172
157
169
173
158
168
172
158
167
171
157
169
173
159
168
172
158
172
176
164
177
180
169
174
177
167
170
173
162
170
173
162
170
173
162
170
173
162
170
173
162
169
172
161
169
172
161
168
173
162
167
174
163
167
174
163
167
174
163
167
174
163
167
174
163
167
173
163
167
173
163
168
174
164
168
174
164
169
174
164
171
174
165
170
174
165
169
175
165
170
177
166
170
178
167
171
179
168
171
179
168
171
179
168
172
180
169
174
181
170
175
181
171
175
181
171
176
182
172
176
182
172
176
182
172
178
184
174
184
190
180
191
197
187
200
206
196
209
214
204
215
218
207
220
223
212
224
228
215
229
233
219
234
238
224
240
242
228
246
248
234
251
253
241
252
254
244
253
254
246
254
254
251
237
240
232
186
192
180
158
165
155
154
163
156
151
161
152
148
158
149
147
157
148
145
155
146
144
154
145
143
153
142
142
152
141
141
151
140
141
151
140
140
150
139
140
150
139
140
150
139
140
150
139
139
149
138
139
149
138
140
148
137
140
148
137
140
148
137
138
146
135
138
146
135
138
145
137
138
145
137
138
145
137
138
145
136
138
146
135
140
145
135
141
144
135
141
144
135
140
143
134
140
143
134
144
144
136
147
145
136
146
144
132
143
141
126
146
145
126
153
148
128
163
156
131
175
166
138
183
169
143
185
177
147
193
198
160
221
230
191
244
251
215
237
253
210
238
253
200
244
238
173
238
163
55
253
147
8
244
137
7
225
137
31
182
145
54
176
149
75
177
132
69
190
127
67
185
128
61
187
131
65
190
133
66
192
134
67
194
134
67
194
132
65
197
133
65
197
135
67
196
135
69
196
138
72
202
144
80
203
145
83
210
153
92
205
152
92
200
147
86
200
145
79
195
135
65
202
136
61
204
141
70
205
148
84
219
169
110
208
161
106
219
170
112
204
149
76
207
146
66
210
150
70
216
159
92
207
151
80
200
142
67
188
129
61
174
118
54
160
108
53
154
111
67
135
101
63
147
121
95
81
62
41
60
44
20
60
45
20
67
49
26
66
47
26
62
43
25
65
42
25
132
91
70
232
203
171
254
250
208
253
251
206
249
237
188
247
222
168
244
225
169
254
238
179
240
208
142
242
212
143
241
212
144
249
216
151
214
177
116
185
146
90
155
114
62
145
108
59
116
82
38
112
77
36
110
75
33
110
75
35
111
77
38
127
92
56
117
83
43
139
104
60
162
126
79
146
109
63
121
83
37
126
84
36
130
84
35
152
104
54
154
104
51
153
106
50
158
110
54
166
118
62
173
125
69
181
134
77
181
134
76
172
123
65
174
124
66
177
128
69
182
132
73
182
133
70
189
141
76
194
154
94
195
166
121
191
173
141
177
172
147
167
165
145
160
161
146
159
164
149
159
166
150
160
164
150
160
163
151
160
163
152
160
163
152
160
163
154
161
164
154
162
165
154
163
166
154
163
167
153
164
168
154
165
169
154
165
169
154
165
169
154
165
169
154
165
169
154
166
170
155
166
170
155
166
170
155
167
171
156
167
171
156
168
172
157
168
172
158
168
172
158
169
173
159
170
174
160
171
174
162
171
174
163
172
175
164
171
174
163
170
173
162
170
173
162
170
173
162
170
173
162
170
173
162
170
173
162
169
174
163
168
174
164
168
174
164
168
174
164
168
174
164
168
174
164
168
174
164
168
174
164
168
174
164
168
174
164
169
174
164
170
173
164
169
173
164
170
176
166
169
177
166
170
178
167
171
179
168
171
179
168
172
180
169
173
181
170
174
182
171
176
182
172
176
182
172
176
182
172
176
182
172
176
182
172
178
184
174
185
191
181
192
198
188
201
207
197
209
215
205
215
218
207
221
225
212
226
230
216
230
234
220
236
240
225
241
243
229
247
249
235
251
253
241
253
254
244
254
255
247
254
254
251
242
244
237
192
198
186
160
167
157
154
162
156
151
161
152
148
158
149
147
156
148
145
155
146
144
154
145
143
153
142
142
152
141
141
151
140
141
151
140
140
150
139
139
149
138
139
149
138
139
149
138
139
149
138
139
149
138
140
148
137
140
148
137
140
148
137
138
146
135
138
146
135
138
146
137
137
145
138
137
145
137
137
145
137
137
146
135
139
145
135
141
144
135
141
144
135
140
143
134
143
146
137
145
147
137
147
148
135
152
148
130
158
147
124
165
150
121
173
152
119
184
158
122
192
169
131
187
178
139
208
219
172
212
234
183
231
249
204
244
253
214
239
252
208
240
253
198
245
249
182
241
207
112
241
162
48
236
147
32
209
138
46
186
138
64
182
137
69
181
126
66
183
122
60
179
123
54
186
127
60
188
129
63
190
129
63
195
132
66
200
135
69
198
133
67
197
137
73
200
142
79
206
152
91
214
163
104
217
166
108
214
163
104
223
174
115
217
169
108
216
164
98
205
150
79
204
139
63
202
139
64
205
147
75
208
156
88
213
164
98
220
174
114
215
161
97
213
151
76
213
149
75
215
155
83
214
157
84
202
143
66
194
133
62
173
116
46
157
105
39
147
100
46
148
106
61
175
141
105
139
109
73
125
97
57
104
80
46
85
58
30
73
44
17
64
37
13
73
41
22
128
82
62
229
199
169
252
251
211
249
250
207
243
233
185
241
216
161
237
214
158
253
234
175
247
220
152
250
226
157
246
218
151
236
203
137
179
144
83
189
150
94
174
134
83
142
104
58
114
80
36
99
64
23
104
70
29
121
86
47
116
82
44
116
82
45
130
95
54
139
105
60
158
122
75
127
90
44
107
69
23
134
92
45
144
99
50
163
114
64
158
108
57
167
120
64
169
122
66
179
132
77
187
140
84
190
144
87
175
130
71
170
124
65
173
125
66
177
128
69
182
133
74
178
128
67
186
135
75
200
154
96
202
169
116
189
170
123
168
161
132
168
164
142
164
164
148
160
164
149
157
165
148
160
164
150
160
163
151
160
163
152
160
163
152
160
163
154
160
163
152
161
164
153
162
166
152
163
167
153
164
168
153
165
169
154
165
169
154
165
169
154
165
169
154
165
169
154
166
170
153
166
170
153
166
170
153
167
171
154
167
171
154
168
172
157
168
172
158
168
172
158
169
173
159
170
174
160
170
174
160
170
174
160
171
175
161
171
175
161
170
174
160
170
174
160
170
174
160
170
174
160
170
174
160
170
174
160
169
174
162
168
174
164
168
174
164
168
174
164
168
174
164
168
174
164
168
174
164
168
174
164
168
174
164
168
174
164
169
174
164
170
173
164
169
174
164
170
176
166
169
177
166
170
178
167
171
179
168
171
179
168
172
180
169
173
181
170
174
182
171
176
182
172
176
182
172
176
182
172
176
182
172
176
182
172
178
184
174
185
191
181
193
199
189
203
209
199
211
216
206
217
220
207
222
226
212
227
231
216
232
236
221
237
241
226
242
244
230
248
250
236
252
254
242
253
254
244
254
255
247
253
254
251
244
247
240
196
202
192
160
167
158
156
163
157
154
160
153
151
157
150
149
155
148
148
154
147
146
152
145
143
153
142
142
152
140
141
152
139
141
152
139
140
150
138
138
149
136
138
149
136
138
149
136
138
149
136
138
149
136
138
148
137
138
147
138
138
147
137
137
146
136
137
146
136
137
145
137
137
145
137
137
145
137
137
145
136
137
145
136
138
144
135
138
143
133
141
145
134
146
148
136
144
145
133
144
145
130
148
145
124
158
146
115
175
150
111
192
154
111
199
154
108
202
156
111
195
171
127
211
225
172
205
238
182
218
248
194
232
255
203
236
254
204
235
253
202
235
252
197
233
252
192
229
247
170
230
216
126
214
168
77
197
145
68
190
141
77
190
142
78
190
138
76
191
135
72
189
132
67
190
130
66
190
130
63
192
132
65
196
136
69
200
141
73
205
146
79
206
151
87
210
158
98
216
166
111
219
172
118
219
175
119
225
182
125
228
185
128
231
188
129
223
178
118
218
170
108
215
158
90
211
155
82
210
154
79
206
151
78
223
169
100
220
177
115
231
185
123
224
173
105
222
168
98
219
166
93
229
177
104
216
164
90
209
156
84
198
146
74
188
137
68
171
118
59
156
109
62
181
138
95
154
109
60
155
113
60
154
116
63
154
114
65
143
102
58
134
92
55
140
97
66
166
114
81
221
181
143
246
231
183
251
246
194
248
232
181
236
205
151
236
206
146
251
226
162
247
218
153
244
218
154
235
209
143
215
187
120
220
189
125
169
132
77
171
130
83
116
76
34
103
68
29
98
63
24
104
69
32
110
76
38
123
88
50
124
89
50
129
94
53
139
105
60
142
107
61
110
74
28
115
78
33
147
107
60
168
126
77
164
121
69
163
118
65
170
126
71
177
135
77
188
147
88
194
151
92
189
143
84
173
125
63
170
122
62
173
126
66
176
127
69
177
127
69
179
130
74
197
151
92
196
152
93
191
153
91
201
170
111
179
164
128
165
156
131
161
157
141
159
159
144
157
158
141
157
159
142
159
161
145
160
161
147
160
161
148
161
162
149
161
162
149
163
164
151
164
165
153
164
166
153
165
166
154
165
168
153
165
168
154
165
168
154
165
169
154
165
169
154
166
169
154
166
170
154
166
170
154
167
171
156
168
172
156
167
173
156
167
173
156
167
173
156
167
174
157
168
175
158
169
175
160
169
175
160
170
175
160
169
175
158
169
175
158
169
174
160
170
174
160
170
174
160
170
174
160
170
174
160
170
174
162
169
173
164
169
173
164
169
173
164
169
173
164
168
174
164
167
175
164
167
175
164
167
175
164
167
175
164
168
175
164
168
175
165
168
175
165
170
177
166
170
178
167
170
178
167
170
178
167
171
179
168
172
180
169
173
181
170
174
182
171
175
183
172
175
183
172
175
182
172
175
183
172
176
183
173
177
186
175
186
193
181
193
200
188
205
210
198
212
216
203
217
221
207
223
227
213
228
232
218
233
237
223
238
242
228
243
245
230
248
250
236
252
254
242
253
254
246
254
255
249
253
255
253
246
250
243
204
210
200
163
169
161
158
164
158
157
162
155
154
159
152
151
156
149
149
154
147
147
152
145
144
153
142
142
152
141
141
151
140
140
150
139
139
149
138
138
148
137
138
148
137
138
148
137
138
148
137
138
148
137
137
147
138
137
147
138
137
147
138
136
146
137
136
146
137
137
145
137
138
145
137
138
145
137
137
144
136
137
144
136
138
144
137
139
145
137
145
151
141
146
148
134
153
149
128
163
151
124
176
155
121
184
152
109
193
151
100
201
153
98
205
154
100
200
155
108
221
216
166
206
236
177
213
244
188
230
253
202
235
253
203
235
253
201
234
254
200
232
254
198
227
254
192
210
248
168
199
223
136
194
186
103
184
152
81
184
137
75
185
138
75
190
140
78
193
141
78
196
140
78
197
138
75
194
133
68
188
128
61
188
128
62
194
134
68
200
142
75
204
153
88
211
161
102
221
175
120
223
181
127
223
183
127
231
190
134
234
193
136
236
194
137
239
197
139
233
190
131
227
179
117
219
169
105
216
166
98
221
170
103
215
163
101
228
185
129
242
198
142
232
186
126
230
181
118
233
182
116
237
188
117
225
175
105
219
170
100
210
160
90
201
152
82
202
150
87
196
152
101
184
141
95
163
113
61
157
109
54
147
101
44
141
96
39
136
89
36
152
105
58
162
114
69
160
105
61
176
127
83
239
212
159
250
234
176
241
221
164
235
205
146
230
195
132
247
214
148
234
201
134
242
214
148
228
201
136
235
207
141
208
177
114
185
151
98
139
101
56
110
71
32
99
64
26
99
64
26
111
76
39
103
68
30
111
76
39
119
84
46
125
90
49
132
98
54
119
86
40
109
74
27
132
96
49
160
121
74
178
138
87
171
130
77
170
127
73
179
138
82
183
147
88
188
151
90
192
147
88
179
128
70
171
121
61
162
111
53
179
128
71
177
130
74
187
142
87
189
143
86
180
135
76
186
143
82
192
151
87
196
158
95
195
170
123
158
140
105
145
135
112
140
133
115
136
131
112
138
135
117
140
137
119
142
138
123
145
142
126
149
146
131
150
149
133
151
151
135
155
154
140
158
157
144
160
159
147
159
161
147
161
163
148
163
165
150
164
167
151
166
169
153
166
169
154
166
169
153
166
170
154
167
171
155
168
172
156
167
172
156
166
172
156
166
172
156
168
173
158
169
174
159
171
175
161
171
175
161
171
175
161
171
175
160
171
175
160
170
174
160
170
174
160
170
174
160
170
174
160
170
174
160
170
173
161
170
173
163
170
173
163
170
173
163
170
173
163
169
174
164
167
175
164
167
175
164
167
175
164
167
175
164
168
175
164
168
176
165
168
176
165
170
177
167
170
178
167
170
177
167
170
177
167
171
178
168
173
180
170
173
181
170
174
181
171
175
183
172
175
183
172
174
182
171
175
183
172
176
184
173
177
187
176
187
195
182
194
201
189
207
212
199
214
218
204
219
223
209
225
229
215
229
233
219
234
238
224
239
243
229
244
246
231
249
251
238
253
254
244
253
254
247
255
255
250
254
255
254
250
252
246
214
218
208
167
173
163
159
165
157
159
164
157
156
161
154
152
157
150
149
154
147
147
152
145
145
153
142
143
152
141
142
150
139
141
149
138
140
148
137
138
148
137
138
148
137
138
148
137
138
148
137
138
148
137
137
147
138
137
147
138
137
147
138
136
146
137
136
146
137
137
145
137
138
145
137
138
145
137
137
144
136
137
144
136
140
144
138
138
143
139
141
146
136
149
146
124
169
153
117
185
155
111
193
151
103
201
149
96
202
148
89
197
147
86
200
151
95
204
172
125
226
240
185
205
242
181
223
250
194
233
254
203
236
253
203
235
253
201
236
254
202
234
255
199
229
254
192
209
250
169
204
234
152
192
193
117
178
154
85
178
136
73
182
136
76
191
143
83
199
149
89
200
148
88
202
147
86
206
147
82
202
142
77
198
137
72
200
139
74
205
147
81
210
163
98
211
166
106
210
169
114
221
184
129
220
184
127
227
188
133
238
197
142
234
193
137
234
192
135
236
194
137
234
191
136
228
184
129
226
181
124
221
175
118
233
188
131
239
197
145
246
204
150
247
203
146
236
190
131
236
187
128
236
188
122
225
176
110
221
173
105
216
167
98
209
160
91
203
156
90
199
159
107
183
142
95
171
121
71
166
116
63
155
106
54
145
96
45
133
84
31
128
80
25
136
88
34
144
89
37
151
95
44
195
150
95
234
203
143
245
218
156
239
211
146
208
170
105
216
172
107
225
189
120
238
209
141
234
204
139
224
193
131
191
157
101
152
116
67
116
79
36
106
69
30
97
62
25
103
68
31
101
66
29
108
73
35
107
72
34
117
82
45
116
82
41
114
80
36
112
78
31
121
87
41
149
114
67
163
126
78
183
144
93
176
136
83
180
139
85
182
143
88
189
155
96
188
152
90
184
136
76
176
117
61
160
104
49
162
112
57
187
141
86
191
147
94
176
131
78
178
130
71
187
141
80
188
142
80
191
146
81
192
148
83
204
171
115
186
162
116
144
129
97
125
115
93
125
117
97
125
118
98
128
120
101
129
121
103
130
122
104
131
124
106
131
129
109
133
132
111
134
133
113
135
134
115
139
137
119
139
140
121
141
142
124
144
145
126
147
148
129
150
151
133
155
155
137
156
157
138
157
158
140
161
162
144
163
164
146
164
166
151
165
167
153
166
168
154
169
171
156
171
173
158
172
174
160
172
174
161
171
174
161
173
175
163
173
175
163
171
174
160
170
174
159
170
174
159
170
174
159
171
174
160
171
174
161
170
173
162
171
173
162
171
173
162
170
173
162
169
173
162
168
174
162
168
174
163
168
174
163
168
174
163
169
175
164
169
175
165
169
175
165
171
177
167
171
177
167
171
177
167
171
177
167
172
178
168
174
180
170
174
180
170
175
181
171
175
183
172
175
183
172
175
183
172
176
184
173
176
185
174
178
188
177
188
196
184
197
204
191
209
214
202
217
221
207
221
225
211
227
231
217
231
235
221
235
239
225
241
244
230
245
247
233
250
252
239
253
254
245
253
254
248
255
255
251
255
255
254
252
253
247
220
223
212
174
179
166
162
168
157
160
165
158
157
162
155
154
159
152
151
156
149
148
153
146
145
152
143
143
151
141
141
149
139
141
148
139
140
147
138
138
148
138
138
148
138
138
148
138
138
148
138
138
148
138
137
147
138
137
147
138
137
147
138
136
146
137
133
143
134
135
142
134
137
142
135
138
143
136
138
143
136
138
143
136
140
144
136
140
143
133
152
149
131
172
155
121
194
160
111
201
156
100
204
152
94
204
147
88
207
152
93
206
158
99
204
160
107
219
208
156
214
244
185
214
248
188
229
254
198
231
255
203
235
255
204
236
254
202
237
254
202
239
254
201
231
252
194
204
244
167
187
220
136
191
196
115
186
165
93
187
147
85
186
141
83
188
142
84
199
151
93
206
157
98
211
161
100
211
158
92
208
153
88
207
150
86
204
145
82
206
148
84
207
159
95
214
169
110
210
168
114
216
177
124
218
182
127
224
185
131
232
193
138
235
194
139
230
189
133
232
190
134
233
193
140
229
189
137
231
190
139
233
192
139
233
191
137
244
203
147
248
207
150
250
208
148
245
202
141
246
202
140
231
185
122
226
179
115
218
172
106
213
167
100
214
168
100
202
157
89
198
161
107
178
139
91
166
119
69
155
108
57
152
106
58
147
100
53
139
93
43
133
87
35
128
82
29
127
77
21
135
80
24
163
111
55
213
171
111
229
194
132
231
197
134
203
161
99
197
150
87
206
165
100
216
182
117
222
187
126
216
180
123
199
164
114
133
98
54
104
70
28
106
72
35
118
83
46
104
69
31
103
68
31
100
65
28
107
72
35
112
77
39
104
70
30
118
84
39
118
84
37
135
102
55
150
116
69
163
126
78
176
139
87
177
137
84
179
139
85
189
152
98
192
156
98
186
146
86
180
129
69
169
112
53
168
117
60
190
140
84
178
131
75
173
129
75
175
132
77
186
138
78
180
131
70
184
135
71
194
144
79
196
146
81
192
152
92
210
180
129
160
142
101
121
111
81
110
103
79
106
99
74
107
100
76
110
102
80
113
105
84
117
109
89
118
115
91
119
117
92
121
119
96
126
123
101
128
126
104
130
129
107
131
129
107
132
130
108
136
134
112
138
136
114
140
138
117
142
140
120
144
142
122
145
144
123
147
145
125
146
146
127
148
148
130
151
151
133
153
153
135
155
155
137
158
159
141
163
165
147
163
164
149
164
165
152
164
165
153
166
167
154
168
170
156
169
171
157
169
171
157
171
173
159
171
173
160
171
173
160
173
175
161
173
175
161
172
174
160
170
173
160
169
174
162
170
175
163
170
175
163
170
175
163
171
175
164
171
175
166
171
175
165
172
176
167
173
178
168
173
178
168
173
177
168
174
179
169
177
181
172
177
181
172
176
182
172
175
183
172
176
184
173
177
185
174
178
186
175
178
186
175
180
190
179
191
199
186
201
207
195
210
215
203
219
223
209
223
227
213
228
232
218
232
236
222
237
241
227
242
246
232
248
250
237
251
253
242
253
254
247
253
254
249
255
255
251
254
254
254
254
254
249
229
232
220
182
186
172
169
173
160
163
168
160
159
164
157
156
161
154
152
157
150
149
154
147
146
151
144
144
149
142
142
147
140
142
147
140
140
146
139
137
146
137
136
146
137
136
146
137
136
146
137
136
146
137
136
146
137
136
146
137
136
146
137
135
145
136
132
142
133
134
141
133
136
141
134
137
142
135
138
143
136
138
143
136
140
145
134
147
146
129
170
155
126
195
163
118
204
157
100
208
153
90
208
152
88
206
151
87
200
149
88
202
153
98
214
169
120
235
238
183
206
250
187
219
252
194
230
255
200
234
254
203
237
253
204
237
254
202
236
253
201
236
254
199
228
250
188
203
241
158
189
223
134
180
189
104
183
163
91
187
145
85
186
141
86
190
145
90
198
153
96
210
165
107
213
168
108
217
171
104
217
168
102
212
162
97
208
154
90
208
154
90
212
162
99
216
168
111
213
168
116
211
170
118
221
183
129
227
190
136
231
192
137
235
196
141
237
196
141
233
192
136
232
193
136
229
189
136
234
193
141
241
200
145
243
203
143
247
206
148
246
206
147
246
206
146
247
206
145
251
210
149
236
191
131
218
172
112
201
156
93
200
155
89
202
156
89
199
152
85
203
164
109
169
131
83
155
112
61
145
103
52
150
109
60
150
108
59
140
98
48
131
90
39
125
83
32
125
80
23
128
78
20
140
89
31
164
119
60
178
134
76
192
145
88
196
151
92
183
139
78
171
127
67
187
147
88
207
169
111
181
142
89
132
94
49
109
74
35
102
69
31
112
79
41
108
73
36
108
74
36
102
67
29
111
76
39
112
77
40
112
77
40
105
70
30
114
80
35
119
86
39
135
101
54
147
113
66
161
126
77
177
141
89
180
142
88
178
140
86
186
148
96
191
149
94
180
133
76
173
124
64
178
130
67
169
124
63
166
119
58
176
129
70
187
141
83
179
133
76
178
129
68
178
127
65
182
130
66
191
138
72
196
143
76
195
145
83
209
172
115
194
169
119
132
119
77
110
100
66
106
101
71
104
99
71
104
98
71
105
99
73
106
100
75
104
100
71
105
101
72
107
103
76
110
107
80
114
110
84
114
110
85
117
113
88
119
115
91
121
117
92
123
119
94
126
123
100
128
125
103
131
128
106
136
133
110
139
136
113
140
138
115
143
141
118
145
143
120
144
143
119
146
144
121
147
147
123
149
151
127
147
148
128
150
151
134
150
151
135
151
153
137
152
155
138
153
156
139
156
159
142
158
161
144
160
162
147
161
163
149
162
164
150
164
166
152
165
167
153
165
168
154
166
170
156
167
171
157
169
173
159
169
173
159
169
173
161
171
174
164
173
176
167
173
176
167
174
177
167
174
177
168
174
177
168
175
178
169
178
181
172
178
181
172
177
181
172
175
183
172
176
184
173
177
185
174
178
186
175
178
186
175
181
191
180
192
200
187
202
209
196
211
217
204
220
224
210
224
228
214
229
233
219
233
237
223
238
242
228
243
247
233
248
250
237
251
253
242
253
254
247
253
254
250
255
255
253
254
254
254
254
254
252
238
239
231
192
195
179
175
178
163
170
173
163
165
168
160
160
164
156
156
161
153
151
156
149
146
151
144
144
149
142
142
147
140
141
146
139
139
145
138
138
144
136
137
144
136
137
144
136
137
144
136
138
144
136
137
143
136
137
143
135
137
143
135
136
143
135
135
141
134
135
139
133
137
140
133
137
142
134
136
142
137
140
143
138
146
145
131
154
145
120
182
155
118
208
162
109
210
157
94
209
152
89
210
152
92
206
153
93
200
151
92
201
155
100
214
176
129
236
246
196
207
252
186
225
254
195
232
254
201
233
254
202
235
253
202
235
254
203
235
253
200
231
255
196
221
253
183
200
242
155
182
214
128
186
188
111
196
168
101
197
151
91
193
145
88
196
149
93
202
158
102
211
170
113
213
173
116
217
177
115
220
176
114
218
170
107
216
163
100
217
162
98
218
167
107
224
177
118
225
182
126
214
173
119
216
173
120
224
182
128
230
189
134
235
193
138
241
198
143
241
199
144
238
195
140
236
193
140
236
194
139
242
200
144
242
201
142
244
203
145
239
198
140
237
195
136
241
199
139
247
204
144
238
193
135
222
177
118
207
162
102
183
138
75
174
129
65
177
134
72
201
161
106
169
130
78
157
116
65
146
107
57
142
102
55
145
107
61
140
102
55
132
93
45
134
91
42
141
95
41
148
100
45
165
116
60
165
117
59
154
105
46
157
111
56
167
124
69
169
128
70
152
110
53
170
128
72
179
140
86
174
137
88
133
98
54
103
70
30
96
66
26
100
70
31
101
68
29
108
75
36
111
78
40
111
78
39
118
85
46
101
68
28
106
73
32
112
78
36
107
74
32
121
88
44
144
111
64
162
127
78
176
139
88
169
130
77
179
139
85
177
135
84
174
128
73
166
117
58
167
118
57
164
116
54
179
133
69
183
140
76
185
144
80
174
129
67
174
125
65
174
125
65
173
125
63
180
130
66
188
138
72
195
145
77
199
148
81
195
152
87
202
167
109
174
149
100
133
117
81
120
115
82
116
112
83
115
111
84
112
110
84
110
108
80
109
107
78
109
107
79
109
107
78
108
106
78
109
107
79
112
110
83
112
110
83
113
111
84
114
112
85
114
112
85
116
114
87
117
114
88
117
114
89
118
115
89
122
119
94
124
121
96
125
122
97
127
123
98
130
127
102
133
129
105
136
134
110
140
138
115
141
139
117
143
142
120
145
144
123
147
146
126
148
148
128
149
149
129
150
150
130
151
151
131
152
151
133
153
152
134
155
154
136
155
153
136
156
155
137
156
156
140
156
157
142
157
157
142
159
159
144
159
159
145
159
160
147
161
163
151
164
166
155
166
169
157
166
170
158
168
172
160
171
174
162
172
176
165
175
178
168
176
179
170
175
179
170
173
181
170
174
182
171
176
184
173
178
186
175
179
187
176
185
191
178
196
201
188
205
210
196
214
218
204
222
226
212
225
228
214
229
232
218
234
237
223
239
242
228
245
247
233
250
251
237
252
253
241
254
254
246
254
254
250
255
254
254
254
254
253
254
254
254
243
244
238
200
203
188
179
182
166
173
175
165
167
170
161
162
165
156
156
161
153
150
155
148
146
151
144
144
149
142
142
147
140
141
146
139
138
143
136
137
142
135
137
142
135
137
142
135
137
142
135
137
142
135
137
142
135
137
142
135
137
142
135
136
141
134
135
140
133
134
139
133
135
140
132
134
142
133
134
142
135
142
143
136
157
150
132
174
156
127
195
159
115
212
162
103
215
161
97
215
158
98
213
157
100
211
158
101
212
164
107
218
173
117
230
200
151
233
248
200
209
253
186
227
254
196
233
253
200
233
255
201
234
254
201
233
255
203
234
254
200
229
255
194
216
253
180
202
245
162
191
223
141
195
199
124
204
175
110
202
158
97
196
149
94
203
158
103
207
166
112
214
175
122
217
180
126
220
183
125
223
182
123
222
176
116
215
164
102
211
157
96
213
163
104
215
169
111
211
169
113
206
164
111
207
165
113
216
174
120
227
185
130
229
187
132
237
194
140
241
199
144
244
202
149
242
200
147
246
203
149
249
208
152
247
206
150
244
202
147
240
197
142
230
188
130
228
184
124
223
179
117
221
175
115
219
173
113
221
176
116
201
157
97
175
132
72
142
101
45
178
138
87
157
117
67
166
125
78
151
110
65
143
104
59
136
98
55
133
97
54
133
94
49
139
95
46
162
115
56
196
148
87
202
154
92
192
144
81
171
123
60
143
99
41
133
92
38
149
108
54
144
103
49
146
105
52
153
114
63
147
112
67
115
81
37
102
70
28
97
68
28
97
67
28
102
70
31
107
75
36
113
81
42
116
84
45
114
81
42
104
71
30
103
70
29
101
69
28
109
76
36
120
88
45
136
104
58
160
125
77
170
132
82
170
129
77
179
137
85
178
132
82
187
141
85
180
133
72
180
131
69
191
141
80
185
139
76
185
143
80
184
143
80
179
136
74
182
135
75
185
136
78
189
141
79
186
138
74
190
143
76
199
151
82
195
145
78
189
145
78
194
155
93
189
159
108
146
128
90
126
121
88
123
119
90
124
119
95
124
121
97
122
121
94
123
121
94
123
122
95
124
123
96
123
121
95
121
119
93
117
116
89
118
116
90
118
117
90
119
117
90
120
119
92
120
119
91
119
118
90
120
119
91
121
120
92
121
120
92
123
120
94
123
119
94
123
119
94
123
119
94
124
120
95
125
122
99
126
124
101
126
124
101
128
126
103
130
128
105
130
128
106
130
128
107
131
129
108
132
130
109
136
134
113
139
137
116
141
138
119
143
141
121
148
145
125
149
146
126
150
148
129
152
151
133
153
152
134
153
152
134
155
154
136
155
155
139
155
156
142
157
159
145
157
159
145
157
161
146
158
162
147
159
163
149
161
165
152
162
165
153
163
166
154
163
168
157
163
171
159
165
172
160
167
174
162
168
175
164
171
177
165
181
185
171
193
197
183
202
206
192
212
216
202
220
224
210
225
227
213
231
233
219
235
237
223
239
241
227
245
246
232
250
251
237
253
253
241
254
254
245
254
254
249
255
254
252
254
254
253
254
254
254
248
249
242
208
210
195
182
185
169
173
175
164
167
170
161
161
164
155
155
160
152
149
154
147
146
151
144
144
149
142
142
147
140
139
144
137
137
142
135
136
141
134
136
141
134
136
141
134
136
141
134
136
141
134
136
141
134
137
142
135
136
141
134
135
140
133
134
139
132
132
139
131
131
140
130
131
142
130
135
143
131
146
143
127
162
147
122
189
159
122
205
161
108
209
159
94
214
160
98
219
162
104
217
162
105
213
160
103
216
167
110
218
172
117
223
196
146
236
253
204
206
250
185
226
254
197
234
253
199
234
255
199
234
254
201
233
254
201
235
254
199
228
254
191
215
251
179
203
246
166
191
224
146
191
198
126
201
178
113
202
163
103
197
152
97
198
155
101
207
166
113
216
176
125
219
183
131
225
190
137
230
192
138
228
186
130
221
176
118
205
157
99
205
158
99
211
166
109
208
166
111
206
166
114
209
169
118
215
175
123
223
184
131
228
188
135
233
193
141
240
201
148
246
206
154
247
207
154
248
207
154
251
210
156
249
208
154
250
209
157
247
204
151
236
194
137
228
184
124
218
173
111
205
156
95
214
165
106
223
177
118
207
164
105
189
148
91
156
114
64
130
87
41
144
101
57
142
101
59
136
97
56
145
108
66
144
110
69
139
104
66
136
98
57
146
101
51
192
145
80
201
155
84
217
170
101
212
165
96
183
136
69
146
103
43
127
86
32
143
102
48
154
113
59
147
106
52
152
113
63
124
89
43
106
72
28
107
75
33
101
72
32
100
70
32
102
70
31
117
85
46
110
78
39
113
81
42
109
76
37
107
74
33
99
66
25
99
66
26
110
77
37
122
89
47
133
100
55
155
120
74
160
122
73
161
120
70
145
103
53
151
105
55
158
112
55
175
128
67
179
129
67
187
138
78
191
148
89
196
156
95
187
149
87
181
140
78
178
134
74
178
129
71
176
128
66
177
129
64
186
138
71
193
146
77
191
142
75
186
140
73
186
143
80
198
166
112
167
148
106
137
131
99
126
122
95
121
116
95
119
116
94
119
117
92
119
117
94
120
118
95
121
119
96
122
120
97
126
124
101
129
127
103
129
127
102
128
126
101
126
124
99
125
123
98
125
123
97
125
123
97
125
124
98
127
125
99
125
123
98
128
125
100
129
126
101
129
126
101
129
126
101
130
127
102
131
129
105
131
129
106
130
128
105
131
129
106
130
128
105
129
127
104
129
127
104
130
128
106
131
129
106
129
127
105
129
127
105
131
129
108
133
131
110
133
131
110
134
132
111
134
132
112
135
134
114
138
137
118
139
138
118
142
141
121
143
143
125
144
144
129
146
147
132
148
151
134
149
152
136
150
154
137
152
156
140
155
159
144
157
161
146
159
162
149
159
164
150
158
164
151
160
166
152
161
166
153
161
167
153
162
168
154
166
170
155
173
177
162
182
186
171
192
196
181
200
204
189
208
210
196
215
217
203
222
224
210
228
230
216
234
236
222
239
241
227
244
246
233
249
250
239
251
252
244
253
254
247
254
254
253
254
254
253
250
250
244
213
215
200
179
181
166
169
172
161
163
166
157
157
160
151
151
155
148
146
151
144
143
148
141
141
146
139
139
144
137
138
143
136
136
141
134
135
140
133
134
139
132
134
139
132
134
139
132
134
139
132
134
139
132
134
139
132
134
139
132
133
138
131
133
138
131
131
138
130
131
140
129
132
142
128
138
142
125
157
144
120
177
150
114
198
157
110
212
159
99
210
155
90
209
153
90
210
155
95
214
161
103
218
167
109
222
172
115
222
173
119
216
184
134
243
252
205
214
251
191
227
254
198
233
253
198
235
254
198
235
255
200
232
254
200
234
253
198
228
255
191
216
252
179
206
248
169
193
228
152
195
205
136
205
187
128
208
174
120
202
160
107
194
153
101
205
165
115
217
178
129
226
189
141
226
194
146
228
194
145
230
193
142
227
187
134
211
169
115
207
163
106
206
162
106
207
165
112
209
170
118
214
178
128
213
177
124
219
182
130
231
194
142
232
195
143
232
196
143
241
204
153
240
204
152
246
207
155
251
210
158
248
207
154
247
205
153
252
210
156
251
208
153
238
194
136
227
182
124
208
159
101
202
153
95
210
165
106
207
163
106
201
159
102
182
137
89
152
108
63
131
89
46
134
94
54
157
119
81
137
103
61
123
91
50
114
80
42
129
91
51
182
137
85
223
177
107
226
180
107
218
171
102
179
131
65
161
113
50
142
98
41
130
89
36
145
104
51
156
115
62
168
127
74
140
101
50
119
84
36
106
72
27
106
74
31
106
77
37
103
73
34
112
80
41
110
78
39
109
77
38
110
78
39
103
70
31
103
70
30
110
77
37
111
78
37
117
84
43
124
91
49
121
88
46
137
102
57
142
104
57
138
97
48
132
89
40
143
97
48
155
109
52
154
106
45
177
127
65
194
146
87
195
155
99
197
160
102
195
160
99
194
156
95
194
153
92
196
147
89
192
144
83
192
144
80
194
147
80
203
156
87
198
150
84
193
145
79
189
142
79
187
151
94
185
165
118
142
136
105
137
132
108
136
131
111
130
128
107
129
127
104
129
127
106
128
126
106
128
125
105
128
125
105
128
125
105
127
125
103
128
126
103
130
128
105
132
130
107
132
130
107
132
130
105
132
130
105
131
129
104
130
128
103
130
128
103
132
130
105
132
130
105
132
130
105
132
130
105
133
131
106
134
132
108
134
132
109
134
132
109
136
134
111
134
132
109
134
132
109
134
132
109
134
132
109
133
131
108
133
131
108
134
132
109
135
133
111
135
133
111
136
134
112
136
134
112
136
134
113
135
134
113
135
134
113
134
133
112
134
133
112
134
133
113
135
134
115
134
134
115
136
138
118
136
138
118
135
139
119
137
142
121
141
146
127
142
147
128
144
148
132
148
151
136
151
155
139
154
157
141
157
161
145
160
163
147
161
165
149
163
165
151
166
168
154
171
173
159
177
179
165
185
187
173
193
195
181
198
200
186
203
205
191
207
209
195
212
214
200
214
216
202
219
221
207
222
224
211
226
228
216
231
233
221
254
254
253
254
254
253
252
253
246
219
222
207
179
181
166
166
169
158
158
161
152
152
155
146
146
151
143
141
146
139
140
145
138
138
143
136
136
141
134
135
140
133
134
139
132
133
138
131
133
138
131
133
138
131
133
138
131
133
138
131
133
138
131
133
138
131
133
138
131
132
137
130
132
137
130
132
136
129
133
137
127
134
139
126
146
143
124
179
155
126
197
156
113
208
160
103
213
157
93
214
153
90
212
155
91
211
159
96
217
165
107
223
172
114
225
174
118
220
170
116
207
169
120
241
240
196
223
251
194
231
253
201
235
254
200
236
255
198
235
255
200
232
254
199
234
254
197
228
255
190
216
251
177
205
248
166
195
231
154
200
212
148
214
199
147
219
190
144
217
183
136
211
178
132
213
181
138
222
189
148
230
198
156
236
205
161
237
205
160
234
201
153
232
196
145
219
181
129
208
167
111
199
156
103
198
156
105
207
169
119
217
184
135
220
185
133
223
188
136
229
194
142
237
202
150
239
204
152
240
207
156
239
205
154
239
203
152
249
209
158
246
204
153
239
199
141
247
205
148
247
204
149
238
193
140
235
189
138
221
175
121
201
154
99
200
154
98
194
148
90
196
151
92
196
149
99
159
114
67
115
73
30
127
88
46
129
93
52
124
92
46
120
88
47
112
78
41
113
74
30
180
136
81
217
170
104
211
164
96
188
140
77
156
108
50
146
96
43
137
92
41
129
88
36
145
104
52
155
114
63
162
121
69
152
112
62
133
97
50
118
84
39
107
75
33
105
76
35
108
78
39
109
77
38
99
68
29
101
69
31
109
77
39
115
83
43
126
93
52
127
94
53
125
92
51
122
89
48
118
85
44
113
80
39
119
83
40
124
85
40
128
86
40
131
88
41
139
94
45
142
96
39
163
115
54
190
140
78
209
161
103
209
170
118
204
170
115
197
165
106
190
155
94
181
142
81
184
136
77
184
136
74
182
134
70
181
133
66
188
141
72
192
146
80
188
139
75
192
142
77
188
149
90
200
180
130
156
150
120
143
138
115
142
137
118
139
136
117
138
136
114
138
135
116
137
134
116
137
134
116
138
135
116
138
135
116
137
135
114
137
135
113
136
134
113
136
134
113
136
134
113
138
136
113
138
136
113
138
136
113
139
137
114
139
137
114
137
136
111
136
136
110
136
136
110
137
137
111
138
138
112
139
137
113
139
137
114
139
137
114
139
137
114
138
136
113
138
136
112
138
136
111
138
136
111
138
136
111
138
136
111
138
136
112
139
137
114
139
137
114
138
136
113
138
136
113
138
137
114
138
137
115
138
137
115
138
137
115
138
137
115
138
137
116
139
138
117
139
138
117
137
139
117
137
139
117
136
140
117
136
141
119
137
142
120
137
142
121
136
141
121
136
140
121
138
141
123
140
143
126
141
144
126
143
146
129
146
149
132
148
150
134
149
152
135
151
154
137
156
158
142
160
163
147
168
170
156
175
177
163
183
185
171
192
194
180
200
203
189
204
207
193
209
213
198
213
217
202
216
220
205
220
223
209
254
255
254
254
255
255
254
254
249
225
225
212
181
181
168
161
167
156
153
160
149
147
152
143
144
149
140
141
144
137
137
143
136
135
141
134
133
139
132
132
139
132
131
138
131
131
136
130
131
136
130
131
136
130
131
136
130
131
136
130
131
136
130
131
136
130
131
136
130
131
136
130
131
136
130
134
135
126
134
136
125
138
139
122
165
150
123
204
167
127
212
161
106
212
159
94
210
154
88
213
155
91
213
157
92
220
167
105
222
170
112
225
174
116
225
173
116
219
168
111
210
169
118
243
241
197
225
250
199
233
254
201
235
253
202
236
254
200
235
254
199
234
255
198
233
255
196
228
254
191
218
253
181
206
250
167
194
232
156
197
216
153
217
211
165
225
205
168
222
200
162
220
198
160
218
196
160
217
195
160
223
200
165
229
204
167
229
204
162
230
201
158
233
202
157
230
196
147
220
181
126
210
171
119
204
167
118
199
165
119
211
179
135
222
190
145
226
193
147
227
193
144
236
201
149
241
204
151
245
212
161
253
221
170
253
218
168
246
208
158
243
204
154
244
201
145
243
199
144
241
196
144
240
194
143
233
187
136
225
178
126
205
158
104
191
145
90
179
132
77
169
123
67
184
139
88
183
139
90
161
119
72
143
106
60
124
92
45
130
98
52
121
89
48
107
74
36
110
72
29
176
131
76
204
155
95
203
154
93
176
128
72
145
99
49
131
84
39
127
83
38
134
93
46
144
103
54
141
100
49
147
107
53
154
114
62
148
111
62
132
99
51
114
85
38
117
87
42
108
77
36
105
73
34
106
74
36
113
84
46
120
91
55
125
95
58
126
95
56
128
96
58
125
93
55
118
88
50
124
94
56
127
96
56
125
90
49
128
89
46
126
84
41
121
76
31
127
81
35
145
101
49
174
130
75
197
155
98
208
169
112
211
179
124
212
176
124
205
168
114
193
155
98
185
147
85
181
138
76
185
137
74
184
136
69
175
129
60
184
137
69
195
148
82
183
133
71
188
137
75
183
139
79
205
186
130
171
169
132
152
150
127
152
149
131
143
142
121
140
138
118
142
141
122
141
139
120
142
141
122
143
141
122
143
141
122
145
143
123
144
143
123
144
143
123
146
144
124
146
145
125
146
145
124
145
144
123
145
143
122
145
144
123
146
145
124
145
144
123
144
144
122
144
143
121
144
144
122
145
144
122
144
143
121
143
142
120
144
142
120
144
142
120
142
141
119
143
141
120
143
141
120
142
141
119
141
140
118
141
139
118
141
139
118
141
140
119
141
140
118
142
140
119
141
140
119
141
139
118
141
140
119
141
140
118
140
139
118
140
140
118
141
140
119
141
140
120
141
140
120
141
141
120
141
141
120
140
142
120
140
144
121
140
145
122
140
144
122
141
145
122
142
145
124
142
145
125
143
146
126
143
146
126
144
146
126
144
147
127
144
147
131
144
147
131
145
147
132
146
148
133
147
149
134
145
149
134
147
150
135
148
151
137
151
154
140
155
158
143
161
165
150
167
171
156
174
178
163
181
185
170
186
190
175
254
254
250
254
254
251
255
254
247
234
232
219
182
181
169
158
161
149
151
156
143
145
151
141
141
148
138
138
144
137
135
141
134
133
139
132
131
137
130
130
136
129
129
135
128
129
134
128
129
134
128
128
133
127
128
133
127
128
133
127
129
134
128
129
134
128
129
134
128
129
134
128
129
134
128
135
137
128
142
142
130
154
148
126
180
155
120
208
162
112
209
154
92
210
155
88
211
156
89
210
155
90
214
159
94
218
164
103
216
164
106
218
166
108
218
166
108
213
161
103
207
167
115
245
245
201
224
251
202
232
254
200
235
253
201
235
253
201
236
253
201
235
254
199
232
255
197
228
254
192
219
253
183
206
251
168
195
234
157
199
222
159
219
220
176
226
212
178
222
207
171
217
201
165
213
195
161
217
198
164
222
203
170
226
207
173
231
209
170
231
206
166
228
201
160
229
199
152
228
192
140
218
184
133
213
181
135
205
176
134
199
171
132
207
179
138
218
188
145
226
193
147
234
199
148
241
205
152
238
205
153
239
206
155
247
213
162
252
218
167
249
213
162
246
204
152
241
198
146
233
189
137
228
183
130
231
185
134
227
180
126
211
165
111
192
146
91
184
138
84
174
128
74
172
129
78
173
130
80
159
117
68
156
119
71
137
107
58
128
101
53
118
89
47
100
67
29
114
72
30
163
114
64
193
140
84
193
142
84
159
110
58
132
85
38
118
74
30
114
72
30
124
84
39
132
93
45
138
99
48
128
89
35
150
111
58
155
118
69
140
108
58
127
98
49
122
91
44
116
84
41
112
81
42
125
95
56
123
95
58
121
94
59
121
94
59
124
94
60
127
98
63
125
98
62
122
96
60
127
102
64
127
102
61
125
98
56
126
95
51
135
102
56
133
97
51
138
97
51
166
127
79
200
164
112
193
160
105
207
174
119
213
177
126
209
171
122
204
165
114
199
160
105
190
155
96
184
151
94
182
139
72
182
132
63
178
129
63
181
134
68
190
143
75
189
138
77
185
135
74
183
138
78
201
184
125
182
183
140
143
143
120
145
144
125
151
150
129
151
150
130
145
144
124
142
141
121
143
142
122
144
143
123
144
143
123
145
144
124
146
145
125
146
145
125
147
146
126
148
147
127
148
147
127
147
146
126
148
147
127
149
148
128
150
149
129
152
151
131
152
151
131
151
150
130
150
149
129
150
149
129
151
150
130
152
151
130
151
150
129
150
149
128
149
148
127
148
147
127
148
147
127
147
146
126
146
145
125
145
144
124
145
144
124
145
144
124
145
144
124
144
143
123
142
141
121
143
142
122
144
143
123
144
143
123
144
143
123
144
143
123
144
143
124
144
143
125
144
143
125
143
142
124
143
142
124
142
143
124
142
146
124
143
147
125
143
147
125
144
148
126
145
149
127
145
148
128
145
148
128
145
148
128
145
148
128
145
148
129
146
148
134
146
148
134
147
149
135
148
150
136
148
150
136
147
151
135
147
151
135
147
151
135
148
152
136
149
153
137
149
153
137
150
154
139
152
156
140
154
158
142
157
161
145
254
252
250
254
252
249
252
251
239
219
217
198
164
162
143
147
147
130
141
143
128
138
141
130
135
141
133
131
138
132
133
138
131
131
136
129
129
134
127
129
134
127
128
133
126
127
132
125
126
131
125
126
131
125
125
130
124
125
130
124
125
130
124
125
130
124
125
130
124
125
130
124
125
130
124
130
131
122
144
139
123
166
149
121
200
164
120
219
166
109
213
156
91
209
154
87
211
156
90
218
163
98
224
169
105
222
169
107
218
166
107
220
168
109
231
179
120
232
180
121
219
179
123
245
242
198
229
252
204
230
255
200
235
254
199
235
253
200
236
252
203
234
254
200
232
255
197
228
254
192
220
253
183
207
251
171
195
235
159
198
225
162
217
224
179
223
216
181
222
213
178
219
207
171
211
196
159
217
197
159
214
192
156
210
191
155
217
197
156
226
202
163
227
202
163
227
200
157
227
196
148
218
189
142
212
185
144
203
179
141
198
174
139
209
183
147
221
194
155
224
196
152
230
199
151
236
203
152
242
211
160
240
210
158
244
213
162
247
215
164
251
219
168
249
210
159
240
199
148
231
188
137
223
179
127
223
177
125
225
180
125
211
166
112
201
156
101
191
146
91
167
122
68
138
95
44
148
106
57
174
134
84
151
115
67
147
116
67
134
106
59
113
84
42
101
64
28
122
77
38
204
153
108
236
185
129
202
154
97
156
109
58
132
87
40
120
76
34
120
79
37
122
84
39
126
88
42
129
91
41
127
90
38
144
107
55
156
120
70
144
111
62
133
101
53
127
95
49
122
90
48
126
94
55
127
98
59
126
99
62
121
95
59
120
95
60
124
97
63
126
98
64
129
101
66
129
100
64
125
98
60
122
97
57
125
100
59
128
104
58
131
105
58
142
112
65
157
120
74
150
115
67
167
134
84
192
160
107
202
169
116
211
173
124
205
169
117
195
159
103
185
144
84
190
147
89
219
188
136
209
183
127
175
134
72
181
130
65
181
134
68
193
146
78
198
147
86
179
129
68
180
136
76
188
170
111
199
201
156
140
140
115
141
140
121
142
141
119
144
143
124
153
152
132
151
150
130
144
143
123
145
144
124
145
144
124
147
146
126
147
146
126
147
146
126
147
146
126
148
147
127
148
147
127
150
149
129
151
150
130
152
151
131
153
152
132
154
153
133
154
153
133
153
152
132
154
153
133
154
153
133
155
154
133
155
154
133
155
154
133
156
155
134
155
154
133
154
153
133
153
152
132
152
151
131
152
151
131
151
150
130
150
149
129
150
149
129
150
149
129
150
149
129
149
148
128
148
148
127
147
148
127
147
148
127
146
147
126
145
147
126
146
147
127
146
147
129
146
147
129
145
145
127
144
145
127
144
146
127
144
147
128
145
148
129
146
149
130
147
150
131
148
151
132
147
150
133
147
150
133
147
150
133
148
151
133
148
151
134
149
151
137
149
151
137
150
152
138
150
152
138
150
153
138
150
154
137
150
154
137
149
153
136
150
154
137
151
155
138
152
156
139
152
156
139
153
157
140
155
159
142
156
160
143
235
231
212
224
220
203
208
205
185
173
171
147
147
145
123
132
130
114
117
117
103
115
117
105
115
119
111
116
121
114
121
125
117
123
127
119
125
129
121
126
130
122
125
129
121
125
130
123
125
130
124
124
129
123
124
129
123
122
127
121
123
128
122
123
128
122
122
127
121
124
129
123
125
130
124
132
131
119
152
137
116
183
150
114
206
158
106
209
154
91
206
151
84
207
152
87
214
159
94
223
168
104
231
176
112
226
172
110
219
167
107
230
178
118
233
181
121
222
170
110
210
167
108
237
225
178
236
253
206
231
255
200
235
254
200
235
254
201
238
254
208
234
253
201
231
254
197
229
254
193
219
253
182
207
250
170
194
236
161
198
228
165
215
227
181
223
224
189
222
221
185
219
214
176
209
195
156
206
185
144
208
183
142
207
184
143
214
191
148
228
203
164
236
209
171
234
207
166
232
204
157
222
195
151
213
188
149
208
187
151
201
181
148
206
185
153
213
190
155
222
198
157
230
204
159
239
211
164
244
218
169
249
223
175
248
221
174
246
218
170
240
210
163
243
206
160
246
208
160
233
192
142
223
180
129
215
170
118
218
173
120
209
164
112
205
160
108
185
141
89
155
110
58
134
88
39
157
115
66
162
124
74
160
126
78
143
111
63
132
100
54
118
83
44
96
53
20
152
106
72
231
182
139
238
191
136
210
165
108
187
143
92
153
109
65
138
95
54
131
91
49
127
90
46
121
84
39
119
82
36
129
93
45
136
100
49
154
119
69
148
112
63
143
107
60
134
99
54
124
92
49
131
103
63
130
102
62
129
104
66
127
102
66
125
102
65
127
104
66
128
102
67
126
96
64
122
89
59
112
80
50
103
76
43
103
75
40
114
85
46
123
93
52
131
100
57
142
106
62
149
113
69
153
119
72
171
137
89
209
176
127
195
163
109
196
163
103
186
147
81
185
135
67
184
128
60
180
133
70
195
166
112
222
198
144
183
145
87
181
129
62
186
138
70
197
146
85
189
139
78
185
140
80
182
164
103
216
217
170
146
146
118
140
139
118
141
141
118
141
140
121
141
140
120
148
147
127
157
156
136
149
148
128
146
145
125
148
147
127
148
147
127
148
147
127
148
147
127
149
148
128
150
149
129
151
150
130
152
151
131
152
151
131
153
152
132
155
154
134
155
154
134
155
154
134
155
154
134
155
154
134
155
154
133
156
155
134
157
156
135
157
156
135
157
156
135
157
156
136
157
156
136
156
155
135
156
155
135
156
155
135
156
155
135
156
155
135
156
155
135
156
155
135
156
155
135
154
155
134
152
154
133
152
154
133
151
153
132
150
152
131
149
151
131
150
151
134
150
151
134
151
152
135
151
152
135
150
152
135
148
151
135
148
151
135
148
151
135
148
151
135
149
151
135
149
151
136
149
151
136
149
152
136
149
152
136
149
152
137
150
152
138
150
152
138
151
153
139
151
153
139
151
153
139
150
154
136
150
154
136
150
155
136
151
156
137
152
157
138
154
158
140
155
159
141
156
161
142
157
162
143
159
163
145
201
195
177
194
187
173
185
179
164
170
167
150
158
155
141
146
146
132
132
133
120
122
122
110
113
113
103
107
107
97
106
108
99
109
112
103
113
116
107
116
119
110
115
118
109
117
121
115
119
124
118
121
126
120
122
127
121
120
125
119
119
124
118
121
126
120
122
127
121
123
128
122
124
129
123
139
133
118
174
149
120
203
158
114
207
151
94
204
149
84
212
157
92
218
163
98
217
162
97
222
167
103
223
168
106
221
167
106
223
171
111
232
180
120
230
178
118
220
168
108
210
162
99
221
193
145
243
249
203
233
254
202
235
253
203
236
254
205
240
255
211
233
252
202
231
254
197
229
254
192
220
253
182
208
251
172
197
240
165
198
232
169
216
233
187
227
233
197
219
225
188
211
209
171
210
197
156
202
179
136
201
173
128
204
176
128
212
184
135
219
190
147
223
192
152
229
198
155
232
202
155
223
196
151
220
196
155
214
192
155
210
189
156
205
187
157
214
196
163
224
203
166
230
207
165
237
214
170
243
220
177
244
221
178
238
214
172
233
207
166
235
207
166
240
207
163
245
209
163
233
194
146
229
188
136
218
174
122
208
164
112
209
166
113
199
156
104
188
145
92
165
121
69
155
108
58
143
101
51
159
124
74
178
145
96
171
137
89
134
103
57
120
84
46
99
53
22
192
142
110
238
186
147
231
174
125
214
156
107
192
139
92
161
113
71
137
93
54
133
95
53
128
94
49
125
91
46
124
90
44
122
88
42
129
96
47
152
118
67
150
112
64
143
104
58
138
101
56
127
94
52
135
106
66
139
113
73
135
110
72
135
111
75
130
108
71
124
104
67
108
87
56
88
65
40
67
43
23
57
35
16
56
35
14
61
38
16
71
45
21
84
56
29
104
73
42
130
99
57
138
107
63
148
116
71
159
127
80
196
166
119
192
160
109
191
153
93
191
144
77
187
135
63
191
135
62
191
136
65
180
135
66
176
146
85
221
190
135
183
140
85
187
141
73
199
148
87
200
150
89
191
146
86
175
156
95
215
218
168
144
145
114
138
137
116
139
139
116
139
138
120
140
139
120
145
144
124
146
145
125
160
159
139
153
152
132
149
148
128
148
147
127
148
147
127
149
148
128
150
149
129
150
149
129
151
150
130
152
151
131
152
151
131
153
152
132
155
154
134
155
154
134
155
154
134
157
156
136
157
156
135
157
156
135
158
157
136
159
158
137
158
157
136
158
157
136
158
157
137
158
157
137
157
156
136
158
157
137
158
157
137
158
157
137
158
157
137
158
157
137
158
157
137
158
157
137
158
158
138
157
160
139
157
160
139
158
160
139
156
159
138
155
157
138
154
155
139
154
155
139
155
157
140
155
157
140
155
156
141
154
156
142
154
156
142
154
156
142
154
156
142
154
156
142
152
154
141
152
154
141
152
154
140
151
153
140
152
154
140
153
155
141
153
155
141
153
155
141
153
155
141
153
156
140
152
157
138
152
157
137
152
157
137
152
157
137
153
158
138
155
160
140
156
161
141
157
162
142
157
162
142
159
164
144
175
165
141
165
157
135
161
155
134
157
154
138
157
154
144
151
152
141
147
149
137
141
143
131
136
137
126
130
131
119
120
122
111
116
118
108
114
117
106
114
117
107
112
114
104
116
118
109
119
121
115
120
123
119
118
122
116
115
120
112
117
120
112
119
122
116
119
125
121
119
126
121
123
127
118
143
132
112
176
148
112
209
163
110
211
153
92
215
157
94
226
171
109
227
172
112
224
169
109
223
169
107
228
173
112
225
172
110
234
183
120
242
192
129
238
188
125
221
171
108
214
163
99
210
173
118
246
247
198
234
253
204
234
252
205
239
254
210
242
255
214
234
252
202
232
254
195
229
254
191
220
252
182
212
253
175
201
242
168
192
228
161
202
223
172
217
224
186
222
226
191
227
223
186
233
218
176
227
202
154
216
185
133
207
174
122
211
178
127
218
185
138
229
197
152
235
204
158
237
207
160
234
205
161
233
207
166
231
208
168
228
207
169
221
203
169
230
212
178
239
220
186
247
226
192
251
231
196
249
230
194
250
231
197
252
234
199
252
232
196
243
218
179
236
205
161
239
204
157
235
198
147
223
185
132
215
171
120
205
161
110
194
151
99
195
152
99
195
152
98
175
133
78
144
101
49
128
88
38
158
122
73
185
151
103
173
139
94
123
94
50
109
76
40
103
57
31
199
143
118
218
158
126
204
129
89
197
120
77
195
128
86
165
113
73
141
98
60
128
90
48
124
88
44
128
92
47
128
93
47
134
98
52
128
93
44
146
110
59
143
103
52
141
101
51
141
102
54
125
91
48
133
103
64
143
114
75
141
113
78
139
112
81
131
106
78
105
85
60
61
46
24
38
25
9
32
24
13
33
27
17
34
26
14
37
27
15
40
26
13
50
33
20
62
44
25
83
60
32
114
83
50
138
104
62
151
121
73
160
134
85
203
171
125
185
143
87
193
144
80
196
144
76
196
144
72
192
137
63
185
135
59
178
133
56
176
136
72
217
180
129
182
140
78
194
149
87
207
163
99
197
159
96
182
159
96
217
217
164
141
145
111
134
133
112
136
135
112
139
134
116
141
137
118
143
140
121
145
143
124
144
142
122
155
154
135
156
155
134
148
147
126
149
147
126
150
149
128
151
150
129
151
150
130
152
151
131
153
152
132
153
152
132
154
153
133
155
154
134
156
155
135
156
155
135
158
157
137
158
157
137
158
158
137
158
159
138
158
159
138
158
159
138
158
159
138
159
158
138
159
158
138
159
158
138
160
159
139
160
159
139
160
159
139
161
160
140
161
160
140
161
160
140
161
160
140
160
160
140
158
161
140
158
161
140
159
161
140
158
161
140
158
160
141
158
159
143
158
159
143
158
160
144
158
160
145
158
160
146
158
160
147
158
160
147
159
161
147
159
161
147
158
160
146
156
158
144
156
158
144
156
159
145
156
160
145
156
159
144
156
159
143
157
160
144
155
159
143
155
158
142
155
158
142
154
159
141
154
159
142
154
158
141
154
158
141
154
159
141
156
159
143
157
161
144
158
162
145
158
163
146
158
164
146
139
135
117
136
133
112
137
135
114
140
140
123
147
147
135
148
149
141
144
146
138
142
144
136
140
143
134
137
140
131
135
138
129
131
134
125
127
130
121
124
127
117
120
123
114
118
122
111
118
121
113
118
120
115
118
119
114
119
120
112
117
119
110
115
119
111
113
120
114
117
121
115
131
125
110
159
136
109
196
162
118
212
165
106
211
154
91
220
161
101
229
173
115
224
169
112
225
170
112
226
172
112
220
166
105
222
170
109
231
181
120
240
190
129
242
192
131
225
175
114
218
164
101
204
159
97
241
230
176
239
253
205
236
251
210
244
253
217
244
254
217
235
252
200
231
254
191
227
255
189
217
251
180
211
250
173
199
238
165
192
230
159
200
225
168
220
229
187
225
227
190
220
214
177
217
198
157
213
185
135
206
172
117
200
163
110
201
165
113
211
178
127
224
192
144
230
199
152
239
210
163
244
215
171
240
214
172
237
214
174
230
209
170
233
215
178
235
218
182
242
226
192
247
230
200
247
232
203
249
233
202
254
243
213
254
241
210
251
236
202
246
226
188
240
211
168
235
200
153
231
195
143
225
189
135
220
178
129
208
164
116
193
149
100
181
138
87
191
148
94
177
134
79
157
116
63
150
112
61
151
114
66
148
111
67
154
120
78
135
103
64
100
65
33
92
45
23
132
77
60
222
157
132
204
124
90
175
87
51
166
91
56
159
106
67
137
95
56
122
84
43
127
89
46
129
92
48
132
95
50
135
98
52
129
91
43
140
100
49
144
105
51
152
112
59
143
103
52
124
88
41
134
102
57
138
107
63
138
109
69
129
101
69
98
74
51
50
36
22
31
23
8
32
23
11
33
27
16
34
31
20
39
32
21
40
33
23
40
33
23
38
31
21
37
29
18
55
38
25
81
53
31
107
72
38
143
110
66
147
116
69
192
159
114
170
130
76
192
145
82
195
146
79
197
147
77
192
141
67
186
134
55
175
126
45
176
130
59
192
150
95
202
163
106
189
148
87
201
162
97
205
172
107
188
162
97
216
215
160
139
145
109
128
126
105
131
127
105
135
128
108
140
135
116
144
139
119
145
142
123
146
143
124
145
144
123
158
156
135
159
157
136
149
148
127
151
149
128
152
150
129
152
151
131
153
152
132
154
153
133
154
153
133
155
154
134
156
155
135
156
155
135
157
156
136
159
158
138
159
158
138
158
159
138
157
159
138
157
159
138
158
160
139
158
160
139
159
160
139
160
159
139
160
159
139
161
160
140
161
160
140
161
160
140
162
161
141
162
161
141
162
161
141
162
161
141
161
161
141
159
161
140
159
161
140
160
162
141
160
162
141
160
162
143
160
161
145
160
161
145
159
160
146
160
161
147
161
162
148
160
162
148
160
162
148
160
162
148
160
162
148
160
162
148
160
162
148
160
162
148
160
163
147
159
163
146
159
163
146
159
163
146
160
164
147
159
163
146
159
163
146
159
163
146
159
163
148
159
163
148
159
163
148
159
163
148
159
163
148
161
164
149
162
165
150
162
166
151
160
167
151
160
167
151
158
157
143
157
156
139
152
151
132
152
150
133
152
148
135
146
144
134
142
141
131
140
138
128
138
137
127
137
136
126
137
138
127
135
136
125
134
135
124
132
133
121
129
129
118
123
126
118
119
122
115
115
116
109
110
110
101
112
112
100
110
115
103
115
119
108
121
123
112
133
126
113
157
136
112
192
152
114
214
167
114
229
174
112
230
170
109
232
173
116
231
176
118
226
171
112
232
178
117
217
163
102
218
164
102
219
167
106
230
180
119
235
185
124
234
184
123
224
174
113
219
166
101
207
154
90
209
181
127
247
250
200
240
252
212
248
253
223
247
254
221
235
250
198
229
253
187
225
255
186
218
251
181
218
253
179
211
249
176
201
242
168
205
235
169
222
238
187
234
239
198
227
222
181
218
199
155
212
180
130
201
163
108
197
157
101
193
155
101
212
176
124
227
194
145
233
202
155
239
210
163
243
215
171
240
215
173
240
217
177
235
214
175
234
219
182
235
222
186
247
233
200
245
232
202
248
236
207
250
239
209
240
231
201
241
232
200
243
233
200
243
230
196
238
214
174
231
198
154
225
189
140
219
183
132
218
177
129
205
164
119
194
153
105
190
149
98
195
152
99
192
149
94
167
126
72
151
113
61
155
117
70
157
120
77
125
91
51
122
89
51
109
73
43
92
46
25
87
30
12
159
101
81
206
131
101
160
70
40
138
54
25
130
74
39
119
77
40
126
86
47
130
91
49
131
93
50
143
104
61
138
100
55
129
90
43
135
95
44
145
105
52
157
117
63
141
101
50
122
84
37
132
97
50
128
95
48
119
90
50
100
76
46
48
32
13
29
25
13
30
25
12
37
31
16
42
35
19
43
37
22
43
37
25
44
38
26
42
36
24
40
34
22
38
31
20
40
31
19
53
36
18
84
57
31
117
80
46
152
112
73
188
155
110
173
133
82
189
143
82
199
151
84
197
149
81
189
140
69
183
132
58
185
136
58
180
135
63
180
138
79
212
173
117
185
146
86
188
149
86
215
179
116
196
169
106
215
212
158
138
143
108
125
124
102
128
126
103
133
127
107
134
129
108
138
133
111
139
137
115
142
140
118
143
142
119
144
143
121
158
156
135
157
155
134
151
149
128
152
150
129
152
151
131
153
152
132
154
153
133
154
153
133
155
154
134
156
155
135
156
155
135
157
156
136
159
158
138
159
158
138
158
159
138
157
159
138
157
159
138
159
161
140
159
161
140
160
160
140
161
160
140
161
160
140
162
161
141
162
161
141
162
161
141
162
161
141
162
161
141
162
161
141
162
161
141
161
162
141
161
163
142
161
163
142
160
162
141
160
162
141
160
162
143
161
162
146
161
162
146
160
161
147
161
162
148
162
163
149
161
163
149
161
163
149
161
163
149
161
163
149
162
164
150
163
165
151
163
165
151
163
166
150
163
167
150
163
167
150
163
167
150
164
168
151
164
168
151
164
168
151
164
168
151
164
168
153
164
168
153
165
169
154
165
169
154
165
169
154
167
171
156
168
172
157
166
172
157
165
172
156
164
172
156
178
170
151
172
164
142
167
157
134
164
153
134
164
153
136
160
153
135
158
151
134
156
149
132
153
146
129
151
144
127
148
143
127
145
140
124
142
137
121
139
135
119
140
135
120
141
136
122
140
136
121
139
136
121
137
135
121
130
129
117
121
123
111
120
121
107
135
129
113
150
132
109
183
147
113
209
157
106
211
153
91
213
154
88
222
164
101
222
166
107
227
173
111
225
171
107
218
164
101
213
159
97
218
164
102
220
168
107
232
183
122
236
186
126
238
188
128
237
187
127
227
176
114
214
161
100
204
164
106
236
227
174
240
249
202
243
252
216
245
254
218
235
252
200
230
253
190
227
255
189
226
255
188
224
254
184
216
252
178
207
251
170
199
237
161
215
237
176
231
239
192
233
229
184
230
210
164
222
186
136
208
165
109
195
150
90
199
157
100
217
179
125
226
193
142
233
201
152
237
207
161
244
215
171
243
217
175
244
221
181
243
222
183
237
222
185
236
223
188
235
222
189
231
218
189
230
218
191
235
227
199
242
233
204
245
237
206
250
244
213
244
238
208
243
225
189
232
201
162
223
186
142
216
180
133
205
166
120
196
160
112
197
161
110
186
147
94
185
145
87
189
148
88
182
142
86
164
125
74
134
96
50
121
84
42
115
80
42
107
73
37
105
66
39
95
48
29
90
33
17
126
70
51
194
122
96
149
63
40
125
40
17
104
44
15
114
66
33
122
79
42
127
87
48
137
97
57
146
106
65
140
100
58
127
85
41
136
95
45
153
112
59
151
110
57
142
101
50
128
87
43
131
91
50
119
81
40
116
85
55
69
49
32
29
20
12
28
27
17
35
31
19
39
33
17
45
38
19
48
39
21
44
36
23
43
35
22
42
34
21
45
37
24
40
33
20
41
34
22
40
31
19
61
42
24
96
63
35
135
97
61
179
147
105
185
147
97
186
144
83
200
156
90
203
161
93
199
152
85
191
141
72
188
139
65
182
136
64
184
142
80
206
168
114
182
146
87
178
139
77
210
171
112
205
176
116
217
212
159
133
137
102
121
119
98
124
123
100
129
125
104
132
127
104
133
128
105
134
132
108
138
136
113
141
141
116
143
141
120
145
143
122
161
159
138
153
151
130
151
149
128
151
150
129
152
151
131
153
152
132
154
153
133
155
154
134
154
153
133
155
154
134
157
156
136
159
158
138
159
158
138
158
159
139
158
160
139
158
160
139
159
161
140
159
161
140
160
160
140
161
160
140
161
160
140
161
160
140
161
160
140
161
160
140
161
160
140
161
160
140
162
161
141
162
161
141
162
162
142
162
164
143
162
164
143
162
164
143
162
164
143
162
164
145
162
163
147
162
163
147
161
162
148
161
162
148
161
163
149
161
163
149
161
163
149
162
164
150
162
164
150
162
164
150
164
166
152
164
166
152
164
167
151
164
168
151
164
168
151
164
168
151
164
168
151
165
169
152
165
169
152
165
169
152
165
169
154
165
169
154
166
170
155
167
171
156
168
172
157
169
174
159
171
177
161
171
178
162
170
179
162
171
180
163
169
156
138
173
162
141
180
170
149
183
175
158
187
179
167
183
178
164
183
179
164
184
180
165
184
180
165
182
177
163
181
176
160
179
173
156
175
169
153
172
166
150
168
162
146
162
153
135
156
146
124
153
144
121
160
150
131
166
156
142
162
159
147
163
158
144
164
151
132
183
158
128
208
164
119
214
157
98
216
157
88
219
163
91
220
165
99
216
162
98
224
171
105
223
170
103
228
175
110
226
172
108
231
177
115
234
182
122
237
187
128
238
188
129
236
186
127
229
179
120
220
170
111
214
162
102
206
156
97
198
170
115
247
243
195
240
250
206
236
253
206
235
253
203
233
253
197
231
255
192
231
255
190
228
254
187
218
253
178
206
252
168
199
243
159
210
239
169
228
239
187
234
231
182
234
212
164
229
191
140
220
173
117
206
158
96
201
156
96
214
174
118
221
186
134
228
196
147
237
208
161
248
219
175
243
217
176
247
224
184
239
218
179
232
214
179
229
211
179
230
213
183
234
217
190
237
221
196
236
220
197
237
219
194
233
214
188
242
227
202
252
241
218
248
233
201
239
210
174
230
193
152
216
179
134
204
167
122
199
165
119
198
164
116
184
147
95
169
129
73
174
132
72
176
137
81
172
134
82
137
99
54
124
87
48
106
70
35
104
68
35
95
55
30
89
41
24
91
35
20
129
68
48
155
83
63
134
51
34
118
40
20
103
39
13
101
41
13
119
72
39
124
82
46
138
96
58
154
112
74
145
103
64
133
91
47
145
103
53
159
118
64
154
113
60
146
105
54
126
83
39
112
68
26
116
75
33
119
88
57
61
43
29
31
25
18
36
30
20
43
34
23
43
35
19
50
40
22
55
43
27
45
38
23
42
35
20
44
37
22
43
35
20
42
33
18
46
36
22
43
34
23
45
32
17
86
64
34
103
75
36
169
137
97
190
152
104
186
145
86
197
157
92
201
161
94
207
162
97
201
153
88
193
144
74
188
142
71
185
142
78
199
161
108
192
158
102
178
138
78
193
152
95
220
189
132
208
201
148
122
125
90
118
117
95
120
121
97
125
123
101
128
124
100
129
125
100
130
128
103
134
132
107
136
136
110
141
139
118
143
141
120
145
143
123
161
159
138
150
148
127
150
148
128
151
150
130
152
151
131
154
153
133
155
154
134
154
153
133
155
154
134
157
156
136
159
158
138
159
158
138
158
159
139
158
160
139
158
160
139
158
160
139
158
160
139
159
159
139
160
159
139
160
159
139
161
160
140
161
160
140
161
160
140
161
160
140
161
160
140
162
161
141
162
161
141
162
162
142
162
164
143
162
164
143
162
164
143
162
164
143
162
164
145
162
163
147
162
163
147
162
163
149
162
163
149
162
163
149
161
163
149
161
163
149
162
164
150
163
165
151
163
165
151
164
166
152
164
166
152
164
167
151
164
168
151
164
168
151
164
168
151
164
168
151
165
169
152
165
169
152
165
169
152
165
169
154
165
169
154
166
170
155
168
172
157
169
173
158
168
175
159
170
177
161
171
179
162
172
181
164
172
182
165
185
181
163
189
186
169
189
189
172
188
189
174
185
186
174
185
185
174
186
185
173
184
179
165
181
173
159
181
171
157
179
172
158
184
178
164
187
182
170
184
182
171
183
181
172
183
177
167
179
169
156
173
161
139
161
146
115
162
143
113
169
156
132
180
168
149
185
165
145
200
166
133
211
163
112
216
160
96
215
160
90
223
169
98
228
174
107
228
174
108
225
172
105
224
171
105
231
178
113
229
176
112
235
182
119
231
181
119
233
183
123
233
183
124
240
191
132
236
188
129
220
168
110
209
154
93
204
149
86
196
149
90
225
205
154
244
249
198
233
252
202
231
252
200
232
254
199
232
255
196
232
255
192
228
254
187
221
254
181
210
254
172
200
247
162
199
237
162
217
235
176
236
234
183
240
220
170
233
196
145
226
179
124
214
165
102
213
167
107
220
179
122
231
194
141
238
205
155
240
213
165
241
214
168
237
212
167
239
216
173
238
215
174
241
220
183
238
217
184
231
209
181
220
196
172
215
192
169
220
193
172
218
185
163
207
172
149
204
176
156
234
220
203
249
237
207
240
217
184
233
200
165
215
181
141
196
162
121
197
166
126
195
162
119
184
147
97
183
142
88
191
149
93
182
143
87
167
128
77
144
106
61
118
80
43
102
66
34
101
64
35
91
48
24
91
41
23
111
55
37
121
58
40
128
56
39
123
47
31
122
51
32
124
58
36
118
54
32
104
44
18
109
56
26
133
86
52
154
114
76
150
111
71
137
94
51
144
100
52
155
112
61
154
110
59
149
106
55
139
96
46
126
82
31
111
69
20
116
84
44
77
59
34
33
27
14
39
33
22
44
37
24
43
35
19
53
40
24
50
35
20
42
34
20
40
31
17
42
34
18
46
38
23
42
33
18
48
36
21
65
55
41
52
39
24
60
42
14
92
66
30
157
124
83
192
155
104
190
151
89
202
162
96
204
163
97
203
158
93
201
155
89
196
149
83
188
142
76
181
137
75
183
147
93
200
164
113
182
140
87
187
146
88
216
186
129
195
188
138
118
119
83
115
113
87
118
116
90
121
120
95
125
122
97
127
124
98
128
127
100
131
129
103
133
132
105
136
134
110
138
136
113
140
138
116
146
144
121
161
159
136
149
148
126
150
149
128
151
150
129
154
152
132
155
153
133
155
154
134
156
155
135
157
156
136
158
157
137
159
158
138
158
159
139
158
160
139
158
160
139
158
160
139
158
160
139
158
159
138
160
159
139
160
159
139
161
160
140
161
160
140
161
160
140
161
160
140
161
160
140
162
161
141
162
161
141
162
162
141
162
163
142
162
163
144
162
163
146
162
163
146
162
163
147
162
163
148
162
163
148
162
163
149
162
164
150
162
164
150
161
163
149
161
163
149
163
165
151
163
165
151
163
165
151
164
166
152
164
166
152
164
167
152
164
168
152
164
168
152
164
168
151
164
168
151
165
169
152
165
169
152
165
169
152
165
169
154
165
169
154
167
171
156
169
173
158
170
174
159
168
176
159
170
178
162
171
180
163
173
182
165
173
183
166
193
189
176
194
191
179
193
191
178
190
189
176
189
188
176
188
186
176
188
184
172
179
173
154
170
162
138
166
156
129
167
156
139
180
171
156
189
183
170
185
182
172
184
183
175
187
182
171
187
176
166
185
169
151
173
154
123
166
142
109
166
147
114
179
162
136
195
168
143
211
168
128
215
163
105
215
161
95
218
164
97
233
179
113
233
179
112
230
176
109
234
180
116
236
182
118
230
178
114
233
182
118
228
177
112
226
177
114
230
181
120
229
180
122
241
193
134
235
188
131
222
172
115
213
163
101
208
158
92
205
154
91
202
165
107
241
232
177
235
248
195
233
254
199
231
255
198
232
254
196
231
255
192
227
255
186
223
253
182
211
253
175
201
250
166
196
241
162
211
240
174
236
242
185
248
235
181
236
209
153
227
187
129
224
176
113
220
175
115
223
182
125
227
190
137
229
196
145
232
204
155
241
215
167
250
224
177
246
221
175
246
222
177
241
217
176
236
211
177
233
207
181
213
187
164
213
185
162
230
194
174
197
155
132
173
129
106
174
141
123
203
188
173
238
228
201
239
222
193
223
199
168
216
188
154
202
173
137
200
173
136
195
163
122
188
150
102
186
145
92
186
145
91
158
119
65
157
117
67
143
104
61
126
87
51
113
74
44
104
64
39
96
50
28
97
45
24
106
49
30
112
48
32
115
47
31
119
48
33
127
59
42
129
68
48
133
73
53
121
56
37
114
48
27
123
69
41
150
108
73
150
110
72
133
90
46
139
96
46
147
104
54
149
105
54
153
110
58
149
107
54
146
104
51
119
78
26
129
95
51
104
82
51
37
27
8
37
34
21
41
38
22
48
40
22
60
46
29
55
40
24
44
34
22
35
25
13
50
41
26
47
38
23
40
30
15
53
42
25
84
73
54
68
54
37
53
31
9
95
66
34
132
94
50
184
144
89
190
150
87
204
163
97
207
164
98
208
161
94
198
152
86
195
150
87
190
144
85
192
147
88
185
148
95
205
167
122
187
146
97
183
144
87
217
188
131
179
172
126
112
110
74
117
113
83
120
115
87
121
119
93
124
122
97
126
124
99
128
126
101
130
128
103
131
129
104
134
132
107
137
135
110
138
136
111
141
139
114
154
152
127
153
151
128
150
148
125
152
150
128
153
151
130
154
151
132
154
153
133
155
154
134
156
155
135
157
156
136
158
157
137
158
159
139
158
160
139
158
160
139
158
160
139
158
160
139
159
159
138
160
159
139
161
160
140
161
160
140
161
160
140
161
160
140
161
160
140
161
160
140
162
161
141
162
161
141
162
161
141
163
162
142
162
163
146
162
163
148
162
163
149
161
163
150
161
163
149
161
163
149
161
163
149
161
163
149
161
163
149
162
164
150
162
164
150
163
165
151
163
165
151
163
165
151
163
165
151
164
166
152
165
167
153
165
167
153
165
167
153
165
169
152
165
169
152
165
169
152
165
169
152
165
169
152
166
170
155
166
170
155
167
171
156
169
173
158
171
176
160
169
177
160
171
179
162
172
181
164
173
182
165
174
183
166
180
170
147
184
176
154
189
181
163
191
183
169
192
185
172
194
186
176
194
186
175
191
186
171
190
186
167
187
185
164
192
181
160
192
183
162
191
184
165
186
180
164
179
175
159
177
169
148
175
163
141
172
157
134
170
153
125
174
155
127
181
165
138
190
171
141
204
172
134
220
175
123
237
184
122
232
178
113
230
177
111
241
188
122
238
185
119
234
181
115
236
183
119
235
181
119
234
182
119
230
179
117
228
177
114
231
181
119
233
184
123
237
188
129
237
189
131
233
186
129
227
180
124
218
174
115
209
167
103
207
161
100
207
163
106
206
177
123
242
240
183
237
252
197
234
253
199
235
253
196
232
254
191
226
255
188
222
254
182
213
253
177
205
249
170
204
244
166
214
238
173
228
231
172
228
211
154
230
196
137
234
191
128
230
181
118
217
172
111
216
175
118
229
192
138
241
208
157
243
215
165
249
222
173
250
224
176
247
220
174
243
218
173
236
207
167
240
211
177
228
199
173
217
189
165
210
182
157
230
188
169
189
140
121
158
113
93
156
122
104
164
136
124
204
189
169
229
214
192
224
202
179
217
191
165
210
184
156
204
179
146
196
165
127
195
159
112
196
156
106
179
140
88
162
122
70
163
123
73
139
98
55
124
83
47
125
83
53
114
72
47
100
50
28
98
40
22
104
44
26
108
44
27
109
43
29
113
47
35
115
54
40
110
58
42
103
54
39
111
52
35
120
57
36
122
66
41
150
104
71
147
104
68
132
89
45
135
95
43
146
107
55
151
111
57
158
118
64
159
122
69
165
128
77
138
101
51
134
102
58
130
106
70
53
36
12
41
32
20
43
37
23
47
39
23
58
46
28
53
39
22
36
26
14
40
31
16
47
38
23
42
33
16
42
33
16
55
46
27
124
113
93
108
93
75
54
30
7
97
65
33
120
81
36
178
138
83
194
154
91
208
167
101
208
165
99
209
161
94
203
157
92
194
149
87
179
134
75
162
120
62
159
124
73
198
162
117
194
156
107
183
148
91
222
195
141
153
144
102
115
111
78
116
111
83
121
114
87
122
118
93
122
120
95
125
123
98
127
125
100
129
127
102
130
128
103
132
130
105
134
132
107
137
135
110
139
137
112
141
139
114
157
155
131
149
147
123
149
147
124
151
149
126
152
150
129
153
152
131
154
153
133
155
154
134
157
156
136
158
157
137
158
159
139
158
160
139
158
160
139
158
160
139
158
160
139
159
159
138
160
159
139
161
160
140
161
160
140
161
160
140
161
160
140
161
160
140
161
160
140
162
161
141
162
161
141
162
161
141
163
162
142
162
163
146
162
163
148
162
163
149
161
163
150
161
163
149
161
163
149
161
163
149
161
163
149
161
163
149
162
164
150
162
164
150
163
165
151
163
165
151
163
165
151
162
164
150
163
165
151
165
167
153
165
167
153
165
167
153
165
169
152
165
169
152
165
169
152
165
169
152
165
169
152
166
170
155
166
170
155
167
171
156
169
173
158
171
175
160
169
176
160
171
178
162
173
180
164
174
181
165
175
182
166
191
179
161
187
176
156
182
173
151
180
172
148
179
173
147
179
173
150
179
173
151
179
173
150
178
172
149
177
171
148
180
171
150
180
173
152
181
175
155
180
175
156
177
172
154
180
173
155
182
173
154
182
172
154
185
172
155
185
172
154
187
171
150
198
170
139
214
173
127
224
175
119
232
181
121
232
179
116
229
177
112
237
184
119
234
182
116
228
175
110
230
177
114
237
183
122
236
184
122
235
184
122
232
181
119
221
171
110
238
190
129
236
187
128
231
183
125
229
183
126
233
185
132
221
176
122
209
168
110
210
170
110
212
172
113
210
171
113
211
187
129
243
242
187
241
252
198
236
251
195
236
254
194
227
253
187
226
254
186
226
254
190
221
252
188
216
245
179
224
238
178
235
230
175
236
209
153
227
183
124
228
180
114
224
175
110
229
184
122
235
194
136
238
201
146
246
213
160
246
216
165
252
224
174
250
222
174
245
218
171
245
218
173
238
207
167
235
204
170
223
191
165
221
188
165
220
186
163
214
162
144
173
116
100
149
99
82
131
90
76
156
118
109
171
147
133
188
171
153
203
183
164
208
182
162
211
187
164
203
180
150
201
173
136
198
165
120
196
160
111
177
141
91
175
136
85
165
124
76
138
95
54
141
96
61
141
96
65
117
72
47
103
48
28
105
42
25
105
41
24
105
40
24
107
43
30
111
48
37
110
53
41
75
29
15
64
22
7
79
29
10
110
53
32
124
70
45
146
99
69
139
96
62
127
88
45
131
96
45
145
110
58
160
125
73
160
125
72
169
137
86
174
145
96
163
132
85
146
116
71
145
116
76
87
64
32
44
31
13
44
34
20
42
34
21
49
41
24
47
37
20
34
25
10
47
38
23
49
40
24
48
39
22
54
45
27
71
63
42
103
92
71
94
77
57
57
30
7
103
69
36
121
82
35
173
133
77
195
155
92
206
165
99
205
161
95
208
159
94
205
159
95
197
153
91
165
124
65
143
103
46
141
106
58
172
139
94
194
160
109
183
153
96
228
206
153
130
119
82
111
105
76
117
109
85
121
112
87
120
115
90
122
120
95
124
122
97
126
124
99
128
126
101
130
128
103
132
130
105
134
132
107
136
134
109
138
136
111
139
137
112
151
150
122
151
150
123
148
146
121
148
146
122
149
147
124
150
149
127
152
151
130
154
153
132
156
155
134
159
158
137
157
158
137
157
159
138
158
160
139
157
159
138
157
159
138
159
159
139
160
159
139
160
159
139
161
160
140
161
160
140
161
160
140
161
160
140
161
160
140
162
161
141
162
161
141
162
161
141
163
162
142
162
163
146
161
162
147
161
162
148
160
162
149
160
162
148
160
162
148
161
163
149
161
163
149
161
163
149
162
164
150
162
164
150
163
165
151
163
165
151
163
165
151
164
166
152
165
167
153
166
168
154
166
168
154
166
168
154
165
169
152
165
169
152
166
170
153
166
170
153
166
170
153
166
170
155
167
171
156
168
172
157
170
174
159
172
176
161
172
178
162
173
179
163
175
181
165
176
182
167
177
184
168
198
192
177
198
192
177
196
191
178
195
190
178
195
191
179
191
187
173
192
186
173
192
186
173
192
186
172
192
185
170
189
184
170
187
184
169
187
184
169
187
184
170
187
185
172
189
184
173
186
179
165
182
172
157
177
164
150
172
158
140
176
155
129
197
161
122
224
175
122
238
187
129
244
196
136
242
193
129
229
178
113
225
174
109
222
171
106
224
173
108
240
187
126
231
177
117
228
175
115
233
181
121
235
183
123
225
175
114
219
170
109
218
169
110
228
180
122
234
187
131
233
188
136
223
180
130
219
176
124
216
175
119
218
180
120
218
178
116
213
173
113
219
198
142
247
249
194
236
249
195
237
251
197
231
251
188
230
252
189
241
254
209
241
255
214
231
250
200
225
236
183
225
220
169
231
201
149
224
179
119
222
174
108
227
179
114
234
190
127
242
202
142
241
204
149
239
206
153
244
213
162
245
216
166
247
220
171
245
217
169
250
223
176
237
209
167
235
205
170
221
186
160
208
170
148
220
177
156
197
139
120
172
111
96
143
84
73
125
74
63
137
95
85
138
105
94
131
110
95
150
127
110
159
130
114
190
164
144
210
188
165
201
175
146
202
170
134
205
170
130
194
160
118
196
157
110
182
139
93
159
114
74
132
85
49
126
78
46
126
78
54
110
52
33
108
40
24
106
39
24
106
40
24
106
41
26
111
46
34
95
38
26
77
33
18
72
34
18
73
31
12
84
35
14
93
44
21
105
63
36
96
57
25
98
63
24
123
90
45
143
110
64
164
132
84
169
136
88
178
151
103
176
153
107
183
158
112
162
133
87
152
120
74
126
99
59
64
48
23
41
29
12
39
30
20
44
37
25
45
38
23
46
37
22
56
47
30
53
44
27
54
46
27
56
48
28
69
62
38
73
64
38
86
69
47
66
38
13
101
66
32
119
80
34
161
122
67
192
152
89
203
162
96
202
158
93
206
158
93
208
160
98
197
154
93
168
129
69
139
101
45
138
105
59
163
131
87
190
158
106
200
173
117
209
190
140
115
103
69
109
101
75
115
105
83
119
108
84
120
113
90
121
118
93
122
120
95
124
122
97
127
125
100
129
127
102
131
129
104
133
131
106
135
133
108
136
134
109
137
135
110
141
140
111
156
155
126
144
143
115
146
144
118
147
145
120
149
147
125
151
150
129
153
152
131
154
153
132
157
156
135
156
157
136
156
158
137
157
159
138
157
159
138
157
159
138
159
159
139
160
159
139
160
159
139
161
160
140
161
160
140
161
160
140
161
160
140
161
160
140
162
161
141
162
161
141
162
161
141
163
162
142
162
163
146
161
162
147
161
162
148
160
162
149
160
162
148
160
162
148
161
163
149
161
163
149
161
163
149
162
164
150
162
164
150
163
165
151
163
165
151
163
165
151
164
166
152
165
167
153
166
168
154
166
168
154
166
168
154
165
169
152
165
169
152
166
170
153
166
170
153
166
170
153
165
169
155
167
171
156
168
172
157
170
174
159
172
176
161
173
177
162
174
178
163
176
180
165
178
182
167
179
183
168
193
183
165
197
189
173
196
193
178
193
193
181
192
192
182
193
191
179
193
191
179
192
191
182
192
191
183
190
188
183
187
186
177
184
184
175
182
182
172
179
180
169
175
176
166
171
167
152
161
153
129
158
144
117
158
139
115
165
144
119
181
154
118
205
165
117
232
185
127
245
200
141
245
201
140
238
189
124
233
181
115
239
187
121
240
187
122
241
187
123
236
181
118
233
176
114
231
177
114
228
175
114
241
189
128
235
184
123
228
178
117
226
176
117
227
178
120
238
190
133
232
188
136
219
177
130
218
177
128
215
176
125
215
178
124
218
180
122
219
178
117
217
186
128
230
223
166
241
249
195
235
250
194
232
252
189
231
253
191
239
251
209
247
253
224
242
251
215
230
237
191
224
218
169
220
191
138
218
172
113
221
168
102
222
170
105
227
181
118
234
194
135
237
201
146
240
206
153
240
210
158
249
220
168
251
223
175
246
218
171
238
211
165
236
210
169
239
210
174
218
183
156
201
159
136
208
159
140
185
121
103
160
93
78
136
70
60
141
84
76
125
81
71
115
78
68
91
66
52
104
78
62
134
95
82
176
147
130
223
199
181
201
169
150
200
164
141
208
173
147
202
170
141
204
167
128
188
142
103
169
119
83
156
107
71
145
93
59
140
80
54
120
50
32
110
37
23
112
45
29
108
44
27
105
43
25
101
42
23
95
42
22
84
42
20
78
41
19
84
48
20
92
54
22
100
60
27
109
71
36
115
81
43
135
101
60
145
112
68
148
116
72
153
121
77
170
139
94
180
154
109
177
157
112
192
170
125
187
161
115
158
126
78
152
119
72
115
92
53
55
39
13
33
25
12
36
29
20
41
33
22
52
42
26
57
48
29
48
39
18
50
41
20
58
50
29
66
59
35
70
59
34
66
48
24
101
72
47
129
94
60
143
105
56
152
111
56
183
140
79
205
161
97
199
156
89
204
159
93
204
160
95
189
148
88
155
116
61
143
107
53
147
112
68
162
129
84
191
161
111
219
200
147
163
149
104
112
101
68
109
99
72
114
102
78
117
105
81
118
112
87
121
116
90
123
119
92
126
122
95
127
124
97
129
127
100
130
128
102
132
130
104
133
132
106
134
133
107
136
134
108
137
136
107
152
151
123
143
142
115
144
143
116
146
144
119
147
146
122
150
148
126
152
150
127
153
151
129
155
154
131
156
156
134
157
157
136
158
158
137
158
158
138
158
158
138
159
158
138
160
159
139
160
159
139
160
159
139
160
159
139
161
160
140
161
160
140
161
160
140
161
160
140
162
161
141
162
161
141
162
161
142
162
162
144
161
161
146
162
161
147
161
162
148
160
162
148
160
162
148
161
163
149
161
163
149
161
163
149
162
164
150
162
164
150
162
164
150
163
165
151
163
165
151
163
165
151
164
166
152
165
167
153
165
167
153
165
168
153
165
168
152
165
169
153
166
169
154
166
170
154
166
170
154
166
170
155
167
171
156
167
171
156
170
174
159
172
176
161
172
176
161
174
178
163
176
180
165
178
182
167
180
184
169
183
164
136
182
166
139
182
171
146
186
179
156
190
187
165
192
189
171
192
188
173
189
187
174
184
184
173
179
180
170
175
176
169
171
172
165
166
167
159
162
163
153
158
160
149
147
143
127
141
128
102
145
125
93
151
130
103
173
148
124
195
163
126
221
181
130
243
203
145
247
210
154
247
204
145
239
187
123
232
178
112
241
186
121
237
182
117
230
174
110
230
171
107
225
166
101
221
165
101
227
172
109
235
182
120
231
179
117
219
167
107
218
168
108
230
180
123
228
179
123
225
180
129
224
181
136
222
184
138
223
190
144
224
195
149
225
197
146
228
201
143
229
206
151
225
208
155
239
239
185
236
250
193
229
250
188
226
251
188
234
251
203
246
254
222
244
252
221
235
243
199
221
219
165
226
205
147
223
182
120
220
164
97
221
162
97
229
178
115
235
194
134
239
202
148
238
202
151
247
217
164
250
222
172
248
218
171
246
216
172
247
221
177
237
207
169
237
208
172
219
186
157
199
158
134
195
144
126
179
112
92
157
82
68
138
70
59
135
74
67
123
76
68
104
67
58
88
58
47
94
55
44
130
74
66
185
147
132
203
167
150
159
112
98
167
119
105
186
147
130
189
156
136
201
164
136
199
149
120
189
132
104
173
117
85
164
100
69
152
70
47
141
53
35
138
60
43
128
65
44
124
69
42
121
71
42
117
70
40
104
60
28
97
57
24
97
61
26
100
66
26
110
75
33
111
77
34
124
90
47
130
95
53
139
106
60
152
120
73
151
120
73
158
127
81
168
139
93
178
153
109
184
162
121
192
172
132
193
170
129
179
151
107
154
123
75
149
118
71
122
95
58
61
40
21
36
25
13
37
31
19
46
38
24
46
39
18
48
42
20
66
60
38
59
52
32
55
46
26
57
43
20
94
72
46
133
104
73
154
120
83
164
127
75
160
116
62
174
126
68
192
146
83
200
156
89
197
158
87
205
164
97
176
135
79
134
96
48
126
93
44
152
117
72
163
134
86
194
176
125
204
195
147
116
105
64
108
96
62
109
96
65
114
99
71
116
104
78
117
110
84
122
115
88
125
119
91
128
123
94
129
125
96
131
127
98
130
129
100
132
131
103
133
132
104
134
133
105
136
135
107
137
135
109
144
142
117
146
144
119
143
141
116
145
143
118
146
144
119
148
146
121
150
148
123
152
150
125
154
152
127
156
154
131
157
155
134
158
156
135
158
155
136
158
155
136
158
156
137
158
157
137
158
157
137
159
158
138
159
158
138
159
158
138
160
159
139
160
159
139
160
159
139
161
160
140
162
161
141
162
161
141
162
161
142
161
159
144
162
160
146
162
161
148
161
162
148
161
162
148
160
162
148
160
162
148
161
163
149
162
164
150
162
164
150
162
164
150
162
164
150
162
164
150
163
165
151
163
165
151
163
165
151
164
166
152
165
167
153
165
167
153
166
168
154
167
169
155
167
169
155
167
169
155
166
170
155
166
170
155
167
171
156
170
174
159
172
176
161
172
176
159
174
178
163
176
180
165
178
182
168
182
186
172
198
187
167
192
180
159
184
171
150
175
164
141
168
161
135
165
154
131
165
155
134
164
156
138
163
157
142
164
159
145
160
158
146
159
157
146
157
156
144
154
154
142
153
153
142
153
148
136
152
140
121
151
136
111
160
143
116
173
151
122
205
173
131
229
187
135
248
205
147
247
207
150
242
196
134
238
184
117
232
176
110
230
174
109
232
177
112
242
187
123
234
176
111
228
169
104
217
161
97
229
175
112
240
187
125
239
186
125
221
169
110
214
163
105
223
173
116
230
181
125
230
184
134
228
186
141
224
189
144
221
193
148
223
203
157
225
210
163
228
218
169
236
226
178
239
230
182
239
240
190
240
252
202
230
248
195
226
249
187
231
251
195
239
252
213
243
253
219
227
238
190
225
227
171
225
209
150
223
184
123
220
166
100
213
154
87
224
171
107
239
194
134
236
197
142
244
208
156
247
217
166
249
222
173
250
220
175
250
220
177
247
220
178
241
211
173
231
202
165
215
182
153
199
158
134
199
148
130
177
109
90
161
84
70
149
79
69
133
69
63
121
71
65
96
59
50
82
45
34
103
52
44
132
66
61
147
92
82
137
78
68
144
79
71
151
88
79
164
110
98
146
98
84
173
127
107
176
124
104
181
124
104
177
113
91
168
89
71
164
71
54
170
80
61
163
87
62
165
109
74
165
120
77
158
114
73
147
104
63
132
90
50
122
85
43
108
72
30
116
82
38
114
80
35
114
80
35
125
91
46
130
96
51
138
105
58
144
111
62
148
115
67
155
123
76
160
128
82
167
138
97
180
154
120
188
167
133
193
173
139
195
174
138
182
157
117
151
119
74
146
109
68
134
99
70
91
68
47
40
29
8
37
31
16
38
32
15
44
39
22
48
43
27
41
32
16
53
35
15
97
76
50
129
103
69
153
121
82
164
129
84
170
130
77
169
126
71
144
97
38
161
113
49
191
143
76
203
159
87
211
167
100
187
143
89
117
78
36
123
92
48
161
130
83
169
152
97
191
190
131
164
156
107
109
88
47
114
96
63
116
99
68
114
99
71
116
104
78
117
110
84
121
114
86
124
118
90
127
122
93
129
125
96
131
127
98
130
129
100
132
131
103
133
132
104
134
133
105
136
135
107
137
136
110
138
136
111
147
145
120
141
139
114
143
141
116
144
142
117
145
143
118
148
146
121
149
147
122
152
150
125
154
152
128
155
153
131
156
154
133
157
155
134
157
154
135
157
155
136
157
156
136
157
156
136
158
157
137
158
157
137
158
157
137
158
157
137
158
157
137
159
158
138
160
159
139
160
159
139
160
159
139
160
159
140
160
158
142
161
159
145
161
160
147
161
162
148
161
162
148
160
162
148
160
162
148
161
163
149
162
164
150
162
164
150
162
164
150
162
164
150
162
164
150
163
165
151
163
165
151
163
165
151
164
166
152
165
167
153
165
167
153
166
168
154
167
169
155
167
169
155
167
169
155
166
170
155
166
170
155
167
171
156
170
174
159
172
176
161
172
176
159
174
178
163
176
180
165
178
182
168
182
186
172
180
180
168
176
178
165
172
173
161
168
166
154
166
161
149
162
156
138
156
150
131
150
142
123
145
134
115
142
131
112
147
134
113
151
138
118
157
147
129
161
153
137
163
157
143
166
161
150
173
163
150
177
165
148
180
167
145
188
168
138
208
176
130
234
190
134
245
200
141
242
200
141
236
189
124
234
178
107
231
172
103
240
182
115
242
185
121
239
184
120
229
172
108
225
166
101
217
161
96
225
171
108
221
168
106
210
158
97
210
158
100
220
168
111
231
181
126
237
188
134
232
186
137
228
186
143
223
190
147
222
197
155
222
206
164
230
219
177
232
227
187
239
237
195
239
239
196
236
243
197
231
246
200
231
244
199
232
251
194
225
247
187
228
246
198
242
254
215
232
246
193
224
233
173
230
222
160
230
196
136
222
170
106
214
155
86
218
162
97
225
175
115
232
190
133
236
201
147
247
216
167
248
221
173
249
219
174
250
219
178
246
219
179
240
210
172
230
201
165
202
169
140
193
151
127
188
137
119
172
105
85
164
87
73
147
75
65
124
56
51
129
76
70
85
51
39
89
49
38
121
60
54
131
61
56
145
80
72
147
81
72
140
74
66
152
85
78
162
98
89
155
95
85
143
85
74
139
79
68
141
79
66
135
67
53
141
63
50
194
111
95
200
123
99
192
125
92
190
135
91
174
131
82
199
159
108
176
137
87
143
105
56
136
100
52
128
92
46
130
95
49
136
102
58
114
79
34
120
85
41
136
101
56
131
96
48
142
107
58
129
96
46
153
120
72
155
122
74
165
133
90
174
144
109
191
168
135
214
194
163
205
186
153
186
161
124
170
136
92
149
111
65
146
108
66
150
117
78
120
94
59
83
65
42
65
46
28
57
38
23
63
45
29
83
62
44
111
83
57
130
100
69
155
123
83
170
136
89
166
129
77
175
132
78
181
136
78
150
104
45
140
90
25
167
116
49
200
151
80
213
167
99
184
139
85
110
70
27
135
107
61
169
148
95
161
154
94
191
193
132
126
112
62
114
85
45
122
95
64
121
99
69
119
103
74
120
110
82
118
111
84
120
113
85
123
117
88
126
121
92
128
123
94
130
126
97
130
128
100
132
131
103
133
132
104
134
133
105
135
134
106
137
135
110
138
136
111
146
144
120
139
137
112
143
141
116
143
141
116
144
142
117
146
144
119
148
146
121
149
147
122
150
148
124
152
150
127
154
152
129
156
154
132
156
153
133
156
154
134
156
155
135
156
155
135
158
157
137
158
157
137
158
157
137
158
157
137
159
158
138
159
158
138
159
158
138
159
158
138
159
158
138
159
158
139
160
158
143
160
158
144
160
159
146
160
161
147
160
161
147
159
161
147
159
161
147
160
162
148
162
164
150
162
164
150
162
164
150
162
164
150
162
164
150
162
164
150
162
164
150
163
165
151
164
166
152
165
167
153
166
168
154
166
168
154
166
168
154
166
168
154
167
169
155
167
171
156
167
171
156
168
172
157
169
173
158
171
175
160
173
177
160
174
178
163
176
180
165
178
182
168
180
184
170
162
166
152
160
165
151
159
164
151
159
161
150
158
157
148
159
159
146
160
159
146
162
160
146
165
160
145
166
160
144
165
154
133
161
148
126
163
148
127
163
149
127
165
149
129
170
156
135
179
162
142
191
173
153
195
175
150
204
175
140
225
189
138
243
198
140
247
200
141
244
201
142
234
186
117
220
161
89
228
169
98
246
187
119
247
191
126
236
181
118
235
178
114
227
168
103
215
159
95
211
156
93
203
150
87
207
154
94
208
155
98
216
165
109
234
183
129
230
180
127
228
183
135
230
189
147
225
191
150
223
197
158
227
207
171
230
217
179
230
226
187
233
236
195
235
240
199
233
243
201
232
245
202
232
241
200
234
248
200
226
250
189
223
246
188
232
248
199
226
244
187
222
236
173
225
222
159
226
195
136
225
173
112
216
156
86
214
155
89
214
161
100
232
189
132
239
204
150
244
213
166
250
222
176
252
222
180
249
218
179
250
222
184
239
209
171
219
190
154
200
167
138
188
146
122
184
133
115
177
109
90
166
89
75
147
73
64
126
56
52
120
63
59
92
53
43
105
55
47
135
62
59
138
63
59
143
71
65
148
78
71
145
79
71
156
91
83
157
90
82
152
91
81
137
77
68
132
70
60
133
66
56
132
62
50
137
67
53
214
147
127
232
173
143
213
158
119
203
152
106
198
153
104
198
159
106
193
156
102
164
127
75
138
102
52
135
99
51
121
85
40
123
87
43
122
85
41
118
81
37
122
85
40
130
94
45
133
97
45
112
76
27
130
95
46
142
108
59
164
130
82
173
141
98
195
168
130
183
160
123
193
170
134
191
164
125
175
142
96
156
121
71
152
114
64
148
109
56
157
121
69
145
116
76
128
98
65
116
86
59
117
87
61
128
95
67
146
111
77
168
132
94
177
140
96
169
132
81
169
128
75
183
136
81
186
142
82
177
132
69
140
90
24
153
97
29
184
129
58
207
160
90
212
165
105
140
100
50
133
110
55
153
143
84
175
171
109
172
162
105
123
98
49
117
84
43
116
82
53
127
101
71
132
115
86
131
121
92
127
117
90
123
116
88
124
118
90
125
120
91
128
123
94
130
126
97
130
128
100
132
131
103
133
132
104
133
132
104
134
133
105
136
134
108
137
135
110
146
144
119
140
138
113
142
140
115
143
141
116
144
142
117
145
143
118
146
144
119
147
145
120
149
147
122
151
149
125
153
151
128
154
152
130
154
152
131
155
154
133
155
154
134
155
154
134
156
155
135
156
155
135
157
156
136
157
156
136
159
158
138
159
158
138
159
158
138
159
158
138
159
158
138
159
158
139
160
158
143
160
158
144
160
159
145
159
160
146
159
160
146
159
161
147
159
161
147
160
162
148
161
163
149
161
163
149
162
164
150
162
164
150
162
164
150
162
164
150
162
164
150
163
165
151
163
165
151
165
167
153
166
168
154
166
168
154
165
167
153
166
168
154
167
169
155
167
171
156
167
171
156
168
172
157
169
173
158
171
175
159
173
177
160
174
178
163
176
180
165
178
182
168
180
184
170
161
162
151
163
163
153
167
164
154
167
165
157
168
168
158
170
171
158
170
171
160
172
173
162
177
178
167
181
182
171
184
184
168
184
181
165
188
181
163
189
177
158
187
170
152
179
163
137
174
156
127
178
156
126
189
160
125
215
175
129
239
199
143
248
203
144
251
203
143
238
189
127
229
177
105
231
171
100
234
173
105
240
181
114
234
178
113
235
180
117
242
185
120
227
169
103
213
157
92
215
161
98
205
153
90
204
152
91
215
163
105
226
175
118
219
168
113
219
169
115
224
179
130
232
190
147
233
198
156
236
208
170
236
214
179
232
219
183
231
230
189
232
236
195
236
241
202
238
247
207
237
249
208
236
245
203
232
243
198
229
248
193
225
247
189
224
244
188
228
250
189
225
246
179
223
227
162
223
195
137
220
169
110
215
158
88
220
163
95
222
168
105
218
173
116
230
196
142
239
208
161
248
219
175
250
220
179
250
220
183
244
217
181
234
204
168
214
184
150
192
154
129
190
146
126
194
141
126
185
117
102
173
96
83
154
78
69
132
61
57
106
46
42
100
51
40
124
63
55
141
62
59
143
65
61
141
65
61
149
72
69
150
79
73
155
87
80
150
85
76
144
83
73
133
75
64
132
71
60
130
63
51
134
65
51
140
74
57
216
162
138
253
210
177
235
190
150
225
179
134
220
177
129
226
188
136
201
166
111
175
139
87
155
118
69
135
99
52
137
100
55
108
71
27
103
67
23
111
74
30
126
89
44
130
92
45
137
100
51
125
88
39
135
99
50
124
88
40
133
99
48
151
116
66
177
147
101
188
162
119
187
162
120
188
160
117
175
145
96
163
126
75
149
107
53
146
104
42
148
110
45
155
120
66
162
126
80
161
126
86
160
125
87
165
130
90
168
131
91
178
141
97
178
141
93
179
140
89
171
130
77
179
131
74
187
142
81
186
140
76
166
115
49
151
95
27
172
115
45
200
150
78
217
168
102
170
131
71
131
115
50
161
157
94
190
183
121
133
108
53
127
95
46
119
85
42
114
79
46
122
93
62
128
109
78
132
119
89
134
122
93
130
121
91
128
121
91
126
120
91
128
123
94
130
126
97
131
128
101
132
130
103
133
131
103
133
132
104
134
133
105
135
133
107
136
134
108
143
141
116
140
138
113
140
138
114
142
140
115
143
141
116
144
142
117
144
142
117
145
143
118
147
145
120
150
148
123
152
150
126
153
151
128
153
151
129
154
152
131
155
153
133
155
154
133
156
154
134
156
155
134
156
155
135
156
155
135
157
156
136
159
158
138
159
158
138
159
158
138
159
158
138
159
158
139
160
158
141
160
158
142
159
158
144
159
159
145
159
159
145
160
161
147
160
161
148
160
161
148
160
162
148
160
162
148
161
163
149
162
164
150
162
164
150
162
164
150
162
164
150
163
165
151
164
166
152
165
167
153
166
168
154
166
168
154
166
168
154
166
168
154
167
169
155
167
170
156
168
171
156
168
172
157
170
173
159
171
175
160
173
177
160
174
178
163
176
180
165
178
182
168
181
185
170
175
175
163
177
177
166
179
179
169
181
181
173
185
185
176
187
187
176
188
188
176
188
188
176
187
187
175
187
187
175
184
189
177
184
187
176
186
186
175
188
185
174
188
181
171
186
181
168
186
179
158
190
174
147
197
167
131
224
182
135
239
195
139
241
196
136
244
194
131
246
191
123
238
179
108
230
169
102
238
177
114
245
185
122
234
177
113
234
179
115
231
175
109
226
169
102
236
181
115
230
175
111
229
176
113
236
182
120
244
192
130
236
184
125
224
173
115
225
174
117
227
180
128
238
196
151
235
200
156
228
202
162
233
215
178
238
228
193
240
238
200
240
241
204
240
246
208
241
250
212
239
250
210
236
248
204
235
244
200
232
242
195
235
251
201
226
249
192
216
246
180
215
245
177
225
240
172
231
215
154
224
183
125
215
166
100
212
162
92
218
166
99
222
176
118
228
194
142
243
212
164
246
216
171
249
221
181
246
218
182
239
212
178
228
195
164
217
181
154
189
143
125
174
126
113
180
123
116
184
118
108
181
103
91
168
87
79
144
73
68
106
44
36
116
55
43
133
65
54
140
61
57
141
63
59
140
66
63
145
72
68
152
81
75
153
85
78
147
83
74
138
76
65
126
67
58
127
65
55
131
64
52
142
73
59
147
81
63
210
161
138
254
226
192
245
209
171
238
196
152
227
184
134
227
189
136
210
173
121
202
165
114
175
138
89
150
112
65
141
103
58
121
83
40
106
68
23
98
60
16
111
74
29
124
86
42
141
103
58
152
114
67
150
114
67
139
103
54
145
109
58
161
122
72
175
139
91
192
164
117
186
162
118
186
159
114
186
156
107
161
123
70
159
114
56
154
109
43
145
101
34
138
97
36
158
118
66
166
128
83
170
136
91
166
133
88
163
129
83
171
136
88
173
136
85
166
129
75
161
119
65
173
124
67
189
143
83
201
154
92
178
127
65
156
101
37
172
117
45
202
150
76
214
162
92
183
146
78
152
141
72
188
182
117
151
133
76
137
105
52
134
98
48
122
87
40
111
78
37
113
84
46
118
94
57
123
105
71
129
114
81
135
123
89
136
126
93
133
124
94
130
123
95
130
124
97
132
127
100
132
128
101
132
128
101
132
131
103
133
132
104
133
132
104
135
134
106
137
135
109
137
135
110
138
136
113
139
137
113
140
138
113
142
140
115
143
141
116
144
142
117
146
144
119
148
146
121
150
148
124
151
149
126
151
149
126
152
150
128
153
151
130
154
152
131
155
153
132
156
154
133
156
155
134
156
155
135
156
155
135
157
156
136
157
156
136
158
157
137
159
158
137
159
158
138
159
158
138
159
158
139
159
158
141
160
158
145
160
158
145
162
160
147
162
160
148
162
161
148
161
162
148
161
162
148
161
163
149
161
163
149
161
163
149
162
164
150
162
164
150
163
165
151
164
166
152
164
166
152
165
167
153
166
168
154
166
168
154
166
168
154
166
168
154
167
169
155
169
171
157
169
171
157
171
173
159
173
175
161
173
177
162
175
179
164
176
180
165
179
183
168
182
186
171
190
190
178
192
192
180
193
193
182
192
192
182
193
193
184
193
193
183
192
192
182
192
192
182
192
192
182
192
192
182
190
190
180
189
188
178
187
187
177
186
186
174
184
183
171
181
181
170
186
181
167
193
180
162
206
178
151
223
185
142
236
191
137
246
199
140
251
201
138
244
189
121
229
170
99
231
172
104
238
178
113
244
185
121
231
173
109
231
173
110
224
167
101
231
174
107
240
183
118
241
187
122
224
169
107
231
176
115
241
187
125
230
177
118
222
171
113
220
171
113
239
192
141
247
205
159
237
202
158
236
210
170
240
221
184
243
231
196
243
240
202
246
246
209
247
251
214
244
251
214
245
254
216
245
254
213
243
250
208
243
252
207
237
253
203
230
251
195
222
250
187
217
247
181
223
245
176
222
223
159
219
202
139
220
187
119
218
174
105
218
167
101
213
164
107
230
191
139
236
204
156
243
215
169
252
225
184
250
223
187
241
212
179
228
193
165
209
172
147
194
147
131
179
128
117
185
133
126
188
126
119
185
108
98
179
97
88
139
64
58
113
43
37
127
57
48
137
61
53
141
60
56
141
61
58
141
64
62
146
75
71
151
82
76
149
81
73
139
74
65
132
68
58
130
67
57
140
74
65
138
66
56
147
74
61
157
85
71
199
145
124
251
225
192
252
225
188
241
201
161
242
198
151
227
189
139
219
182
131
201
163
114
196
158
109
165
127
80
148
110
66
138
100
56
119
81
37
112
75
32
104
66
21
118
79
34
124
85
40
144
106
60
157
120
73
166
130
81
166
130
79
165
128
79
165
131
84
190
164
118
194
172
128
195
170
127
186
156
108
173
136
85
155
111
53
152
107
42
153
108
42
153
105
47
144
99
45
146
106
56
149
112
65
151
115
66
148
110
59
157
117
64
164
123
68
167
124
66
167
121
62
176
127
67
189
143
82
201
154
91
195
144
81
170
115
51
183
129
58
204
156
81
209
164
92
173
140
72
189
174
107
165
152
92
137
113
56
143
110
57
137
102
52
123
89
42
112
78
34
105
76
33
102
78
37
103
85
47
116
101
65
126
114
80
136
126
93
140
131
101
139
132
103
136
131
103
131
125
99
130
126
99
130
126
99
130
128
101
131
130
102
131
130
102
133
132
104
135
133
107
136
134
109
137
135
112
137
135
111
138
136
111
140
138
113
142
140
115
143
141
116
144
142
117
146
144
119
148
146
122
150
148
125
150
148
125
150
148
126
151
149
128
152
150
129
154
152
131
155
153
132
155
154
133
155
154
134
155
154
134
156
155
135
156
155
135
157
156
136
159
158
137
159
158
138
159
158
138
159
158
139
159
158
141
160
158
143
160
158
145
161
159
146
161
159
146
161
160
147
161
162
148
161
162
148
161
163
149
161
163
149
161
163
149
162
164
150
162
164
150
162
164
150
162
164
150
162
164
150
164
166
152
165
167
153
166
168
154
166
168
154
166
168
154
167
169
155
169
171
157
169
171
157
171
173
159
173
175
161
174
178
163
176
180
165
178
182
167
179
183
168
180
184
169
198
199
185
198
198
185
198
198
186
198
198
187
198
198
188
197
197
188
197
197
187
196
196
186
194
194
185
195
195
185
195
192
183
194
191
182
191
189
179
188
189
176
185
187
174
188
186
175
193
187
175
202
187
171
211
181
156
227
186
144
238
190
136
246
198
139
239
188
126
234
178
110
236
177
106
235
177
108
245
188
121
238
181
115
234
175
110
232
172
109
225
167
101
236
180
113
236
178
113
220
163
99
225
167
107
239
180
120
236
178
118
219
164
106
228
176
119
233
184
126
231
185
133
235
192
147
238
202
159
236
209
169
239
221
184
243
231
196
238
232
196
235
232
196
238
240
203
239
245
208
244
252
214
242
251
210
242
249
207
240
248
204
235
249
201
232
250
198
220
241
184
217
240
179
219
239
175
225
236
172
224
225
159
223
205
138
220
183
116
218
169
104
220
172
113
229
187
135
233
200
152
235
207
161
248
225
182
252
226
189
247
216
184
231
196
169
212
172
151
199
151
136
182
129
121
187
139
133
193
133
131
188
112
103
184
100
89
146
66
59
132
55
50
136
58
51
135
56
49
138
57
53
138
59
55
141
66
63
146
76
71
145
76
70
135
68
60
132
65
57
133
67
58
141
73
64
140
67
59
152
73
65
156
76
67
161
82
71
183
122
103
245
217
188
251
236
201
248
214
178
237
196
153
230
192
145
224
186
139
215
177
130
187
149
101
176
139
90
170
132
86
137
99
55
139
101
57
108
70
27
116
78
33
117
78
37
129
90
49
127
88
42
146
108
62
161
123
75
176
141
91
179
144
96
170
137
92
190
166
122
196
174
132
201
176
134
186
155
109
173
135
85
155
111
55
159
114
51
148
103
37
155
110
45
156
110
46
149
104
42
141
96
36
132
88
31
134
89
32
144
98
39
149
101
40
150
101
38
166
117
52
176
127
60
186
141
73
201
154
85
191
141
73
172
118
51
192
144
71
209
168
92
197
163
89
187
162
92
177
160
96
133
109
50
139
109
53
146
113
60
142
109
58
126
93
45
117
83
39
104
73
30
93
68
27
97
78
39
115
100
63
128
116
82
142
131
98
148
139
109
148
141
112
147
141
114
138
132
106
132
128
101
128
124
97
127
126
98
128
127
99
129
128
100
129
128
100
130
128
103
133
131
106
133
131
108
134
132
108
136
134
109
138
136
111
139
137
112
142
140
115
143
141
116
143
141
116
145
143
118
149
147
124
150
148
125
149
147
126
150
148
127
151
149
128
152
150
129
153
151
130
153
152
132
154
153
133
155
154
134
155
154
134
155
154
134
156
155
135
158
157
136
158
157
137
157
156
136
157
156
138
158
157
139
159
157
142
159
157
142
160
158
143
161
159
146
161
160
146
160
161
147
160
161
147
161
163
149
161
163
149
161
163
149
162
164
150
162
164
150
162
164
150
162
164
150
163
165
151
165
167
153
165
167
153
166
168
154
167
169
155
167
169
155
167
169
155
169
171
157
169
171
157
171
173
159
173
175
161
174
178
163
177
181
166
179
183
168
180
184
169
181
185
170
202
203
189
201
202
189
200
200
188
199
199
187
199
199
188
199
199
190
199
199
191
197
197
189
195
195
187
194
194
186
194
193
184
193
192
182
190
190
179
188
188
176
186
186
174
186
186
173
190
186
173
197
184
170
207
180
156
224
186
142
232
182
129
239
187
129
248
195
133
242
186
119
238
181
108
231
176
105
241
185
116
235
178
111
228
169
103
223
162
98
227
170
102
235
179
112
218
161
96
214
155
92
225
164
104
225
164
104
222
162
102
226
169
112
222
170
113
224
174
117
231
185
134
239
197
152
237
202
158
234
207
167
233
215
178
238
225
191
241
234
198
243
238
203
240
240
204
240
243
208
241
247
210
242
249
210
245
250
209
243
250
207
236
248
202
230
247
197
225
242
188
213
230
174
213
231
170
218
235
172
220
232
166
237
228
163
225
192
128
212
165
101
216
171
111
225
185
130
226
192
144
234
208
161
246
224
181
249
223
187
248
215
185
236
199
174
222
180
161
201
151
139
183
126
122
191
147
142
208
151
153
192
118
110
190
104
93
161
76
67
144
61
57
140
59
53
135
55
48
134
57
52
132
58
53
137
65
62
138
70
65
137
70
63
126
59
51
131
64
56
135
67
59
146
73
64
149
70
63
157
71
66
157
70
63
166
80
73
182
113
98
236
198
175
253
245
213
250
229
194
241
208
167
240
203
159
225
187
142
201
163
117
172
134
87
158
120
72
181
143
97
177
139
94
154
117
72
131
94
49
130
92
47
122
82
39
160
121
80
128
88
44
136
97
50
156
118
70
173
138
90
185
151
105
187
156
111
204
180
137
198
179
138
188
164
124
188
157
113
171
134
87
151
106
52
155
109
49
152
106
41
153
105
39
161
112
43
158
109
39
146
96
30
138
88
24
133
83
20
138
86
22
146
93
25
153
98
28
166
112
41
177
130
58
198
154
81
202
156
84
193
143
73
178
124
55
192
141
71
215
173
98
198
167
93
184
158
90
141
115
53
140
106
51
145
111
57
151
117
64
148
115
65
128
96
47
116
81
39
102
70
31
90
64
26
98
78
43
120
103
70
135
122
88
145
135
102
151
142
112
154
147
118
153
147
120
150
145
118
145
141
114
139
135
108
132
130
102
127
126
98
128
127
99
129
128
100
129
127
102
131
129
104
131
129
106
132
130
106
134
132
107
136
134
109
137
135
110
138
136
111
140
138
113
141
139
114
143
141
116
146
144
121
147
145
122
147
145
123
148
146
125
149
147
126
150
148
127
151
149
128
151
150
129
152
151
131
153
152
132
154
153
133
154
153
133
155
154
134
156
155
135
156
155
135
157
156
136
157
156
137
158
157
139
159
158
140
159
157
141
159
157
142
161
159
144
161
160
146
160
161
147
160
161
147
161
163
149
161
163
149
161
163
149
162
164
150
162
164
150
162
164
150
162
164
150
163
165
151
165
167
153
165
167
153
166
168
154
167
169
155
168
170
156
167
169
155
169
171
157
169
171
157
171
173
159
173
175
161
174
178
163
177
181
166
180
184
169
181
185
170
182
186
171
200
201
188
200
201
187
200
200
187
201
200
188
201
200
188
199
199
190
199
199
190
199
198
189
197
196
187
195
193
185
192
194
183
191
193
182
189
190
179
188
188
176
185
185
174
184
186
175
186
185
173
194
183
170
204
180
157
221
185
142
238
189
135
250
199
139
249
194
130
248
188
119
234
175
102
225
167
95
227
168
98
225
166
97
220
159
92
219
157
92
226
169
101
224
169
101
222
165
99
219
158
96
216
155
95
206
144
85
235
174
117
238
180
124
227
175
118
223
175
117
226
181
128
234
191
144
239
202
156
235
205
163
227
203
165
226
208
172
234
222
186
242
234
199
243
240
205
245
247
212
241
245
210
243
248
212
247
252
214
245
252
210
236
246
202
229
243
196
225
241
189
215
230
177
201
217
160
196
214
153
216
232
168
222
216
153
222
190
126
220
174
109
216
172
109
218
178
120
230
195
144
240
214
168
249
228
187
247
222
186
244
212
180
233
197
171
219
178
158
203
155
142
186
130
125
189
146
141
225
171
176
221
151
146
206
123
110
181
96
86
154
66
62
142
59
54
132
54
48
128
55
49
125
57
51
130
63
58
130
65
59
125
58
52
127
60
52
137
66
60
141
70
62
148
69
62
151
68
62
153
67
62
158
70
64
163
73
68
175
97
86
214
165
147
248
240
210
253
243
211
246
222
185
246
215
174
229
193
150
215
179
135
195
161
116
194
159
111
153
115
69
151
114
68
165
128
84
160
123
79
145
108
65
139
99
56
147
105
63
138
97
52
136
95
48
151
111
62
170
135
87
180
148
102
191
162
119
205
184
143
203
185
145
191
168
127
178
148
103
177
141
91
141
96
44
150
104
46
152
105
45
151
98
37
164
112
45
161
112
43
151
103
36
146
97
31
144
93
27
144
91
24
145
91
22
154
98
26
169
115
43
188
140
69
199
153
82
205
158
88
193
142
74
182
128
61
205
152
83
220
176
105
200
165
96
144
111
47
144
108
48
138
98
42
139
101
46
145
110
57
144
111
60
132
99
51
120
85
44
106
74
36
92
66
29
104
83
49
129
112
79
141
129
95
148
137
105
152
144
113
154
147
118
154
149
120
156
150
123
157
153
126
158
154
127
153
149
123
145
142
115
139
137
110
136
134
107
133
130
105
130
127
102
130
128
104
130
129
104
132
131
106
134
133
108
136
134
110
136
134
110
137
135
111
139
137
113
141
139
115
142
141
118
143
142
119
144
142
120
145
143
122
146
144
123
148
146
124
149
147
125
149
148
127
150
149
129
151
150
130
153
152
131
153
152
132
154
153
133
156
155
134
156
155
135
156
155
135
157
156
137
158
157
138
159
158
139
159
158
139
159
157
141
160
158
143
160
159
145
160
160
147
160
161
147
161
162
149
161
162
149
161
163
149
162
164
150
162
164
150
162
164
150
163
164
150
163
165
151
165
166
153
165
167
153
166
167
154
167
168
155
168
169
156
167
169
156
169
171
157
169
172
158
171
173
160
173
175
161
174
178
162
177
181
164
180
184
167
182
186
170
183
188
171
189
195
182
192
195
183
196
198
187
202
201
191
203
202
192
200
201
189
199
199
187
198
198
186
197
196
184
197
196
184
193
194
183
191
193
182
190
192
181
188
190
179
185
188
177
185
186
179
189
185
174
194
184
168
202
181
158
221
182
143
236
187
131
236
186
122
235
176
106
233
166
94
229
164
90
228
162
89
230
162
91
228
163
92
225
161
92
214
151
83
224
167
98
225
170
101
224
167
100
223
163
100
211
149
88
209
147
90
239
178
123
236
180
123
228
176
119
229
180
122
237
193
137
239
197
146
238
197
148
234
196
150
234
198
156
237
207
167
240
219
181
243
227
191
246
239
204
248
248
214
241
245
212
245
248
215
246
250
215
244
249
212
236
243
204
232
241
198
226
235
189
220
232
183
207
220
168
200
214
158
202
215
156
215
212
149
229
199
134
223
175
109
215
166
100
218
172
110
225
189
130
242
214
169
250
229
196
246
222
189
245
216
180
237
200
172
221
177
158
212
162
149
188
131
124
207
156
156
247
193
201
246
177
177
231
146
135
212
121
110
166
75
70
143
56
55
131
53
48
123
53
47
120
54
48
119
53
47
116
53
48
120
56
50
128
59
52
140
65
59
144
66
60
150
64
60
150
64
59
150
64
59
154
64
61
161
67
65
163
76
72
183
120
108
232
210
188
253
250
225
249
238
210
249
230
195
239
210
172
233
204
164
221
197
155
210
181
137
159
123
76
170
134
87
177
143
97
162
126
83
152
118
78
155
117
75
157
115
72
145
102
57
136
94
46
152
110
61
175
140
91
184
156
108
202
179
135
206
189
150
183
166
126
199
176
132
183
155
105
159
126
73
148
107
54
140
96
42
146
101
46
149
98
38
155
105
43
159
110
46
151
103
37
143
96
30
149
101
35
149
100
33
152
103
34
162
112
42
171
121
50
184
134
63
204
154
83
205
155
84
184
134
64
187
137
66
210
162
93
218
176
108
190
151
90
149
110
53
137
97
35
137
96
35
140
100
41
146
108
52
147
112
60
135
102
52
126
94
47
110
81
37
92
68
25
107
87
48
126
110
74
140
128
95
146
136
104
152
144
113
153
147
115
156
151
120
159
153
125
162
155
128
164
157
131
162
156
130
159
152
128
159
153
129
157
151
127
153
149
124
145
141
116
133
130
105
127
126
102
127
127
103
131
131
107
133
131
108
134
132
110
135
133
112
137
135
114
139
137
116
139
138
117
141
140
119
141
140
118
142
140
117
143
141
118
146
144
121
147
145
122
148
146
125
149
148
127
150
149
128
151
150
129
152
151
130
153
152
132
154
153
133
154
153
133
154
153
133
156
155
135
158
157
137
158
157
137
158
157
138
158
157
139
159
158
141
160
158
143
160
158
145
161
160
147
161
161
148
161
161
149
160
162
149
161
163
150
161
163
150
163
164
151
164
165
151
164
165
150
165
165
152
166
166
153
167
167
154
168
168
155
169
169
156
168
170
156
170
172
158
171
173
159
172
174
160
174
176
162
174
179
160
177
182
162
179
184
164
182
187
167
185
190
170
177
185
173
178
186
174
186
192
180
194
197
187
196
198
188
199
198
189
197
198
188
195
197
187
193
197
186
192
197
186
195
196
186
194
195
185
194
194
184
192
192
183
190
190
181
187
187
181
190
187
175
193
185
170
200
181
160
217
180
143
238
191
135
246
194
131
247
189
119
243
177
105
232
166
93
226
160
86
224
157
83
223
159
86
219
155
84
223
161
91
234
177
107
234
177
108
228
171
104
225
165
102
213
153
91
225
166
107
239
183
127
237
183
125
228
176
119
236
186
129
233
185
130
230
185
133
230
187
137
233
192
145
240
202
158
243
211
169
240
218
177
240
223
184
244
236
198
240
240
202
244
246
210
246
246
212
246
248
213
243
247
211
239
245
207
230
239
197
224
233
188
220
229
181
207
219
167
196
209
154
190
204
146
197
201
138
215
196
131
218
182
115
215
171
107
222
176
115
227
191
134
244
216
171
254
235
200
252
231
198
245
217
184
242
205
181
239
188
177
214
166
159
237
197
192
248
199
201
240
174
181
230
146
145
219
115
109
200
93
88
160
63
61
144
59
58
136
58
54
122
52
46
116
49
43
113
46
40
118
52
47
125
57
51
132
60
54
136
58
53
140
60
53
142
56
51
148
58
55
154
61
59
155
62
60
153
63
59
148
67
59
155
85
74
199
154
139
250
238
216
253
251
223
254
243
214
246
224
191
244
222
183
244
222
182
201
174
133
174
138
96
177
142
98
164
130
86
152
113
71
159
121
79
177
138
94
157
115
70
161
121
75
156
118
69
163
126
76
174
142
94
180
153
107
191
171
128
208
193
155
195
178
139
179
155
110
176
144
94
183
145
92
156
117
60
137
96
39
151
105
49
141
90
29
149
100
38
154
108
43
145
100
35
147
103
36
143
96
28
155
108
40
159
110
41
176
127
58
185
135
66
189
139
68
199
149
78
188
138
67
182
132
61
198
148
78
218
171
104
218
177
110
181
143
83
149
109
53
140
99
39
137
96
35
140
100
41
146
108
52
150
115
63
143
110
60
130
98
51
109
80
35
91
67
24
105
85
46
127
110
74
138
125
91
144
132
99
150
140
107
152
145
112
157
151
118
162
155
126
164
157
129
165
158
131
164
157
130
165
158
132
165
159
134
166
159
135
165
160
135
162
158
132
153
149
123
137
135
109
125
123
99
126
124
100
127
125
102
130
129
108
133
131
110
135
133
112
137
135
114
137
136
115
138
137
116
140
138
117
141
139
117
142
140
118
144
142
120
145
143
121
146
144
123
146
145
124
148
147
126
148
147
126
149
148
127
152
151
130
153
152
132
153
152
132
153
152
132
155
154
134
157
156
136
157
156
135
157
156
136
158
157
138
159
158
140
160
158
141
159
157
142
160
159
145
161
162
148
161
162
148
160
162
149
161
163
150
161
163
149
163
164
150
164
165
150
164
165
149
165
166
151
166
167
152
167
168
153
168
169
154
169
170
155
168
170
155
170
173
157
171
173
158
172
174
159
174
177
161
175
180
161
178
183
163
180
185
165
183
188
168
186
191
171
167
181
170
168
180
170
168
178
169
170
179
170
176
183
174
178
185
176
176
182
174
173
179
171
175
180
173
184
188
181
189
190
184
188
188
182
186
186
180
187
187
181
185
185
179
183
183
177
186
183
171
188
181
167
194
177
158
214
181
147
233
189
134
245
193
129
242
183
113
230
167
94
224
159
85
223
156
81
226
159
83
220
155
81
221
158
85
237
175
103
232
173
103
228
170
102
220
163
97
208
150
86
221
163
100
237
183
122
240
189
131
230
180
121
223
172
115
224
173
116
231
181
125
225
177
124
231
184
134
243
199
151
236
194
150
231
195
151
235
209
166
244
223
181
241
228
188
236
231
192
241
238
200
242
239
202
244
243
206
242
245
208
235
241
203
230
237
197
222
230
186
218
227
180
206
216
166
191
203
150
182
196
139
182
195
132
199
197
132
208
194
127
212
184
119
223
185
124
234
199
144
245
219
173
251
231
195
251
230
197
248
221
190
252
216
195
229
175
167
247
213
208
249
225
220
240
183
187
228
139
145
214
110
109
206
93
86
176
68
64
152
56
57
143
60
58
135
59
54
121
51
45
111
44
38
113
44
39
120
51
46
122
50
45
126
49
44
130
49
43
134
49
43
139
53
48
146
57
53
155
65
62
148
61
57
135
54
48
129
55
43
133
59
48
164
102
91
238
216
196
254
253
231
254
249
229
241
228
202
244
228
194
245
226
190
221
197
159
208
177
138
211
180
141
156
124
81
149
110
67
165
127
82
162
125
78
157
120
71
163
127
77
167
133
83
169
138
88
181
152
106
189
165
122
196
180
138
212
201
162
203
185
147
177
149
105
154
116
64
141
97
41
169
131
73
171
134
76
141
98
42
131
85
28
137
91
32
144
100
36
153
109
43
158
114
46
144
100
30
160
114
44
164
117
49
180
132
64
194
145
77
193
143
73
198
148
77
183
133
62
183
133
62
208
159
89
221
176
109
204
164
99
164
125
68
151
111
57
140
97
39
139
98
37
141
101
42
148
110
54
155
120
68
151
118
67
137
106
59
113
84
39
92
68
25
103
83
44
121
105
69
132
118
83
140
127
92
147
136
102
152
143
108
158
150
116
162
156
124
165
158
128
167
159
131
167
160
132
169
162
134
169
162
134
169
162
134
169
163
135
169
164
136
165
161
132
156
152
123
137
133
106
128
125
100
124
122
99
126
125
104
129
128
107
133
131
110
133
132
111
134
133
112
135
134
113
136
135
114
138
136
115
140
138
117
142
140
119
144
142
121
144
143
122
145
144
123
146
145
124
147
146
125
147
146
125
149
148
127
150
149
129
151
150
130
153
152
132
154
153
133
154
153
133
154
153
132
155
154
134
158
157
137
159
158
139
158
157
139
158
157
141
160
159
144
159
160
145
159
160
146
159
161
147
161
163
149
161
163
148
163
164
148
164
165
149
164
165
148
164
165
148
165
166
150
166
167
151
168
169
152
169
170
154
168
171
154
169
172
155
170
173
156
172
175
158
174
177
160
175
180
160
178
183
163
180
185
165
183
188
168
185
190
170
142
160
150
142
158
149
141
156
147
141
153
145
139
151
143
139
151
143
142
153
145
145
155
148
150
159
151
154
161
154
154
159
153
155
160
153
157
161
155
160
165
158
160
164
157
159
160
154
161
160
148
165
159
147
176
161
144
201
171
139
224
181
126
229
176
113
234
173
104
229
167
93
236
170
97
237
170
93
225
158
81
220
156
80
225
162
87
227
166
93
224
164
94
227
167
100
218
159
93
219
161
97
239
182
119
250
201
140
249
202
142
237
188
129
227
176
120
234
182
125
231
179
123
228
178
123
229
181
129
232
187
138
235
192
146
238
197
153
241
205
162
243
213
171
244
222
181
244
230
190
240
230
191
240
233
196
243
240
202
244
245
207
238
243
206
228
236
196
219
226
184
215
223
178
203
212
163
190
200
148
182
195
140
174
191
129
186
198
132
191
194
127
199
188
121
217
188
126
233
199
146
241
215
169
248
229
191
250
229
197
251
223
194
247
200
180
233
171
164
251
218
214
240
199
200
227
158
162
218
123
123
210
94
91
198
81
72
173
72
65
146
56
56
139
57
55
133
58
53
124
53
48
118
49
44
117
47
42
120
48
43
121
46
41
124
44
39
130
45
40
136
47
41
142
51
48
144
54
51
142
56
52
127
45
39
120
41
33
126
50
36
136
61
49
144
78
66
203
168
152
252
244
228
252
251
240
250
246
226
251
241
210
243
226
193
240
216
183
216
191
156
220
197
160
169
143
101
173
139
94
154
119
69
152
117
64
155
120
69
167
135
84
169
140
90
173
147
97
183
158
113
194
172
132
202
189
149
210
202
165
207
189
151
180
148
104
162
121
68
135
91
33
127
84
22
147
109
49
177
141
86
153
115
65
120
79
21
139
94
30
152
105
35
159
112
39
159
115
44
161
116
46
176
129
61
188
140
73
194
146
78
193
143
73
186
136
66
174
124
53
187
137
66
217
168
99
227
186
120
200
163
99
158
120
64
143
102
50
137
92
37
138
97
36
139
100
41
146
108
52
155
120
68
155
122
71
144
112
65
119
90
45
92
68
26
96
76
38
114
97
61
125
109
74
136
121
85
145
131
96
151
139
104
156
147
111
160
151
118
164
155
123
168
159
128
170
161
131
171
162
133
170
162
133
170
163
134
171
164
136
172
167
137
172
167
137
170
164
135
161
155
126
143
139
112
127
125
103
122
121
100
125
124
103
128
126
105
130
128
107
131
130
109
132
131
110
133
131
111
135
133
113
137
135
115
139
136
116
141
138
118
142
140
120
143
142
121
144
143
122
145
144
123
146
145
124
146
145
125
148
147
127
149
148
128
151
150
130
152
151
131
153
152
131
154
153
132
155
154
133
156
155
135
157
156
136
157
156
136
158
157
139
159
158
142
159
160
144
159
160
145
159
160
146
160
162
147
160
163
146
161
163
146
163
164
146
164
165
146
163
165
145
165
166
147
166
168
148
168
169
150
169
170
151
168
171
151
169
172
152
170
173
153
172
175
155
174
177
157
175
180
160
178
183
163
181
186
166
183
188
168
185
190
170
124
143
136
123
141
134
125
141
134
125
140
134
124
137
131
125
136
130
125
135
130
126
138
131
125
137
131
122
135
129
122
133
126
121
131
124
121
131
124
130
139
133
137
146
140
143
146
140
145
146
135
150
147
136
161
149
134
182
155
125
210
168
116
240
186
123
248
188
118
246
184
111
239
174
100
233
166
88
225
158
79
218
154
75
219
156
81
226
164
91
220
160
90
222
162
95
216
158
92
221
165
100
242
187
123
247
199
137
243
198
137
228
179
120
224
172
113
229
174
116
224
171
113
224
172
115
227
177
124
231
183
133
233
187
139
234
188
143
238
195
150
239
202
158
233
203
162
233
211
171
239
223
184
242
232
196
247
241
205
243
244
206
237
243
205
234
242
203
220
227
184
207
214
168
195
204
154
187
197
145
181
192
137
178
192
130
174
189
125
172
185
117
186
186
119
229
211
149
235
206
154
249
227
182
248
232
194
250
229
198
252
220
194
230
168
152
242
180
171
248
209
203
239
199
196
249
209
198
219
138
127
206
86
80
194
74
67
172
75
68
143
58
57
134
54
51
134
57
53
128
55
50
127
54
50
125
50
47
127
49
45
127
47
43
127
44
40
131
43
39
138
47
42
146
50
48
134
43
40
125
39
34
123
41
35
124
42
35
134
52
40
155
80
68
162
100
85
173
126
111
236
217
204
254
253
245
254
254
241
254
250
224
245
231
201
232
212
181
236
217
183
220
204
167
193
172
130
181
153
109
184
156
109
159
127
79
161
129
78
173
143
93
178
152
104
182
160
112
190
169
125
198
180
140
207
195
157
207
200
163
198
181
142
172
137
93
155
110
56
143
100
36
132
87
20
144
102
37
137
101
42
162
129
81
188
151
102
141
99
42
154
108
39
165
118
42
166
122
48
169
126
56
186
139
72
197
148
81
193
146
77
189
139
68
174
123
53
172
121
51
191
141
70
221
173
104
225
184
119
189
151
89
155
119
64
147
105
54
139
94
40
136
95
34
138
98
39
145
107
52
156
121
68
158
125
74
144
112
65
120
91
47
95
71
31
96
76
39
106
89
53
121
103
67
132
116
80
141
127
92
148
135
100
153
143
108
155
146
113
161
152
119
166
157
125
170
161
129
171
163
132
171
163
133
171
164
134
173
166
136
175
169
139
176
171
141
176
170
139
172
166
136
164
159
132
147
144
120
128
126
105
122
121
99
122
120
99
127
125
104
129
128
107
130
129
108
132
130
110
134
131
111
136
133
113
136
133
114
138
135
116
140
138
117
141
140
119
142
141
120
143
142
121
144
143
122
144
144
123
146
145
125
147
146
126
148
148
128
149
149
129
151
151
130
153
153
130
154
153
132
154
154
133
155
154
134
155
155
135
156
156
137
158
158
140
159
160
143
159
160
144
159
161
145
159
161
145
159
162
145
161
162
146
162
163
146
163
164
146
163
165
145
165
166
146
166
168
147
167
169
148
168
170
149
168
171
150
169
172
151
170
173
152
172
175
154
174
177
156
174
179
159
178
183
163
181
186
166
183
188
168
185
190
170
135
147
145
131
143
141
130
142
140
130
142
140
128
140
138
123
135
131
121
133
129
123
135
131
121
133
129
123
135
131
126
136
133
126
136
133
126
136
132
126
136
132
126
135
132
129
133
129
129
133
125
139
143
136
155
149
137
178
154
125
205
163
117
238
184
122
246
191
117
238
179
105
239
172
99
230
161
83
219
151
70
218
151
70
225
161
85
215
152
82
214
152
83
214
154
85
218
160
93
221
167
102
235
181
119
244
195
135
237
187
127
234
177
116
228
168
106
225
165
101
225
168
104
228
173
113
229
176
118
224
172
117
224
174
121
225
176
124
226
179
128
230
184
136
233
194
150
236
207
166
240
220
181
247
232
199
251
240
207
246
247
209
238
247
207
228
236
196
218
224
180
208
215
169
194
202
152
182
193
139
175
189
130
168
189
121
162
186
116
189
214
144
222
239
170
229
231
166
228
211
156
250
231
187
250
237
201
252
234
207
246
200
182
238
164
152
249
192
182
250
200
193
250
224
205
248
222
196
214
133
111
206
78
72
187
71
68
171
73
70
157
73
71
139
58
57
131
50
49
135
53
50
137
54
51
138
56
52
138
52
52
137
52
51
133
45
43
133
45
42
138
50
44
136
46
42
124
36
32
134
49
44
141
60
54
144
66
59
165
82
72
158
84
71
135
69
53
138
79
64
215
185
163
252
246
231
252
253
246
255
253
244
251
242
223
231
221
191
243
231
198
218
202
168
206
185
147
199
177
137
205
185
148
184
162
123
174
147
102
182
158
115
185
165
123
188
171
130
194
178
138
202
191
150
208
196
160
207
194
160
189
171
132
164
127
80
152
106
48
140
96
23
140
95
20
146
99
31
154
106
47
134
90
34
154
117
66
212
184
136
170
142
92
156
117
49
172
127
53
177
134
64
194
145
81
196
145
79
190
142
72
189
140
70
171
119
48
185
131
65
201
152
81
223
177
110
227
188
126
186
150
92
161
124
72
149
108
56
142
98
45
138
96
37
142
101
43
150
112
56
157
122
68
158
124
72
147
113
66
118
90
48
91
69
33
90
71
38
106
87
54
122
104
68
130
114
79
139
125
90
145
132
97
147
138
102
152
141
108
157
146
114
162
152
120
167
158
125
172
164
130
172
166
132
173
168
133
175
170
136
176
170
138
177
171
139
177
171
139
175
169
137
173
166
137
165
160
131
149
143
117
127
124
100
120
118
95
123
121
100
125
124
103
128
127
106
131
129
108
133
131
110
135
133
112
135
133
112
137
135
114
138
136
115
139
138
117
141
140
119
142
141
120
143
142
121
143
143
122
142
144
123
143
145
124
145
147
126
146
148
127
147
149
128
148
150
129
149
151
130
151
153
132
153
155
134
154
156
135
155
156
137
156
157
139
157
158
141
158
159
143
159
160
144
158
159
143
160
161
145
161
162
148
162
163
149
162
163
148
162
163
145
165
166
148
165
167
147
166
168
147
167
169
148
167
170
149
169
172
151
170
173
152
172
175
154
173
176
155
174
179
159
177
182
162
181
186
166
184
189
169
185
190
170
125
137
135
122
134
132
123
135
133
126
138
136
125
137
135
124
136
132
125
137
133
123
135
131
121
133
129
123
135
131
129
138
135
130
139
136
129
138
135
127
136
133
127
136
133
131
135
134
131
135
131
134
138
134
147
140
132
168
144
119
202
158
114
238
183
121
240
186
111
240
181
108
233
165
92
219
150
72
211
141
61
214
147
66
221
156
81
213
149
79
202
141
72
201
141
73
210
152
85
217
162
97
234
181
118
250
201
138
239
186
124
231
172
110
222
159
95
221
159
92
216
158
90
215
160
93
220
166
101
225
173
110
225
174
114
225
175
117
223
174
117
223
175
123
227
184
136
229
196
151
230
205
163
235
215
178
242
226
190
237
232
194
231
233
194
224
227
190
221
224
185
207
212
170
195
203
155
186
196
144
174
188
130
177
198
127
190
214
143
201
226
156
222
239
172
200
202
139
218
201
143
246
224
178
250
234
197
253
228
203
246
188
176
250
177
164
250
203
188
247
207
192
248
218
194
241
203
173
226
139
115
209
87
77
191
77
72
173
72
69
167
78
76
149
71
68
138
60
57
133
53
49
137
53
50
139
54
51
140
54
53
140
55
52
135
47
44
133
46
40
138
50
43
137
48
42
149
64
57
158
76
67
159
82
71
149
75
63
161
80
69
132
59
45
130
60
46
140
74
60
175
133
114
226
208
187
244
239
229
254
254
250
255
253
242
249
244
218
238
230
200
225
211
180
219
201
166
217
197
163
204
186
152
213
195
158
184
164
121
191
173
131
194
178
136
195
182
142
197
188
148
206
198
155
213
199
160
196
179
148
228
212
176
179
150
105
146
103
45
145
100
31
151
103
31
151
102
34
154
106
37
150
105
37
144
103
41
149
114
60
204
183
136
205
187
142
175
136
79
185
138
67
184
132
62
191
141
77
181
132
68
181
133
62
170
119
49
197
145
78
213
165
94
221
177
110
217
178
116
189
153
95
170
134
81
159
119
67
146
102
49
138
96
36
139
99
40
144
106
50
151
116
62
154
120
67
137
104
57
110
83
41
88
68
31
92
74
41
107
89
57
120
103
67
129
113
78
135
121
86
139
126
91
145
134
99
148
136
104
153
142
109
157
147
114
162
153
119
170
162
128
172
165
131
174
168
134
175
169
136
176
170
138
177
171
139
177
169
138
174
167
136
172
165
136
171
165
137
166
160
134
144
140
116
120
118
95
117
115
94
120
119
98
123
122
101
127
126
105
130
128
107
133
131
110
134
132
111
136
134
113
136
135
114
136
135
114
138
137
116
140
139
118
141
140
119
140
141
120
140
142
121
141
143
122
143
145
124
144
146
125
145
147
126
147
149
128
148
150
129
149
151
130
151
153
132
153
155
134
154
155
136
155
156
138
156
157
139
157
158
142
158
159
143
158
159
143
160
161
145
161
162
148
162
163
149
162
163
148
162
163
145
165
166
148
165
167
147
166
168
147
167
169
148
167
170
149
169
172
151
170
173
152
172
175
154
173
176
155
174
179
159
177
182
162
181
186
166
184
189
169
185
190
170
121
132
131
125
135
134
130
140
139
128
139
138
127
138
136
127
138
134
127
139
135
124
136
132
122
133
129
125
137
133
128
138
134
129
138
135
130
139
136
131
140
137
131
139
136
130
134
134
127
132
129
123
128
125
135
130
123
168
144
120
208
165
119
241
185
122
245
189
113
236
175
101
224
156
81
217
146
68
217
146
66
210
142
62
218
152
76
202
138
69
197
135
68
203
142
76
216
159
93
226
172
107
246
193
129
247
197
132
234
179
113
220
159
93
217
152
84
215
150
79
215
154
81
216
158
85
223
166
96
224
170
102
227
174
108
228
176
111
228
177
114
229
178
120
227
180
127
231
192
142
237
205
157
235
207
165
239
217
177
227
213
174
224
217
180
221
218
183
219
220
184
207
212
171
191
200
152
179
191
137
180
196
135
175
197
123
160
184
111
201
227
156
187
203
140
186
187
129
216
200
144
243
220
172
253
227
188
253
224
196
246
202
184
250
194
180
252
205
192
249
193
183
242
177
161
236
169
143
222
124
101
206
89
76
194
82
74
175
72
68
168
76
73
154
77
73
157
81
77
146
70
65
131
54
48
135
58
51
146
62
59
143
58
55
147
60
55
147
62
54
151
64
55
164
79
68
181
96
86
159
77
65
157
77
64
161
81
69
166
83
72
159
82
69
155
81
68
159
88
76
186
129
115
187
154
131
230
216
201
251
246
242
248
244
235
251
247
224
246
241
215
231
220
194
226
212
183
221
205
174
212
197
167
223
210
176
195
180
140
201
187
147
202
190
150
202
192
152
200
193
151
205
197
155
208
191
152
188
167
127
205
186
149
210
186
151
169
134
88
144
103
32
157
110
41
159
111
47
167
123
56
167
127
63
167
126
64
171
126
64
164
124
69
189
162
120
224
199
160
183
148
98
170
126
55
181
135
64
181
133
72
174
127
53
180
130
58
201
151
85
219
174
104
223
182
115
199
161
99
171
135
78
165
130
77
156
117
64
142
99
45
135
93
34
135
94
36
137
99
44
145
110
56
149
115
62
135
105
56
102
78
35
81
63
26
91
76
42
107
91
58
117
102
66
126
112
76
135
121
86
139
125
90
142
128
94
144
131
97
149
136
102
153
142
108
159
149
114
166
157
121
169
162
128
170
164
130
173
166
133
175
169
137
176
170
138
175
166
135
173
164
133
171
163
134
169
162
134
169
162
136
152
148
124
124
122
99
113
111
89
116
115
94
120
119
99
125
123
102
128
126
105
130
128
107
133
131
110
134
132
111
134
133
112
134
133
112
137
136
115
138
137
116
139
138
117
139
139
118
139
141
120
140
142
121
141
143
122
142
144
123
143
145
124
145
147
126
146
148
127
146
148
127
148
150
129
150
152
131
152
153
134
154
155
137
154
155
138
155
156
140
156
157
141
157
158
140
158
159
143
160
161
145
161
162
146
162
163
147
163
164
146
164
165
147
165
167
147
166
168
147
167
169
148
167
170
149
168
171
150
170
173
152
172
175
154
173
177
156
174
179
159
178
183
163
181
186
166
184
189
169
186
191
171
130
140
139
132
142
141
133
143
142
134
144
143
133
143
142
130
141
137
130
141
137
130
141
137
129
140
136
130
141
137
132
138
136
131
137
135
130
136
134
129
135
133
128
134
132
124
129
126
120
127
120
119
125
119
131
127
116
169
147
119
213
169
122
247
189
126
246
189
113
234
173
98
232
164
88
220
148
71
212
140
60
213
144
64
210
144
68
194
129
59
205
142
76
212
151
86
214
157
90
227
173
108
240
187
121
235
183
116
224
167
98
218
154
85
214
147
76
211
144
71
211
147
73
214
153
80
225
166
94
224
166
97
225
169
102
228
173
106
230
177
107
232
178
115
231
181
123
233
188
133
234
195
144
237
203
157
232
205
161
234
211
172
238
221
187
228
220
186
218
217
180
206
210
167
189
199
147
179
194
135
180
199
133
158
180
101
153
178
103
164
189
120
164
179
118
182
183
129
224
209
159
242
218
171
254
221
181
252
215
182
252
215
189
250
208
197
246
206
197
243
176
172
225
134
126
215
114
96
211
98
78
203
88
72
193
83
72
178
78
72
174
84
79
159
78
74
160
81
76
153
75
69
156
79
71
162
84
77
163
79
74
154
69
63
174
87
79
192
105
96
180
93
82
172
90
76
176
95
80
174
93
78
168
87
72
171
90
74
173
92
79
176
103
88
182
114
99
184
121
106
184
129
114
210
174
153
220
198
180
228
215
200
206
194
177
245
239
218
248
243
224
243
236
215
251
241
216
227
214
188
226
214
189
231
219
189
206
192
156
209
196
159
213
200
163
208
197
158
203
191
152
200
184
146
200
181
138
188
163
113
173
145
99
219
201
168
195
168
128
162
128
70
153
110
45
167
124
63
163
123
63
178
139
81
178
139
78
183
141
75
184
137
75
183
136
82
174
139
93
218
195
149
180
156
102
176
140
75
172
127
65
172
125
50
184
135
63
213
164
98
221
179
109
211
173
106
199
162
100
171
136
78
154
120
67
148
110
57
140
97
43
134
92
32
132
92
33
136
98
43
145
110
57
149
115
62
130
101
52
95
73
29
75
58
21
88
75
40
104
90
56
117
103
66
123
109
73
131
117
82
136
122
87
139
124
91
141
127
93
143
130
96
147
135
101
153
143
108
159
150
115
164
155
122
166
157
124
168
159
127
170
161
130
173
164
133
174
164
134
171
161
131
167
158
129
164
155
128
163
156
130
153
149
125
126
124
101
112
110
89
112
111
90
115
114
94
121
119
99
126
124
103
128
126
105
130
128
107
131
129
108
131
130
109
133
132
111
135
134
113
135
134
113
136
135
114
137
137
116
137
139
118
138
140
119
139
141
120
140
142
121
141
143
122
142
144
123
144
146
125
145
147
126
146
148
127
147
149
128
149
150
131
151
152
134
152
153
136
153
154
139
155
156
139
156
157
138
157
158
140
158
159
142
159
160
144
160
161
144
161
162
144
162
163
145
163
165
145
165
167
146
166
168
147
166
169
148
167
170
149
169
172
151
171
174
153
173
176
155
175
180
160
178
183
163
181
186
166
184
189
169
186
191
171
147
156
154
146
154
152
137
147
144
134
143
141
135
145
142
135
146
142
135
146
142
134
145
141
131
142
138
127
139
135
127
135
132
125
133
130
123
131
128
123
131
128
122
130
128
121
129
124
121
129
119
121
129
119
144
140
126
174
152
122
216
171
123
241
185
121
242
187
112
235
175
100
224
158
82
218
146
68
222
150
70
210
141
61
202
135
59
202
136
66
206
144
78
213
153
88
222
165
98
225
170
104
230
176
109
230
176
107
224
165
95
222
157
86
215
147
74
213
145
70
213
148
73
213
151
79
218
157
85
218
158
89
221
162
95
225
168
99
228
172
100
230
174
106
232
179
116
232
184
124
230
187
131
233
194
143
224
193
146
223
196
156
214
194
158
212
201
166
202
200
160
198
200
156
189
198
143
182
199
134
160
182
109
153
177
97
155
179
103
152
176
107
157
173
112
190
192
139
215
200
153
243
215
169
255
220
177
250
208
170
251
201
173
249
209
198
255
231
220
245
198
191
235
141
138
227
112
103
214
93
77
204
88
73
198
90
78
184
87
77
176
86
79
164
79
74
161
77
72
164
78
73
168
80
76
164
76
72
167
82
74
168
83
74
177
90
80
179
93
81
183
99
85
181
102
86
175
99
82
184
109
92
180
106
88
179
107
88
181
111
94
182
119
100
181
127
107
179
131
110
199
158
137
206
173
152
204
179
157
203
183
158
220
203
176
223
210
188
236
229
211
215
208
189
245
235
212
221
209
183
220
209
187
234
223
196
213
198
165
211
197
163
211
197
161
205
189
151
191
173
137
198
175
135
181
160
110
176
149
95
179
146
96
165
143
100
216
202
164
177
146
103
146
107
57
139
100
40
140
101
42
161
121
61
171
131
69
178
140
77
183
142
79
177
128
64
169
119
48
164
129
65
212
195
149
194
174
130
172
129
65
177
131
55
193
146
73
215
169
101
218
178
107
188
152
87
170
133
73
164
129
72
151
116
63
145
107
53
139
99
43
132
90
29
131
90
31
133
95
39
140
105
51
143
110
58
121
94
47
86
66
24
66
52
15
79
66
33
96
83
49
110
98
61
121
108
72
130
117
81
133
119
84
136
121
87
138
124
89
138
125
90
141
128
93
149
137
102
154
144
108
158
148
115
160
150
118
161
152
120
164
154
123
168
158
127
171
160
129
165
154
124
154
144
116
145
135
109
152
145
121
144
140
117
108
107
84
95
93
72
99
98
77
108
107
87
117
115
95
122
120
100
124
123
102
127
125
104
128
126
105
129
128
107
130
130
108
132
132
111
133
133
112
134
134
113
134
135
113
135
136
115
136
138
117
137
139
117
138
140
118
139
141
120
141
142
121
142
143
122
144
145
124
145
147
126
145
147
126
146
147
128
148
149
131
151
152
134
152
153
136
153
155
137
154
157
136
156
157
139
156
157
139
156
158
141
158
159
142
159
160
143
160
161
143
161
163
143
162
165
144
164
166
145
165
168
147
166
169
148
167
171
150
170
173
152
172
175
154
175
179
159
178
183
163
181
186
166
184
189
169
187
191
171
156
159
152
156
159
152
153
157
150
148
153
146
146
153
145
145
152
146
140
148
143
131
141
136
125
137
132
119
131
126
120
132
127
119
131
126
120
132
128
123
134
132
123
134
132
120
131
128
120
131
122
126
133
123
153
147
134
173
146
121
213
168
120
236
192
127
248
205
140
243
194
119
234
172
98
231
159
80
219
145
62
209
139
55
201
134
55
206
141
69
214
154
86
233
175
109
229
170
103
222
164
96
233
173
105
233
173
104
223
161
91
213
150
78
212
147
73
212
145
70
209
143
66
210
145
70
209
145
69
213
149
73
215
150
74
222
159
86
224
165
94
228
172
99
234
180
109
236
185
119
233
184
122
231
190
132
227
194
142
216
189
141
224
204
161
215
203
165
203
199
161
204
202
160
196
203
150
171
193
124
152
183
102
148
178
97
159
182
107
157
178
107
158
175
109
177
182
122
205
189
136
235
211
159
251
216
168
252
205
160
250
196
154
242
192
160
243
208
185
251
208
197
232
155
152
224
120
117
205
87
78
196
77
68
193
84
75
182
84
75
181
85
77
175
81
73
171
81
72
171
80
72
167
74
67
169
80
72
174
90
76
169
82
68
177
89
75
183
104
86
177
109
88
173
109
91
177
114
96
177
115
97
175
116
96
179
120
99
179
126
103
174
125
102
173
130
105
191
155
128
202
170
142
186
161
131
210
189
158
197
177
147
226
211
181
201
188
157
229
217
189
207
194
172
228
218
189
201
186
146
213
200
171
220
212
187
209
190
158
219
206
171
207
188
149
195
171
128
187
161
117
198
174
122
185
158
107
176
145
97
177
145
92
162
132
76
174
154
114
195
173
145
178
141
103
134
95
41
137
94
31
147
107
44
171
129
65
176
132
69
185
140
78
170
124
61
168
120
52
174
129
60
173
136
83
213
191
146
198
175
120
183
141
70
202
159
88
209
169
96
213
174
104
184
147
87
163
128
75
157
121
67
150
113
57
145
106
49
134
94
35
132
89
26
128
88
30
127
90
34
129
97
42
126
96
48
98
76
37
62
47
14
48
37
9
57
46
21
82
70
43
101
89
55
114
102
67
121
110
74
125
114
77
127
117
79
131
121
87
131
121
87
137
127
93
144
134
100
149
139
105
150
140
108
151
140
108
152
140
109
158
146
114
164
151
119
165
153
121
160
149
120
131
121
94
110
101
77
131
124
104
121
118
98
74
74
54
51
51
33
55
54
38
67
64
51
79
78
61
88
88
68
97
98
78
106
108
88
115
118
97
123
125
104
126
128
106
129
131
109
132
134
112
133
136
114
133
134
112
134
135
112
133
134
111
136
137
112
137
138
112
138
139
115
140
140
119
141
141
120
142
143
121
143
144
122
143
145
124
143
146
126
145
148
128
147
150
130
149
152
132
150
153
134
150
153
134
152
155
136
154
157
138
156
159
140
157
160
141
159
162
145
159
162
144
159
162
143
160
163
144
162
166
145
163
168
146
164
169
147
166
171
149
168
173
151
170
175
153
175
178
158
178
181
161
181
184
164
185
188
168
189
192
172
159
159
154
159
159
154
159
160
155
158
160
155
157
159
154
156
159
152
152
155
148
142
147
139
135
141
133
131
138
130
127
136
130
126
134
129
123
132
128
119
127
124
117
125
123
115
123
124
117
125
120
118
126
118
128
126
114
158
138
113
197
163
114
241
208
144
253
218
154
242
194
121
242
177
107
231
159
82
218
145
62
205
135
51
198
130
51
208
142
70
228
166
97
225
166
99
224
165
97
226
167
99
232
173
105
222
163
94
212
150
79
206
143
70
200
135
60
200
133
56
199
132
55
202
134
58
205
137
61
208
140
65
217
149
73
223
157
83
222
161
89
221
163
89
224
168
95
223
170
102
226
175
113
228
186
131
219
185
136
209
181
134
202
180
139
193
181
145
196
195
156
204
207
162
188
201
142
164
189
116
144
176
94
155
182
106
155
177
103
152
172
100
154
172
102
173
179
116
200
183
129
226
201
149
247
211
161
254
206
159
250
195
149
239
181
137
233
178
141
229
178
151
234
171
154
219
134
127
204
100
89
187
69
62
190
78
71
180
84
74
182
88
78
178
85
76
174
85
74
173
84
73
170
81
68
169
83
69
164
87
75
171
88
79
180
102
90
182
119
100
161
106
85
167
111
93
167
111
93
171
117
97
176
125
103
177
128
105
175
131
104
177
137
108
190
156
126
192
163
131
187
162
128
200
177
144
200
180
148
212
193
161
205
189
157
208
195
162
216
203
174
209
195
171
210
198
168
194
178
136
206
193
162
217
208
180
193
171
136
217
202
164
200
179
136
191
164
118
190
162
115
192
168
118
210
186
139
178
145
94
171
137
79
166
135
76
150
122
72
203
180
146
166
135
96
178
137
87
138
95
36
144
96
35
168
121
60
167
122
60
175
131
68
172
129
65
167
127
60
176
137
72
181
135
76
166
128
74
216
197
145
203
171
113
203
165
99
207
168
95
197
159
91
174
138
83
168
136
83
155
121
68
140
104
50
134
97
41
129
91
33
129
89
28
127
88
33
128
93
40
130
98
46
111
82
37
74
56
26
54
40
16
47
39
19
45
39
21
58
52
33
82
73
42
93
83
51
104
95
60
109
99
65
114
104
69
119
110
77
124
115
83
129
120
87
132
123
90
134
125
93
135
127
95
138
129
97
141
130
100
146
134
104
154
141
112
159
148
118
154
144
115
116
106
80
90
81
58
112
103
82
110
103
82
95
89
69
89
85
66
85
82
65
76
75
59
69
70
51
61
62
42
55
57
37
58
61
40
65
68
48
77
80
59
86
88
68
101
103
82
110
112
91
120
122
101
126
128
106
131
133
111
134
136
114
133
135
111
135
137
114
137
139
116
136
138
117
138
139
118
139
141
120
140
142
121
140
143
122
140
143
124
143
146
127
144
147
128
147
150
131
148
151
132
148
151
132
150
153
135
152
155
137
153
156
138
155
158
140
157
160
143
157
160
143
158
161
142
160
163
144
162
166
145
163
168
146
164
169
147
166
171
149
168
173
151
170
175
153
175
178
159
178
181
162
182
185
166
186
189
170
190
193
174
149
149
145
156
157
152
158
159
154
157
159
154
156
159
154
157
158
152
156
157
150
156
158
149
154
156
146
153
155
145
149
154
147
148
153
148
145
150
145
135
140
136
126
132
129
124
127
128
124
128
124
122
130
122
127
127
116
158
141
115
210
175
126
248
213
147
251
214
149
248
200
127
238
174
103
221
150
73
211
140
58
202
132
50
206
139
59
221
154
80
218
155
86
229
169
101
228
168
101
235
176
109
228
171
104
224
165
96
212
150
77
202
140
64
196
132
54
201
135
56
202
133
55
208
137
61
210
139
63
213
142
66
217
146
70
219
150
75
219
153
80
217
155
79
214
155
80
221
163
94
226
173
110
227
182
130
216
181
133
208
178
132
193
171
128
190
178
139
194
196
153
197
206
153
189
206
141
153
179
103
135
164
84
162
185
113
158
177
103
153
173
97
152
171
97
161
168
102
190
174
117
215
191
136
244
209
157
252
206
156
251
199
151
242
185
135
236
178
130
223
166
126
221
162
138
218
151
140
199
120
104
180
79
69
178
70
63
175
75
67
183
86
77
181
88
76
175
91
77
178
111
94
188
141
121
218
185
164
231
202
183
176
122
108
182
121
107
172
117
98
161
104
85
171
115
96
177
124
103
180
131
108
180
135
110
182
140
113
182
147
116
189
158
125
190
164
129
186
163
127
192
173
136
208
187
152
192
172
138
219
200
166
189
174
140
215
202
168
209
195
163
217
202
176
200
187
154
193
175
131
202
187
152
218
207
176
184
160
119
218
201
157
183
159
112
183
153
102
180
149
98
177
151
102
223
201
157
174
143
92
164
127
67
171
137
74
160
124
68
154
121
73
206
177
132
161
121
73
168
128
76
143
94
35
156
109
50
172
127
67
170
129
67
177
137
75
180
141
75
178
139
73
166
125
66
166
124
67
181
143
86
230
205
151
209
178
116
191
157
87
170
136
73
163
130
78
163
130
80
164
130
79
155
119
67
137
100
46
125
87
31
122
85
29
123
88
36
125
92
43
113
83
36
91
62
23
72
50
24
71
52
29
77
64
43
77
69
50
70
65
47
73
65
38
76
66
37
79
70
40
81
72
41
90
81
49
101
93
64
110
103
73
109
102
72
97
89
60
90
82
53
101
95
65
114
106
76
124
116
86
131
122
92
141
131
102
146
137
108
138
129
101
93
84
58
72
62
38
88
77
55
102
90
69
109
98
76
112
104
84
112
107
87
113
110
91
112
110
90
110
108
88
101
100
80
96
96
75
87
88
67
81
82
63
70
72
54
63
65
46
63
65
46
70
72
53
76
78
59
86
88
69
104
106
87
115
118
97
123
125
104
128
131
110
132
135
115
136
139
119
137
140
120
140
143
123
139
142
123
140
143
124
141
144
125
143
146
127
144
147
128
145
148
129
145
148
131
149
152
135
150
153
136
151
154
137
153
156
139
156
159
142
156
159
142
158
161
142
160
163
144
162
166
145
163
168
148
164
169
149
166
171
150
168
173
153
171
175
155
175
178
159
178
181
162
182
185
166
187
190
171
191
194
175
147
151
148
150
155
151
147
153
149
140
148
143
139
146
141
141
144
140
151
154
148
155
156
150
155
156
147
156
156
146
154
156
148
153
156
149
154
155
150
151
153
148
144
145
142
139
139
138
135
136
130
130
133
125
144
139
126
174
151
124
220
181
132
251
213
148
250
212
147
247
201
127
240
182
109
234
166
90
223
152
71
216
148
65
214
146
66
225
156
81
230
166
95
225
163
94
226
167
98
236
178
112
232
177
112
232
175
105
219
157
83
211
148
71
208
145
65
207
140
59
205
137
57
211
143
66
214
145
68
217
149
71
221
153
75
230
162
85
231
163
87
228
162
84
226
162
86
224
163
92
225
168
105
216
172
116
210
174
123
197
167
116
185
163
114
176
164
119
183
184
133
180
190
130
159
177
108
142
164
91
145
166
96
167
188
121
159
177
103
155
176
95
151
170
93
157
166
97
175
165
104
205
187
128
240
211
155
249
209
156
249
201
150
239
189
139
230
181
129
221
167
121
216
158
125
209
154
130
207
149
127
183
107
91
170
75
65
170
70
62
169
72
62
176
82
68
176
94
79
200
143
123
218
186
163
237
219
194
221
199
178
170
127
110
180
124
108
167
110
91
169
111
90
173
121
96
176
129
100
180
137
107
187
150
116
191
157
122
197
167
131
190
163
126
187
163
125
192
171
132
205
187
147
193
172
134
204
184
148
203
185
149
193
178
142
225
212
176
194
180
146
224
207
178
192
177
141
190
170
123
197
180
143
214
200
166
182
155
110
208
188
140
178
150
99
177
144
88
166
131
76
162
130
78
194
168
125
192
169
123
153
121
62
172
134
71
164
124
61
149
112
51
181
150
104
170
138
96
175
136
85
163
123
66
149
108
47
178
137
76
180
140
79
186
148
84
184
147
81
169
128
67
163
117
58
173
129
65
185
147
83
198
171
113
222
199
136
175
153
84
150
124
61
153
123
73
152
124
74
148
119
68
136
105
53
133
101
47
124
91
36
119
86
33
114
83
35
107
77
31
94
64
22
82
53
16
69
43
13
73
48
19
88
69
40
106
93
67
105
98
75
105
98
74
105
99
73
104
98
71
98
92
65
95
89
60
96
90
63
94
89
61
87
81
54
77
71
44
72
66
39
78
73
45
86
81
52
96
89
61
106
99
71
113
105
77
116
109
81
106
99
71
85
75
50
82
71
47
86
74
50
90
77
53
94
82
58
97
85
63
100
90
69
108
99
80
115
106
87
119
111
92
121
114
95
125
119
99
123
118
98
120
117
99
114
115
99
109
110
94
100
101
85
93
94
78
86
87
72
79
81
66
74
76
60
70
72
54
74
77
58
80
83
65
91
94
77
102
105
89
112
115
98
121
124
107
128
131
115
134
137
120
140
143
126
142
145
128
143
146
129
144
147
131
145
148
132
146
149
133
149
151
135
150
153
137
151
154
138
153
156
139
154
157
140
156
159
140
159
162
143
161
164
144
162
167
147
163
168
148
165
170
150
167
172
152
169
174
154
174
177
160
177
180
163
181
184
167
186
189
172
190
193
176
133
142
137
130
141
136
125
136
131
125
138
132
125
137
131
130
138
136
137
143
140
148
151
147
154
156
150
155
156
148
154
155
147
154
154
149
153
153
148
151
151
146
151
150
146
151
150
146
150
150
141
151
149
139
158
148
133
194
165
135
240
203
154
251
216
154
252
217
154
252
210
139
250
195
124
235
168
93
229
160
81
221
153
71
217
148
67
219
150
73
220
154
81
231
168
97
225
166
97
231
173
108
238
184
119
237
181
112
228
166
91
225
162
84
213
149
69
211
144
62
213
147
64
211
145
65
213
147
67
214
148
69
222
156
76
230
163
85
231
160
84
226
158
80
222
157
80
220
157
85
214
157
90
202
157
97
191
154
98
184
154
99
174
151
98
175
162
112
186
184
128
164
171
108
145
160
92
131
147
81
177
193
132
165
183
118
161
177
102
157
176
94
152
173
93
157
168
97
172
169
105
194
182
120
237
212
155
254
220
166
246
203
151
241
196
146
233
186
135
220
172
122
213
164
119
203
155
117
202
151
124
197
136
114
181
103
87
169
78
67
161
73
60
161
75
58
166
86
68
183
121
101
198
154
131
188
150
127
168
120
104
167
113
98
169
111
93
173
119
96
172
125
96
178
136
101
182
144
107
186
153
114
192
163
121
190
166
122
193
167
127
195
170
130
198
175
135
202
181
140
187
168
126
190
170
130
212
193
154
188
169
130
202
187
152
218
205
168
180
165
129
226
208
177
189
172
132
185
164
115
191
173
134
207
192
156
174
145
97
199
177
127
179
149
96
186
151
91
178
142
85
171
134
77
157
123
74
214
194
150
142
113
57
158
116
53
162
120
53
147
109
40
134
99
46
206
176
132
132
97
45
205
174
115
158
126
66
175
139
77
183
143
82
185
147
86
176
138
77
159
115
51
162
118
54
179
137
71
198
159
92
197
167
103
175
155
90
184
172
104
149
132
69
145
123
68
141
124
70
136
118
64
124
105
50
117
97
40
116
93
37
111
83
31
101
72
27
85
56
15
76
47
9
73
44
11
71
43
12
72
46
12
87
66
33
113
100
70
116
110
84
119
114
90
120
114
90
122
115
90
121
115
88
122
117
89
121
114
88
119
113
87
118
112
86
115
109
83
113
107
82
113
108
80
113
108
80
114
108
80
115
109
81
118
111
83
117
111
85
121
113
89
120
110
86
120
109
86
127
115
92
122
111
86
117
106
82
113
101
77
105
93
71
103
90
69
104
90
71
100
87
68
103
90
72
112
100
82
117
107
88
120
114
96
121
120
104
126
125
109
127
127
110
125
126
109
120
122
106
118
121
106
116
118
103
111
114
97
103
106
89
96
99
82
87
89
73
81
83
67
74
77
61
73
75
60
79
82
66
87
90
74
97
100
84
109
112
95
120
123
106
130
133
117
137
139
125
144
146
132
147
149
135
148
150
136
150
152
138
151
155
137
152
155
138
154
157
138
156
159
140
159
162
142
159
164
146
161
165
147
162
167
149
165
169
151
167
171
154
173
176
159
176
179
162
180
183
166
185
188
171
189
192
175
124
137
135
124
139
136
124
139
136
124
140
137
126
142
138
131
142
139
134
143
140
140
146
142
147
151
147
152
153
149
152
153
148
152
153
148
152
151
146
151
150
145
151
149
143
152
149
143
153
148
142
153
148
139
161
149
129
195
169
130
241
202
147
253
214
154
253
216
155
249
205
140
243
188
119
241
173
101
232
161
83
227
156
75
223
153
69
230
159
79
225
156
76
227
161
83
225
164
91
233
178
111
240
190
125
237
184
118
233
174
104
226
165
91
215
151
72
209
143
62
207
140
56
206
138
54
212
144
62
220
152
71
226
157
78
226
157
78
224
157
78
224
157
80
217
153
78
213
152
79
205
149
77
197
148
81
189
146
84
176
141
87
152
124
76
163
145
99
170
164
113
154
153
100
135
140
89
166
177
127
192
206
151
161
175
108
160
174
97
156
174
90
154
173
93
156
168
97
171
171
108
194
184
124
231
207
152
252
215
165
248
203
154
244
200
147
229
184
132
220
175
125
215
169
123
210
164
119
199
154
114
187
138
102
179
122
94
178
113
92
169
100
83
173
104
84
172
107
87
178
114
96
181
119
103
171
114
99
156
98
84
164
111
93
175
129
105
177
135
105
184
143
110
188
152
112
191
158
117
193
163
120
191
165
121
192
170
124
192
169
125
198
175
132
201
179
135
193
172
129
188
170
125
195
180
139
188
171
124
186
163
118
218
201
169
197
177
142
180
160
120
219
203
167
186
161
112
181
160
107
184
165
125
203
188
145
170
139
86
202
181
136
172
144
96
176
141
79
179
144
85
183
143
79
167
129
70
210
184
149
167
134
88
150
112
42
155
114
44
143
104
29
129
87
21
185
150
103
171
141
93
162
134
81
205
181
125
172
141
81
182
143
82
173
134
72
155
116
53
154
115
50
153
117
50
191
156
88
193
159
91
168
136
73
152
131
69
146
137
77
156
152
91
115
112
48
124
123
57
127
124
61
115
112
46
95
89
28
91
81
26
97
76
27
89
64
24
77
48
16
75
42
14
78
44
16
82
49
16
85
59
22
106
86
48
125
111
78
127
118
90
124
119
95
127
120
96
131
121
96
131
122
95
132
124
95
133
126
98
132
125
98
131
124
98
130
123
98
131
123
99
132
122
98
133
122
98
133
123
100
134
124
102
133
125
103
131
122
101
131
122
101
132
122
101
133
124
102
139
129
108
139
129
109
137
128
108
136
128
106
135
128
104
130
124
99
128
120
95
123
115
91
119
110
86
116
106
82
110
99
75
108
95
71
110
95
72
109
97
74
114
106
84
117
111
90
119
117
96
121
122
101
126
126
106
129
129
110
128
128
109
131
131
113
128
126
111
121
121
107
115
117
104
106
108
96
96
100
88
89
95
80
82
86
72
79
82
68
79
80
67
81
83
70
89
91
78
98
100
87
110
112
99
121
123
110
132
134
120
138
143
124
146
150
131
152
156
138
155
159
141
158
162
144
159
162
145
161
164
147
163
166
149
164
167
150
166
169
152
170
174
159
173
177
162
177
181
165
182
186
169
187
191
174
126
138
136
127
139
137
127
140
137
125
140
137
124
139
136
127
138
135
127
137
134
127
135
131
130
136
132
136
140
136
136
140
136
137
139
135
138
140
135
142
143
138
146
147
141
150
148
139
152
147
137
154
147
134
170
154
129
204
174
130
243
205
146
253
215
153
253
215
151
251
206
138
240
185
113
233
166
92
228
157
79
231
160
77
227
156
73
231
160
80
228
159
81
222
156
79
224
163
90
238
182
113
247
196
130
247
195
129
241
182
112
228
167
93
216
153
74
213
146
65
212
144
61
215
147
63
220
152
69
220
152
71
223
155
74
224
156
76
225
157
77
223
157
78
219
156
79
211
151
76
200
143
70
194
144
77
179
135
73
160
124
70
146
117
69
141
120
76
154
146
95
143
139
87
151
152
103
189
196
148
174
186
132
156
169
103
158
169
97
155
167
90
148
160
87
160
164
100
170
167
111
182
171
117
217
196
144
247
215
164
245
208
156
241
202
149
230
190
137
221
179
129
220
178
128
213
169
121
203
155
113
195
148
107
187
138
102
173
123
92
173
121
93
178
123
97
174
120
96
175
117
97
174
113
97
172
111
98
169
117
98
179
134
109
181
144
113
186
152
115
193
159
121
193
161
120
195
165
124
198
171
128
197
174
130
195
173
128
196
173
127
195
170
124
190
166
120
191
168
121
189
167
120
205
186
142
175
153
105
182
159
113
220
201
163
183
159
121
183
163
123
204
187
149
178
151
101
173
150
96
177
157
115
193
176
133
170
137
84
195
172
128
169
139
92
162
125
63
167
132
72
178
142
78
172
138
77
185
157
115
202
179
137
153
117
52
148
108
39
136
95
21
134
91
24
147
109
55
207
175
122
143
110
55
193
164
110
184
157
99
164
129
68
168
123
64
150
104
43
163
121
59
167
127
66
181
144
82
180
144
84
156
124
70
140
118
67
116
105
55
138
136
85
130
132
78
90
97
29
93
99
27
114
119
40
105
108
30
90
87
19
82
58
9
80
53
12
81
54
20
88
60
32
98
70
42
109
82
53
124
100
72
132
113
84
134
120
91
133
123
93
134
123
98
136
125
99
139
128
99
142
129
99
141
127
97
141
125
98
139
123
94
138
120
92
136
119
91
133
115
86
132
112
85
132
112
86
133
114
88
134
116
91
133
116
91
132
117
91
133
119
93
136
122
95
138
123
96
138
124
98
137
128
104
138
131
108
139
132
111
139
133
112
139
133
113
138
133
112
136
131
110
136
130
110
137
131
111
136
130
110
135
127
104
132
121
96
128
116
92
122
109
83
119
104
78
114
101
74
110
102
75
112
104
78
117
109
84
118
109
86
123
117
96
126
124
105
130
129
110
132
132
114
132
132
116
132
133
117
131
132
118
127
128
115
121
124
110
114
118
103
108
111
97
99
101
88
89
91
79
83
85
72
81
83
70
82
84
71
90
92
78
101
103
89
111
112
98
124
126
111
135
136
122
144
147
130
153
156
139
158
161
144
162
165
148
166
169
152
166
170
155
172
176
161
177
181
165
182
186
169
187
191
174
128
138
137
128
138
137
128
139
137
127
139
137
125
138
136
132
142
141
131
142
140
128
138
135
127
135
132
127
135
131
127
135
132
126
134
130
126
132
127
126
130
126
133
137
131
146
146
135
154
149
136
158
150
134
182
162
133
223
189
141
247
207
148
252
210
148
250
206
138
244
192
119
227
168
93
226
158
81
226
155
75
223
153
69
220
150
66
235
164
84
233
165
87
225
160
84
233
171
98
242
184
115
243
190
124
245
190
123
240
181
111
232
171
97
224
160
82
218
151
71
218
150
68
219
151
69
224
156
75
226
158
76
221
153
71
220
152
69
217
150
68
214
148
67
211
148
70
209
148
71
202
144
70
198
145
79
178
132
71
156
118
64
155
124
76
156
131
88
154
141
92
145
137
87
156
155
107
198
201
154
164
172
120
149
158
96
147
151
88
151
155
90
165
167
105
170
166
110
170
162
112
184
172
123
195
177
127
211
188
138
232
205
154
242
209
158
233
199
147
226
190
138
224
186
133
215
175
121
206
161
112
201
155
108
185
138
94
172
125
85
169
123
84
183
135
103
178
133
103
173
126
99
178
125
103
177
127
106
183
137
111
188
148
117
189
156
118
190
158
117
198
165
121
202
173
128
203
176
131
202
177
131
205
182
135
201
179
132
200
174
126
195
168
119
187
160
111
180
153
104
195
168
119
178
154
103
178
151
102
208
186
138
191
166
120
175
149
104
194
174
134
187
168
125
169
141
89
170
146
89
174
152
108
189
170
127
163
127
76
190
164
121
163
130
84
160
120
59
159
122
61
169
133
70
167
135
74
166
136
83
219
199
157
154
121
66
150
111
46
140
98
26
137
94
27
140
99
40
179
143
90
153
117
64
146
107
51
205
177
120
155
124
68
165
121
65
169
123
61
171
128
68
162
124
67
150
118
63
167
138
86
145
123
76
135
116
75
130
117
78
113
108
67
142
142
96
111
112
60
94
97
39
79
86
17
88
98
19
106
114
31
117
111
43
112
103
44
113
100
55
128
109
76
135
113
90
136
117
94
138
120
97
136
121
97
137
122
99
140
126
103
145
126
103
143
123
95
140
117
83
134
107
72
130
99
65
129
93
57
123
88
51
120
88
52
118
88
53
113
86
52
112
88
49
115
92
52
117
96
57
118
97
59
116
96
59
115
95
64
116
96
67
119
99
70
123
103
74
118
98
69
118
101
71
121
105
77
122
108
81
126
112
88
130
117
94
134
119
98
139
123
105
145
131
111
145
135
114
145
136
114
144
137
117
146
140
121
146
139
119
144
137
115
143
135
111
139
130
105
137
127
101
132
122
97
124
114
90
119
109
86
116
108
84
114
108
84
112
105
81
113
106
82
119
113
88
127
119
97
133
124
107
138
131
113
140
136
117
140
138
118
141
140
122
136
138
123
133
135
120
129
131
115
122
124
109
115
117
102
106
109
95
100
103
89
92
95
81
87
90
76
86
89
75
90
92
77
101
103
88
113
116
101
126
128
113
137
140
125
150
154
140
161
165
150
169
173
157
176
180
163
184
188
171
132
140
140
132
141
140
132
142
141
132
142
141
130
141
139
132
142
142
131
141
140
130
141
139
130
141
138
130
141
137
128
139
137
125
136
133
124
135
131
124
133
129
124
133
128
132
137
127
142
143
130
160
154
137
187
169
140
227
192
143
247
202
145
250
203
140
248
195
124
237
176
100
226
157
80
222
151
71
221
150
67
219
149
63
222
151
68
229
158
79
232
163
87
227
162
88
224
161
89
235
176
107
236
180
113
237
181
113
237
178
108
227
166
92
222
158
80
218
151
70
223
155
73
224
155
75
214
146
65
214
146
63
215
147
64
221
153
69
218
152
66
213
147
64
209
146
65
205
146
66
206
148
74
202
148
81
183
134
74
170
130
77
147
114
67
142
114
72
138
121
73
136
123
74
166
159
113
184
183
138
151
154
104
145
144
88
161
157
102
166
162
108
170
166
114
169
160
111
171
160
111
167
155
107
171
158
110
194
179
133
206
189
142
236
211
161
235
207
155
231
201
146
226
192
136
217
181
123
205
167
110
198
157
103
191
149
97
185
139
91
185
138
91
185
141
101
182
143
104
182
143
106
185
145
111
186
149
116
192
154
120
195
161
123
198
168
125
202
173
125
206
176
126
208
178
127
208
180
129
204
177
126
204
178
126
200
173
121
196
167
114
195
165
111
186
155
102
185
154
101
182
151
99
173
141
84
171
144
92
216
191
141
173
142
87
174
146
96
203
182
140
171
149
102
172
142
89
170
144
86
181
159
111
199
177
135
157
117
67
189
160
120
152
116
73
156
113
53
155
115
55
161
123
61
164
127
65
167
135
77
205
185
145
168
141
103
153
115
54
147
104
36
140
96
29
139
96
30
145
104
45
182
146
89
139
93
38
161
124
70
203
173
121
161
125
68
172
133
69
165
132
71
146
120
65
119
99
48
132
116
69
145
131
88
126
112
76
130
116
83
126
118
84
118
115
77
142
139
100
113
114
71
107
114
64
83
96
37
67
85
8
85
96
18
108
115
43
130
132
71
139
136
88
140
133
95
140
132
101
140
131
102
142
131
105
146
131
109
143
128
107
140
115
87
128
96
61
120
81
39
117
77
31
117
79
35
121
81
41
129
93
55
135
105
69
135
112
79
140
122
90
148
131
105
148
132
106
147
131
106
147
132
108
148
134
110
148
136
110
147
137
110
148
137
110
147
136
109
143
132
105
144
128
101
140
122
95
133
116
89
130
114
87
125
110
83
121
103
78
122
102
79
124
106
82
127
111
87
133
119
94
137
126
104
142
134
114
146
140
118
147
142
120
151
148
125
150
147
124
152
147
127
149
144
125
149
143
126
146
140
124
144
137
120
141
133
113
135
126
105
128
119
97
123
112
89
118
106
83
121
108
85
123
111
88
123
112
88
127
117
93
131
122
100
137
131
113
146
140
122
152
146
127
154
148
129
155
151
132
151
151
133
146
145
128
139
138
121
132
131
114
125
125
108
117
119
105
110
112
98
105
107
93
101
103
89
97
99
85
104
108
93
111
115
100
118
122
106
132
136
120
149
153
136
153
159
158
152
159
158
149
158
156
144
154
153
139
150
149
139
149
150
137
149
147
136
148
146
134
147
143
134
148
144
135
150
147
133
147
145
130
143
140
129
141
137
130
141
136
132
143
134
139
145
133
145
143
128
172
154
125
222
186
138
248
200
143
246
193
130
244
183
111
235
166
89
226
151
73
221
148
67
219
148
63
217
147
61
223
152
69
226
155
78
233
165
90
224
159
87
232
170
99
233
174
106
230
174
107
234
177
110
220
160
90
215
153
80
217
153
75
221
155
74
215
147
65
215
146
67
216
147
66
220
151
68
218
150
66
217
149
63
216
150
64
215
150
65
211
149
67
216
156
76
219
160
85
200
146
79
175
125
65
151
109
56
139
105
59
139
110
67
134
114
68
128
114
67
167
158
112
172
169
124
151
149
101
160
152
100
169
159
110
172
164
117
167
160
113
168
157
111
159
146
97
156
144
96
163
152
107
178
167
125
186
174
133
208
187
138
230
207
155
230
203
149
228
197
140
224
192
132
213
179
119
201
167
108
198
163
105
196
160
103
190
152
96
191
155
106
190
157
109
193
161
115
195
162
119
197
166
124
200
170
130
201
175
131
201
179
130
204
182
129
204
180
125
205
176
119
207
176
120
199
169
112
190
159
102
193
162
105
184
154
96
179
148
91
176
143
86
189
154
99
157
120
64
159
122
61
188
162
109
164
136
86
163
130
69
167
142
87
210
189
145
165
143
92
173
143
89
174
147
88
188
166
117
206
183
141
164
123
74
192
160
120
153
115
71
147
103
44
144
103
44
147
105
46
148
106
44
153
118
59
163
130
90
201
176
146
145
108
48
150
105
38
150
105
37
139
95
26
151
108
45
183
145
87
149
101
47
157
111
58
194
164
114
182
158
105
162
134
68
153
130
69
134
119
65
123
116
68
105
100
54
140
129
88
131
117
82
124
112
81
113
108
75
93
95
58
109
114
78
133
141
101
104
116
74
87
101
58
80
96
44
82
93
30
73
84
16
78
89
19
104
113
48
127
135
72
137
139
85
141
138
96
145
137
105
147
136
107
137
122
91
116
87
45
115
75
25
119
73
21
120
80
32
131
103
59
145
123
92
155
136
108
157
143
115
155
146
118
151
147
119
153
148
122
152
147
120
152
147
122
153
149
124
152
148
124
154
148
126
154
147
127
155
148
127
157
150
129
157
150
130
159
149
130
159
149
131
158
149
130
158
150
128
155
148
124
152
147
119
149
142
114
145
137
109
140
127
101
133
118
92
128
112
84
126
110
80
128
113
83
135
120
92
147
134
106
150
141
119
152
148
132
154
151
135
151
149
134
152
149
136
154
151
138
154
150
137
153
148
134
152
146
130
151
144
128
150
142
123
149
140
118
144
134
113
139
127
106
137
123
103
133
118
98
135
116
96
134
115
95
145
126
106
157
137
117
167
149
129
171
161
141
178
167
148
186
175
155
183
173
153
177
168
149
165
165
149
158
158
142
150
152
137
145
147
133
141
143
129
134
138
123
126
130
115
118
122
106
112
116
99
109
112
95
170
176
166
163
172
163
159
170
163
156
170
167
151
167
165
153
167
165
153
166
164
152
165
163
151
164
161
154
168
165
152
168
168
151
167
167
152
167
166
153
167
164
152
165
160
153
164
156
156
164
156
167
162
148
195
170
138
232
186
135
241
192
128
245
191
121
244
181
104
233
163
83
223
151
69
222
148
67
221
149
66
219
149
64
218
150
69
232
165
90
241
179
108
235
178
109
236
180
113
238
185
119
237
185
119
232
177
109
230
170
101
225
162
93
221
155
80
214
147
63
212
142
56
209
137
54
206
135
51
212
141
56
217
147
60
218
151
64
218
154
67
215
152
68
216
155
74
212
152
74
209
152
76
192
139
68
176
126
65
155
111
60
140
101
54
129
94
49
124
98
55
151
135
92
155
149
103
149
146
97
148
144
93
172
162
113
184
171
124
168
153
109
152
134
91
155
135
93
140
122
78
128
112
68
179
166
124
182
171
129
183
174
132
186
173
124
206
190
140
227
207
159
223
198
151
218
192
145
208
181
128
201
175
120
199
172
116
199
171
115
197
168
112
196
167
115
199
170
119
205
175
125
206
177
126
204
176
125
205
182
136
208
187
140
213
191
142
207
187
132
201
181
123
203
176
115
204
173
111
198
165
103
190
155
93
180
144
81
184
148
81
171
132
67
188
146
85
167
120
60
165
116
52
162
126
65
175
144
83
152
112
48
160
121
61
159
133
79
205
188
136
164
140
86
169
138
83
173
145
91
193
178
132
203
183
142
173
138
91
203
168
127
157
120
74
149
112
56
145
103
48
141
96
39
137
93
32
142
100
36
142
107
49
211
184
136
136
100
44
138
91
29
144
96
27
141
97
26
148
104
39
177
137
82
174
141
87
165
131
71
163
134
79
207
187
142
132
112
65
113
99
50
94
90
41
93
99
50
97
105
56
107
111
70
150
151
112
174
173
138
189
190
155
142
147
112
114
120
87
141
146
113
120
125
91
119
124
88
104
107
69
108
112
68
116
121
74
96
104
55
71
83
19
70
86
6
91
105
34
122
127
68
139
141
91
149
147
101
143
135
88
124
99
45
121
82
25
123
77
26
127
90
49
143
122
82
149
141
110
156
150
120
153
149
118
143
141
108
137
136
102
133
136
102
132
136
102
144
147
114
154
155
123
159
158
127
158
154
131
157
151
130
158
151
129
158
150
127
161
152
127
162
154
128
161
153
132
159
153
134
160
155
134
162
158
135
160
156
132
161
157
132
162
157
134
166
157
135
166
156
137
164
151
129
157
141
115
144
126
97
132
112
80
132
108
75
136
114
85
144
128
102
153
141
115
156
149
124
164
158
139
161
156
141
162
155
142
160
155
143
154
155
140
157
155
140
161
154
139
160
157
139
161
158
140
163
159
142
163
159
142
164
158
139
167
155
134
167
152
131
172
155
134
181
161
141
196
175
152
201
177
150
203
179
150
210
187
154
221
198
163
224
201
166
222
199
170
218
198
171
214
201
176
209
202
180
198
194
173
183
180
162
171
170
152
162
162
145
157
158
141
151
154
138
199
199
189
196
198
189
186
190
183
177
184
179
166
175
172
164
179
176
163
178
175
164
179
176
164
179
176
165
181
178
170
182
181
170
181
181
167
176
175
168
178
175
171
181
177
170
180
175
177
182
175
190
182
165
209
181
143
228
182
124
239
183
111
239
176
100
237
169
88
228
156
72
218
147
63
220
147
65
221
149
67
222
152
68
223
156
75
235
169
93
240
179
109
244
187
118
239
182
114
235
179
113
223
168
101
226
168
99
226
163
92
219
154
80
217
150
72
214
146
62
209
139
51
205
134
45
204
133
46
207
137
51
211
141
56
212
143
58
207
140
57
212
146
66
215
150
72
221
158
81
208
146
71
188
129
55
167
111
47
146
96
42
132
89
41
125
89
42
119
96
48
168
150
103
139
125
79
154
141
91
182
166
115
197
172
124
184
159
112
181
156
112
188
164
121
163
139
98
137
115
74
132
114
72
175
159
118
178
165
124
181
168
128
171
159
111
178
164
117
191
175
128
203
184
138
198
178
132
198
180
130
198
178
129
197
177
126
195
174
122
195
173
121
193
170
120
199
175
126
200
176
126
200
176
126
199
175
126
193
173
128
197
179
134
201
183
135
201
184
132
206
189
135
203
181
121
201
176
115
203
176
114
208
180
119
193
163
101
184
152
88
193
159
95
175
139
73
167
127
62
164
121
60
191
158
99
150
116
53
153
114
48
158
118
58
171
144
92
190
169
118
162
135
83
165
133
80
164
135
83
197
179
137
199
181
141
170
144
96
207
176
134
162
129
82
161
126
70
160
120
66
147
104
48
140
99
38
143
103
38
145
110
52
197
172
124
161
131
85
143
100
39
142
102
32
144
108
38
157
121
56
162
132
73
200
177
120
183
159
99
154
135
78
173
159
113
168
157
116
115
105
57
115
113
64
119
123
76
154
162
113
190
200
149
207
214
166
205
208
163
158
163
123
117
124
83
125
128
93
120
123
89
134
137
103
125
127
93
128
131
97
117
123
89
115
122
84
108
119
73
84
100
36
63
84
1
63
82
8
64
77
11
85
94
34
117
123
63
142
143
83
144
133
69
122
93
31
125
82
29
124
85
39
134
110
62
138
132
94
159
154
123
160
154
129
161
155
130
162
156
127
161
161
123
152
159
117
137
149
105
118
131
88
130
140
98
156
155
124
165
158
131
156
142
113
147
125
94
143
116
84
143
118
84
145
123
91
149
128
97
152
134
103
159
144
118
167
156
133
168
160
139
172
165
144
171
164
144
169
162
143
167
161
141
170
163
142
170
160
139
168
154
128
155
139
107
141
119
83
136
109
71
138
115
76
145
127
91
151
138
109
163
150
127
172
157
141
169
159
146
161
159
146
162
160
145
166
161
145
168
165
148
169
166
149
169
166
149
170
167
150
172
170
154
177
177
162
190
188
174
216
212
198
236
230
217
249
242
229
252
241
228
251
239
222
249
238
215
246
235
206
238
224
191
241
210
175
238
207
172
237
209
171
241
214
175
246
222
182
239
219
187
236
219
190
232
220
195
221
215
194
209
204
186
217
212
202
212
208
198
212
210
202
207
207
200
191
193
186
169
180
175
164
178
173
167
180
175
166
179
174
167
180
175
173
181
179
173
182
179
176
185
182
176
186
182
177
188
184
178
187
183
183
185
177
196
183
162
215
182
138
229
180
114
233
171
94
227
158
77
223
151
65
221
147
59
216
145
58
222
149
66
223
151
68
224
153
69
225
158
77
230
163
88
233
172
101
229
170
100
236
178
107
242
183
113
229
170
100
226
164
91
226
159
84
219
151
73
212
143
63
206
136
53
203
132
45
200
130
40
199
129
42
203
133
49
207
139
57
215
146
66
220
151
73
219
151
74
221
155
79
217
152
78
201
136
62
188
123
47
169
108
39
154
101
39
144
97
42
138
97
46
130
97
45
152
120
70
188
155
104
203
170
118
199
165
114
198
157
109
187
147
101
174
139
95
176
146
102
152
124
83
141
115
75
167
142
102
181
159
120
163
144
105
155
138
99
143
129
85
161
147
103
173
158
114
186
171
127
181
168
123
183
171
126
182
170
124
185
172
126
184
170
123
180
166
118
175
158
111
182
164
118
179
162
116
181
164
118
182
164
118
163
149
107
164
151
109
173
159
116
191
179
132
192
179
132
184
168
117
188
170
119
198
178
126
223
201
150
212
189
136
211
186
130
190
164
104
186
158
95
178
149
87
186
154
98
176
147
92
170
138
79
163
127
65
163
129
70
198
171
121
169
146
97
163
136
86
168
136
85
163
135
84
195
176
135
191
176
136
163
145
96
204
182
138
166
138
91
167
137
82
167
133
79
162
129
72
154
120
58
158
123
58
156
126
68
168
149
101
197
180
131
153
122
62
159
126
59
161
130
63
175
147
83
173
155
93
206
193
135
189
177
118
177
167
112
161
156
106
200
192
146
143
139
92
179
179
128
196
199
147
199
204
151
201
205
150
184
183
133
131
127
82
87
81
35
75
74
29
64
75
32
80
89
48
121
127
90
98
102
68
84
86
54
85
91
60
93
100
62
83
95
48
74
90
24
77
98
15
67
89
15
72
91
28
69
84
27
63
76
14
81
92
30
123
125
52
140
131
56
144
124
57
127
102
37
119
98
27
130
119
71
159
149
114
162
152
127
163
155
132
161
155
128
161
156
123
139
140
103
130
139
100
134
146
107
139
150
111
133
140
107
139
140
109
151
143
109
147
131
94
140
117
77
142
112
73
148
116
80
145
117
77
139
115
73
143
121
87
161
145
122
170
159
139
174
165
145
172
166
147
172
167
147
171
166
149
173
168
151
174
169
149
174
169
146
171
166
141
162
149
119
148
123
86
141
113
73
137
106
67
137
109
72
147
124
91
162
146
117
169
160
137
167
163
144
167
164
146
168
166
147
171
168
151
171
168
151
172
169
152
174
171
154
176
174
159
183
182
170
200
199
188
225
223
212
246
244
234
254
254
245
251
253
247
253
254
249
253
254
248
253
254
248
253
253
246
255
250
234
253
244
223
250
236
210
247
228
194
246
222
184
241
214
180
245
217
181
246
220
181
246
220
179
247
221
178
216
211
199
211
206
194
210
206
195
212
208
197
209
207
196
199
201
192
192
195
186
193
195
186
191
193
184
184
187
178
179
184
177
178
184
178
174
182
177
176
187
182
171
182
178
176
183
177
184
183
170
199
181
154
219
182
132
230
180
111
232
169
93
224
156
76
217
145
58
213
139
50
210
139
49
217
144
60
218
146
63
220
150
65
224
157
76
229
163
87
230
167
95
236
176
105
235
175
103
238
176
103
224
162
89
222
156
80
221
151
71
214
143
60
206
135
51
203
131
49
200
129
48
198
127
45
199
129
48
202
133
55
204
135
59
210
142
67
217
150
76
227
161
88
214
151
77
212
151
78
208
146
72
200
138
62
182
124
50
168
115
44
167
118
54
170
124
65
190
145
86
210
163
102
199
150
89
199
150
91
186
138
82
176
127
78
167
121
73
159
118
73
166
129
86
145
112
71
127
96
57
138
108
69
136
110
73
133
108
71
120
98
61
138
116
78
130
110
71
158
141
101
159
144
104
189
176
135
166
157
114
176
167
123
169
161
115
173
162
117
170
159
114
169
158
114
169
159
114
159
149
104
170
159
115
149
138
94
136
128
89
129
121
82
145
137
98
156
149
108
143
136
94
158
150
108
171
161
119
174
161
119
214
199
157
201
185
142
205
187
139
191
171
121
190
170
119
185
164
113
188
167
117
174
153
105
179
154
102
172
143
87
168
142
87
207
183
137
172
149
102
171
148
98
173
148
96
170
149
98
194
178
138
190
178
140
163
151
102
203
187
143
168
149
102
172
150
93
167
145
88
166
146
87
161
140
76
170
146
80
170
150
91
177
163
113
219
205
157
182
156
99
180
156
91
177
158
91
182
166
102
180
171
107
199
192
135
186
181
126
192
189
135
195
194
141
207
205
157
213
213
163
201
201
149
195
195
143
189
190
136
160
158
105
99
91
42
112
98
51
109
94
50
101
90
45
85
91
42
107
112
67
127
131
91
160
162
127
140
141
108
138
143
111
137
144
109
128
138
101
106
119
71
110
128
61
112
133
62
109
129
67
113
129
78
99
110
64
81
95
47
69
80
17
83
91
18
117
122
45
131
133
53
126
125
46
130
117
53
133
119
69
144
132
95
157
150
118
161
157
127
164
163
133
165
164
135
167
165
137
169
167
138
170
171
141
168
173
145
156
161
132
131
135
102
136
136
99
156
155
115
172
160
128
173
156
131
165
150
124
164
149
121
169
153
128
169
157
136
172
164
144
173
165
146
174
167
149
174
167
149
175
168
151
176
169
153
177
170
150
177
169
149
177
169
152
171
158
137
150
129
97
141
110
74
141
105
65
143
108
66
139
114
70
144
136
89
156
155
112
176
175
140
174
171
145
170
169
149
172
169
152
172
169
152
175
172
155
177
174
157
177
175
157
180
181
162
195
197
180
220
222
207
243
244
231
252
253
241
253
253
246
252
252
245
252
252
244
252
252
244
252
252
244
250
251
244
250
251
243
254
252
244
255
251
242
254
250
241
254
246
234
252
241
223
249
235
208
246
226
192
241
218
178
210
207
192
205
202
188
206
203
189
207
203
190
209
205
191
210
203
191
211
204
192
216
208
197
211
204
192
210
203
191
205
202
196
196
195
189
177
179
174
174
180
175
173
180
177
180
186
177
189
185
167
206
183
152
225
185
133
235
183
116
233
174
102
226
162
85
218
150
65
212
140
50
210
139
48
222
148
64
221
149
67
219
149
65
218
150
70
226
160
84
224
161
89
223
162
90
232
170
97
227
163
89
224
158
83
221
152
73
217
145
62
209
138
53
212
140
56
212
139
59
213
141
66
217
146
73
218
149
75
218
149
75
222
153
78
226
161
87
225
162
90
226
164
92
222
162
89
227
169
95
226
169
95
217
161
87
204
151
73
197
145
70
199
150
79
201
151
84
193
143
77
184
131
62
186
132
62
185
134
67
171
123
61
163
116
65
168
122
72
152
109
63
142
102
59
126
89
49
120
86
48
129
96
58
108
78
41
95
67
32
98
72
37
118
91
57
121
95
60
129
109
73
154
136
98
168
153
114
163
154
111
169
160
116
164
156
110
166
156
110
162
152
106
169
163
120
156
151
108
146
141
98
164
158
115
131
126
84
131
126
88
93
89
54
114
110
74
125
121
84
138
134
96
149
145
106
155
150
111
157
151
110
199
190
150
168
158
117
178
164
120
183
168
126
187
171
132
187
171
131
174
158
114
165
151
107
166
146
101
162
140
89
173
154
104
201
181
138
179
159
114
174
156
105
173
154
102
182
167
116
193
181
141
189
178
140
174
163
115
203
190
146
178
165
116
177
164
107
173
160
102
159
149
87
153
142
77
171
158
90
186
175
114
186
181
129
220
211
163
172
154
99
183
165
101
190
174
110
183
171
108
184
179
115
194
190
133
190
187
135
188
186
134
191
191
138
191
195
145
216
220
169
190
191
140
203
203
150
190
190
138
140
142
91
107
102
54
143
134
90
156
146
105
132
123
83
102
100
52
84
87
39
87
93
50
119
128
92
106
118
81
97
109
65
114
126
83
113
126
86
91
106
61
84
104
47
75
107
44
56
94
32
71
103
49
87
113
66
83
110
63
67
87
33
54
73
17
48
66
7
63
82
15
93
113
35
125
135
56
127
136
62
93
101
41
93
101
57
102
111
74
122
134
99
150
155
123
164
159
129
172
163
134
174
167
138
173
167
139
169
165
138
146
148
116
127
135
101
121
133
96
139
148
113
152
157
131
171
173
152
169
169
148
168
166
146
171
167
147
174
169
149
175
168
149
176
167
150
177
167
150
176
169
152
177
171
154
181
171
155
185
169
153
178
159
141
163
138
113
148
116
79
143
105
63
144
107
61
144
115
66
134
118
65
114
115
56
115
124
64
174
178
128
178
177
143
175
174
151
173
171
153
174
171
153
175
171
154
176
172
155
177
174
155
182
178
158
189
187
167
205
202
185
217
215
201
218
217
203
215
213
198
210
208
193
204
203
187
203
201
185
202
202
184
205
208
188
229
230
214
250
251
239
254
254
248
255
254
251
254
253
253
254
253
250
254
252
247
254
252
241
254
250
237
209
207
194
207
203
191
207
202
188
208
201
187
209
200
187
210
201
186
211
202
187
212
203
188
206
197
182
206
197
183
207
195
186
202
193
185
196
189
182
188
186
178
183
184
174
182
182
170
194
182
158
216
185
145
229
186
132
235
187
120
235
182
107
229
172
95
225
162
84
224
158
77
226
157
75
234
160
82
236
163
85
231
160
82
221
153
75
217
151
73
220
154
77
225
161
86
229
165
93
227
162
89
225
156
81
220
149
69
216
145
64
207
135
58
201
129
53
201
130
52
202
133
54
206
139
61
204
137
59
208
141
62
214
147
68
219
152
77
219
153
82
214
149
78
208
145
74
210
147
75
214
153
80
206
148
75
208
151
78
209
153
83
197
143
77
190
138
72
189
137
72
193
142
79
205
155
96
197
151
95
183
139
84
178
136
84
162
122
73
159
120
74
143
106
62
136
101
59
128
94
55
111
78
40
115
86
48
116
89
50
115
89
50
111
81
43
120
91
53
132
106
68
159
137
97
146
126
85
156
141
98
165
153
109
160
150
105
159
152
107
154
149
104
167
165
120
148
147
103
144
142
101
140
138
98
128
126
87
119
118
81
111
111
75
98
97
62
109
109
73
126
125
89
135
132
96
145
140
105
164
159
122
158
152
115
147
139
100
153
144
107
175
166
128
178
168
129
157
146
105
155
144
100
157
144
100
139
124
80
151
134
89
185
168
122
180
162
118
180
164
115
175
162
113
180
169
119
186
178
131
193
187
143
188
182
136
182
175
124
187
180
130
173
167
116
171
166
115
164
155
103
153
145
88
157
155
96
113
114
55
125
127
67
168
170
112
211
211
164
194
191
143
158
153
95
162
155
91
182
173
110
183
179
115
188
189
131
188
189
132
186
187
129
186
191
134
170
179
128
157
166
118
138
146
99
149
151
103
199
198
149
193
192
145
188
187
139
199
198
151
211
209
163
228
226
181
219
217
176
140
144
104
92
101
53
91
106
56
131
148
97
82
93
41
90
91
43
104
95
51
117
111
65
112
115
66
83
109
51
71
104
44
71
95
42
80
95
50
71
93
45
113
129
87
121
133
95
77
91
50
72
95
43
49
77
17
53
83
11
82
106
31
102
127
48
95
130
57
81
123
62
84
120
65
90
120
68
119
138
88
140
143
97
150
144
102
159
141
101
169
149
111
176
158
121
174
159
123
178
166
130
172
166
130
150
146
110
140
135
103
152
151
120
167
171
138
171
173
142
173
170
142
174
169
142
173
167
141
172
169
142
176
167
140
179
162
136
175
154
127
164
141
111
156
129
97
150
119
79
149
115
69
145
115
71
143
119
76
148
130
90
119
111
69
81
89
39
83
98
44
144
158
106
159
169
121
164
171
129
174
179
147
176
174
150
180
173
154
179
173
154
178
172
153
178
171
153
177
170
152
176
171
152
176
172
153
177
172
154
179
171
154
179
172
154
179
174
157
180
176
160
181
179
162
194
196
175
225
226
210
250
250
238
255
253
246
255
253
249
253
254
250
254
255
251
254
255
250
254
254
250
254
254
249
208
206
193
209
205
193
210
204
191
211
203
190
211
203
190
211
202
187
209
200
185
206
197
182
206
197
182
209
200
185
212
199
185
209
198
183
206
198
181
204
198
179
197
193
174
200
188
165
213
185
152
230
188
141
233
189
130
237
190
121
238
186
111
234
178
102
230
170
93
231
165
87
228
159
80
224
150
73
220
147
71
219
148
70
214
146
69
215
149
71
225
158
80
234
168
93
227
163
91
231
166
94
228
159
84
216
145
65
209
138
57
205
133
57
203
131
56
205
134
56
203
133
53
204
136
56
211
143
63
215
147
66
221
153
73
225
157
78
219
153
75
218
152
75
221
156
78
227
162
84
225
162
85
220
161
86
217
158
85
216
159
89
212
157
89
203
149
83
192
139
74
187
136
74
171
122
63
170
124
69
176
132
78
160
118
68
146
106
58
146
108
63
144
107
62
127
92
50
139
105
65
134
101
63
135
105
66
120
93
53
121
95
56
117
87
49
128
100
61
141
115
76
140
117
77
129
108
67
150
135
91
156
143
99
151
141
96
154
147
102
163
158
114
157
155
111
146
144
102
136
134
94
133
131
93
123
121
83
115
115
79
113
113
77
106
106
70
88
88
54
99
99
65
134
131
96
137
134
99
152
147
111
131
126
88
133
127
87
139
128
93
152
141
106
170
161
123
133
126
83
112
107
61
140
127
83
123
107
63
144
127
83
188
170
126
157
138
93
178
161
113
169
155
106
185
173
126
189
179
134
202
194
152
184
178
132
196
189
138
173
164
113
170
159
109
170
158
108
144
135
82
151
145
87
178
171
112
181
179
116
153
161
98
110
119
61
148
150
105
178
178
130
169
170
107
126
125
59
176
171
108
181
176
117
187
186
130
189
190
129
177
183
123
132
143
93
79
92
49
67
79
37
162
171
125
160
162
113
176
175
126
177
176
128
178
177
129
180
179
131
184
183
135
209
210
162
228
235
190
201
209
163
124
133
84
133
145
92
152
163
112
138
140
91
130
121
77
106
98
53
88
90
43
86
93
44
87
98
46
113
112
63
130
116
71
148
133
89
126
121
74
107
112
71
106
117
78
128
133
96
144
147
109
111
125
81
66
96
33
62
89
26
61
92
26
43
85
13
45
93
21
59
100
33
98
136
72
88
124
65
64
91
44
112
126
85
141
134
93
156
133
94
158
128
90
156
128
88
158
130
89
156
131
89
158
135
92
160
138
95
138
123
77
126
120
73
142
139
94
150
146
101
145
144
96
131
130
83
130
129
83
140
131
86
146
128
85
146
125
82
153
130
87
161
134
92
161
135
96
164
142
107
170
154
120
175
165
134
181
177
147
171
172
142
135
140
108
82
93
55
78
94
47
93
110
57
134
146
96
178
181
142
180
177
152
183
177
160
181
176
157
179
176
154
180
177
155
183
179
158
185
180
159
183
176
156
183
173
153
185
175
152
182
173
151
182
174
152
181
174
153
182
174
153
195
186
164
224
215
193
249
241
221
254
249
229
255
251
234
255
251
240
255
252
243
254
253
245
253
254
247
253
255
250
206
205
193
207
206
193
209
205
193
208
202
189
208
200
187
208
199
185
211
202
187
214
205
190
214
205
190
214
205
190
206
200
183
218
212
194
226
221
199
228
223
198
225
220
193
219
207
170
223
191
146
230
186
132
231
188
125
237
190
120
241
189
117
239
184
111
237
178
104
235
171
95
230
163
85
223
150
73
220
147
70
223
152
74
225
157
80
225
159
81
221
154
76
219
153
78
228
164
91
236
171
98
230
161
86
214
143
64
202
131
50
198
126
49
193
121
46
191
120
42
200
129
49
209
138
57
219
148
68
220
149
69
222
151
70
225
155
73
228
159
76
224
156
73
220
153
69
218
153
69
221
157
75
222
160
82
214
154
78
209
151
78
204
147
76
194
138
69
186
132
68
184
133
72
183
133
75
176
128
74
159
114
60
146
105
54
139
99
51
133
95
50
142
105
61
146
111
69
143
109
69
145
112
73
122
92
53
121
94
54
122
97
57
143
116
77
136
108
70
151
126
87
137
112
72
137
114
73
145
130
86
147
133
89
153
143
98
150
142
98
159
154
109
143
141
99
141
139
99
138
136
98
132
129
93
120
117
82
113
112
77
109
109
74
100
100
65
111
111
76
105
105
70
86
85
51
105
102
69
125
122
84
117
113
75
123
119
79
123
113
78
113
103
68
145
138
101
107
104
60
85
85
37
118
109
64
116
100
56
141
122
79
178
155
112
160
134
91
165
143
97
168
152
105
195
182
137
189
178
134
209
201
160
172
172
125
192
200
146
156
163
107
137
143
89
130
135
81
124
133
74
127
133
71
171
167
106
183
177
114
176
178
111
177
183
116
174
177
120
178
180
127
126
130
67
100
104
38
142
146
83
169
174
114
182
184
127
183
181
119
129
129
70
118
125
81
94
110
69
120
131
89
196
203
156
183
185
136
175
175
125
175
175
126
172
171
122
173
172
123
177
177
128
184
185
136
171
177
131
155
164
117
109
123
71
95
112
58
103
121
69
140
156
102
113
123
71
77
95
42
74
97
43
106
116
70
134
136
91
135
120
78
138
112
70
137
113
65
119
105
54
98
93
44
96
97
50
120
120
80
149
152
110
124
138
90
89
110
51
149
161
112
158
164
123
120
131
89
71
90
38
47
78
12
61
93
32
103
138
76
86
121
62
56
89
34
82
106
60
136
146
104
170
169
128
161
162
118
144
143
99
141
136
87
151
143
92
164
153
105
168
156
109
164
154
107
148
149
99
118
128
74
105
121
64
103
120
63
124
140
85
135
143
97
138
139
101
136
134
96
151
146
110
175
168
135
184
177
148
184
177
153
186
181
158
185
182
162
184
182
165
184
182
164
180
178
155
145
147
116
96
103
64
64
77
27
87
98
47
162
164
119
184
181
154
186
181
164
186
181
161
186
180
153
184
175
146
177
171
140
173
167
136
171
159
130
168
152
122
172
150
114
169
147
112
167
146
111
165
143
110
164
141
107
178
149
114
203
174
139
230
201
164
240
212
174
246
218
180
252
224
186
249
224
188
248
228
195
247
231
202
246
234
207
206
206
195
203
202
190
204
201
189
207
201
190
209
202
190
214
205
190
214
205
190
215
206
191
209
200
185
210
201
186
222
220
205
252
251
234
255
254
232
254
250
223
252
249
219
243
236
196
226
201
153
231
191
135
236
192
131
238
189
124
238
188
119
237
184
113
236
179
106
234
171
98
227
160
86
222
150
74
219
146
69
226
155
77
231
163
86
225
159
81
216
150
72
224
159
84
237
173
100
237
173
100
222
153
78
210
139
59
204
133
52
202
131
55
210
138
64
209
137
60
208
137
56
215
143
61
219
147
65
220
148
65
219
147
65
221
149
65
218
146
61
219
149
63
217
147
61
214
146
60
216
150
65
211
148
68
208
146
68
203
143
68
192
134
61
190
133
63
186
131
67
174
121
61
167
116
60
166
118
65
166
121
69
152
111
62
137
98
50
132
95
49
137
100
56
125
90
48
124
90
50
132
98
60
120
90
50
123
96
56
139
114
74
144
118
79
132
107
67
136
111
72
136
111
71
134
109
69
145
129
86
146
133
89
147
137
92
147
140
96
145
140
96
141
138
98
137
135
97
135
132
95
129
126
93
116
113
80
103
103
69
106
106
73
102
102
69
101
101
67
106
106
72
108
108
73
106
107
71
90
90
53
89
87
49
105
103
62
104
97
60
89
82
45
108
104
64
97
95
50
85
84
37
96
91
45
110
101
55
156
143
99
155
138
92
174
153
109
165
149
102
186
174
127
192
183
137
185
179
135
212
208
167
167
168
122
194
202
150
152
161
106
128
137
82
115
127
70
95
109
48
90
102
40
141
145
84
171
170
105
171
166
101
170
165
99
170
169
106
198
198
138
165
169
99
164
169
99
144
151
86
115
125
65
158
165
106
159
160
96
140
138
76
119
121
73
122
131
87
175
179
135
183
186
139
202
203
155
171
172
122
171
171
121
171
171
121
172
172
122
176
176
126
188
187
138
204
206
158
193
200
149
121
138
83
91
119
57
86
118
55
118
149
88
76
108
48
38
73
16
74
96
48
147
152
108
151
152
108
137
136
90
147
140
93
128
118
69
135
126
77
144
132
84
137
123
78
91
89
40
63
82
24
66
94
27
87
107
39
149
151
97
170
159
118
173
165
127
164
163
121
132
142
94
77
100
46
63
96
31
108
141
69
105
138
65
81
128
63
67
115
55
81
125
65
55
103
40
39
99
28
43
98
31
68
108
49
90
117
68
108
124
82
112
124
86
110
124
84
104
123
79
106
130
84
92
118
73
108
135
88
153
172
132
177
188
154
175
185
154
158
168
139
142
150
123
154
159
134
180
182
159
186
185
164
189
184
166
191
184
169
190
184
165
171
167
139
145
141
109
131
131
89
104
111
61
84
93
36
137
142
89
176
178
138
188
185
154
187
179
149
177
164
129
170
151
113
156
147
106
140
138
95
146
142
100
154
147
102
158
147
95
160
149
98
159
146
97
161
147
99
163
147
99
175
150
101
196
170
121
217
189
140
235
205
156
236
205
155
223
198
143
209
187
134
199
182
132
189
176
129
178
168
123
190
190
180
187
187
176
197
194
183
204
200
189
213
208
196
214
205
192
209
200
186
209
201
186
210
201
186
210
201
186
231
229
214
253
251
233
255
252
229
254
248
218
250
240
207
246
233
197
240
214
171
235
195
146
241
192
139
240
190
130
238
189
123
236
185
116
235
179
109
232
171
100
225
160
88
224
151
76
221
148
71
221
150
72
222
154
76
222
156
78
227
160
83
226
160
85
237
173
100
234
169
96
220
151
76
221
150
70
215
144
64
208
136
60
204
132
57
205
134
57
216
144
63
220
147
63
218
144
61
218
144
61
219
146
62
221
147
63
222
148
63
226
154
69
226
155
70
224
154
68
226
158
74
222
158
77
218
156
76
211
150
73
202
143
70
195
138
67
195
141
77
197
144
84
195
144
86
187
138
82
177
131
77
175
133
83
165
125
77
141
103
58
145
109
65
127
93
51
128
95
54
132
99
60
124
94
55
126
100
60
137
112
72
144
120
81
122
98
58
132
107
68
143
116
77
143
118
78
145
129
85
138
124
81
144
134
89
148
141
97
139
134
90
136
134
95
133
131
93
130
127
93
123
120
87
117
114
82
114
114
81
102
102
70
87
87
53
83
83
50
102
101
67
94
95
59
87
89
53
88
89
51
80
80
41
79
78
37
80
78
40
79
76
37
85
82
42
93
89
46
93
90
43
108
106
59
109
107
60
134
133
86
115
114
64
161
161
109
176
172
121
189
182
134
190
187
140
187
186
141
213
213
171
185
184
139
203
201
153
171
169
118
163
159
105
149
146
90
143
138
79
145
144
82
99
108
46
106
116
54
150
152
84
161
155
87
168
162
97
195
191
130
155
154
86
168
171
101
177
178
110
160
159
90
130
136
74
128
135
72
119
126
62
105
113
52
164
166
117
179
177
129
171
169
120
204
204
156
166
169
119
167
167
117
170
170
120
172
172
122
176
176
126
185
185
135
175
177
128
166
175
124
130
149
93
92
124
58
79
117
48
99
136
71
102
140
76
86
120
63
78
106
54
81
101
55
84
107
51
72
103
43
103
127
73
147
155
110
159
162
121
149
150
109
128
122
82
117
115
70
115
122
66
125
133
67
117
123
43
137
139
61
113
119
50
97
114
55
88
110
59
84
114
59
74
114
50
52
100
30
53
101
29
44
90
15
37
79
20
29
78
17
58
107
39
69
105
38
74
111
41
57
95
33
90
126
71
144
168
123
160
174
141
161
172
146
163
172
145
164
171
141
158
165
135
145
157
126
120
137
105
96
113
81
106
120
89
150
165
133
166
180
148
177
191
159
166
176
146
150
154
126
181
183
156
191
190
166
193
189
166
171
169
143
114
116
83
80
80
41
89
90
41
113
120
61
109
119
54
120
130
65
145
153
95
176
176
124
177
168
118
162
143
97
161
136
97
119
111
67
87
94
45
79
91
40
88
98
49
93
103
51
99
107
57
108
115
65
123
127
80
138
141
94
148
152
99
153
156
103
155
158
106
152
155
104
148
153
102
154
159
108
150
157
108
139
148
101
126
138
94
116
130
87
173
181
177
169
178
173
172
180
175
174
181
177
186
192
187
204
200
192
206
202
192
213
209
197
216
208
194
214
201
188
222
218
204
254
253
236
254
250
225
252
243
210
245
233
195
237
224
181
234
213
169
245
210
165
244
200
150
242
196
137
241
194
128
239
190
122
238
184
113
235
177
103
228
166
89
221
151
75
216
144
68
222
152
75
227
159
81
226
160
82
228
162
86
229
163
87
241
174
98
233
165
89
217
147
70
209
136
57
210
135
57
209
134
56
215
140
60
217
142
62
217
142
60
217
143
58
224
149
66
224
152
69
226
154
71
223
151
67
222
152
64
224
156
70
226
161
78
233
170
89
235
173
95
232
171
93
224
166
90
215
160
87
210
159
89
210
159
92
210
158
94
204
154
90
193
145
83
171
124
65
176
131
75
163
123
74
167
129
82
152
115
70
152
118
76
156
124
84
131
101
61
122
94
54
137
111
71
144
121
80
142
120
79
157
135
95
137
115
74
129
107
67
139
116
76
150
129
88
141
125
81
140
126
82
145
134
92
137
132
91
135
132
93
129
128
92
132
129
94
127
123
88
123
120
85
105
104
70
87
88
56
83
85
53
78
80
48
76
76
43
92
89
57
67
63
31
70
68
34
77
73
37
76
70
33
72
71
31
68
76
33
78
78
35
98
91
50
116
109
66
131
122
80
149
144
97
169
165
117
166
163
115
139
141
93
107
116
66
170
176
125
185
187
139
187
186
142
188
188
145
211
213
173
190
193
151
197
197
152
176
173
124
168
163
108
150
146
84
142
134
70
128
119
53
88
90
24
96
108
41
93
102
34
136
141
71
156
154
93
185
178
120
150
140
74
157
150
80
171
173
102
170
164
98
169
165
102
132
139
78
61
82
20
69
93
33
95
112
55
110
126
72
136
148
96
184
189
140
180
182
134
167
166
118
168
169
119
165
166
116
169
177
123
158
165
110
111
124
59
100
118
48
101
125
51
104
135
57
89
123
44
74
108
32
101
136
64
95
130
67
92
128
68
47
84
29
48
89
29
55
100
39
63
105
48
83
118
65
86
115
65
94
118
66
120
140
87
127
143
88
131
143
85
113
123
62
86
104
27
90
111
34
65
101
29
44
91
22
33
82
15
37
81
15
50
88
24
58
94
32
71
106
42
104
131
67
98
119
59
63
93
28
63
96
28
70
96
29
95
121
51
116
141
75
124
146
83
118
135
81
160
171
126
178
185
145
178
180
144
184
184
149
185
186
152
182
184
151
182
187
155
172
183
148
123
141
102
130
152
111
104
126
86
92
114
77
127
146
113
146
164
130
159
169
136
190
194
162
191
193
160
171
174
139
117
123
82
76
82
38
71
80
29
72
82
27
64
76
16
93
104
41
126
134
71
152
156
91
171
171
106
166
159
100
158
144
98
136
136
88
122
133
85
121
133
87
129
138
95
133
145
98
131
143
96
120
131
84
120
132
85
125
137
88
121
137
82
122
139
85
132
149
97
137
153
105
127
143
97
120
133
88
111
124
82
112
124
87
112
124
91
107
119
87
165
177
173
162
174
170
168
180
176
174
186
182
175
187
183
179
183
178
179
184
176
188
192
182
206
205
193
213
205
194
212
208
195
249
245
228
250
244
219
242
234
202
241
232
194
234
226
181
237
221
177
245
218
174
249
212
162
244
204
146
242
196
133
240
191
124
239
186
116
239
181
107
234
172
96
227
160
83
223
153
76
221
152
75
228
161
83
229
162
84
217
152
76
225
161
85
234
167
90
223
155
78
219
149
71
218
145
66
215
139
61
220
144
66
223
148
67
225
151
70
225
150
68
219
145
61
213
139
55
211
139
57
216
146
65
221
154
73
226
161
82
232
168
91
235
175
100
240
183
109
236
180
108
232
176
106
229
176
108
224
174
109
217
171
108
208
163
102
207
162
102
202
157
99
198
156
98
192
152
96
198
158
105
192
155
107
193
158
112
183
151
107
180
150
109
176
147
107
154
129
88
162
138
98
159
137
96
156
136
96
171
151
111
155
136
95
143
125
85
150
131
92
150
131
91
135
116
75
134
120
76
138
126
83
137
129
88
135
131
92
137
135
97
126
130
94
118
118
84
121
120
85
111
111
77
79
83
48
65
78
44
64
76
42
65
73
40
65
74
40
67
77
41
60
69
33
60
72
33
64
75
35
67
76
34
66
76
34
51
75
26
66
84
36
108
113
69
138
139
94
153
148
105
162
157
112
177
173
125
173
169
122
175
174
126
161
167
117
107
118
68
175
183
135
188
191
146
196
195
153
208
207
168
200
201
160
189
190
146
181
182
134
178
177
124
167
159
105
151
140
80
120
111
46
74
69
5
94
94
33
111
115
47
87
96
31
149
152
92
179
171
115
156
146
81
151
148
77
105
120
47
98
113
44
101
116
52
130
143
80
142
153
94
154
164
104
113
127
65
94
124
58
110
134
73
114
126
74
158
167
116
144
158
104
149
162
106
137
148
93
109
128
73
63
86
29
50
81
13
56
90
18
54
87
14
62
95
22
69
102
28
63
94
18
97
129
56
56
93
21
91
132
62
64
103
40
31
74
14
12
60
3
23
71
17
38
87
32
58
107
51
74
120
63
61
103
43
74
113
51
72
107
43
68
99
35
49
90
25
33
81
15
13
67
3
28
73
9
66
97
32
90
113
39
98
122
45
101
125
50
109
129
57
119
134
65
95
116
50
81
111
40
89
117
47
72
96
29
54
80
12
58
83
11
77
100
31
97
118
52
97
117
55
129
148
88
136
155
96
130
147
89
133
149
93
138
154
100
146
161
108
130
148
96
118
137
86
142
156
108
147
164
114
123
148
95
82
114
60
66
98
47
91
117
70
132
153
106
150
165
119
159
170
123
150
159
109
136
145
94
137
147
95
133
144
90
116
127
74
118
128
75
124
133
78
131
139
81
132
139
80
126
130
73
119
120
71
103
113
62
92
108
58
88
102
55
91
102
58
107
119
75
128
140
94
115
126
79
116
128
80
129
142
92
127
142
91
124
139
90
113
127
81
107
121
78
112
125
85
116
127
90
114
124
91
102
112
83
90
99
74
87
95
73
167
183
178
166
183
177
174
191
185
170
187
181
170
187
181
170
184
179
166
179
173
173
185
176
179
184
175
192
190
182
209
203
191
226
221
204
250
245
221
250
242
212
243
234
198
231
221
182
230
215
176
230
208
166
236
205
157
236
201
145
238
196
133
238
190
124
235
185
116
235
179
106
231
172
97
228
162
86
228
160
84
228
160
83
229
161
84
224
157
80
226
161
86
238
175
98
234
168
91
223
155
77
225
156
78
223
151
73
224
148
71
226
150
73
225
150
69
223
148
65
218
143
59
212
138
54
213
141
58
220
150
70
225
158
79
230
166
91
233
175
104
240
184
115
247
193
125
243
190
124
239
188
122
234
183
120
220
171
111
212
167
109
212
172
117
219
180
126
211
173
119
223
186
133
221
187
136
211
177
127
201
169
120
193
162
116
196
167
123
191
165
123
197
173
133
185
163
123
179
159
118
181
162
122
173
156
116
170
154
116
166
152
114
163
149
111
167
153
114
158
144
106
151
137
99
143
129
91
142
129
90
136
126
87
137
131
94
140
139
103
133
134
100
116
123
91
99
104
71
121
124
87
113
117
82
56
64
31
50
66
35
48
65
32
50
65
33
51
67
32
50
66
31
49
65
27
52
68
28
53
70
27
59
75
31
62
77
33
58
79
34
50
76
29
52
78
29
72
90
45
102
110
68
142
150
104
146
152
106
163
166
120
173
175
129
170
174
127
132
144
95
124
135
87
186
190
144
199
199
156
201
200
160
209
208
166
187
187
143
190
191
143
191
191
142
183
183
131
158
164
102
125
143
73
74
97
35
73
94
25
79
101
29
55
84
13
86
106
47
150
160
101
138
139
75
136
141
70
130
142
69
143
156
84
158
165
98
163
170
106
156
159
101
159
156
99
156
158
95
123
136
72
101
120
59
137
152
93
152
167
111
64
98
34
88
118
55
66
93
32
46
86
17
46
92
22
55
104
33
56
105
33
50
95
26
42
83
14
50
93
23
48
91
18
67
108
38
68
112
38
69
114
35
88
134
56
60
103
39
52
101
36
45
98
33
38
90
29
33
85
24
46
95
38
68
117
58
60
108
48
31
79
19
30
81
18
55
108
42
56
106
38
44
91
22
64
106
32
81
111
36
77
101
25
79
110
32
75
108
30
78
107
31
74
104
28
49
89
17
71
111
39
78
113
39
71
104
30
66
102
30
59
96
25
41
77
8
42
78
9
54
88
22
72
104
44
109
143
77
110
143
74
101
131
62
94
124
57
93
121
54
112
136
70
127
144
81
135
146
85
136
150
88
126
150
86
112
142
77
89
120
55
59
94
30
55
87
30
112
138
85
126
147
94
108
124
68
108
122
68
110
123
68
110
121
67
100
111
59
91
101
52
82
93
44
73
87
38
67
83
34
67
83
35
63
81
30
58
79
27
64
84
34
82
97
49
105
115
69
116
125
79
123
132
86
125
134
88
113
122
76
108
118
73
101
113
71
102
113
74
106
117
80
107
118
84
109
119
88
99
106
81
81
89
65
76
82
62
84
89
73
99
104
91
170
185
180
169
184
179
172
187
182
168
184
178
168
183
178
166
181
177
166
181
174
167
178
170
177
181
173
185
181
173
208
201
190
212
205
190
225
218
197
246
239
212
248
241
210
243
232
197
242
229
193
239
220
181
238
211
166
238
204
152
240
198
138
238
193
129
237
188
120
239
185
114
237
180
106
239
176
100
236
170
94
231
165
89
231
163
88
227
159
84
231
167
92
230
168
92
231
166
88
232
165
87
231
163
84
230
158
81
230
154
79
223
147
70
219
144
63
216
142
58
216
142
57
215
141
57
216
145
63
211
144
66
218
154
77
231
172
100
234
181
113
243
190
122
244
193
126
242
191
125
235
185
120
227
179
115
224
178
118
225
183
125
227
189
133
229
193
140
231
197
146
224
192
142
220
188
140
211
181
134
204
176
130
201
176
132
196
173
131
192
171
131
192
173
136
188
171
134
182
166
128
187
172
134
186
173
135
186
175
138
189
179
143
178
168
131
179
169
132
177
167
130
168
158
121
159
150
113
154
145
108
152
146
109
147
144
110
119
120
88
79
81
51
61
68
38
61
67
34
128
132
96
94
99
66
52
59
30
55
62
36
38
50
22
42
57
28
49
64
34
49
60
30
60
61
29
72
65
32
84
75
41
88
82
45
97
94
56
109
112
73
96
115
71
47
80
31
67
93
49
93
108
67
89
104
60
58
76
29
84
104
56
91
115
67
100
132
80
100
143
85
82
128
66
109
133
84
149
165
120
148
158
117
179
185
144
174
176
132
183
186
138
190
198
144
189
204
144
164
193
124
117
157
85
87
124
58
79
109
45
92
117
52
111
134
71
118
138
78
131
149
91
64
85
17
66
90
17
83
100
32
116
125
58
166
171
105
161
166
103
151
154
96
154
156
97
147
152
90
129
139
77
76
100
39
53
87
24
102
131
75
57
95
39
67
104
43
92
129
66
43
91
23
35
86
16
39
88
17
45
98
26
57
104
36
74
118
53
42
91
25
24
81
12
25
78
10
57
108
38
38
86
11
62
109
35
79
129
62
27
82
14
19
77
9
18
72
8
19
69
8
29
77
22
37
86
31
34
85
28
19
74
13
24
80
19
38
94
28
72
120
54
57
100
34
61
105
36
62
104
35
70
112
48
51
98
32
33
85
16
31
82
12
35
84
13
28
81
13
25
75
3
37
85
4
40
87
5
42
86
7
47
88
17
51
91
21
51
90
21
52
89
21
52
88
20
45
81
12
75
105
40
79
107
40
66
99
31
98
127
60
131
152
84
109
126
58
82
99
34
72
91
25
74
97
27
81
107
37
84
112
45
88
121
58
83
121
65
57
97
46
106
138
86
117
140
85
100
120
65
107
122
68
89
101
45
81
91
38
67
79
25
64
78
26
69
85
36
69
85
39
71
89
43
75
97
47
92
112
61
116
133
81
119
131
79
122
132
80
121
131
78
103
113
64
117
126
82
109
117
79
94
101
65
84
94
60
85
94
63
87
95
67
87
95
70
78
86
63
82
86
68
96
98
83
106
108
94
114
117
105
115
118
107
172
184
180
170
181
177
169
180
176
173
184
181
171
182
178
170
180
175
172
181
174
179
185
176
198
196
187
206
196
187
211
201
191
215
206
192
210
201
183
217
210
185
230
223
195
239
231
198
248
239
204
250
239
201
250
233
187
247
221
168
243
205
145
240
196
132
237
188
122
236
183
114
235
178
105
234
173
98
231
168
92
227
162
87
228
161
87
232
164
90
224
159
84
228
166
89
234
170
92
235
169
90
233
166
87
229
157
81
227
151
76
223
147
70
220
145
63
217
143
58
213
139
54
214
140
58
218
148
67
230
164
87
243
180
106
245
188
116
250
200
128
251
199
128
243
192
121
233
183
111
224
174
104
217
169
101
219
174
108
227
186
123
234
195
135
223
188
131
227
194
142
230
197
148
233
202
155
227
198
152
207
181
135
207
186
144
206
186
145
198
181
142
194
179
143
198
185
150
197
184
146
198
185
149
192
182
146
186
178
142
185
178
143
186
180
144
182
177
140
180
174
138
175
170
133
177
172
135
177
171
135
171
166
133
145
143
113
100
103
73
96
100
71
77
82
57
71
74
44
136
137
101
78
80
49
54
58
34
46
51
29
38
44
21
46
52
28
45
55
29
51
64
36
57
64
30
74
65
33
85
69
38
95
87
51
106
105
66
100
105
67
63
79
39
87
107
65
128
142
99
141
149
107
129
140
97
133
147
103
98
117
74
67
99
52
57
101
49
42
98
39
44
100
38
49
98
38
105
145
90
98
137
86
85
121
72
56
95
37
67
107
47
134
183
112
136
182
108
103
145
72
156
185
118
182
201
138
162
179
120
140
159
95
133
152
86
113
132
73
119
128
74
102
106
45
143
152
83
135
136
72
80
88
18
115
130
66
152
158
95
155
152
96
135
135
80
98
105
49
53
75
15
33
75
10
41
89
24
68
103
53
80
113
64
29
70
9
48
89
30
29
78
14
38
85
20
41
87
15
36
87
14
49
92
26
67
106
45
52
100
36
39
94
36
41
93
35
81
131
70
43
93
27
44
91
25
84
133
72
42
89
34
28
81
22
28
79
22
18
63
8
14
57
5
16
58
7
18
58
7
17
54
2
21
57
5
28
65
13
29
67
13
21
69
7
15
72
11
23
79
21
16
74
11
15
73
8
17
77
12
17
78
14
27
80
21
48
97
31
64
109
36
80
125
45
68
113
34
53
88
17
68
92
26
65
88
21
61
85
17
56
82
11
63
90
17
58
84
14
65
85
19
55
75
9
54
84
12
63
91
20
84
105
40
105
125
60
119
140
73
107
130
62
111
136
70
118
143
74
98
121
54
103
127
67
92
119
67
37
73
26
48
80
35
127
152
103
141
163
112
106
123
69
92
103
48
104
115
60
92
105
52
84
98
44
95
108
55
105
118
65
109
124
71
106
123
70
112
127
72
128
138
82
131
138
80
132
140
79
134
144
85
113
121
70
86
92
52
74
79
48
66
70
44
65
71
45
71
76
53
79
84
63
90
94
76
101
105
89
110
112
97
114
116
102
117
119
106
112
114
101
102
104
92
172
183
181
169
180
177
174
184
180
184
186
183
192
188
186
205
201
192
204
204
186
212
212
186
223
218
192
224
211
191
213
202
190
211
201
192
211
202
192
213
204
191
216
209
191
220
212
185
233
221
192
248
235
202
251
232
188
244
220
167
246
209
151
246
203
142
242
196
131
240
190
122
241
188
117
241
184
114
235
174
104
229
163
92
227
158
84
216
148
72
222
156
78
225
159
81
226
160
82
230
162
84
226
157
80
223
151
73
223
148
69
220
145
64
213
138
55
206
131
47
214
141
58
230
159
79
238
169
93
241
177
104
248
188
118
252
197
126
248
196
122
237
185
112
228
175
105
228
175
107
230
178
114
237
189
128
243
201
138
244
203
141
235
198
135
239
205
144
241
206
150
223
190
138
226
198
153
222
201
160
219
203
164
218
203
165
207
193
155
193
181
143
194
184
146
196
188
149
197
188
151
199
191
155
193
184
150
189
180
148
193
184
153
186
180
148
186
181
148
183
179
146
178
176
142
183
181
148
181
178
149
171
169
140
136
135
107
126
126
98
98
98
72
78
80
54
83
86
58
135
137
108
57
59
35
47
48
31
50
52
32
44
47
26
49
57
32
44
58
30
49
69
37
58
75
41
63
74
39
76
81
47
85
91
53
66
75
35
66
81
40
88
104
62
77
93
53
97
109
68
73
82
43
78
92
48
68
86
38
79
105
53
96
132
73
114
158
93
117
167
101
112
165
100
107
162
99
110
170
102
104
162
96
56
115
48
90
152
79
112
176
103
73
134
67
18
77
8
65
102
42
124
151
87
160
186
119
151
186
110
116
153
77
93
126
43
125
146
73
119
128
67
118
117
50
148
142
72
145
133
66
100
87
16
119
125
58
83
105
39
128
148
86
91
98
44
91
107
51
45
73
17
36
75
16
42
80
19
56
86
26
114
137
78
76
95
33
62
90
25
47
85
16
49
84
14
69
97
24
78
103
31
77
100
29
73
97
27
69
97
26
66
97
24
52
89
25
70
113
57
39
82
28
30
72
21
51
94
47
80
129
77
46
92
39
60
101
43
35
72
15
52
85
33
66
93
37
84
102
44
112
124
75
141
153
109
152
168
118
148
162
117
103
121
83
35
76
22
25
79
15
31
80
11
47
87
18
42
84
14
31
82
12
23
76
11
36
88
24
60
110
41
61
104
33
61
100
31
91
121
53
86
111
46
75
93
32
61
75
10
73
89
27
73
90
23
76
90
21
100
115
44
103
123
52
87
110
41
101
122
56
88
109
44
64
86
20
60
83
15
74
96
30
103
126
60
115
138
69
128
148
78
135
156
92
107
128
73
64
86
38
38
66
20
50
81
36
124
152
104
124
144
93
92
104
52
95
107
53
101
114
58
113
125
69
116
125
73
104
111
66
86
93
52
89
99
55
98
105
63
111
116
76
124
127
87
141
142
102
147
146
107
125
124
89
102
99
72
97
95
75
97
95
78
101
101
84
110
109
92
116
113
99
120
115
103
121
115
103
120
116
103
108
105
94
100
99
89
100
102
88
106
109
91
188
189
184
193
194
187
206
205
196
212
205
194
210
198
186
200
193
171
234
231
198
245
242
202
247
242
205
238
228
198
194
189
173
185
180
171
188
181
176
202
196
183
218
213
189
228
219
186
243
230
195
243
226
187
249
227
181
246
222
167
249
214
155
244
203
142
238
193
130
239
191
124
240
189
120
238
184
115
233
174
105
229
164
94
219
152
79
209
143
65
209
142
64
216
149
71
222
155
77
224
155
78
220
151
74
218
146
66
214
139
57
211
136
53
213
138
55
214
139
57
224
151
71
233
163
87
241
174
100
244
182
110
243
185
114
248
193
123
242
188
119
239
186
118
238
186
121
241
191
126
239
192
130
241
203
144
252
218
158
250
214
156
244
210
154
235
202
147
226
194
142
237
217
167
252
240
194
247
236
195
231
220
183
212
199
163
209
197
161
211
202
164
206
197
159
199
191
153
200
192
155
198
190
155
191
182
149
199
190
159
195
186
157
193
187
155
202
197
165
190
186
153
184
183
150
184
184
151
174
173
145
166
165
137
157
156
128
145
144
117
133
132
104
120
122
94
109
112
82
134
137
109
61
63
41
45
46
30
48
52
32
55
62
39
51
61
35
49
63
35
48
64
33
49
66
32
48
67
30
46
69
29
44
67
24
78
98
54
81
99
57
49
65
23
84
100
59
61
75
35
61
75
33
62
83
37
55
82
32
48
79
24
47
86
25
46
88
27
60
104
47
76
124
64
117
171
104
94
156
89
123
192
118
139
207
129
90
150
79
21
81
14
3
63
2
8
63
11
62
102
49
165
206
139
152
183
120
65
97
28
58
85
7
105
123
45
143
155
80
185
198
121
204
216
136
222
228
146
239
239
162
220
214
146
194
193
128
139
162
98
54
92
24
71
93
35
65
85
25
64
90
28
62
88
24
67
86
19
69
80
11
126
130
70
78
83
18
71
91
21
60
91
17
64
90
18
80
97
27
93
105
37
94
103
37
93
104
36
85
98
29
78
91
21
67
86
20
75
102
48
70
104
50
45
88
32
16
60
13
43
87
41
72
117
67
86
126
75
78
115
66
69
97
53
110
132
83
158
173
117
174
182
129
182
189
141
192
200
150
202
207
162
220
225
182
147
160
114
40
77
9
56
86
19
72
98
27
74
107
29
61
102
25
42
89
18
53
102
30
58
106
34
54
95
28
99
138
73
109
143
79
110
138
73
111
129
65
115
126
63
141
153
88
130
142
75
131
142
73
121
136
65
112
133
62
92
115
46
85
106
42
75
95
33
61
82
19
73
94
31
82
103
41
72
93
30
63
83
14
81
100
34
109
129
65
133
153
92
135
155
95
81
102
48
38
67
20
60
84
36
121
135
84
110
119
64
99
109
52
97
108
53
103
113
65
123
127
91
149
151
121
172
173
145
183
183
155
187
187
158
191
189
162
182
180
153
164
160
134
146
142
113
127
123
97
123
118
97
115
112
95
115
112
98
113
111
98
119
116
101
123
118
103
119
112
97
108
100
84
105
91
75
122
110
92
162
155
134
184
182
159
188
187
164
214
204
186
209
198
178
201
189
165
192
178
150
184
168
138
220
212
178
252
247
206
248
244
200
243
238
200
219
213
183
182
187
170
182
186
177
185
184
178
192
189
172
232
228
193
218
207
164
213
198
155
215
196
151
224
202
151
229
205
146
230
197
137
233
196
135
233
193
131
236
192
128
238
190
125
239
188
121
236
181
114
229
170
100
211
148
75
210
144
69
204
137
60
213
146
68
226
159
81
222
153
76
220
151
74
217
146
64
220
146
61
211
136
53
211
136
55
219
144
65
231
158
82
237
168
96
238
173
101
239
180
109
242
188
118
239
187
120
243
191
129
243
194
132
249
204
142
248
206
146
249
212
154
245
217
161
232
208
153
234
208
158
244
220
172
243
224
177
252
237
192
253
243
199
245
236
194
239
233
194
233
227
190
217
209
172
220
213
176
222
214
177
217
209
172
207
199
162
205
197
160
210
201
166
205
196
164
213
204
173
193
184
154
194
188
156
188
183
151
185
181
148
186
186
152
189
189
156
184
183
155
188
187
160
180
179
151
173
172
144
143
143
115
115
117
89
110
113
84
133
136
108
81
83
61
55
57
42
78
87
66
50
60
36
50
60
35
40
50
23
35
46
17
46
55
24
52
64
30
60
75
38
52
69
29
51
70
27
42
60
17
71
88
47
54
70
31
41
58
14
47
64
22
49
72
27
44
71
23
41
70
19
41
74
18
45
80
21
57
84
25
64
83
27
109
136
78
132
176
113
116
170
103
84
140
70
82
126
60
107
137
81
120
151
98
95
134
81
137
177
117
123
158
95
62
90
28
48
68
4
58
69
11
92
100
45
127
138
74
154
168
92
189
203
112
225
237
141
243
251
164
245
249
177
237
244
173
166
194
125
67
105
36
123
150
78
154
173
93
132
146
75
108
117
53
90
97
29
97
101
36
137
144
83
109
124
60
72
101
30
50
85
13
46
74
7
115
125
67
131
142
83
132
145
86
132
151
92
86
109
47
79
94
27
82
93
25
68
79
22
79
97
41
58
88
27
33
74
27
12
60
13
7
52
7
31
66
26
60
93
54
94
127
82
129
157
108
155
173
123
168
174
125
177
177
128
191
193
143
204
206
158
227
226
180
214
217
164
113
136
63
114
136
58
117
138
55
103
126
41
83
110
25
63
90
13
64
95
20
80
114
42
81
115
53
49
86
31
47
82
34
71
105
49
105
133
72
90
109
50
129
140
79
115
124
63
125
135
70
117
131
66
95
114
50
80
102
37
89
109
46
96
115
55
109
128
68
115
135
73
121
140
77
111
131
68
87
108
42
82
103
34
73
94
25
63
84
15
67
88
23
68
90
29
56
80
27
67
89
33
121
133
77
128
137
76
97
106
47
113
117
69
146
147
112
168
164
140
177
171
153
183
176
158
177
171
149
170
163
142
152
144
124
130
122
104
116
108
89
118
113
91
119
114
94
118
113
95
120
117
102
122
118
105
118
116
102
103
101
85
97
93
75
102
96
76
125
117
94
156
138
108
176
158
122
187
171
132
195
179
142
202
187
154
197
183
149
186
169
135
189
172
135
191
176
136
208
196
155
249
243
206
251
245
205
246
242
203
231
229
199
195
195
177
173
183
173
175
183
176
183
184
175
222
218
193
247
240
198
218
204
156
206
188
141
213
193
145
222
199
147
223
199
140
226
197
137
231
197
137
233
196
135
234
193
131
237
192
130
237
189
124
230
180
113
220
167
97
209
149
77
206
140
67
202
134
58
220
153
75
224
157
79
229
160
83
227
158
81
224
152
71
213
138
55
216
141
58
224
149
68
233
158
78
237
164
87
233
165
93
235
173
103
239
184
116
239
189
124
239
191
129
244
199
141
250
210
153
244
210
152
239
209
152
241
216
160
247
229
177
252
240
190
254
242
198
253
243
204
250
247
208
251
251
213
251
246
210
249
242
207
249
242
207
238
234
198
230
226
188
234
230
192
222
215
179
228
221
185
217
209
173
208
200
163
209
201
165
204
195
162
208
199
168
195
186
157
190
184
152
190
185
153
205
201
168
203
203
169
182
182
149
180
179
150
187
186
158
186
185
157
179
178
150
170
169
141
153
155
126
147
150
120
151
154
126
122
124
102
105
106
91
57
64
44
54
64
40
51
61
36
53
63
36
52
63
33
50
64
31
50
63
28
51
63
27
73
88
49
70
90
46
81
100
57
60
78
36
49
68
25
61
81
38
58
79
34
63
85
40
77
100
52
64
90
38
68
96
40
80
109
51
77
114
54
120
164
99
130
170
107
118
152
90
132
156
96
152
175
118
162
179
126
140
157
105
116
152
88
148
192
120
145
171
105
123
137
82
64
76
21
81
87
43
157
162
119
176
179
137
151
150
105
89
95
32
99
115
33
144
172
73
167
205
102
174
221
127
152
202
109
111
170
72
194
231
139
230
243
155
203
217
120
140
150
66
118
130
53
115
133
57
114
136
64
134
152
90
90
111
49
95
122
58
77
103
43
67
91
29
114
125
76
114
128
78
75
96
47
36
71
17
70
113
54
70
98
33
97
115
47
84
96
32
108
122
61
81
102
41
65
100
47
28
71
20
11
56
8
14
55
11
13
53
12
16
57
12
39
71
30
87
111
70
125
142
94
156
166
112
177
186
126
196
203
147
224
227
173
207
211
152
95
108
36
77
95
12
77
98
13
71
91
10
80
96
18
101
114
37
123
140
61
95
118
46
77
104
45
49
78
30
20
53
15
24
65
16
50
86
35
96
120
68
147
158
107
100
107
59
66
75
18
83
96
39
97
116
53
109
131
67
115
136
72
114
133
71
118
135
74
114
131
69
104
121
59
94
111
49
77
96
31
78
99
33
87
107
42
84
102
40
70
87
27
59
76
20
50
69
19
62
80
26
78
91
34
127
137
77
150
159
100
151
150
104
150
146
109
154
147
121
161
150
131
162
150
134
155
143
127
140
129
114
124
115
99
112
103
89
111
102
87
116
110
91
121
116
97
120
115
97
106
103
85
92
90
71
90
89
70
112
110
90
142
138
117
169
164
141
177
170
144
179
167
128
175
161
119
173
156
113
179
157
116
185
162
123
188
175
136
186
171
133
191
174
138
207
194
158
246
240
202
250
248
209
246
243
203
241
239
204
205
207
184
180
188
177
170
182
179
175
184
179
206
207
192
247
239
209
229
216
173
216
199
149
229
209
161
238
216
168
239
215
165
240
215
159
238
210
151
229
199
139
235
202
142
238
200
140
232
191
132
231
185
122
226
179
112
226
177
107
218
161
90
214
148
76
210
142
67
216
149
72
239
172
94
233
165
88
219
151
74
217
146
67
219
144
64
229
154
72
233
158
75
230
156
72
231
159
78
230
163
88
231
170
99
240
187
122
236
189
129
241
198
141
240
203
147
241
209
154
245
222
165
248
230
174
251
238
183
250
241
190
252
247
200
252
244
206
252
247
214
253
251
221
251
249
221
248
247
217
250
247
216
245
240
209
234
229
195
234
233
195
241
238
201
225
220
183
225
219
183
222
214
178
210
202
165
212
204
168
206
197
164
217
208
177
215
206
176
209
203
171
201
196
164
190
186
153
189
189
155
185
185
152
184
183
154
187
186
158
192
191
163
183
182
154
180
179
151
175
177
149
174
177
147
173
176
148
164
166
144
127
129
113
93
98
78
93
100
78
90
100
76
81
92
66
76
89
60
62
78
45
49
67
31
43
61
23
50
67
28
78
93
52
71
88
45
72
91
46
59
80
35
64
86
41
63
87
41
79
100
53
85
107
56
90
115
60
100
130
71
109
142
80
102
140
78
105
146
81
112
138
79
140
146
92
151
152
100
164
173
123
164
175
127
130
146
98
136
162
105
151
170
113
130
140
87
63
71
15
76
83
35
157
157
117
189
189
152
184
185
149
152
156
113
67
89
29
87
128
67
143
200
119
150
210
116
118
165
79
144
186
99
134
181
88
143
186
93
160
195
100
159
187
91
117
138
54
138
157
77
105
130
51
68
99
19
93
120
53
88
111
45
90
108
45
104
120
57
108
124
59
104
119
55
112
126
64
122
140
76
68
93
30
71
100
38
138
156
98
140
158
99
90
113
43
99
130
58
60
99
30
39
83
20
23
72
10
28
72
19
67
94
55
47
71
36
14
51
9
12
52
11
11
52
9
27
63
12
74
108
45
95
116
50
161
170
107
196
196
139
171
174
112
122
131
61
98
111
39
76
94
30
58
76
21
55
68
12
65
77
13
91
107
34
105
125
55
92
110
56
105
119
80
98
114
85
53
77
46
25
57
16
126
143
108
200
210
168
173
183
137
104
115
66
67
79
24
80
99
38
89
111
49
58
78
17
59
76
15
62
78
15
66
82
17
67
84
19
79
95
29
87
102
36
87
99
37
85
96
39
86
93
45
68
74
32
69
73
38
92
100
65
90
99
61
83
88
47
75
81
35
82
89
38
105
109
59
136
137
89
157
157
112
163
160
121
139
133
101
115
106
83
107
99
77
106
99
78
112
106
85
109
103
84
103
97
78
92
87
67
94
89
68
111
110
86
138
137
112
158
158
133
170
168
144
170
166
144
170
164
142
173
167
144
172
168
138
171
165
137
172
163
137
175
163
135
175
162
131
187
173
134
192
179
141
222
212
175
241
234
198
251
247
210
249
247
211
245
243
211
215
215
191
182
188
175
177
191
183
178
187
185
187
192
180
237
237
208
241
235
195
228
218
173
237
221
171
238
222
171
238
222
170
241
222
168
231
208
153
225
201
145
243
217
161
243
213
157
238
204
149
234
197
142
232
187
125
227
180
111
226
176
105
225
167
99
215
152
83
214
151
78
230
162
92
235
170
96
224
158
85
219
169
113
233
191
142
224
159
86
232
157
81
230
155
78
228
152
70
223
154
71
218
152
79
232
172
108
224
171
112
222
180
123
237
204
149
247
218
164
249
227
174
249
233
183
249
239
191
247
240
196
248
245
204
254
251
214
254
251
219
254
251
222
253
251
227
253
251
227
253
251
225
252
251
222
246
244
214
246
243
212
244
242
208
242
239
205
231
227
194
225
222
188
221
217
184
215
211
177
218
212
179
234
228
196
237
231
199
220
213
182
209
203
171
198
193
161
202
198
165
206
206
172
198
198
165
202
201
171
191
190
161
187
186
157
192
191
161
208
207
177
196
197
168
198
198
170
187
188
161
175
175
150
162
162
139
150
153
131
108
113
90
91
96
73
95
100
77
76
81
57
78
89
59
66
79
47
65
79
46
78
92
58
65
77
43
71
87
44
72
89
43
80
95
50
97
112
66
99
112
67
94
110
62
94
110
62
100
117
68
94
112
63
99
119
68
124
139
88
114
131
78
118
139
83
129
143
88
134
141
88
125
137
85
108
128
78
138
155
107
158
166
117
109
114
69
58
69
12
76
91
39
146
158
105
181
185
135
181
186
138
154
171
122
122
169
110
142
194
130
157
218
146
113
178
100
62
107
29
121
129
70
117
118
67
95
106
44
113
141
73
127
169
103
135
183
113
168
204
135
147
175
105
151
172
108
111
132
63
108
132
66
107
123
58
90
99
31
76
88
17
64
81
7
69
83
12
78
92
18
95
109
37
106
121
49
121
137
64
143
155
86
144
158
89
103
129
50
61
98
22
22
63
2
14
58
3
19
55
3
90
114
64
165
182
129
159
169
119
118
133
85
65
85
43
20
55
6
14
54
1
43
78
22
62
86
15
88
101
36
136
139
76
165
169
100
172
179
104
144
152
83
88
95
44
73
81
37
82
90
46
83
93
43
67
79
18
85
98
37
127
138
83
130
138
91
136
144
102
119
132
91
110
120
80
205
212
171
214
216
178
203
209
166
144
156
102
92
108
52
58
78
17
59
80
19
80
95
35
92
107
40
87
101
37
89
103
41
94
106
48
85
97
41
86
93
47
98
100
63
117
118
84
130
131
97
128
129
98
140
139
109
147
146
117
144
143
113
137
137
106
119
121
88
93
97
62
80
86
43
71
77
31
76
82
30
101
106
54
125
129
78
141
142
91
156
158
108
148
150
104
117
118
78
113
113
77
126
125
90
147
148
111
167
168
129
179
177
138
179
173
136
182
173
147
183
176
151
179
174
152
177
174
152
176
176
155
176
176
154
177
173
153
175
172
151
174
171
148
177
170
147
196
183
145
232
221
184
249
241
205
255
251
216
253
251
217
248
247
220
208
209
186
179
184
168
180
188
178
181
190
185
183
187
181
210
212
192
244
242
207
242
235
189
239
227
182
240
223
174
236
219
168
230
212
161
218
198
147
231
211
161
243
225
175
246
227
177
237
215
162
230
204
150
225
196
140
222
185
125
217
174
108
209
162
95
214
161
98
214
158
93
224
167
99
236
170
101
237
169
99
225
173
114
249
238
204
251
240
208
225
170
104
237
163
88
228
154
76
223
146
66
217
147
68
220
154
85
212
151
92
225
171
116
244
202
149
253
223
170
250
227
175
251
234
184
252
242
196
250
245
203
251
248
210
252
249
216
255
252
222
255
252
225
254
253
229
254
253
231
253
252
229
253
253
227
253
253
225
252
252
222
250
249
219
242
239
208
238
234
204
232
229
198
235
232
201
241
239
208
237
234
201
236
232
199
236
231
199
217
212
180
210
204
172
208
202
170
213
208
176
213
209
177
211
210
176
205
205
171
211
210
179
210
209
179
204
203
173
208
207
176
220
219
188
212
212
182
209
209
180
208
208
181
208
208
181
193
193
167
168
171
146
163
167
142
157
161
136
136
139
115
138
142
118
102
109
82
79
88
60
80
91
61
54
66
35
58
71
40
59
73
33
58
71
27
61
74
30
67
78
35
78
88
46
98
106
62
99
107
62
104
110
66
108
112
68
115
118
75
129
133
90
113
124
79
92
113
64
86
111
58
120
145
90
154
171
122
172
189
145
167
188
143
166
189
142
156
192
136
127
180
111
133
190
115
141
193
119
148
194
122
150
198
125
148
199
131
134
189
126
106
153
93
54
108
40
72
121
50
74
90
28
128
134
82
130
135
85
127
157
91
141
196
122
169
220
157
121
161
107
65
104
45
48
78
21
96
117
65
90
110
56
110
132
76
120
137
72
114
125
50
99
111
33
75
89
13
79
91
17
78
90
10
79
91
10
78
91
10
75
87
6
85
93
17
89
99
27
91
111
35
103
131
57
102
125
68
95
113
62
101
116
64
162
174
117
175
181
124
170
171
114
167
172
118
130
141
90
58
75
24
52
71
18
58
77
24
89
106
49
76
88
30
75
83
18
83
89
23
98
103
38
105
112
50
110
118
60
118
125
72
117
126
70
119
129
67
108
119
54
69
80
15
92
102
41
135
145
85
124
133
79
108
118
66
162
169
120
214
218
172
213
214
173
209
211
166
146
155
101
118
133
69
96
113
50
73
89
28
78
91
31
87
97
40
87
94
42
89
94
48
104
107
68
127
129
93
139
138
108
147
142
120
149
145
120
143
139
113
134
131
103
127
122
96
117
111
89
113
108
86
111
108
86
114
113
89
116
116
95
115
117
97
106
108
84
85
88
59
69
73
39
67
73
33
74
81
34
90
97
49
120
127
78
135
143
90
155
163
110
159
170
120
158
170
117
163
171
118
160
159
107
151
142
94
153
138
101
166
152
117
173
163
130
178
171
143
183
178
151
180
178
153
176
177
155
179
177
156
179
178
155
177
179
152
237
227
193
249
242
208
254
250
217
254
253
221
245
244
214
208
207
189
183
186
171
179
186
172
181
187
178
176
177
171
194
192
179
224
221
195
246
241
201
238
229
183
229
215
171
223
208
158
213
193
143
212
190
144
243
224
179
252
238
193
246
234
187
231
217
168
216
199
146
215
195
137
213
190
130
211
180
119
212
179
118
215
184
136
204
169
119
217
169
107
232
180
116
238
182
110
234
173
103
234
201
159
252
251
238
249
245
227
226
178
117
232
159
82
227
154
72
225
148
69
214
142
69
213
149
83
231
171
113
250
198
143
251
210
159
246
217
169
239
221
173
249
236
191
254
250
208
253
252
215
253
252
220
255
252
226
255
253
229
255
254
232
255
254
234
254
254
234
254
253
230
254
254
229
250
250
223
248
248
219
240
240
210
241
240
210
246
245
215
248
247
217
246
245
215
246
244
214
237
235
202
228
225
192
216
213
180
222
217
185
216
211
179
221
215
183
219
214
182
216
212
179
213
213
179
216
216
182
214
213
182
210
209
178
215
214
183
220
219
188
222
221
190
221
222
190
218
219
188
216
216
186
207
206
178
190
190
162
189
191
164
170
172
146
170
173
146
176
178
152
161
163
137
143
148
121
139
146
119
117
125
97
123
133
105
103
113
85
95
105
72
79
88
54
57
67
33
49
59
22
65
75
39
82
93
54
72
81
41
68
79
38
78
88
47
106
116
75
79
91
48
80
99
53
82
107
58
91
118
66
133
159
107
184
201
155
164
180
139
125
144
106
108
130
86
117
156
95
83
131
61
75
117
44
74
111
41
89
122
50
110
143
69
136
166
98
142
161
101
100
122
57
87
134
61
73
112
48
88
96
39
121
136
83
128
167
102
148
209
124
102
169
86
33
85
30
32
66
27
52
88
44
32
64
21
22
54
12
24
55
13
43
72
26
103
127
69
128
145
61
128
138
46
97
104
17
100
108
33
102
111
32
105
114
33
101
110
28
96
106
21
90
100
13
88
98
16
82
95
15
76
90
14
75
90
25
87
96
37
103
109
51
115
119
61
125
127
67
135
135
75
123
125
67
76
78
23
66
68
14
104
110
60
167
179
124
191
202
144
147
157
99
115
123
65
99
106
48
78
85
25
63
71
9
65
74
11
75
85
20
86
96
31
109
120
49
126
136
65
134
144
72
135
144
71
133
143
72
142
150
85
129
137
77
187
194
140
215
219
171
216
217
170
214
216
162
186
191
134
107
116
51
129
141
71
131
141
79
103
112
61
112
116
78
128
128
93
137
137
104
141
138
109
139
135
110
129
123
102
119
112
93
111
104
84
108
101
80
108
101
79
113
107
87
118
111
94
117
111
94
112
106
89
104
99
82
90
87
70
75
76
59
72
73
54
82
84
62
98
100
77
120
123
97
133
138
109
120
125
93
95
100
64
74
81
37
74
85
33
82
101
47
106
124
69
134
147
92
158
162
108
161
157
104
157
147
94
156
143
93
146
131
84
150
135
93
164
148
109
171
158
125
177
165
138
183
174
149
163
162
132
133
142
105
233
223
189
244
238
203
247
243
210
240
236
205
225
222
190
209
205
186
202
201
183
204
205
188
207
207
192
218
216
203
225
223
204
235
233
201
233
228
187
216
207
163
210
197
157
218
206
160
229
217
172
226
209
165
226
211
168
219
207
163
222
210
161
230
216
164
228
210
155
215
194
136
206
182
122
215
186
125
216
191
137
239
229
199
225
210
178
213
172
113
228
180
119
232
180
110
236
181
120
251
232
205
251
253
247
246
237
217
226
174
110
230
157
76
221
150
65
223
149
68
229
161
86
240
178
111
248
189
127
246
192
134
246
201
151
246
216
170
247
228
182
254
243
200
253
248
208
247
246
211
250
250
221
254
253
231
255
254
233
254
254
234
253
254
234
253
254
234
252
253
231
252
253
229
251
253
226
244
245
217
243
244
216
253
253
225
251
250
222
240
239
211
244
243
214
243
242
213
237
237
203
227
225
192
237
234
201
235
231
199
225
220
188
227
221
189
230
224
192
227
223
190
216
216
182
218
218
184
214
213
180
225
224
192
225
225
192
214
214
181
220
220
187
229
229
196
214
213
181
202
201
170
196
195
165
208
207
177
210
210
182
200
200
173
190
190
163
184
184
157
188
188
161
173
176
151
169
174
148
175
181
155
157
164
138
120
129
102
101
106
80
87
93
64
72
80
50
72
81
51
70
79
50
82
90
58
61
69
32
56
68
30
80
95
58
63
80
43
45
70
23
46
73
23
50
73
22
55
71
20
64
73
23
70
75
25
73
80
31
95
102
54
127
138
85
136
167
101
92
126
59
64
78
21
57
65
6
64
71
13
78
88
30
106
115
57
80
91
29
80
117
44
110
159
76
68
100
27
96
114
50
133
173
101
143
207
117
128
190
83
110
169
64
56
88
26
77
102
61
42
68
33
15
44
8
19
49
13
17
48
10
34
66
16
96
128
64
101
125
39
144
156
59
118
123
21
127
134
46
120
127
40
110
118
28
104
112
20
116
124
29
130
139
43
123
133
45
112
121
41
101
108
32
88
98
21
88
93
18
88
92
19
84
89
18
77
83
13
73
79
10
68
77
10
77
83
18
81
85
23
118
127
68
157
171
110
150
158
101
109
118
58
105
116
54
116
126
61
124
134
68
117
127
63
92
103
37
83
95
23
73
84
10
70
80
4
80
88
17
92
100
28
113
121
49
141
148
78
173
179
118
181
184
136
213
215
175
217
219
179
207
208
158
187
187
126
177
182
107
186
196
96
220
230
123
221
230
136
174
184
110
132
140
86
131
138
91
130
135
90
125
130
87
117
120
79
110
113
73
107
109
73
110
113
78
116
118
85
112
113
82
99
100
71
86
87
59
79
79
51
77
76
47
87
85
56
100
100
74
118
120
99
138
140
118
151
153
131
158
160
137
159
161
136
163
165
133
162
164
133
159
161
130
151
152
123
128
131
101
92
102
62
66
81
35
66
81
33
82
93
44
119
124
76
152
152
99
166
163
109
175
168
114
170
159
106
164
149
99
159
141
99
159
136
97
157
142
103
125
123
81
89
95
50
190
168
125
186
166
124
186
168
128
188
172
133
200
187
150
214
206
177
219
210
184
222
213
190
221
215
194
222
220
200
246
246
222
236
235
203
224
221
182
217
212
171
229
220
185
241
233
194
224
219
176
224
220
176
240
233
188
242
232
187
229
217
168
215
202
149
209
192
139
202
181
128
213
189
135
227
204
149
226
209
160
249
244
223
239
233
207
205
172
118
223
179
119
234
184
116
244
204
153
254
251
238
254
253
252
243
223
198
234
170
101
237
163
79
234
164
77
237
166
82
236
172
94
236
175
104
235
177
110
238
184
122
238
192
139
243
211
165
252
232
185
252
239
195
250
243
203
250
247
211
254
254
224
254
253
231
254
254
232
253
255
233
251
254
231
249
253
230
251
253
231
251
253
230
251
254
228
251
254
226
250
252
223
246
246
219
230
230
203
225
225
197
249
249
222
241
241
212
241
240
207
245
244
211
240
238
205
226
223
190
233
229
197
239
233
201
221
216
184
222
218
186
225
225
191
229
229
195
235
235
201
232
232
198
234
234
200
241
241
207
224
224
190
219
219
184
214
214
180
215
214
181
218
217
186
216
215
184
228
227
197
214
213
184
203
202
172
209
208
178
200
199
169
186
188
164
178
182
159
185
189
166
164
169
146
153
159
135
116
120
97
118
122
100
118
123
99
107
114
89
108
117
91
81
87
57
91
96
63
93
100
67
91
101
68
59
70
36
49
68
27
49
69
25
70
81
40
79
82
42
84
82
40
85
80
38
104
102
61
122
120
78
132
137
90
138
169
107
102
135
75
100
109
62
69
70
27
51
55
10
96
101
62
94
101
58
73
100
40
114
178
91
71
119
40
69
90
19
95
129
56
140
195
104
136
185
82
167
206
86
144
191
69
176
210
114
194
218
133
182
206
122
149
172
92
127
149
72
138
159
84
105
130
52
88
119
44
84
111
40
122
140
55
157
167
71
143
146
73
104
107
32
136
140
49
125
132
28
120
127
20
138
139
41
113
117
31
89
90
13
97
97
26
108
114
35
111
118
41
102
109
33
94
101
28
86
93
21
86
92
23
82
89
16
82
88
16
79
86
16
76
85
17
84
95
30
97
102
39
103
110
44
120
133
63
118
133
59
114
126
52
106
119
48
101
114
39
98
111
33
89
100
25
112
119
53
87
92
30
76
82
12
76
82
10
94
99
36
207
209
158
222
220
187
248
246
225
240
240
216
159
160
116
120
119
50
118
121
31
129
136
26
162
170
49
172
180
79
122
131
62
78
92
29
74
92
29
72
89
28
75
90
31
78
92
34
82
95
42
83
96
46
87
99
49
96
109
59
101
114
64
103
116
64
113
124
69
123
132
78
131
139
85
138
144
90
141
146
97
145
151
108
148
153
112
147
152
112
151
155
116
149
155
115
147
155
110
147
154
111
149
156
115
147
153
116
149
156
118
148
157
114
131
143
99
109
122
75
82
92
44
77
86
36
72
81
27
80
87
35
107
111
62
131
134
84
152
153
104
165
164
115
172
166
114
169
161
109
151
147
100
118
123
82
193
168
121
193
168
121
191
167
120
192
168
122
192
170
123
188
170
126
205
186
151
226
208
180
223
211
188
228
223
205
243
243
221
228
228
204
209
206
180
241
238
210
240
236
205
238
236
193
239
237
190
229
223
176
221
210
162
214
198
150
211
197
142
215
202
146
209
194
142
216
199
149
227
209
162
234
220
172
239
226
184
251
247
223
252
251
228
217
193
150
225
182
128
235
188
127
243
217
178
252
254
249
253
250
242
236
197
157
238
168
90
243
167
85
235
164
74
234
162
77
238
170
90
241
177
102
233
170
101
230
173
109
239
190
132
245
207
155
247
220
172
246
226
184
250
238
201
252
247
213
250
250
219
252
252
228
254
255
231
251
253
229
250
252
228
250
252
230
252
254
232
252
254
231
251
254
227
250
253
224
250
252
223
246
246
219
243
243
216
246
246
219
250
250
223
249
249
222
246
245
217
241
240
208
241
239
205
242
238
206
247
242
213
247
238
208
241
233
202
226
221
187
230
228
192
226
227
190
231
231
199
244
245
213
242
243
211
234
234
201
224
221
188
231
227
194
231
228
195
217
215
182
218
217
186
225
224
192
217
216
183
218
218
184
222
222
190
210
209
179
214
213
183
198
198
173
199
200
177
203
204
180
192
194
170
187
188
165
197
199
176
189
191
169
174
177
155
166
169
148
137
139
119
136
137
114
113
113
88
113
114
89
71
72
46
84
84
60
94
100
69
94
101
66
124
128
92
88
86
50
89
83
46
85
76
41
125
116
81
129
123
85
130
132
89
126
150
96
113
138
88
98
102
65
59
63
25
53
60
22
130
136
99
147
161
115
140
184
111
95
157
76
27
68
6
45
76
29
111
148
83
91
134
51
94
125
29
115
144
30
123
165
42
113
150
29
117
141
28
126
147
38
148
167
51
147
167
55
150
172
62
169
198
90
154
184
82
154
181
89
185
207
110
179
193
99
168
177
99
134
144
72
162
170
104
115
125
43
110
120
24
108
115
23
112
118
21
110
114
21
111
116
27
101
110
22
106
113
32
139
146
84
165
173
115
165
172
113
141
146
91
104
112
49
82
90
22
73
82
11
76
85
15
74
84
13
80
90
15
79
90
14
75
87
12
84
95
23
96
106
35
107
118
46
112
124
47
105
117
42
98
111
38
87
99
35
95
107
40
104
116
44
105
115
48
107
113
54
202
204
150
219
218
179
237
235
215
255
254
242
244
242
220
171
171
133
113
117
49
134
142
55
163
174
80
136
147
68
100
111
45
84
101
32
89
109
39
86
105
40
82
100
41
79
95
43
73
88
37
66
83
32
60
78
26
56
75
21
59
81
25
64
85
26
77
97
33
79
97
33
82
99
34
89
104
38
78
89
28
80
89
32
85
94
37
89
98
41
91
100
44
89
98
44
85
96
45
82
94
43
85
96
47
81
92
44
83
94
46
73
85
39
73
86
41
85
98
52
89
101
54
94
106
57
85
100
47
72
87
36
70
84
35
63
77
30
70
84
39
79
93
47
103
114
66
128
133
85
150
154
108
164
170
125
200
176
128
199
175
127
198
174
126
198
174
126
198
174
126
195
175
125
196
175
129
215
197
156
214
203
172
225
218
202
195
196
182
188
191
176
203
204
188
248
247
225
237
235
204
230
229
188
206
204
161
211
206
162
221
212
167
222
210
165
228
217
168
227
218
168
228
217
169
228
216
171
237
225
181
247
234
190
217
203
162
242
237
210
253
253
230
237
223
185
213
176
122
232
188
127
246
227
196
252
253
251
252
249
236
233
189
134
245
177
92
247
173
87
237
164
74
235
164
79
234
164
84
241
175
99
240
174
106
235
177
112
234
185
124
236
196
142
231
200
152
232
209
167
238
224
188
247
242
207
251
251
218
252
251
223
251
251
225
253
253
229
252
253
230
252
254
232
252
254
232
252
254
231
251
254
227
251
254
225
250
253
223
247
247
219
249
249
221
250
250
223
247
247
219
243
243
216
247
246
219
244
246
216
242
244
213
249
247
216
251
246
214
237
230
195
220
214
179
228
224
190
235
232
199
243
240
208
248
250
218
250
253
220
245
246
214
239
236
204
228
222
190
216
211
177
211
206
173
221
218
186
229
226
194
221
219
188
221
221
185
223
223
189
222
222
189
218
217
187
230
229
199
216
215
189
220
219
194
222
221
196
203
202
177
215
214
190
224
225
200
224
225
201
214
215
192
193
194
173
183
183
162
167
166
144
165
163
141
135
133
111
120
118
96
121
119
96
123
126
97
138
143
111
87
89
56
95
92
57
101
95
60
100
89
55
133
122
88
125
119
82
126
129
86
115
136
84
89
112
63
68
74
37
48
55
17
66
71
38
123
125
88
124
139
93
133
177
107
60
114
39
114
150
102
128
165
119
79
110
54
79
104
35
92
111
31
155
178
80
174
207
95
118
157
45
89
122
24
88
112
27
98
118
31
103
127
33
149
174
77
151
179
66
137
166
52
117
144
31
131
151
38
158
174
65
177
197
95
202
218
127
209
219
141
123
131
54
103
109
31
108
117
38
158
177
80
163
183
71
141
159
43
106
123
8
106
115
24
123
129
65
128
134
76
121
129
69
134
141
83
133
143
74
124
135
63
113
123
51
103
113
42
90
100
29
78
91
15
75
87
11
76
87
13
76
87
14
78
89
18
78
90
12
74
86
8
89
102
29
106
119
47
108
123
49
115
132
57
136
151
77
108
119
53
143
150
87
185
189
126
198
201
151
214
215
180
241
239
220
254
252
237
250
249
228
205
207
170
130
138
69
145
159
61
183
199
100
187
201
117
187
204
120
136
157
66
125
145
58
112
130
55
115
131
69
118
132
78
117
131
79
115
132
78
111
130
74
115
136
77
121
140
79
134
148
85
141
155
93
136
147
89
126
137
79
135
145
89
134
146
88
131
143
86
128
140
83
123
135
78
119
131
76
113
127
70
104
117
62
96
108
57
94
106
55
90
103
53
79
93
44
72
86
37
62
75
27
64
78
29
65
79
29
68
84
33
79
96
43
79
95
45
69
85
36
67
83
36
68
84
42
61
76
34
64
76
33
73
82
40
85
93
51
198
176
127
197
175
126
197
175
126
197
175
126
197
175
126
196
176
127
193
174
121
196
180
125
200
190
150
220
213
197
179
186
179
176
185
177
189
195
184
218
223
203
207
212
182
202
202
170
212
209
178
211
209
176
197
194
159
184
182
145
213
208
169
223
217
177
228
220
179
240
232
191
251
241
200
228
215
169
191
175
129
229
223
191
248
249
226
250
244
210
217
193
141
229
195
138
250
239
216
254
253
252
252
245
224
234
189
120
249
185
96
246
176
86
238
166
78
238
166
83
235
165
86
241
174
99
240
174
105
234
174
108
235
184
122
230
188
131
224
192
142
225
200
157
227
212
175
236
229
193
243
241
205
248
247
215
251
251
221
255
255
230
255
255
233
254
254
233
254
254
230
253
254
229
254
254
228
254
254
226
254
254
226
251
251
223
251
251
223
250
250
222
248
247
219
251
251
223
250
250
220
242
245
216
245
248
218
245
242
210
235
228
191
216
210
172
210
206
170
238
238
206
251
250
222
253
251
225
252
252
217
246
240
206
239
227
194
235
222
191
217
207
176
221
215
180
226
220
185
241
236
202
230
226
193
238
234
201
222
220
185
226
223
189
234
231
199
234
230
201
239
235
206
222
219
193
220
218
192
221
219
194
228
225
200
216
213
188
224
222
196
219
217
192
220
218
194
226
224
201
214
212
189
206
204
181
206
204
181
193
191
168
196
194
171
202
200
177
176
178
151
150
153
125
147
147
117
151
147
116
140
135
103
139
131
101
145
137
105
144
139
103
141
147
104
100
118
69
93
109
66
87
90
57
73
78
43
90
95
60
104
106
69
116
132
87
93
137
73
45
100
31
48
94
39
74
115
66
43
79
24
62
89
26
62
85
13
104
123
44
112
134
46
84
121
41
45
83
25
21
53
13
27
56
16
36
68
18
37
71
16
52
85
18
60
94
20
103
136
60
89
114
37
108
128
43
126
145
46
138
154
56
137
149
58
144
150
73
145
148
87
134
145
71
156
169
70
169
176
54
168
171
43
145
153
33
116
121
18
104
107
22
93
97
19
89
97
18
81
93
17
78
89
13
74
85
7
73
84
7
73
84
8
78
89
15
85
97
24
89
101
28
84
96
23
85
98
25
76
90
17
74
88
9
76
89
8
78
92
11
77
91
11
77
92
11
81
96
18
83
97
22
94
106
35
113
122
56
141
147
82
156
162
103
177
182
128
197
200
153
229
230
198
249
248
231
240
239
219
177
180
136
121
132
46
118
134
31
202
215
124
221
238
134
204
228
104
203
227
104
201
223
111
180
199
103
141
157
78
105
118
53
88
104
45
87
104
45
84
103
45
83
99
42
83
96
36
93
105
45
98
110
51
82
95
35
96
109
49
103
118
58
107
122
62
108
123
63
110
125
64
116
131
70
121
135
74
124
138
78
126
140
81
132
146
88
133
147
91
128
143
88
126
141
85
131
146
90
134
149
93
131
146
90
133
150
94
134
151
97
135
152
100
132
148
99
112
127
80
110
126
84
137
152
110
136
149
108
132
145
104
130
142
102
199
177
128
199
177
128
199
177
128
199
177
128
197
175
126
196
175
128
196
176
127
193
177
127
213
203
167
218
210
196
189
196
187
175
185
177
179
189
180
175
187
170
175
188
164
168
173
153
159
162
143
166
169
148
174
178
155
181
184
161
215
212
184
230
225
194
241
234
199
244
236
198
219
207
166
189
175
131
175
161
114
198
191
156
251
250
225
241
239
208
227
216
170
240
221
179
254
250
237
253
251
241
245
227
190
246
195
116
251
190
106
243
176
90
245
172
89
237
165
83
235
166
86
239
170
97
238
171
102
242
181
113
236
185
120
227
184
126
220
187
135
217
190
146
216
199
160
220
212
174
228
224
188
240
238
205
250
249
218
254
253
226
254
254
229
254
254
230
253
253
226
253
253
226
253
253
226
254
254
226
253
253
225
251
250
222
245
244
216
241
240
212
251
250
223
253
252
224
254
250
219
252
246
215
248
239
207
229
216
180
207
193
154
206
195
160
233
229
193
251
251
216
253
251
218
254
249
218
246
236
195
232
210
172
218
188
154
210
187
153
231
220
183
242
234
197
238
231
194
245
238
203
242
237
201
239
234
200
229
225
190
231
227
194
242
238
206
241
236
206
230
225
196
234
230
202
230
226
198
231
226
198
217
212
184
226
221
193
224
220
191
215
211
183
229
224
196
218
213
188
207
202
176
223
220
197
230
228
205
226
224
201
239
237
214
221
219
196
208
209
185
202
203
178
182
181
155
177
174
147
167
162
133
165
160
131
156
150
119
155
153
118
138
145
104
94
109
64
124
135
92
138
138
102
136
139
102
114
120
83
95
99
63
74
89
49
44
83
30
30
79
22
32
77
26
60
100
54
38
76
24
45
76
21
60
85
29
77
100
38
101
128
59
84
122
58
83
119
63
34
64
25
44
71
33
50
79
34
37
68
23
46
79
33
34
68
17
78
109
55
87
113
53
79
97
31
97
104
43
116
120
68
157
160
113
189
190
150
211
210
180
227
223
173
213
191
109
186
146
18
199
167
30
213
196
71
200
194
91
161
158
79
136
138
73
118
125
58
110
117
54
98
108
42
90
100
32
89
99
30
89
99
30
84
94
25
79
91
21
84
96
25
66
81
5
71
88
13
79
96
21
90
105
31
100
114
38
103
117
42
98
111
36
89
102
24
82
96
15
82
96
15
79
92
11
80
91
12
82
92
16
95
104
34
130
139
69
164
174
97
180
188
122
197
202
156
234
236
203
236
238
198
169
174
116
119
128
44
170
179
87
209
225
108
206
230
91
206
230
87
204
228
87
203
225
94
202
221
102
188
205
96
180
197
100
170
186
105
105
121
55
49
66
5
51
67
15
53
71
16
53
71
14
52
72
14
64
82
25
74
88
33
80
94
41
73
87
33
60
75
17
58
72
12
63
77
20
64
77
22
67
80
27
70
82
31
73
85
35
73
87
36
77
90
40
77
91
41
83
97
46
86
100
49
89
105
53
90
106
55
91
107
58
105
121
74
121
137
91
102
119
73
117
134
89
122
138
94
120
136
93
124
141
97
197
176
127
199
179
129
199
179
129
198
178
128
196
176
126
194
174
127
198
176
138
219
201
170
230
217
193
223
215
202
221
217
202
198
196
183
190
191
183
181
187
179
177
187
175
170
181
169
169
178
167
182
190
177
182
188
174
177
182
167
211
212
195
238
237
216
200
197
170
187
181
148
158
150
112
147
136
101
153
141
102
175
167
130
240
237
207
149
150
112
196
194
153
249
244
221
254
254
247
253
251
228
239
210
153
250
196
115
248
189
114
248
184
103
241
168
91
241
168
89
239
171
89
238
169
95
239
172
104
237
176
107
233
181
115
226
182
122
218
184
131
216
187
142
211
191
152
209
199
160
220
216
179
240
237
207
245
242
212
251
250
220
252
251
221
251
251
222
253
252
223
255
254
226
254
254
226
253
252
226
243
241
215
233
232
204
242
241
213
254
253
225
254
253
225
243
241
212
243
232
199
236
217
181
229
203
164
219
192
151
224
202
159
245
230
193
254
248
207
254
246
201
246
229
183
233
206
162
212
186
138
213
186
139
222
196
152
242
222
178
252
241
196
249
242
204
252
245
208
244
236
199
240
232
196
231
225
189
231
225
191
227
221
189
230
224
193
242
236
207
242
235
207
238
232
204
231
226
197
228
223
194
222
217
188
228
223
194
220
215
185
215
209
180
216
210
181
228
223
194
213
207
179
230
226
202
237
235
212
236
234
211
236
234
211
219
217
195
199
198
176
200
199
178
203
201
179
216
213
189
212
208
182
189
187
158
182
179
149
147
148
114
130
139
99
75
88
45
127
135
94
139
141
104
140
143
106
133
137
100
131
132
96
97
104
71
37
57
25
41
74
34
50
82
42
41
69
32
27
54
13
34
59
13
83
98
53
124
141
91
91
115
67
78
103
53
113
137
82
87
102
65
58
73
32
66
80
41
82
96
63
99
111
83
113
126
91
125
139
95
140
147
98
157
161
110
172
176
131
183
185
145
202
201
165
224
221
188
225
219
186
217
192
139
195
149
55
209
164
16
246
221
67
252
239
100
228
213
109
149
142
71
109
113
61
147
153
97
160
161
106
157
163
106
152
160
102
145
153
96
141
149
92
134
141
85
146
156
95
114
126
64
85
100
35
78
96
26
75
95
24
78
95
21
81
96
23
87
100
26
96
108
33
96
107
32
97
110
29
112
125
44
96
108
28
83
95
12
85
97
13
86
98
15
90
103
15
104
117
30
127
140
56
150
161
86
180
188
119
213
219
153
214
220
146
199
205
114
187
194
94
206
219
106
200
219
92
199
219
87
200
221
84
201
223
82
200
221
80
206
226
89
203
224
94
197
219
98
190
212
99
173
191
93
130
143
68
94
108
38
102
116
53
115
131
75
128
142
87
135
146
87
144
155
96
151
162
103
148
159
100
131
142
88
81
92
50
54
65
22
55
67
24
56
67
27
57
67
28
59
71
32
59
71
32
58
71
31
60
73
33
59
72
31
59
75
29
63
78
33
64
79
36
67
83
40
68
83
42
63
80
35
73
90
45
71
88
45
72
90
48
84
101
61
191
169
120
198
177
130
198
177
133
194
175
134
190
172
133
192
176
142
217
200
169
243
230
205
235
225
207
224
215
198
234
223
204
226
216
200
217
210
197
210
206
195
185
183
173
165
175
162
169
181
170
174
184
176
175
183
174
173
180
167
185
189
174
247
248
230
197
196
173
161
158
128
147
143
109
155
148
114
158
148
112
156
149
107
184
182
140
140
147
92
199
199
158
243
240
220
253
253
238
251
244
211
243
202
139
248
197
117
247
196
120
243
188
112
248
180
102
236
165
81
234
167
83
240
173
95
236
170
102
242
180
114
232
182
116
220
179
121
215
180
129
210
183
139
207
189
149
206
192
155
224
212
177
240
234
202
241
237
206
245
244
211
250
247
216
251
247
217
249
248
219
251
250
221
245
244
215
234
232
203
236
234
204
247
245
216
252
253
226
252
251
224
247
239
206
241
225
187
232
202
162
219
186
144
203
171
127
222
194
148
249
228
181
248
232
184
253
237
186
242
219
167
233
202
149
233
197
143
240
206
151
223
193
139
241
214
160
249
227
172
243
227
172
243
228
183
245
237
194
226
219
178
233
224
187
233
226
189
227
222
187
234
228
198
239
233
205
237
232
203
233
228
197
229
224
193
221
215
184
229
223
192
236
231
200
222
216
185
220
212
183
217
209
180
234
227
198
213
208
179
219
215
185
246
241
217
237
233
212
243
240
217
239
235
212
212
209
184
215
212
188
209
204
180
217
211
186
220
215
188
210
203
175
194
188
159
174
170
139
162
162
128
117
123
87
116
126
89
126
135
95
145
151
109
145
150
108
139
142
100
133
134
92
142
146
109
161
171
143
68
82
54
61
79
46
45
64
21
67
86
35
66
81
26
78
89
35
97
107
58
150
162
113
160
171
122
167
180
131
176
185
141
169
175
132
171
174
132
180
184
144
189
192
155
192
195
157
193
194
155
190
189
150
178
178
136
174
181
134
177
181
131
186
188
149
208
206
167
181
171
111
178
140
49
192
139
15
225
180
34
254
234
74
250
234
87
210
192
90
126
125
61
83
90
45
87
90
44
111
112
67
130
135
85
142
148
99
144
151
100
143
151
96
131
139
87
120
131
85
114
128
81
84
101
54
41
62
13
42
65
14
64
78
27
62
74
21
71
83
27
76
88
26
86
100
29
101
114
35
117
129
49
119
132
54
112
127
46
112
129
43
110
124
44
119
129
66
139
146
95
109
117
51
106
116
31
112
123
28
125
135
42
142
153
57
155
165
64
169
178
73
188
201
91
198
215
97
212
231
106
206
224
100
199
218
92
195
215
85
193
214
78
200
222
86
200
222
88
199
222
83
197
218
88
197
215
100
189
206
97
165
181
88
122
134
63
89
99
40
80
88
31
80
88
33
85
93
39
95
103
46
115
123
69
134
142
93
145
153
104
142
149
106
137
142
109
136
140
116
135
137
117
137
139
115
139
142
115
143
146
120
143
146
121
136
143
117
129
136
110
121
127
100
112
119
91
105
112
84
102
109
84
97
102
77
90
96
71
88
93
68
85
90
64
193
164
107
179
156
105
176
159
116
180
167
129
183
171
136
182
168
136
182
168
132
222
213
184
243
237
214
230
222
197
230
220
196
226
216
193
225
216
192
225
219
192
223
217
189
214
213
193
192
192
181
183
183
179
178
180
173
167
171
154
161
162
142
235
234
214
235
234
209
158
156
126
189
185
153
200
197
162
147
141
104
147
141
98
140
139
88
144
149
91
211
210
166
240
236
208
245
244
219
250
237
198
243
199
133
252
203
126
245
192
114
248
189
109
237
175
95
232
167
87
233
167
87
237
172
95
240
173
105
239
175
110
226
174
109
215
175
119
214
180
130
209
183
139
207
189
149
207
192
155
216
202
167
218
209
175
226
222
188
245
242
208
246
241
209
247
241
210
251
248
214
247
243
209
241
237
202
247
243
208
254
250
214
254
250
217
251
247
215
247
237
202
240
217
174
223
189
140
208
161
112
195
152
101
205
169
116
244
217
162
254
232
175
248
226
172
239
214
159
239
209
154
243
208
153
221
181
126
207
175
114
234
208
145
251
221
160
243
212
152
232
211
149
241
221
171
247
232
186
236
221
181
235
219
184
235
223
191
248
242
211
250
244
213
245
240
209
234
228
196
204
198
166
180
174
142
231
225
193
239
233
201
242
236
204
227
221
189
225
216
186
227
217
188
221
212
182
221
215
185
231
225
195
227
221
195
238
233
210
238
234
209
229
226
201
203
202
175
219
214
188
225
218
191
230
223
195
211
202
175
184
175
146
177
169
139
188
183
150
174
171
137
163
165
129
154
160
123
122
127
89
139
144
102
137
140
98
143
145
101
141
142
98
135
137
98
196
202
172
194
199
173
94
102
73
70
84
41
85
100
47
80
94
38
80
94
39
77
92
38
61
75
23
71
86
36
90
104
57
101
111
65
112
118
74
123
124
82
141
140
97
154
153
108
151
150
104
163
161
118
196
195
153
198
197
157
190
193
149
188
189
148
218
220
191
247
245
217
237
228
189
195
165
95
189
148
39
205
168
27
227
203
59
229
205
87
199
181
93
166
161
95
141
142
84
151
148
92
141
139
93
127
132
82
126
129
82
121
124
76
117
123
73
82
91
46
34
51
13
25
44
8
45
64
31
56
76
44
25
46
14
47
58
29
45
54
23
62
72
38
108
119
75
151
164
104
161
172
101
154
165
89
127
142
65
93
113
32
92
115
31
107
126
47
194
204
153
245
250
215
209
212
177
136
139
86
112
120
32
132
142
44
153
164
62
169
181
74
189
201
89
200
215
96
194
211
85
185
203
72
188
205
76
179
194
73
198
215
95
200
220
89
186
206
74
182
203
73
188
210
74
194
216
80
200
222
86
208
230
97
204
223
102
202
218
116
171
185
99
132
141
75
121
128
78
117
121
84
110
114
80
98
103
66
89
96
45
97
105
51
124
132
78
147
153
106
153
156
121
156
153
130
162
159
136
164
161
139
167
164
143
171
168
148
171
170
149
174
173
151
176
175
151
176
175
149
175
175
148
175
179
153
170
174
148
167
171
145
164
168
140
150
154
126
173
136
64
143
118
55
118
107
58
119
113
71
130
122
83
129
117
80
124
113
71
174
164
132
247
243
213
186
181
150
142
132
98
137
128
90
145
137
91
168
163
109
177
173
116
184
177
130
201
192
154
198
188
159
176
167
143
162
153
131
158
151
124
208
205
178
252
250
223
227
225
195
249
246
214
248
243
208
162
155
119
164
161
117
145
146
94
146
151
93
183
183
133
239
237
201
237
234
199
249
235
187
249
208
136
253
203
131
252
193
120
243
188
117
240
203
150
242
207
158
231
180
120
234
172
101
243
175
106
243
176
110
233
176
111
220
178
121
213
179
129
208
182
138
202
184
144
200
184
147
201
186
150
209
199
163
227
222
186
227
224
187
237
231
197
249
242
207
253
248
210
250
244
205
248
241
202
252
243
204
251
241
201
249
237
196
247
228
186
243
213
165
226
184
130
207
156
97
195
141
83
201
153
95
243
205
144
251
222
159
242
218
155
248
221
164
247
216
160
246
212
156
229
192
135
216
177
121
235
206
145
249
226
164
238
208
147
241
210
151
250
224
165
249
224
171
231
204
157
229
204
165
238
218
185
247
235
205
252
245
216
246
238
204
237
228
192
235
225
190
191
180
149
170
163
131
226
220
188
234
228
196
235
229
197
228
222
190
224
218
186
219
212
180
219
213
181
229
222
190
214
208
176
217
207
179
220
211
184
220
214
185
219
216
187
228
227
199
231
226
200
219
212
185
197
189
161
196
186
159
195
185
157
204
194
163
210
200
167
217
209
175
197
191
156
190
186
151
177
174
138
176
175
137
174
172
134
156
154
114
140
138
97
132
133
94
132
136
105
222
228
198
197
204
175
78
88
54
62
75
32
52
67
21
63
80
34
53
74
27
49
72
25
42
66
19
56
77
27
53
69
22
65
72
30
122
123
82
152
150
105
152
152
99
154
154
99
159
159
106
161
161
112
171
170
125
183
181
147
237
235
214
236
237
211
239
239
211
252
248
225
209
203
159
194
176
109
195
175
90
198
183
94
194
179
99
186
173
101
179
171
106
155
145
75
155
144
67
157
149
77
158
152
86
143
137
78
141
137
86
132
135
92
84
95
59
37
55
22
26
46
11
34
51
19
52
68
37
71
85
55
70
80
44
91
99
57
152
162
111
165
177
118
162
175
109
144
154
86
117
129
57
105
124
46
95
120
40
71
99
23
74
100
30
92
109
62
210
217
190
249
250
225
223
221
189
150
153
100
145
152
80
152
161
73
170
182
77
189
201
86
194
208
86
192
207
78
190
207
66
193
211
65
184
200
65
206
221
96
202
220
88
189
207
76
182
201
75
181
202
73
183
203
77
190
211
84
198
219
89
203
224
94
202
222
96
198
216
101
192
206
110
174
184
109
141
148
98
138
141
111
144
147
120
136
140
103
113
119
75
80
88
34
98
106
48
140
145
93
162
163
125
162
161
129
167
166
137
167
166
135
166
165
131
164
162
130
163
161
129
162
160
127
153
151
118
140
138
105
125
130
99
113
120
87
100
108
73
82
94
57
86
99
60
160
124
52
145
121
58
98
87
36
105
98
55
125
117
77
129
116
80
136
125
85
158
145
114
246
243
215
230
225
194
170
159
127
165
154
119
168
157
115
167
157
107
156
146
88
151
143
73
159
151
76
164
153
81
166
152
93
173
156
109
172
159
118
183
176
141
251
249
218
250
247
217
251
245
213
218
205
173
189
177
142
168
165
122
147
153
99
148
159
99
155
158
103
242
240
198
241
238
196
248
232
179
251
209
134
249
198
124
245
196
129
245
219
168
252
250
216
253
250
218
232
205
159
226
170
106
246
182
111
245
182
112
235
177
112
219
176
119
211
177
127
210
184
140
201
183
143
197
182
144
198
183
146
210
198
160
210
203
165
219
215
176
233
225
189
250
240
204
244
235
195
233
221
182
245
230
190
244
227
187
243
224
183
245
217
171
238
200
148
224
176
116
207
152
87
197
139
73
188
133
70
234
186
124
249
213
149
243
212
149
240
213
150
245
215
155
235
204
144
237
205
145
223
188
129
245
210
152
244
213
156
250
218
162
246
218
161
250
229
172
240
212
157
228
194
139
219
183
133
231
203
158
251
235
194
250
239
201
238
224
189
229
215
178
239
225
188
227
215
180
175
164
133
169
162
130
228
222
190
239
233
201
234
228
196
241
235
203
230
225
191
219
214
179
221
214
181
210
202
169
221
212
179
235
218
187
229
210
181
218
204
175
226
218
188
235
231
201
226
220
193
209
200
174
221
211
184
227
216
190
217
206
178
214
202
171
222
208
174
214
201
166
213
198
164
205
190
157
205
194
159
191
185
150
180
175
139
166
162
125
151
147
109
133
133
95
117
123
88
183
190
158
230
239
208
190
201
171
163
174
143
133
144
113
93
107
72
94
110
74
63
83
44
37
58
15
74
90
47
114
126
81
142
148
103
156
155
112
157
154
109
158
158
107
162
163
107
162
162
107
160
160
111
172
169
133
237
233
220
253
252
240
194
197
163
193
193
146
235
233
198
237
239
194
204
197
146
178
168
106
180
170
106
181
174
107
169
168
102
167
163
102
171
162
91
146
134
44
148
137
36
148
131
39
147
134
48
131
127
58
121
127
71
72
85
40
62
81
36
72
90
45
58
75
32
70
85
43
76
87
47
128
138
83
139
149
87
151
161
95
162
173
105
133
144
76
108
121
53
105
120
52
93
113
46
75
101
39
64
93
39
67
94
46
86
107
66
102
116
85
188
192
171
247
247
229
243
242
215
219
220
178
208
213
152
202
210
129
198
209
111
191
202
92
185
195
73
183
196
61
176
190
48
182
195
65
222
233
107
195
210
74
186
203
68
182
202
72
181
203
71
182
204
76
185
205
80
186
207
80
186
206
80
192
212
87
195
215
93
193
210
94
191
206
102
188
200
118
168
176
120
154
159
121
148
152
121
148
151
120
133
138
101
95
101
54
98
105
50
133
140
95
154
160
116
163
169
126
160
166
119
155
162
111
154
160
114
144
149
104
138
143
99
130
135
91
119
124
83
114
120
83
107
116
76
90
105
61
95
116
67
99
123
70
174
148
100
165
142
97
184
165
127
187
172
138
189
174
143
189
174
143
186
176
141
188
173
146
238
234
213
243
236
213
222
207
182
219
204
177
210
195
166
203
187
155
185
167
133
177
162
118
168
155
101
162
151
84
164
152
84
162
149
87
174
159
108
165
155
114
237
234
203
252
247
218
249
239
209
185
169
138
213
201
167
144
143
97
143
151
97
152
161
101
152
155
98
218
216
174
233
228
185
247
231
178
245
201
129
250
208
139
245
218
167
252
247
213
247
250
223
249
248
214
216
200
157
226
178
117
246
187
114
244
186
112
234
179
112
215
175
117
221
187
137
213
187
143
201
183
143
196
180
143
195
179
142
198
185
145
209
200
159
216
208
168
228
219
181
229
216
177
215
197
153
214
192
150
237
212
169
233
205
163
242
210
166
242
198
148
227
175
116
211
153
85
197
139
69
191
137
69
231
176
111
251
200
135
248
203
139
251
211
149
242
206
144
233
196
135
238
201
140
231
195
134
238
201
141
239
203
143
243
213
155
250
221
163
249
223
165
236
211
154
236
201
146
232
192
135
236
197
142
240
210
158
241
218
168
232
207
162
216
191
147
232
210
169
247
231
196
207
195
164
170
163
133
181
175
144
239
233
201
246
240
208
242
236
204
233
227
195
231
220
187
222
209
176
239
224
191
230
214
182
229
211
179
228
200
169
218
189
159
223
200
169
234
219
189
222
213
183
238
229
202
217
207
181
236
225
198
222
210
184
214
202
175
223
209
177
215
199
165
220
202
169
194
173
141
217
194
162
221
203
172
214
204
172
207
198
165
206
200
164
186
181
145
161
159
123
157
160
123
146
151
117
193
199
170
230
237
211
227
235
209
202
211
180
185
195
161
130
139
107
96
104
71
130
139
100
148
158
111
148
155
109
149
152
107
155
153
110
162
159
115
161
161
109
159
159
106
158
158
110
177
174
142
239
236
217
254
251
248
247
250
236
191
193
154
176
174
118
176
172
124
183
175
126
183
174
115
175
166
96
142
133
73
158
153
95
152
153
92
150
150
94
164
162
102
130
126
56
105
97
8
110
92
6
107
98
13
81
86
8
81
93
31
91
105
46
85
103
43
91
108
50
91
108
48
77
92
35
145
160
101
170
181
115
127
137
68
166
176
106
161
170
106
112
120
66
66
81
32
64
82
41
76
96
59
91
114
81
79
104
72
88
113
80
77
100
67
100
117
87
108
119
92
154
158
138
234
232
217
252
249
231
235
234
201
213
216
163
216
221
154
231
234
159
228
230
146
207
212
115
184
191
87
186
194
80
199
209
83
178
191
50
167
184
43
173
193
54
176
200
57
180
204
64
182
204
68
181
203
68
179
201
68
178
199
67
181
201
71
183
203
74
186
206
78
188
206
89
195
209
112
198
210
131
173
181
125
158
164
118
160
165
125
159
164
120
147
153
104
135
141
96
125
131
85
117
124
76
110
116
68
99
105
61
101
108
68
112
118
81
116
122
88
129
134
101
144
149
116
145
152
112
113
125
79
91
110
59
86
113
56
90
121
60
181
173
138
179
169
136
190
176
145
189
175
147
187
175
148
183
173
146
178
168
140
181
163
141
219
212
191
248
242
220
236
222
196
189
173
146
188
170
143
186
166
137
186
164
135
184
162
131
181
163
127
179
165
121
174
161
112
172
161
110
167
160
108
175
171
131
246
244
219
251
249
222
251
248
212
194
188
154
233
230
191
148
151
99
136
145
86
152
161
101
150
155
96
172
171
123
234
226
183
247
233
181
241
199
128
243
207
144
246
238
205
253
251
226
249
245
219
246
242
207
206
191
145
220
178
121
244
186
115
245
186
112
225
171
102
223
186
127
233
204
155
215
191
148
203
184
145
195
178
142
193
177
138
192
177
137
196
184
146
217
205
166
216
198
158
208
183
140
209
179
129
211
179
129
214
178
127
223
184
133
232
188
137
225
170
112
209
149
85
203
143
74
194
138
67
216
159
91
247
189
120
248
194
125
246
197
131
231
187
121
236
195
130
243
201
138
236
194
133
232
192
131
241
202
141
242
205
144
240
203
144
237
207
149
234
210
151
239
211
153
241
202
146
221
177
120
229
184
127
236
197
139
242
206
149
239
195
140
230
190
134
246
218
170
225
205
167
184
172
142
172
161
133
213
203
171
243
232
198
249
241
206
239
232
197
247
235
201
229
213
180
215
198
164
244
223
187
240
214
177
216
187
149
216
180
136
217
179
133
218
182
139
226
198
160
230
211
177
220
210
180
209
200
172
220
209
181
236
225
197
222
209
181
201
184
153
225
204
169
243
224
185
239
222
184
228
211
175
231
215
180
227
212
177
227
213
178
224
212
177
216
205
171
201
194
159
179
175
142
157
155
123
167
167
137
198
201
173
233
236
208
214
219
188
194
198
166
191
196
161
181
185
149
160
164
127
152
155
114
151
152
111
156
155
111
161
159
113
159
157
109
158
157
107
157
157
112
186
184
154
245
243
228
252
250
242
254
253
239
234
236
211
182
182
141
178
174
120
175
167
107
173
162
95
171
161
91
161
154
83
94
90
34
152
150
95
140
138
85
118
120
68
119
121
73
95
96
51
58
58
10
93
88
43
81
82
35
55
64
12
61
70
22
67
73
26
58
70
17
53
66
5
87
99
39
149
164
96
166
183
112
122
137
69
122
132
66
197
201
137
181
182
121
193
201
143
114
131
89
82
104
77
85
108
88
88
112
89
107
130
97
175
195
155
176
190
147
168
175
129
165
169
125
160
162
125
168
168
135
223
221
194
251
250
222
235
234
198
213
214
164
222
221
164
225
221
160
230
228
159
230
228
154
231
230
148
214
215
120
181
186
80
161
169
64
158
171
59
159
179
52
169
190
59
175
197
67
173
195
62
173
196
55
178
201
57
179
202
59
183
205
64
184
206
65
183
204
67
186
206
76
187
206
89
195
212
118
203
217
133
189
200
129
139
147
90
127
133
84
115
120
75
101
104
60
108
109
70
143
142
109
159
158
129
170
171
145
174
175
152
174
176
155
173
177
154
164
171
143
124
136
95
106
124
71
99
121
67
85
110
58
100
127
75
162
168
139
164
163
134
170
165
136
173
167
136
166
162
129
157
153
121
166
158
130
178
162
139
195
186
163
248
243
221
248
235
207
213
198
168
182
165
134
183
164
132
185
165
132
183
162
130
182
162
128
182
162
126
182
162
124
174
162
120
163
162
113
191
191
154
254
252
232
252
251
225
248
248
210
239
237
201
225
224
183
145
150
93
135
145
82
152
162
101
150
157
95
158
160
106
238
233
191
246
234
186
244
202
135
232
194
132
254
250
216
252
249
222
251
250
223
241
238
205
201
184
137
209
170
113
245
188
120
241
179
107
220
168
102
243
211
154
235
212
164
221
198
157
207
187
149
197
179
141
194
176
136
189
173
131
193
176
137
200
180
141
196
172
129
202
174
126
205
170
117
206
169
114
210
170
115
211
168
112
201
155
95
208
151
85
205
145
79
201
144
75
205
149
80
240
181
112
251
194
125
241
188
119
228
180
112
242
199
131
247
207
139
238
195
132
225
184
121
231
190
129
249
210
148
234
195
133
235
194
135
243
208
151
242
217
159
243
215
155
222
179
120
224
177
119
236
188
129
240
196
136
237
193
131
236
184
123
229
178
117
233
200
147
209
188
149
181
170
138
181
166
136
232
214
178
236
218
181
238
224
186
248
239
200
231
213
176
211
186
149
234
210
169
246
223
177
234
204
157
217
178
130
215
171
116
210
164
106
221
177
124
221
186
140
228
206
166
212
199
167
226
215
186
219
206
177
230
216
187
232
217
188
218
202
169
233
217
181
238
223
184
221
207
167
227
214
173
237
221
178
232
212
168
213
195
154
224
210
174
231
219
186
234
224
196
234
229
206
238
234
210
230
228
204
217
219
193
223
225
200
227
229
205
211
214
189
204
207
178
202
206
176
201
203
173
191
193
159
160
159
123
159
158
115
159
157
109
158
155
105
158
157
108
177
176
138
247
246
220
253
252
233
249
248
230
242
241
210
230
231
193
216
215
172
172
167
114
142
132
68
152
137
68
165
153
84
146
138
74
122
118
66
137
134
86
119
119
72
103
110
58
99
106
61
40
45
13
34
45
16
71
76
44
73
76
45
64
66
36
65
69
37
65
71
35
59
69
25
97
106
54
159
170
108
154
173
100
111
131
60
64
87
22
122
140
76
223
230
170
187
193
133
177
194
131
141
161
115
105
126
99
102
126
104
102
128
98
102
127
89
172
186
150
214
221
181
208
209
160
211
210
157
213
211
162
213
212
162
209
208
162
213
211
173
239
237
197
237
236
187
231
229
177
228
224
173
233
228
177
232
227
170
229
225
160
222
219
145
219
218
140
202
204
126
185
191
108
181
191
101
181
194
100
173
187
82
170
189
67
166
189
53
180
205
67
192
215
80
192
214
78
186
209
66
183
207
60
186
211
66
197
221
83
197
219
92
193
213
90
194
209
99
209
219
129
209
218
139
216
224
153
225
231
168
202
205
153
176
175
136
172
169
138
174
170
145
174
173
150
172
175
151
143
149
123
102
114
80
99
120
71
118
139
84
96
116
63
83
102
55
119
137
90
154
156
128
156
156
125
163
162
126
169
167
126
158
159
114
159
159
115
168
164
125
177
168
135
178
172
143
237
233
207
239
230
196
238
227
192
188
175
140
180
165
131
179
162
128
179
163
125
181
163
126
185
161
127
184
162
128
171
161
124
158
159
111
179
181
141
251
250
227
247
244
216
250
247
210
247
244
209
226
225
184
149
154
98
137
146
84
151
162
101
150
159
96
151
159
99
217
218
175
248
239
194
240
200
140
224
182
123
252
245
210
248
247
217
249
250
223
231
225
191
193
172
125
220
180
125
244
191
125
239
180
113
225
178
119
250
226
173
246
228
182
224
204
163
213
191
153
202
179
140
196
175
133
190
171
127
196
175
132
194
169
126
196
167
119
197
165
112
200
162
108
200
161
105
201
159
102
191
146
88
189
141
81
192
136
71
193
134
69
196
141
74
231
177
108
245
189
120
232
179
109
229
179
110
249
201
133
242
197
130
238
194
128
227
186
122
229
188
124
240
200
138
244
205
143
232
192
130
243
204
143
242
207
147
240
209
148
237
200
138
230
182
120
223
176
116
240
193
132
246
197
135
227
176
112
231
175
111
226
170
108
215
176
124
196
177
137
180
167
132
198
178
140
244
217
177
249
223
182
243
220
178
240
220
178
214
186
146
236
202
156
245
213
163
230
196
142
218
179
123
216
170
114
215
165
109
228
179
121
228
182
127
221
184
134
223
197
153
229
210
174
228
211
179
234
216
184
223
204
174
235
216
186
234
220
186
215
206
170
244
233
198
227
210
176
241
222
182
230
211
167
204
186
142
227
214
177
249
240
210
251
246
225
254
251
236
251
247
237
252
249
238
252
250
239
247
247
236
252
252
240
249
250
236
245
246
231
234
235
218
207
208
189
217
218
197
220
220
195
219
218
189
181
179
143
174
172
127
173
171
123
166
164
120
196
195
154
240
240
202
247
247
214
245
245
213
233
233
196
210
209
171
192
188
151
173
167
122
164
156
99
165
159
98
152
146
88
132
125
74
139
134
86
108
108
60
90
97
52
95
104
60
62
69
34
27
35
8
37
49
26
61
68
42
74
78
57
77
79
59
70
74
45
71
80
41
145
166
110
162
180
114
151
165
102
95
118
48
66
87
15
61
88
23
98
126
61
110
137
73
106
137
70
124
158
91
121
146
95
96
118
84
99
125
94
111
139
100
108
133
98
107
121
97
167
173
146
218
222
184
212
214
165
210
212
155
211
211
155
213
213
160
215
215
165
210
210
161
230
229
181
243
242
192
236
233
186
238
235
189
237
233
183
230
228
167
222
220
155
219
217
154
218
217
155
205
208
144
176
181
118
179
187
115
200
211
114
207
225
101
206
227
93
208
230
97
199
220
88
182
200
67
160
180
43
147
170
30
155
179
42
185
209
72
190
212
70
191
210
65
191
208
69
198
211
86
197
208
91
199
213
100
202
215
112
213
223
133
227
234
155
215
221
149
195
199
144
175
180
130
134
141
96
82
92
46
88
102
53
99
116
65
119
135
85
109
124
78
100
113
69
128
141
94
165
158
124
165
161
122
161
160
113
155
155
102
157
159
101
157
162
103
161
161
108
162
163
114
169
167
124
224
225
185
238
235
193
242
236
195
220
212
172
187
177
138
170
157
120
166
159
114
170
164
118
176
164
121
178
167
126
163
163
121
152
159
109
188
192
151
251
250
224
212
206
178
238
232
197
248
243
210
233
233
191
150
155
98
142
151
89
151
161
100
152
162
100
151
160
97
178
181
132
246
241
196
245
213
158
224
190
135
250
244
207
248
248
216
252
251
224
214
204
165
189
166
116
227
186
132
236
185
122
238
185
123
236
197
147
252
234
187
232
216
172
225
207
166
224
202
163
208
185
143
199
174
129
196
172
125
190
168
121
190
164
115
195
160
106
197
156
99
195
154
97
196
154
95
195
150
91
187
139
79
180
130
69
180
127
63
181
123
60
212
159
94
236
184
117
226
172
106
233
185
116
252
205
137
248
200
133
235
188
123
230
184
120
218
179
113
234
195
129
246
206
142
241
200
137
246
204
142
237
196
134
240
203
140
250
212
149
236
189
126
215
162
96
223
177
115
246
198
134
234
180
116
213
153
86
226
166
97
233
173
108
211
170
117
191
175
135
183
165
127
217
187
142
239
203
157
242
211
164
249
222
174
221
189
142
231
197
150
244
214
159
231
195
139
235
191
135
227
181
123
227
184
123
228
183
126
234
188
134
232
190
135
229
193
141
234
204
158
243
218
176
238
214
174
223
199
161
230
207
170
238
215
179
222
204
168
233
222
186
252
240
207
246
225
194
228
205
171
233
218
183
246
238
207
254
250
225
253
252
236
252
254
244
253
255
249
255
254
250
255
254
250
255
254
250
255
254
250
254
254
248
253
253
243
254
254
242
252
252
239
242
243
227
236
237
220
230
232
212
228
228
204
228
227
196
176
174
135
163
161
119
164
163
120
164
163
118
166
165
121
179
177
133
193
191
149
200
198
156
202
199
160
185
183
147
171
175
128
192
199
140
166
167
118
115
118
74
120
122
82
125
133
87
126
149
93
93
111
63
93
101
65
104
108
82
87
92
69
68
76
54
63
67
44
54
60
36
55
63
37
63
73
31
112
123
67
151
187
107
133
165
90
94
115
53
78
98
31
67
85
10
73
94
33
57
89
27
55
103
43
87
145
76
91
144
73
104
147
86
94
134
81
95
135
82
111
146
95
104
131
95
113
129
109
107
121
102
117
128
102
186
194
156
211
218
170
216
219
165
217
218
163
222
222
167
225
225
172
224
223
174
236
235
193
253
252
218
248
245
217
244
241
207
239
238
191
225
224
171
212
211
155
206
207
141
198
203
124
210
217
129
214
225
127
200
218
95
192
212
67
197
216
68
182
200
63
146
162
41
113
127
19
92
106
5
88
104
4
105
121
22
145
163
53
161
181
52
171
190
49
183
200
64
203
215
97
202
213
99
187
203
73
185
200
73
196
211
89
203
218
101
206
221
107
208
225
121
214
231
134
208
222
139
192
203
135
159
168
111
121
129
75
121
130
80
140
149
103
135
147
96
146
160
103
174
165
124
170
167
121
160
164
112
161
166
108
163
167
107
163
169
109
165
167
109
161
167
110
165
168
115
167
171
119
191
191
144
211
209
163
225
221
177
195
188
146
182
174
133
156
160
108
153
163
108
157
166
111
159
167
113
154
168
113
153
165
112
202
207
165
252
250
221
188
181
150
197
185
152
249
243
210
222
222
181
152
157
101
147
156
93
152
163
102
150
160
101
151
159
96
171
170
114
247
244
198
247
227
177
227
207
160
249
247
211
254
252
220
248
242
214
200
183
138
193
170
114
220
177
123
243
192
130
218
171
112
249
220
174
243
225
184
231
211
171
235
215
176
227
205
165
209
188
143
198
176
127
195
170
121
190
166
115
191
160
107
195
156
97
196
153
91
193
151
91
195
150
90
189
141
81
182
132
70
173
123
60
166
114
51
173
119
56
214
162
98
220
170
103
217
165
99
247
203
132
245
201
133
240
193
127
237
189
125
211
163
100
232
194
127
242
203
136
250
210
145
250
209
146
232
189
126
237
195
131
245
207
142
246
202
139
236
181
116
221
164
94
241
195
129
243
195
130
229
170
104
224
157
88
220
157
86
225
167
97
205
166
113
188
174
134
186
163
123
228
186
137
239
198
146
251
220
166
233
202
148
237
202
149
239
203
150
242
212
156
234
200
144
234
194
138
238
195
138
227
189
129
230
191
138
230
193
142
242
209
155
225
191
141
239
205
160
237
206
158
228
199
149
226
198
151
222
196
151
239
214
170
236
212
174
245
229
193
249
236
200
233
214
182
235
219
190
253
248
222
255
253
231
254
254
235
251
252
238
251
254
242
253
255
248
254
255
250
254
255
250
255
254
250
255
254
250
254
254
246
250
251
237
248
249
235
247
248
231
241
243
223
238
240
221
232
233
215
230
231
209
218
217
191
200
198
168
179
177
142
181
182
139
169
167
126
170
167
125
170
167
122
170
166
119
168
165
120
169
167
127
193
198
159
206
222
171
134
161
91
96
114
63
42
61
22
79
94
62
71
92
55
98
137
86
99
134
81
36
54
14
47
54
26
67
73
50
50
56
34
47
55
31
35
44
15
55
65
26
119
133
76
157
173
103
139
180
90
109
153
68
77
105
40
71
88
23
72
93
18
89
110
52
67
95
39
103
155
92
94
165
92
96
173
97
110
182
108
119
187
110
131
192
114
121
165
102
103
131
92
109
127
97
117
133
107
107
122
100
95
106
82
133
138
105
189
190
145
221
221
172
231
230
181
238
238
188
244
244
192
242
243
201
252
252
227
254
253
234
254
253
229
253
253
213
242
242
189
223
225
155
198
205
112
188
199
83
192
204
77
192
205
78
174
189
62
160
176
43
144
159
34
120
133
28
96
109
37
81
99
40
95
110
58
129
142
89
156
167
108
169
180
114
166
181
98
166
184
81
155
173
57
162
177
55
168
185
56
169
183
52
175
191
60
189
206
76
197
214
87
198
217
91
201
223
96
188
210
83
181
203
81
198
218
106
217
235
133
218
228
145
202
212
142
231
239
174
218
228
155
220
232
151
167
161
117
156
157
106
165
172
115
165
173
114
166
172
113
165
169
111
162
168
110
157
169
109
158
168
108
159
168
110
159
164
111
160
164
113
169
170
121
183
183
136
173
172
125
147
156
101
153
169
110
151
168
108
149
167
106
146
165
103
153
166
111
190
194
153
246
244
217
190
180
155
197
181
154
223
215
182
206
205
162
153
159
100
150
160
95
153
163
101
148
160
101
151
162
100
176
175
118
248
245
195
247
235
187
245
233
193
250
248
218
253
253
222
234
224
192
184
164
117
194
167
113
197
154
97
196
147
83
229
188
126
245
214
167
230
209
169
241
221
180
230
208
169
228
205
164
211
189
142
198
175
124
196
169
114
193
162
106
191
155
98
193
152
91
191
148
84
190
145
83
191
144
84
182
133
71
171
121
58
163
113
51
160
107
45
186
134
72
210
159
96
202
153
89
235
185
120
245
198
132
247
200
133
236
189
121
212
164
99
224
178
116
241
202
134
246
210
141
249
212
144
239
198
132
242
197
132
241
202
135
251
209
142
240
191
124
225
170
100
230
175
101
233
185
121
251
205
138
226
168
99
200
137
71
223
168
106
218
171
115
207
176
128
187
175
133
193
165
122
217
170
118
247
206
150
242
207
150
245
214
158
238
206
150
243
210
156
243
212
157
233
202
147
237
205
150
231
197
143
227
193
138
224
191
139
244
215
164
234
203
151
238
207
157
238
207
159
241
204
154
228
193
140
232
203
151
233
208
158
242
218
171
247
224
182
246
226
187
247
233
193
245
234
198
254
248
220
253
251
226
252
251
227
251
251
231
253
252
236
254
254
237
254
254
241
254
254
243
255
254
244
255
255
244
254
254
243
252
251
238
244
242
223
240
238
217
235
233
212
235
233
211
242
241
219
241
240
220
231
230
209
225
223
200
225
223
196
199
197
167
161
163
122
162
163
118
165
165
117
160
158
111
160
157
111
161
157
116
162
160
122
157
164
126
142
161
118
104
135
79
104
138
89
62
93
52
63
87
50
69
94
55
65
98
51
127
178
114
37
75
26
35
51
19
42
47
26
38
45
21
35
44
23
66
74
40
130
142
86
151
169
100
123
147
73
84
129
43
114
172
80
62
100
24
68
92
16
75
106
29
86
110
56
91
118
69
69
118
60
112
185
113
152
240
155
148
237
148
136
212
129
90
145
76
60
99
47
68
90
53
147
159
121
136
151
115
116
133
105
114
127
104
134
139
112
141
143
107
187
190
144
211
214
165
227
228
179
237
236
186
243
244
200
247
248
211
251
250
218
250
250
211
246
248
191
228
235
157
209
223
117
198
212
86
185
197
63
165
177
46
161
166
53
130
133
35
114
122
34
120
130
56
105
117
59
76
92
47
57
77
35
100
116
77
115
126
89
133
141
101
151
155
114
165
168
127
179
182
136
167
171
117
165
175
103
157
171
85
157
177
78
146
168
54
151
167
50
171
186
67
185
204
78
192
210
84
181
202
69
180
202
64
194
218
78
191
215
77
158
178
51
182
194
108
240
248
174
215
227
136
194
210
89
176
173
127
166
167
115
167
174
115
167
175
115
169
174
115
168
171
114
161
170
111
156
170
109
154
170
109
155
169
110
156
167
110
156
166
110
154
163
107
162
171
114
169
177
120
139
151
93
147
162
103
153
168
109
150
167
106
146
164
102
151
162
107
182
185
143
240
236
208
223
211
191
227
210
189
229
220
185
193
192
145
156
163
101
151
162
94
154
164
101
148
158
99
153
164
104
181
181
123
241
236
180
241
237
185
251
243
204
254
252
225
251
250
222
212
203
159
183
162
112
193
158
108
187
140
80
192
146
76
215
174
107
221
189
137
223
199
154
243
222
177
228
205
163
223
199
156
211
185
138
201
173
121
197
167
109
194
161
99
193
155
94
191
150
88
182
139
73
184
136
71
189
141
80
174
124
62
162
112
50
152
101
43
165
112
51
194
143
80
187
137
75
209
161
97
234
187
123
246
198
135
231
182
116
212
163
96
226
179
114
243
199
135
246
206
139
248
211
142
240
205
135
245
206
137
235
193
126
252
214
146
245
202
133
236
186
116
237
184
110
225
173
98
245
197
130
241
191
122
202
149
81
200
157
99
187
160
112
189
163
118
196
176
135
186
172
132
195
163
118
221
177
121
238
196
137
248
212
153
229
197
141
249
222
167
239
208
155
235
202
148
241
208
154
243
210
156
243
210
156
228
195
141
238
207
155
240
215
162
225
194
143
243
216
163
229
202
149
240
202
150
237
198
146
249
220
167
235
212
161
246
224
176
248
228
183
244
223
179
250
233
190
253
245
206
252
246
215
248
242
214
252
248
221
254
251
228
255
253
232
252
250
226
251
249
226
255
252
232
254
252
231
253
252
232
251
250
229
247
245
223
244
239
217
240
234
212
237
232
209
245
240
217
241
236
214
243
241
220
240
238
215
226
224
200
221
219
193
213
213
183
194
195
158
169
170
131
161
162
120
156
157
113
158
158
113
164
162
126
164
162
127
115
118
84
117
128
96
134
155
118
122
150
111
121
152
111
93
124
83
33
62
19
41
68
24
106
154
94
119
164
109
40
62
28
47
55
33
36
52
19
67
79
39
134
147
90
149
166
94
120
143
67
139
168
96
81
128
52
102
176
72
62
118
18
71
100
15
71
97
29
52
78
32
46
73
32
27
74
19
115
191
111
141
230
136
123
207
116
87
145
79
77
110
73
82
108
74
104
122
76
150
159
109
136
146
99
66
84
47
79
100
66
87
104
64
135
144
111
186
191
156
214
218
182
218
219
178
212
213
161
218
220
166
225
229
163
228
233
153
221
229
134
203
214
97
187
205
67
178
203
47
174
195
40
153
164
28
122
129
20
143
138
51
170
167
85
179
180
105
133
141
80
138
151
102
139
153
111
161
172
128
180
188
144
175
181
138
179
183
136
181
182
136
183
181
139
188
184
148
189
186
149
188
192
149
172
183
134
155
182
113
141
176
90
164
190
107
176
196
113
179
199
106
172
188
85
166
184
71
164
183
64
176
195
74
171
190
70
131
150
26
164
175
105
240
247
190
224
237
149
189
210
71
172
168
123
171
172
120
170
176
118
169
176
117
171
175
118
169
174
117
162
171
113
155
169
110
152
170
111
151
171
111
151
169
107
151
168
105
149
165
101
142
158
91
158
173
107
146
160
97
140
155
93
153
169
106
154
171
109
150
168
106
147
159
102
172
177
130
229
227
191
230
220
193
234
219
196
225
216
180
190
189
139
157
165
101
152
163
95
155
165
103
150
158
98
156
163
103
184
180
121
241
233
176
248
246
196
246
244
205
252
252
227
231
229
198
189
181
122
172
152
93
202
167
116
188
142
81
191
144
77
188
145
79
199
163
106
225
197
148
230
207
160
243
218
172
225
199
153
213
185
135
202
172
118
197
166
106
194
160
96
194
155
93
189
147
84
181
136
69
182
134
70
184
135
75
167
118
55
156
106
44
157
106
48
177
126
63
173
123
60
191
143
80
218
173
108
236
192
128
225
182
118
215
167
104
231
183
119
248
205
140
246
207
142
247
204
139
242
204
137
246
211
143
244
208
141
235
198
131
253
215
147
231
189
120
238
190
119
241
189
115
232
179
103
243
191
119
226
168
101
200
155
96
179
161
114
169
164
127
172
161
124
183
170
134
188
173
133
198
163
117
242
197
139
237
194
135
229
191
133
246
217
161
235
205
151
234
201
149
235
202
149
247
215
161
235
202
148
238
205
151
242
210
156
246
214
162
244
215
163
226
195
143
245
216
165
235
205
153
242
205
152
227
190
136
247
216
162
251
225
172
244
216
166
235
211
162
240
218
169
250
232
186
253
241
198
244
234
197
247
236
201
254
246
211
253
245
213
250
241
209
251
244
211
252
246
214
251
245
216
247
242
213
245
241
212
242
239
209
238
234
206
235
229
205
235
229
205
231
225
201
227
221
197
229
224
200
229
226
202
224
221
197
218
215
190
217
214
189
222
219
193
221
218
189
211
208
179
188
187
155
178
177
144
188
187
155
181
182
156
152
153
130
172
174
153
197
201
180
161
171
148
130
150
118
100
129
92
105
141
99
104
137
97
87
115
75
77
113
60
126
173
114
84
120
72
41
54
19
72
87
44
132
145
84
145
160
92
116
132
63
84
104
35
85
109
42
94
138
64
103
171
69
76
135
23
81
106
23
87
101
55
83
103
69
81
107
65
64
117
51
117
202
107
110
199
97
118
186
100
86
130
75
79
103
75
96
115
77
137
154
86
138
147
72
148
156
94
142
153
101
129
144
89
133
148
92
144
156
115
237
239
219
253
253
236
247
250
207
224
232
157
222
230
141
209
219
108
192
207
73
170
186
49
147
164
19
150
169
23
173
194
51
168
182
46
115
118
6
156
152
74
192
186
110
204
197
119
198
194
123
144
150
86
175
187
129
180
185
137
183
181
137
182
181
132
179
178
128
177
175
128
180
178
134
181
180
136
180
177
135
177
176
137
173
179
139
181
194
150
176
205
146
125
175
107
82
133
64
105
143
78
120
146
84
144
161
97
131
150
77
122
141
61
129
146
68
130
146
71
127
144
65
196
210
134
203
219
128
185
204
91
158
179
46
163
159
115
170
171
120
171
177
120
167
174
116
172
176
120
170
174
121
167
173
120
161
171
115
154
171
111
151
174
110
151
173
107
146
167
101
143
164
94
148
168
96
147
168
94
153
168
101
142
157
91
151
167
104
154
172
109
150
168
106
147
162
105
161
172
118
198
203
154
213
210
168
225
217
183
224
218
177
194
194
140
158
166
101
161
172
105
180
190
128
153
160
99
157
165
102
186
179
118
213
200
144
252
247
203
250
249
215
249
248
218
195
190
151
146
139
70
187
171
104
217
190
132
209
177
115
200
165
101
194
156
94
200
161
104
202
170
115
228
203
151
231
203
154
224
195
144
216
185
130
204
173
114
201
167
104
196
160
93
193
153
88
185
140
75
180
134
66
183
135
70
180
131
71
166
117
54
157
107
45
165
115
56
168
119
56
181
133
69
196
151
87
213
169
104
224
182
116
209
169
106
223
182
121
244
202
141
249
209
147
246
208
144
241
199
137
248
210
146
244
210
145
243
209
143
250
213
148
245
206
138
227
186
117
243
197
126
249
198
124
239
184
109
233
171
98
227
164
97
200
162
106
171
162
120
172
163
131
171
161
127
178
168
132
188
174
131
201
165
115
237
189
128
230
185
126
243
204
146
242
208
152
233
200
147
245
211
159
250
217
164
234
202
148
236
202
148
240
207
153
248
215
161
233
201
149
241
208
158
239
208
157
246
215
164
242
211
160
235
199
145
237
201
145
252
221
165
254
227
171
242
210
156
247
218
164
250
225
171
254
231
182
251
232
185
251
234
190
247
227
182
245
225
179
249
232
188
249
233
193
249
234
200
247
235
204
244
234
206
243
234
206
238
230
201
231
224
194
226
220
191
221
215
188
222
215
189
216
210
183
215
209
182
217
210
184
212
206
180
222
216
190
213
207
183
219
213
189
226
220
197
232
225
203
232
226
203
238
233
209
235
233
209
234
233
209
232
233
212
235
237
217
241
243
225
229
229
215
227
228
214
204
213
189
180
199
171
165
193
159
161
189
152
142
167
128
100
138
92
105
169
99
125
185
116
106
141
86
136
156
98
137
153
87
107
123
64
73
89
39
74
92
44
76
94
46
74
96
40
83
124
36
103
154
41
85
118
34
83
99
59
85
104
66
76
110
54
112
183
95
108
200
95
118
195
101
111
164
87
63
100
44
79
103
58
131
149
89
192
207
118
173
184
96
146
154
83
128
137
77
115
130
67
96
118
51
177
197
157
244
252
229
248
250
212
225
236
152
219
232
122
200
213
90
175
189
49
154
169
36
106
119
11
110
122
38
183
200
92
169
186
58
128
130
18
151
138
45
218
211
119
216
220
141
223
226
156
209
214
147
184
197
133
143
159
98
193
201
147
195
189
144
185
182
133
187
185
135
188
186
139
190
188
145
192
190
148
186
185
142
179
182
137
167
177
129
148
164
113
126
154
92
112
163
94
97
161
88
56
117
46
74
124
63
76
114
61
61
95
45
53
82
39
93
117
76
150
173
127
126
145
101
131
149
91
209
227
151
181
197
109
150
164
75
156
152
110
165
166
116
171
177
120
165
172
114
166
169
116
149
140
104
147
137
101
156
152
109
160
165
113
157
172
112
151
171
108
151
171
107
154
174
106
158
177
106
155
173
100
152
169
98
145
161
92
146
163
96
150
167
103
150
168
106
142
164
105
145
165
103
168
183
116
169
178
115
169
171
119
198
196
148
190
191
136
162
170
103
163
174
107
183
193
132
154
162
101
155
165
100
194
186
120
222
204
137
242
233
180
253
251
211
209
207
166
137
131
71
172
167
99
211
200
135
206
189
129
203
185
125
203
181
122
204
177
119
203
174
115
197
168
109
207
181
125
212
182
129
219
188
134
214
182
123
205
173
110
201
166
101
196
159
90
191
149
82
186
140
72
185
138
67
181
133
69
178
129
70
166
116
54
165
115
53
171
121
62
169
121
58
180
135
70
182
138
73
212
170
105
209
167
102
217
175
114
236
200
140
245
212
153
241
206
145
235
196
134
247
209
146
241
207
143
251
218
154
245
209
146
244
203
141
238
196
130
236
195
125
246
202
129
246
196
121
236
178
103
233
167
84
231
167
91
202
164
106
174
163
122
176
164
129
173
162
126
181
165
127
193
170
125
210
169
115
237
190
127
234
190
131
247
207
149
231
196
140
239
206
153
244
209
157
237
202
149
229
194
140
242
207
153
242
207
153
227
193
139
228
196
144
235
201
150
252
222
170
251
221
170
239
206
155
242
208
153
240
205
147
247
216
158
246
213
155
245
209
153
251
217
159
252
218
162
247
213
164
254
226
179
252
226
177
240
211
163
248
220
172
247
222
174
241
218
175
234
214
178
234
216
186
232
219
190
237
224
195
232
221
191
226
215
185
221
212
182
216
209
181
213
206
178
209
202
174
206
199
171
210
203
175
223
216
188
228
222
195
225
218
193
224
217
193
225
217
195
223
214
194
231
224
204
237
231
211
241
239
218
241
239
218
245
243
221
249
250
228
247
250
230
251
252
234
251
250
234
251
252
234
231
236
215
222
231
206
191
201
174
167
177
150
160
191
151
122
178
111
93
161
82
125
178
104
120
156
84
104
132
64
56
83
31
18
48
7
25
51
15
41
64
24
113
131
59
119
142
52
98
145
39
89
138
46
69
104
46
78
118
56
111
170
87
116
199
94
111
193
92
115
166
96
90
121
64
80
103
48
125
144
80
149
163
89
153
164
80
142
152
73
121
130
61
103
113
53
95
115
59
156
190
127
174
213
152
218
235
199
233
239
181
213
228
113
227
238
116
180
191
68
123
135
12
88
96
4
74
81
22
108
118
60
155
171
76
148
161
47
152
145
53
207
186
97
212
199
109
196
207
120
191
212
130
184
207
129
153
178
108
105
133
65
135
152
94
194
198
142
190
194
140
184
186
135
188
189
138
193
194
143
197
196
147
195
195
149
192
196
148
194
208
151
159
183
117
152
185
112
147
183
116
129
185
110
110
174
98
59
112
50
62
110
54
78
120
74
118
154
115
124
153
117
109
134
98
100
124
90
150
172
132
153
170
126
144
153
112
179
185
142
167
163
126
163
163
116
168
174
119
169
173
118
159
155
108
146
124
103
147
125
102
137
120
90
141
132
93
156
155
109
156
169
115
155
173
113
155
175
108
160
178
107
162
179
107
153
169
100
149
165
97
145
161
95
147
163
99
152
166
104
144
163
101
138
158
93
153
172
102
162
177
107
158
171
106
157
162
102
166
170
108
163
171
104
160
169
104
175
182
121
153
162
100
158
165
102
199
191
118
242
229
139
250
243
161
208
204
143
136
130
64
150
141
73
236
229
171
234
224
177
209
193
144
200
184
126
197
181
120
200
181
122
201
178
117
202
176
114
200
175
116
215
191
136
221
196
140
208
179
121
206
174
111
201
165
98
197
159
88
192
150
79
184
138
67
180
132
63
192
144
82
176
128
67
167
118
57
166
116
56
169
119
60
168
118
57
176
129
66
199
154
91
201
159
95
198
158
94
218
181
124
219
188
132
201
175
120
195
168
113
203
173
117
211
179
123
223
192
134
237
205
146
239
203
143
238
197
137
238
194
128
236
193
125
250
206
136
244
193
119
236
178
101
232
168
77
236
171
88
205
163
105
175
162
125
176
165
130
175
166
125
180
163
121
198
167
121
225
179
125
233
187
125
236
195
136
241
201
145
238
200
144
238
206
147
250
218
163
234
198
145
235
198
144
234
197
143
231
196
139
234
198
139
232
197
140
251
215
159
247
212
156
236
199
144
236
197
142
238
201
143
243
210
150
252
221
161
251
214
153
247
207
144
248
208
144
245
202
143
237
196
141
251
213
161
243
206
155
238
202
155
247
213
168
239
208
161
227
201
156
222
200
160
224
205
170
223
208
177
224
211
182
223
212
182
219
209
178
217
207
177
212
205
178
206
199
171
203
196
168
206
199
170
210
203
174
218
211
182
216
209
182
217
210
184
214
206
183
212
204
183
219
209
188
230
222
201
232
225
205
228
223
202
233
228
207
239
235
212
239
238
214
245
246
223
242
243
221
241
239
218
251
247
227
249
246
226
245
243
221
249
248
226
243
245
221
219
225
197
184
202
154
149
179
117
104
144
77
82
123
54
80
118
58
82
123
69
83
128
74
86
130
74
99
135
80
173
202
107
135
161
58
70
120
21
95
161
59
121
179
93
130
194
103
132
207
105
127
202
97
118
173
85
110
137
78
130
144
93
140
155
95
140
154
84
134
145
73
146
153
97
163
172
120
163
169
122
164
166
126
147
153
116
142
160
114
163
185
140
233
244
217
249
252
210
216
227
136
200
215
85
166
177
48
95
103
3
82
85
32
117
120
75
168
176
115
190
199
117
194
195
103
205
193
107
205
182
98
205
187
95
207
199
102
213
206
105
205
201
101
212
211
116
174
171
77
149
156
58
124
133
57
163
170
111
180
187
134
178
183
128
173
177
118
174
175
120
177
177
126
173
178
126
171
185
126
162
187
120
146
181
113
143
176
111
138
189
113
119
183
105
95
144
83
49
99
45
57
104
54
96
139
89
126
161
115
132
156
126
158
176
154
159
181
154
139
158
132
155
165
146
176
177
164
157
152
124
162
161
122
160
164
116
151
151
104
147
133
97
149
126
104
148
126
103
143
122
97
144
126
98
144
129
98
141
145
100
153
167
111
153
173
107
154
175
104
155
174
103
151
171
102
144
162
96
148
164
98
149
163
98
152
163
99
152
166
101
146
161
96
142
159
93
151
169
101
153
172
103
151
164
95
152
162
94
162
171
104
161
168
103
179
185
123
153
163
100
165
167
108
205
198
115
251
245
127
198
195
88
133
128
42
137
126
52
200
189
129
243
233
187
246
236
200
232
217
174
211
193
135
200
180
119
202
178
121
203
177
116
201
177
114
197
176
117
232
213
157
220
201
146
198
174
117
204
175
114
203
168
100
196
158
86
191
149
74
187
140
67
186
138
71
195
147
85
177
129
67
171
123
63
162
113
54
164
115
56
159
108
48
187
139
78
192
146
84
184
141
78
202
164
102
216
185
131
199
172
119
193
169
119
190
170
121
188
170
122
194
173
126
196
173
125
194
168
117
204
174
120
218
185
130
225
187
125
242
204
142
250
207
141
242
190
118
233
174
96
235
172
84
243
174
90
214
166
103
178
161
122
175
164
133
176
167
130
177
163
123
200
169
123
232
188
133
239
192
132
246
208
148
236
196
140
240
196
143
229
200
143
210
185
129
220
184
131
234
193
138
230
190
132
234
198
136
229
190
127
244
205
141
246
207
143
231
190
128
244
201
140
239
194
134
246
205
144
254
217
155
249
211
150
246
201
140
245
201
134
239
193
126
235
188
125
244
198
138
250
207
151
240
199
146
239
200
149
234
197
146
224
191
139
215
186
135
210
185
140
215
193
154
215
200
168
214
203
176
208
201
171
210
202
170
213
204
175
211
204
178
202
195
169
201
194
165
201
194
164
200
194
164
204
197
169
204
197
170
200
193
168
208
200
177
212
204
183
220
212
191
223
215
194
222
214
193
225
217
196
232
224
203
231
226
204
231
226
204
235
230
208
235
233
210
236
233
210
238
230
209
234
227
206
233
228
206
233
230
208
237
235
212
230
228
207
209
210
179
175
184
141
125
146
99
67
95
52
39
74
38
38
78
33
50
97
41
80
133
61
96
145
68
115
158
65
107
153
58
92
154
58
64
142
45
53
134
42
97
187
79
111
186
89
113
158
83
140
159
103
174
184
133
185
192
150
194
199
164
199
203
168
227
230
188
246
247
206
241
240
195
240
239
192
239
241
197
237
238
201
247
246
217
250
250
221
252
253
227
251
254
226
240
251
195
196
217
120
152
178
63
101
124
37
182
192
142
231
236
188
144
147
97
216
215
146
211
202
121
213
194
111
210
188
97
217
190
93
221
189
84
222
192
80
224
195
89
219
198
94
168
146
38
146
140
17
134
138
33
140
146
73
132
139
88
158
165
114
166
173
115
169
173
116
172
175
118
172
176
120
167
176
122
162
176
124
159
178
125
145
171
109
122
165
92
104
168
88
92
153
78
96
140
88
70
111
67
59
107
52
144
193
132
149
183
145
167
183
166
165
185
160
123
146
116
169
186
161
210
220
204
166
163
134
168
168
132
166
172
129
144
147
104
138
127
92
149
136
104
150
135
104
144
129
99
144
127
100
148
132
104
140
139
97
140
150
96
152
171
106
150
174
102
147
171
99
147
169
99
143
164
95
145
164
95
151
167
100
149
163
96
152
167
102
150
166
100
142
159
91
137
157
88
144
164
94
149
164
94
148
159
90
151
162
93
148
158
90
146
154
88
140
153
85
161
167
101
194
189
101
207
203
91
131
129
23
123
118
43
176
166
109
231
219
164
242
232
186
248
238
199
249
240
199
230
217
168
204
186
134
201
179
122
200
178
117
199
179
115
199
178
119
202
182
124
211
190
133
195
171
114
199
172
112
201
169
103
197
160
90
194
153
81
186
140
69
188
139
72
180
133
69
170
122
59
172
124
62
167
119
58
162
114
53
175
126
65
177
129
68
167
123
62
197
157
96
215
177
117
215
184
131
198
170
119
195
171
121
191
171
123
189
171
124
188
172
125
190
173
124
194
174
124
194
173
121
195
172
119
198
172
120
215
186
132
233
196
136
230
182
113
235
177
101
239
173
90
241
172
91
220
169
103
183
161
115
173
165
129
176
168
132
178
164
127
206
178
132
242
201
144
238
196
133
249
210
147
236
198
140
230
194
146
188
168
124
184
166
120
225
190
136
234
192
136
238
197
137
225
187
124
242
203
138
245
204
140
226
184
119
235
192
128
244
201
139
243
198
136
253
212
150
250
210
148
245
204
142
242
197
135
243
196
132
243
196
131
245
197
137
252
207
149
240
198
143
226
185
133
231
191
139
222
184
130
211
177
120
208
178
123
206
177
127
205
181
137
205
187
154
203
191
162
200
193
162
202
194
163
205
197
168
199
192
166
196
189
163
193
186
158
196
189
161
200
193
165
200
193
167
200
193
168
204
196
172
207
199
176
210
202
180
210
202
181
213
205
184
217
209
188
218
210
189
218
211
189
218
212
190
220
215
193
218
213
191
220
217
194
225
222
199
229
220
199
224
217
196
224
218
196
224
220
198
221
219
196
218
218
196
211
211
185
192
195
163
150
160
128
89
105
76
69
91
63
49
78
41
61
98
35
111
164
74
125
185
80
94
158
66
85
156
66
83
166
71
67
156
59
94
185
84
89
165
73
155
191
136
224
235
204
233
237
212
232
236
203
211
215
181
232
232
209
252
251
228
238
236
199
230
229
177
226
225
172
223
223
174
221
221
179
245
245
212
254
254
225
250
253
221
237
243
206
201
211
170
163
178
129
171
187
139
176
196
142
161
177
124
133
146
105
136
144
109
138
147
105
155
156
97
224
211
137
227
204
116
223
199
94
229
201
85
237
205
81
231
202
74
226
196
83
235
215
119
152
136
50
123
118
25
144
147
58
166
170
98
169
174
119
158
165
114
132
140
87
145
155
101
165
175
117
169
177
121
168
174
126
166
173
130
159
169
124
159
170
123
155
176
120
141
185
114
113
174
93
100
143
77
139
169
126
131
174
120
129
193
121
135
190
132
157
190
157
149
177
146
106
130
99
126
149
121
174
195
173
166
174
129
174
184
136
179
194
141
154
167
114
140
140
93
147
144
100
149
147
103
144
141
100
141
136
98
143
136
101
141
140
98
140
148
95
142
161
96
147
172
101
142
168
95
143
169
97
139
163
92
136
158
88
145
166
96
146
164
95
144
162
94
149
167
99
143
162
93
136
156
85
136
158
86
146
163
92
145
159
88
153
166
96
150
162
90
145
156
84
146
159
88
148
158
87
171
171
95
140
136
54
123
117
39
132
124
64
227
218
166
231
222
171
225
214
165
235
223
177
232
221
183
244
235
201
243
235
192
199
187
132
194
178
115
200
181
118
198
178
119
196
175
115
197
175
114
196
174
115
197
173
115
201
171
109
201
167
99
193
154
83
188
143
73
180
132
65
169
121
55
167
119
54
189
141
76
185
137
74
171
123
60
160
113
49
156
110
49
184
143
82
196
156
97
220
183
126
230
199
147
202
175
125
196
172
123
192
171
124
189
171
125
188
172
123
191
172
123
192
172
122
193
172
121
193
172
121
192
172
127
195
174
126
204
176
123
223
183
122
235
185
116
235
176
98
231
177
110
231
191
138
194
169
124
178
167
123
176
171
132
180
169
130
201
176
130
234
197
141
240
202
141
244
204
145
227
196
143
191
173
131
173
167
130
207
186
147
237
199
147
229
185
127
231
188
128
227
189
124
250
209
143
235
190
123
238
193
127
239
194
127
242
197
131
248
204
138
253
215
151
249
211
147
245
204
140
237
196
132
246
202
139
240
193
133
240
193
135
233
188
131
226
184
129
224
184
130
217
180
128
209
175
123
205
173
118
198
169
114
198
171
119
198
174
128
198
178
142
196
181
152
193
185
154
194
188
156
195
188
159
192
185
158
192
185
159
191
184
158
195
187
162
198
190
166
197
189
166
196
188
166
199
191
168
201
193
170
203
195
172
206
198
177
206
198
177
207
199
178
209
201
180
210
202
181
211
205
183
213
208
186
213
208
186
214
212
189
218
215
192
224
214
194
224
216
195
224
217
196
220
215
193
215
211
189
210
209
185
209
207
180
205
203
176
181
182
155
135
142
115
106
120
83
132
153
85
151
185
86
113
162
54
79
142
40
116
194
98
92
178
81
68
159
60
58
145
47
81
166
68
85
143
65
188
211
167
243
245
227
253
251
239
253
253
232
249
249
222
242
243
216
248
248
214
232
233
181
223
223
159
225
224
163
216
220
162
228
241
186
218
238
187
195
217
169
164
183
139
148
165
122
201
213
173
239
247
207
250
252
220
240
240
201
233
232
180
225
228
180
222
225
194
188
194
164
120
123
82
148
142
76
220
210
114
238
222
106
234
213
82
236
210
75
238
206
71
230
199
77
213
199
104
127
135
67
119
130
71
154
158
91
161
163
104
163
164
112
174
176
125
182
188
136
165
177
127
120
133
83
145
161
109
168
184
136
163
178
133
155
169
127
151
164
124
129
143
99
77
106
48
99
156
79
110
175
93
127
178
116
158
220
151
146
228
144
107
191
109
154
210
153
126
169
123
137
167
135
166
192
165
161
187
161
153
167
106
155
173
110
156
178
113
161
178
114
161
167
108
147
147
99
147
147
101
146
147
102
143
146
101
138
142
97
140
142
99
138
148
96
137
156
93
143
166
97
145
169
99
138
165
92
134
161
88
131
156
83
133
155
83
145
167
95
141
160
91
146
166
96
142
162
91
134
156
84
126
148
76
137
155
84
141
157
85
156
171
98
156
169
95
150
163
87
153
164
92
152
161
94
149
158
92
142
143
76
125
118
50
191
182
136
243
238
195
225
218
174
226
214
166
232
220
170
248
241
199
250
242
206
239
229
186
232
218
163
201
182
119
200
179
118
197
178
119
198
175
113
198
174
111
196
173
114
194
171
114
196
170
111
202
170
106
197
159
90
188
142
74
177
129
61
164
117
49
165
118
51
171
124
58
176
128
62
175
128
62
161
115
50
170
127
64
171
131
70
205
167
109
222
186
131
235
204
153
226
198
149
198
174
126
196
175
129
193
174
129
191
173
127
194
174
128
193
173
126
192
171
125
192
171
125
197
176
132
194
173
129
194
172
126
204
176
125
217
183
127
224
187
127
227
198
145
243
217
170
203
177
133
181
169
126
176
172
129
180
171
128
198
175
129
233
199
146
248
214
158
227
195
143
196
176
134
178
170
138
174
172
136
204
179
139
236
194
142
228
182
123
229
184
123
243
205
140
241
198
130
237
190
121
248
200
131
240
193
125
242
197
129
248
203
136
250
210
145
246
206
141
240
197
131
240
199
134
239
194
133
234
186
129
229
182
125
223
179
123
215
175
120
214
176
121
209
172
121
203
169
121
199
167
114
199
168
115
196
166
117
193
165
121
190
168
130
187
172
140
186
177
146
182
176
145
181
174
145
180
173
146
180
173
147
181
173
149
182
174
152
183
175
154
184
176
157
189
181
160
192
184
161
192
184
160
192
185
160
193
185
164
195
187
166
197
189
168
199
191
170
200
192
171
200
195
173
202
197
175
203
198
176
203
201
178
207
204
181
212
202
182
213
203
183
214
207
186
215
210
188
214
209
187
215
209
187
214
206
184
211
205
181
200
198
171
173
176
147
133
144
100
114
130
66
99
122
38
84
122
32
68
125
40
74
150
57
85
172
74
72
153
62
90
155
79
68
139
61
90
158
82
98
151
88
108
135
97
126
136
112
135
144
121
147
155
131
149
156
129
158
166
125
194
204
148
210
220
160
203
219
153
176
205
132
139
181
107
113
158
90
125
159
104
204
220
178
245
251
218
245
248
219
238
236
205
224
219
178
218
211
163
227
220
159
214
210
149
247
243
211
254
253
226
244
242
187
204
200
123
146
149
70
158
165
63
198
200
87
212
205
82
227
206
80
221
198
78
169
160
64
71
93
27
110
126
78
157
161
109
162
163
109
166
165
112
163
165
114
164
169
121
174
184
137
167
186
140
120
148
101
125
157
105
133
165
111
139
158
117
108
131
90
76
107
61
72
108
56
76
129
65
119
194
110
95
168
81
74
131
55
110
168
92
150
222
137
119
175
99
98
140
85
155
183
151
165
185
164
169
186
167
155
167
102
162
175
110
164
181
115
161
173
111
163
160
107
151
142
107
139
133
98
131
130
90
132
135
91
137
145
98
137
145
97
134
146
92
130
148
86
130
151
84
139
160
92
134
160
88
131
158
85
129
155
82
126
151
78
136
160
87
142
164
92
143
164
93
140
161
89
137
160
87
123
145
72
121
141
68
135
152
79
147
163
89
156
170
96
151
164
89
155
165
89
152
163
93
146
159
91
143
148
79
148
141
81
226
219
178
249
244
209
248
241
205
242
229
189
235
222
179
239
227
183
235
221
175
228
208
161
219
195
140
208
183
124
200
177
118
198
177
117
198
175
114
198
173
113
196
172
111
194
172
113
195
171
113
198
170
107
198
163
96
185
144
76
172
127
58
165
117
48
162
114
46
154
107
40
154
108
41
165
120
55
169
127
63
167
127
68
185
147
90
193
157
104
225
190
137
231
200
149
232
203
153
217
192
143
200
178
131
197
177
130
195
175
130
194
175
132
193
174
131
191
173
127
192
172
126
196
175
126
195
175
129
193
174
129
193
173
127
202
179
133
220
200
157
239
221
176
204
173
122
203
166
112
187
169
127
180
172
128
182
171
127
196
175
132
217
189
142
211
183
136
195
177
131
180
170
135
177
171
142
175
172
135
203
178
136
240
196
145
228
181
123
232
186
124
246
202
135
233
189
122
242
194
126
247
197
129
245
197
128
241
195
128
251
208
139
248
206
139
242
198
132
239
193
127
230
185
121
229
182
123
228
181
123
219
175
118
211
170
114
208
169
114
208
171
118
205
168
118
199
163
114
195
160
108
197
163
111
189
156
106
183
153
108
180
157
120
179
162
130
177
166
136
173
167
138
173
166
139
174
167
140
174
168
142
176
169
145
175
168
146
175
168
147
176
168
148
179
171
151
177
169
147
178
170
148
183
175
153
188
178
158
190
181
160
190
182
161
189
183
161
191
185
163
194
190
167
196
192
170
199
195
172
199
197
174
203
200
177
209
199
179
210
201
180
211
203
182
213
206
184
216
209
188
216
208
188
216
207
188
213
205
184
202
199
175
193
194
166
173
179
143
139
147
108
124
136
90
88
115
57
63
116
43
66
133
49
57
131
48
55
116
46
95
138
82
133
170
124
172
215
161
146
202
140
104
171
101
97
163
96
95
155
96
92
152
91
98
155
91
107
164
89
102
164
77
101
160
76
101
146
73
157
183
137
208
224
187
232
245
206
227
235
195
217
215
179
227
224
188
217
215
171
213
210
157
209
207
146
212
209
147
211
206
136
211
205
140
232
225
189
254
253
223
236
234
178
219
215
132
210
216
129
171
195
103
126
161
64
120
142
46
156
155
61
182
181
81
124
139
48
60
102
25
111
133
78
171
171
120
163
162
109
154
155
102
152
155
105
149
154
108
142
152
111
141
161
126
133
167
126
99
146
91
92
141
80
131
164
118
121
158
111
115
162
111
122
161
112
120
162
110
114
172
101
127
195
109
96
154
77
76
131
57
151
221
135
85
131
52
76
110
55
151
178
142
164
184
159
101
116
94
148
159
94
154
165
103
162
173
112
160
162
110
150
134
101
148
129
109
140
127
103
128
123
91
117
121
80
128
137
91
130
143
90
128
144
87
125
143
83
123
144
79
127
149
82
131
156
88
128
154
83
124
150
78
122
148
74
119
146
69
134
157
83
141
163
91
143
166
93
133
157
83
129
153
79
125
146
73
133
151
79
143
159
86
159
171
99
153
163
92
155
165
91
152
165
94
145
156
89
144
147
81
166
160
110
246
241
202
239
235
197
235
228
190
246
235
196
239
225
184
230
213
169
226
207
156
218
197
144
218
194
138
211
184
126
204
177
117
201
175
116
199
174
117
198
173
117
196
173
113
194
172
111
193
171
113
196
170
110
192
161
97
185
149
83
176
136
68
168
121
53
160
113
46
151
107
40
151
108
43
152
110
47
158
119
60
161
125
67
173
138
82
193
161
105
206
175
121
216
185
131
220
191
137
218
192
140
213
190
139
206
184
134
198
179
128
196
177
134
197
178
134
194
177
127
193
176
125
191
173
123
192
174
125
194
176
128
196
178
132
199
181
135
203
186
145
227
209
164
212
174
120
203
155
89
193
164
114
185
174
129
185
175
130
187
172
131
191
172
132
180
166
127
180
170
133
178
173
136
178
174
140
179
175
139
200
177
134
229
185
136
224
177
121
241
196
132
241
196
130
241
196
130
243
194
128
244
195
128
238
191
123
244
200
132
246
205
137
248
205
137
241
196
129
232
187
122
227
181
119
226
181
120
218
176
115
210
172
111
205
168
110
203
168
115
202
169
117
196
162
113
189
155
107
193
159
111
185
153
103
175
144
95
171
142
99
169
147
112
171
153
121
172
160
131
169
163
136
170
164
138
169
162
136
171
164
139
173
166
143
166
158
136
168
160
139
172
164
143
172
164
143
164
156
135
173
165
144
181
172
152
182
170
151
184
173
153
184
177
155
185
180
158
186
183
160
189
187
164
189
187
164
193
191
168
194
192
169
197
194
171
204
197
176
207
199
178
208
200
179
209
201
180
210
202
181
212
204
183
213
207
185
214
208
186
208
206
183
203
201
178
193
193
165
171
175
142
143
154
113
89
112
64
75
120
58
52
106
43
52
101
44
67
103
52
79
109
63
75
112
66
97
136
89
109
154
103
95
149
91
88
152
87
72
139
72
75
147
74
80
147
73
90
149
72
93
167
73
122
179
90
181
208
141
223
238
195
221
233
196
214
229
184
209
221
174
205
218
161
200
210
151
197
201
145
197
197
141
194
194
135
192
193
129
195
196
128
200
203
141
205
210
160
203
212
169
167
178
121
143
154
77
151
161
83
164
172
89
170
177
85
186
193
93
177
177
87
131
146
63
91
138
56
56
111
40
86
119
61
175
183
129
154
157
107
148
153
103
150
155
107
143
150
105
125
146
105
114
147
105
126
176
120
108
169
102
76
138
69
80
124
69
45
91
38
29
76
31
95
125
94
129
157
125
110
149
104
125
174
118
144
206
137
72
143
64
147
223
136
100
143
70
58
96
38
174
210
165
154
186
143
141
165
119
151
168
103
154
170
104
154
168
102
161
163
113
149
131
107
148
129
111
143
129
106
133
127
97
123
125
87
119
127
83
119
134
81
123
140
83
125
145
84
121
142
78
119
144
76
118
145
77
121
148
79
120
148
76
117
145
71
114
142
68
111
137
64
130
154
82
139
162
90
139
162
90
121
144
72
124
145
75
131
148
80
135
151
81
160
172
101
153
163
90
157
166
91
153
165
94
144
154
87
151
153
88
182
176
132
250
245
203
230
224
183
218
211
168
209
201
156
222
212
166
225
215
166
226
214
162
222
206
153
221
202
145
214
192
133
202
178
116
202
177
114
196
173
112
195
174
115
193
174
114
192
173
112
192
172
113
194
171
110
191
163
100
181
149
84
180
144
78
171
129
64
160
119
56
153
112
50
158
117
57
162
122
63
157
121
62
163
128
68
162
130
69
169
139
77
170
141
80
194
164
110
211
182
128
213
187
135
222
198
147
223
200
150
208
187
135
201
179
132
201
179
134
199
179
132
196
179
132
196
178
128
195
177
128
193
175
127
197
179
133
199
181
135
199
179
133
199
181
136
206
177
128
204
165
104
194
164
110
185
175
129
182
177
130
174
167
123
180
168
126
180
173
131
182
174
135
180
175
138
180
176
141
179
175
138
193
171
127
223
180
128
240
194
135
235
190
125
237
192
124
243
198
132
243
196
130
244
195
129
233
188
121
248
204
139
246
203
138
242
198
133
231
186
121
228
184
121
227
184
123
222
180
119
210
172
111
204
169
109
201
167
110
196
164
111
195
163
113
187
154
107
188
154
108
181
149
103
173
143
98
168
141
96
168
145
104
168
149
116
171
155
124
171
160
131
167
159
132
161
154
128
160
153
127
163
156
131
165
157
134
164
156
134
167
159
138
167
159
138
163
155
134
168
160
139
170
162
141
171
163
142
176
165
145
180
171
150
181
174
153
184
179
157
188
183
161
190
186
164
192
188
166
194
191
168
194
190
168
194
189
167
196
188
167
198
190
169
201
193
172
204
196
175
206
198
177
208
200
179
210
203
182
211
206
184
210
207
184
209
207
183
205
204
176
191
194
162
157
165
128
96
113
70
81
114
61
59
96
49
75
109
61
93
121
73
80
111
59
59
101
43
59
102
49
79
116
71
106
141
98
98
137
88
72
120
61
69
129
60
84
160
83
81
143
70
168
207
137
195
219
150
205
208
159
235
243
202
195
221
165
201
232
174
203
225
179
176
200
142
177
201
136
184
201
145
214
222
180
233
234
207
228
233
198
195
209
158
163
183
132
180
197
163
217
225
201
233
238
202
224
226
168
225
222
147
231
220
130
225
207
110
215
193
92
205
185
96
170
164
103
136
160
110
101
144
84
105
142
76
176
192
133
154
162
108
151
156
105
143
154
102
136
160
106
131
175
115
119
181
107
78
153
69
43
110
35
52
108
44
61
110
54
50
99
48
90
127
92
156
181
154
155
179
155
139
174
136
163
201
154
154
213
149
136
215
135
137
215
131
114
159
97
129
172
120
163
207
161
184
226
172
92
125
66
153
173
105
156
176
106
160
178
109
158
164
112
145
132
106
145
130
105
141
130
102
134
131
97
128
133
92
118
129
83
109
126
73
112
131
75
117
138
78
121
145
80
118
144
77
112
140
73
108
137
70
108
138
68
112
142
70
108
138
64
103
132
59
105
131
59
123
149
76
140
163
92
120
142
71
112
131
66
125
141
78
130
145
78
155
167
96
156
167
92
159
168
92
159
170
99
151
161
91
131
133
66
201
193
142
227
218
173
218
209
166
233
224
179
209
199
152
201
190
142
208
199
149
210
203
151
225
217
165
224
214
162
217
205
154
201
185
129
200
179
114
194
174
108
194
176
110
191
174
109
192
175
112
193
174
114
194
174
112
193
169
105
177
149
85
174
143
78
175
140
77
165
128
67
155
118
58
153
114
58
147
109
54
151
116
58
159
127
68
165
135
73
163
135
71
165
138
76
177
150
95
204
177
123
220
193
142
221
194
144
221
195
145
220
195
140
209
180
126
206
177
128
205
180
134
201
183
136
202
184
134
202
184
135
200
182
134
195
177
131
195
177
131
199
179
131
197
179
132
200
178
131
203
174
117
194
164
107
188
172
126
180
172
126
174
165
122
186
173
131
185
175
135
184
176
136
181
176
137
180
176
141
181
178
139
194
172
127
230
187
132
240
195
132
230
185
117
239
194
126
235
190
124
246
200
134
244
197
132
243
198
134
251
206
143
245
199
137
235
189
126
229
184
122
228
186
123
221
181
120
215
176
117
207
168
110
202
164
108
200
163
109
195
159
109
187
153
106
184
150
105
183
150
107
175
144
103
170
146
105
170
150
110
170
153
117
170
157
125
168
156
128
165
155
128
160
151
125
157
150
124
163
155
129
162
154
130
164
155
132
166
158
136
164
155
135
162
154
133
166
158
137
170
162
141
167
159
138
167
159
138
169
161
138
172
164
142
175
167
145
178
171
148
180
174
151
187
182
160
191
185
163
198
192
170
203
197
175
203
197
175
200
192
171
189
181
160
192
184
163
197
189
168
198
190
169
201
193
170
206
199
176
206
201
177
206
204
179
210
208
183
210
208
182
201
202
173
186
192
158
153
163
124
103
124
79
110
134
88
91
116
69
90
116
67
68
98
44
92
124
67
96
128
77
86
119
62
92
130
65
96
136
66
92
134
63
98
147
71
80
142
63
101
162
83
96
149
76
149
190
123
210
234
186
233
247
214
213
236
189
186
219
161
215
237
199
230
246
210
173
200
150
148
186
133
168
209
158
194
219
180
172
187
150
180
193
155
233
243
214
249
254
238
253
253
242
243
240
219
248
245
204
232
224
164
237
223
146
231
211
126
211
189
97
189
171
92
143
135
92
136
144
115
120
146
99
113
143
78
112
140
77
143
161
100
144
158
100
135
163
102
118
167
100
97
159
83
71
140
58
49
114
40
45
98
37
85
124
77
72
118
66
95
136
91
160
199
153
155
178
142
141
168
132
117
152
110
92
125
78
85
138
74
131
206
127
121
200
116
22
82
22
64
107
63
121
167
122
191
242
183
129
175
109
158
175
104
158
177
106
159
180
109
166
179
119
151
148
106
146
139
103
139
136
99
131
135
93
125
137
88
115
132
80
109
128
73
108
129
73
108
131
71
111
136
72
115
144
77
109
140
74
104
135
68
102
133
65
99
131
60
103
135
62
102
133
60
99
127
56
104
130
59
120
143
73
126
147
78
116
135
74
119
134
76
126
141
77
144
157
86
160
171
94
161
170
93
160
170
98
155
165
91
124
126
50
161
155
89
202
194
136
206
198
138
209
197
138
200
185
125
186
168
109
196
182
123
199
188
133
206
198
146
217
209
162
220
214
170
208
199
153
195
180
124
175
160
98
191
175
110
195
177
112
195
176
115
193
175
113
194
174
112
194
173
110
186
162
98
178
152
87
169
140
75
158
127
63
154
121
60
154
119
61
158
123
65
156
125
66
157
126
69
152
123
66
148
121
64
156
131
74
163
138
82
183
158
103
205
178
127
215
187
138
219
191
141
214
182
121
204
167
104
201
163
107
203
171
122
202
179
130
201
183
133
201
183
134
200
182
134
198
180
134
196
178
132
193
176
128
196
179
128
199
180
132
201
178
124
200
173
117
189
167
123
179
166
122
177
167
124
188
175
133
189
176
136
186
177
137
182
177
138
181
177
141
180
177
138
192
169
124
206
164
105
210
165
99
220
176
107
235
190
121
228
183
117
245
199
136
238
193
129
240
195
132
244
198
137
241
193
134
232
185
125
226
181
120
221
180
119
211
173
113
206
170
111
204
168
111
199
162
107
190
154
101
187
153
104
182
149
103
178
143
101
176
143
104
173
145
107
168
148
111
168
154
117
171
160
127
167
158
129
166
156
129
165
155
129
164
154
129
161
152
127
160
150
125
159
149
125
160
148
127
164
153
132
162
152
132
160
152
131
165
157
136
166
158
137
168
160
139
165
157
136
165
158
134
169
162
138
171
163
140
174
166
143
175
168
145
180
172
151
181
174
153
188
181
160
194
187
165
199
192
170
206
198
177
200
192
171
185
177
156
181
173
152
185
177
156
191
183
160
196
189
166
196
191
167
200
197
172
205
203
178
208
204
179
204
205
177
196
198
168
174
177
144
130
139
102
122
137
94
114
129
84
119
140
90
71
99
44
74
100
44
84
103
48
91
111
50
89
112
42
94
121
45
92
121
46
94
132
55
92
140
65
198
233
164
185
212
159
95
141
87
108
156
98
189
222
179
205
232
184
211
242
186
196
227
179
183
215
159
171
203
143
182
218
166
179
211
171
213
231
203
232
239
214
231
235
207
228
229
202
227
227
203
230
232
204
208
211
173
214
215
173
248
245
206
246
238
192
225
214
153
179
168
97
150
146
85
137
144
105
146
153
122
149
157
115
189
204
147
141
176
113
82
130
63
84
125
62
81
116
59
99
137
81
71
110
53
85
115
68
99
127
85
128
163
115
142
183
124
109
151
84
110
149
88
157
195
139
149
180
127
79
113
60
60
96
43
63
104
46
79
126
62
58
118
50
122
201
122
80
147
82
28
80
28
41
94
46
141
198
144
169
225
161
156
172
100
155
174
103
155
175
106
157
175
111
157
165
110
144
147
100
139
144
97
133
141
91
124
142
88
114
138
81
112
135
78
110
133
76
104
130
70
101
128
66
103
132
68
104
134
70
103
134
69
98
129
62
93
124
56
94
124
53
100
132
60
98
128
58
94
121
52
103
127
58
117
138
70
119
138
79
120
136
81
120
134
74
135
147
77
162
173
96
163
173
96
159
170
94
157
168
89
135
136
53
139
132
51
153
145
66
191
182
107
190
176
106
184
164
95
146
122
47
154
130
58
180
161
97
199
183
123
200
188
137
210
201
157
213
205
163
209
199
152
180
169
120
167
152
96
196
176
116
195
174
112
192
175
113
194
175
113
187
167
105
134
113
53
156
133
68
165
138
69
160
133
66
157
128
63
151
121
59
143
111
52
142
113
59
134
106
52
124
96
45
122
96
46
135
110
60
155
131
77
166
142
88
170
145
94
179
153
104
195
169
119
206
172
110
207
168
103
202
161
102
204
166
113
210
180
128
203
182
133
202
183
135
200
182
135
201
183
137
198
180
135
195
179
132
195
178
127
196
177
127
199
179
127
200
179
124
186
167
122
178
165
120
178
169
125
187
177
134
188
178
137
186
178
138
184
179
137
184
179
141
180
177
137
189
168
122
190
148
87
196
150
82
205
159
90
207
161
93
219
173
108
231
187
123
231
186
123
239
193
132
242
195
135
235
187
128
226
180
121
221
178
118
215
175
114
207
170
111
205
169
111
199
166
108
191
158
103
184
152
101
178
147
100
173
143
99
169
138
98
169
138
102
172
148
112
170
153
118
169
158
124
168
160
130
168
161
134
166
160
132
169
161
135
165
158
132
161
153
127
158
148
124
156
145
122
154
143
121
159
148
126
160
148
128
160
151
130
164
155
134
166
157
137
167
158
138
168
159
138
163
157
132
166
160
135
167
160
136
170
162
139
172
164
142
176
168
147
178
170
149
181
173
152
183
175
154
190
182
161
198
190
167
208
200
178
200
192
170
180
172
149
176
168
146
183
176
152
190
184
159
192
186
161
194
190
165
201
198
172
204
201
176
206
206
180
205
205
177
189
188
159
147
150
118
120
129
90
129
139
97
123
137
92
65
91
39
67
93
40
73
87
42
89
102
59
74
88
47
73
88
45
75
92
38
83
115
48
85
133
59
148
182
122
228
243
201
218
239
200
127
166
114
85
125
75
140
168
124
148
175
128
141
174
122
114
160
89
99
152
81
145
181
135
196
212
187
216
229
210
226
238
225
239
248
234
246
251
228
234
236
207
241
244
210
241
242
206
193
193
152
195
194
149
237
238
191
229
229
186
169
173
133
86
104
58
100
122
78
149
171
124
169
188
141
143
166
114
90
131
69
101
142
80
123
148
96
148
166
119
126
141
99
166
170
138
173
181
149
144
163
124
134
170
111
120
163
91
100
135
55
94
123
49
73
107
38
53
90
27
44
84
22
42
89
23
42
95
28
50
92
31
35
75
18
67
126
66
130
204
130
60
118
59
22
84
30
82
139
90
170
226
173
157
178
106
157
178
107
157
177
109
151
172
105
150
170
106
145
161
101
143
154
97
137
147
91
130
147
90
117
144
84
114
140
81
108
133
75
103
131
72
101
129
70
97
126
67
92
123
61
94
125
61
97
126
60
93
121
54
94
121
52
103
125
62
108
127
67
104
123
63
95
113
53
99
117
57
123
142
86
124
141
91
119
133
79
123
134
68
154
165
90
159
172
95
156
170
91
156
165
83
151
150
61
172
162
65
165
155
60
179
169
92
214
196
132
179
155
96
139
112
33
142
115
28
144
120
38
168
147
75
191
175
113
193
181
128
211
201
154
214
205
160
204
195
149
187
175
127
171
152
95
189
169
107
195
176
115
191
171
110
157
137
77
142
120
58
177
153
89
170
146
78
161
136
70
156
131
68
155
130
69
154
130
73
156
134
84
156
133
84
154
132
83
159
137
87
163
140
90
154
132
80
162
140
90
167
145
95
164
144
94
177
157
106
187
161
108
206
176
123
216
182
125
207
169
111
196
157
100
205
179
131
206
183
137
202
181
138
205
187
144
197
181
139
197
180
135
198
182
134
198
182
132
198
181
130
197
182
130
191
178
129
174
163
116
179
169
124
188
180
136
187
181
139
187
180
140
186
180
137
188
180
141
185
179
140
184
165
116
187
145
79
194
147
78
193
146
76
194
147
79
208
160
94
209
165
98
217
173
107
234
190
126
236
193
131
230
187
127
221
178
118
217
176
116
212
172
113
205
168
109
202
167
109
195
161
106
186
153
100
181
149
101
174
144
100
171
143
103
164
138
101
167
142
110
171
152
119
172
158
125
173
163
131
173
167
137
171
165
139
170
164
138
167
163
136
165
161
134
163
158
132
161
153
130
157
146
124
154
142
120
157
143
122
162
149
127
164
153
133
163
152
132
165
154
135
166
155
137
166
155
136
165
158
132
168
160
135
167
159
136
169
161
138
172
164
142
169
161
140
174
166
145
175
167
146
179
171
150
181
173
152
191
183
158
199
192
166
204
197
171
198
191
165
177
170
144
171
165
139
180
174
148
186
180
154
190
184
158
197
191
165
200
197
172
205
203
178
208
207
179
199
199
171
154
155
126
120
126
93
120
133
98
109
124
88
84
108
69
85
102
68
175
189
156
188
200
168
147
157
127
107
119
88
99
117
83
84
121
68
75
122
56
57
106
41
62
104
54
61
96
55
46
91
39
57
100
56
93
125
87
116
139
92
151
173
107
114
140
66
67
96
26
94
120
65
81
110
64
45
82
35
65
99
57
87
116
79
125
146
109
140
157
119
174
190
151
199
213
174
210
219
174
172
183
123
167
183
120
197
209
160
203
218
173
151
183
126
110
154
88
102
150
83
83
126
69
100
133
83
141
169
114
139
158
106
148
158
111
154
160
116
143
146
104
126
131
89
103
123
80
78
116
59
52
98
24
61
100
26
64
88
21
59
79
16
53
74
15
48
77
17
52
90
29
42
88
27
35
89
26
57
101
42
56
93
38
33
80
23
69
133
69
117
190
113
67
129
63
84
132
84
195
245
198
153
175
99
153
176
100
152
175
102
149
171
100
149
171
101
146
167
98
145
160
94
142
153
91
136
150
91
127
147
88
116
141
83
110
135
77
104
131
72
101
129
70
97
126
67
93
122
61
85
113
50
100
127
63
96
120
55
89
113
46
112
124
69
99
106
57
95
103
54
92
102
52
95
103
56
127
141
92
130
146
96
127
141
88
120
132
70
140
151
80
156
169
94
152
165
87
152
162
77
147
147
55
175
164
65
189
178
89
163
152
79
192
175
111
150
130
67
138
115
35
138
116
28
135
115
28
135
118
37
148
135
67
186
176
113
193
182
127
199
186
136
194
183
133
196
184
132
186
174
121
135
119
63
147
130
72
151
133
73
160
141
81
172
153
90
177
156
94
180
158
97
185
163
104
183
161
104
174
151
96
163
141
87
157
136
86
154
133
83
148
127
77
168
146
97
160
139
89
150
129
79
164
144
94
188
168
118
188
170
121
195
177
129
199
179
132
206
182
134
191
161
109
186
152
95
185
150
91
195
168
118
201
177
130
210
190
146
216
199
157
216
202
162
218
200
155
208
190
143
202
184
135
198
180
130
198
181
129
190
175
125
177
164
115
184
172
126
192
182
138
191
182
140
188
180
140
186
180
139
187
179
142
187
180
141
180
161
113
187
149
88
190
148
83
180
139
72
189
148
80
198
157
88
191
149
80
203
162
93
213
173
106
225
186
123
222
185
123
215
176
116
212
173
114
209
171
113
204
168
111
194
161
103
189
156
101
180
147
96
174
144
96
164
136
93
162
137
97
170
146
111
169
148
116
174
157
125
177
164
134
174
166
135
172
166
137
173
167
141
174
168
142
172
168
141
172
168
141
172
166
140
169
161
137
162
152
128
155
143
120
152
139
116
159
146
124
163
152
130
163
152
131
165
154
134
166
155
136
167
156
136
167
159
135
167
159
135
168
160
137
168
160
138
171
163
142
169
161
140
171
163
142
171
163
142
176
168
147
174
166
144
181
174
149
190
183
157
199
192
166
202
195
169
181
174
148
163
156
130
171
165
139
179
172
146
185
179
153
192
185
159
195
192
167
202
200
174
207
207
179
206
206
178
170
170
142
117
126
94
92
108
74
86
106
70
92
117
80
112
126
97
204
216
183
196
205
173
195
201
170
177
186
154
109
121
90
67
88
52
53
82
38
33
70
21
36
78
30
15
63
10
62
95
50
153
179
141
188
208
163
170
182
118
183
192
102
144
150
54
117
121
33
142
154
87
196
214
160
158
186
141
69
112
62
49
98
37
56
98
39
72
106
50
58
89
32
50
83
24
50
84
26
55
89
32
65
102
45
71
108
51
69
108
52
65
112
53
62
112
43
76
118
52
145
171
118
206
219
178
212
219
187
169
172
141
162
164
135
167
171
142
156
165
131
135
160
111
87
131
67
84
147
63
52
107
28
84
107
61
97
110
68
71
90
41
90
116
61
73
103
46
50
82
27
34
71
19
23
72
15
35
81
24
57
103
45
99
155
94
118
173
111
86
154
79
101
180
95
78
146
73
147
198
141
143
169
94
142
168
95
142
167
96
139
164
94
134
159
90
132
156
87
134
153
88
136
152
92
135
150
94
132
149
95
121
145
88
115
140
82
104
132
73
100
128
69
98
126
67
95
122
61
113
138
77
151
175
111
143
165
100
124
145
79
104
120
65
89
101
51
82
92
46
83
91
48
91
97
56
129
142
97
134
149
101
131
145
94
122
136
78
123
137
70
147
160
85
152
164
85
152
159
79
175
171
95
200
184
110
206
190
118
204
190
120
208
192
122
141
124
54
134
117
33
131
116
27
130
117
27
126
116
27
117
107
25
143
134
67
190
179
118
189
174
121
185
171
117
193
183
129
207
200
146
155
149
99
105
97
36
113
104
43
133
123
64
180
170
107
181
167
106
172
152
95
167
147
91
166
145
92
162
140
89
150
129
79
134
116
66
124
106
56
156
138
89
167
149
99
156
138
88
146
128
78
141
124
74
183
167
118
188
173
125
205
190
144
216
196
151
207
186
140
183
161
113
160
136
88
161
137
89
160
135
88
170
147
100
179
159
115
189
172
130
195
180
139
211
192
148
219
200
153
213
195
146
206
187
137
206
188
136
194
177
123
188
172
120
187
172
123
194
181
135
195
182
139
190
179
141
186
181
144
189
181
147
188
179
141
190
172
126
200
170
120
201
171
119
200
171
118
199
170
115
194
166
109
192
158
96
191
155
90
197
162
98
210
176
113
210
179
115
210
174
115
211
172
116
207
171
114
199
165
109
193
160
105
189
157
103
176
145
94
170
141
94
166
142
98
166
145
103
168
149
114
169
153
121
175
162
130
177
166
137
175
168
139
175
170
142
177
171
145
178
172
146
174
169
143
173
169
142
173
168
141
176
169
143
171
161
136
160
148
124
147
133
110
147
133
110
152
141
118
157
146
124
162
151
129
164
153
133
167
156
136
169
161
138
167
159
137
168
160
139
169
161
140
169
161
141
170
162
141
169
161
140
165
157
136
174
166
145
167
159
138
169
161
136
180
173
147
192
185
159
202
195
169
199
192
166
171
162
136
167
158
132
174
165
140
179
169
144
188
179
154
191
189
163
198
196
171
206
205
177
209
209
181
177
178
149
118
129
95
86
106
68
68
94
55
67
97
56
108
125
91
210
221
186
200
208
174
200
203
172
199
204
172
183
191
158
150
157
124
116
127
94
106
124
89
69
99
55
46
85
37
101
127
72
119
135
78
137
148
87
141
149
74
141
145
54
130
136
42
116
124
37
93
111
33
73
95
34
59
91
41
73
112
55
77
107
46
78
104
44
73
105
45
90
130
61
70
116
44
50
93
27
58
97
45
102
141
88
95
136
73
50
88
25
88
114
58
136
159
92
110
126
64
81
94
42
128
137
100
178
187
154
223
228
197
239
241
213
236
239
215
237
241
219
234
242
215
223
244
196
159
196
123
123
154
85
125
140
95
101
112
71
64
86
38
52
82
28
44
75
20
39
68
14
36
64
19
31
65
17
49
76
32
58
85
39
115
148
98
158
207
143
153
218
141
145
223
137
115
198
113
108
186
111
141
169
103
136
163
98
129
156
94
121
148
87
112
139
80
103
128
67
102
126
67
104
127
69
107
129
73
113
135
80
120
144
87
119
144
86
110
138
79
105
133
74
98
127
68
97
121
61
123
145
84
160
181
118
153
171
108
136
154
88
126
146
85
118
138
81
75
93
40
67
82
33
74
86
40
120
134
90
133
149
101
134
148
98
130
144
91
118
133
70
136
150
76
154
167
88
155
161
82
182
176
104
209
191
126
211
191
130
202
186
121
197
183
112
145
132
56
133
121
33
125
115
23
120
114
20
119
113
20
116
110
25
175
166
99
191
179
121
190
178
124
187
174
117
183
172
115
188
182
126
184
181
125
118
116
58
91
89
28
134
130
72
118
113
55
98
92
32
109
97
40
111
98
45
125
112
63
121
108
58
115
101
50
110
95
45
117
101
54
173
157
107
160
144
95
153
137
87
142
127
78
129
115
66
162
149
103
188
175
128
182
170
123
183
169
121
176
161
115
151
135
93
99
81
46
98
80
45
139
119
75
152
132
87
170
149
105
166
147
103
153
134
90
159
138
94
185
164
119
209
188
140
209
189
139
208
188
137
200
181
124
195
177
121
192
175
124
194
179
133
195
180
137
191
178
137
186
182
142
187
181
144
182
173
130
186
167
117
190
168
119
191
169
121
192
170
122
192
170
123
193
171
124
199
173
121
197
167
113
188
157
100
190
159
99
199
168
105
200
164
106
206
169
115
203
169
114
197
165
111
191
160
105
181
150
97
169
137
88
167
139
92
161
139
95
160
142
101
165
149
114
170
157
126
176
166
136
178
170
141
177
172
143
179
174
147
181
175
149
181
175
149
180
176
149
178
174
147
177
172
146
176
168
142
170
160
135
163
151
127
155
142
118
143
130
106
144
134
109
152
141
118
159
148
126
163
152
130
164
154
133
169
161
138
168
160
139
170
162
141
169
161
142
167
159
140
169
161
140
169
161
140
165
157
136
175
167
146
172
164
142
167
159
134
169
162
136
185
178
152
198
191
165
200
192
166
188
177
152
165
154
130
168
157
133
179
168
143
187
177
152
187
184
159
194
192
167
201
201
173
207
207
179
186
186
157
124
131
98
69
86
49
49
80
38
34
69
25
73
93
59
204
214
179
203
207
174
201
201
170
201
201
170
200
202
170
190
194
160
164
169
137
102
114
83
50
74
32
54
91
42
74
103
49
79
98
43
71
90
34
62
81
20
58
75
12
63
76
22
61
78
28
46
74
17
33
70
7
30
68
12
40
65
10
59
74
19
81
96
40
90
114
52
81
114
51
67
111
43
65
114
49
78
126
66
118
162
104
65
108
48
113
154
94
151
186
117
104
131
59
89
111
41
81
109
46
81
116
57
80
115
57
81
102
57
125
137
102
169
180
146
194
204
174
192
202
178
167
188
145
117
153
87
44
86
11
42
75
16
39
79
14
39
81
17
37
77
15
39
74
15
47
76
21
75
98
57
63
87
45
131
149
108
155
169
128
174
192
150
166
197
150
104
139
85
86
138
70
118
190
112
91
176
98
127
154
95
123
151
92
117
143
87
111
137
82
110
136
82
108
133
76
106
132
74
103
131
72
98
126
67
95
122
63
98
124
66
109
134
76
118
145
86
111
138
79
101
128
69
98
121
61
130
150
90
163
182
120
160
177
113
148
164
98
135
154
88
119
139
75
96
116
56
59
78
23
55
74
22
109
123
80
134
147
101
135
149
100
135
148
97
119
134
74
120
134
64
150
161
83
156
162
80
179
176
97
209
194
120
204
185
119
200
182
117
203
186
114
168
155
81
122
115
24
116
110
14
113
109
14
113
108
16
146
139
64
190
180
114
190
179
123
189
178
124
189
177
120
189
178
118
183
175
118
181
175
118
185
180
121
170
164
107
128
122
67
103
96
40
91
87
28
85
83
25
81
79
21
79
77
21
77
75
20
81
77
24
82
71
23
154
144
98
165
153
102
156
143
93
143
130
81
147
135
89
173
162
117
193
182
136
206
195
149
205
194
148
204
192
146
204
190
146
203
187
146
202
184
146
200
181
145
192
174
131
191
173
130
193
174
129
189
167
122
184
163
117
171
149
106
147
126
80
153
132
85
183
163
114
199
178
126
194
174
114
195
176
117
192
173
120
194
177
129
195
181
136
189
180
133
186
183
137
186
181
136
181
171
122
184
166
110
188
167
111
189
169
116
189
169
118
188
167
118
189
167
120
189
168
120
192
168
120
193
167
115
192
162
108
193
161
104
190
157
100
192
159
104
199
168
112
191
161
106
182
153
98
165
135
83
164
134
85
164
137
91
159
135
92
157
139
98
164
150
114
172
162
131
178
169
139
179
173
145
180
174
147
180
175
149
179
173
148
178
172
147
176
171
145
172
168
141
164
159
132
165
157
130
167
157
131
165
154
128
159
147
121
148
135
111
141
130
106
146
134
111
159
146
125
160
148
127
166
156
135
168
160
140
169
161
141
171
163
143
169
161
142
166
158
139
169
160
139
169
160
139
165
157
135
177
168
146
165
156
133
175
167
142
174
166
140
182
175
149
196
188
162
200
192
167
201
191
166
177
166
141
167
155
131
175
164
139
181
171
146
185
182
156
192
190
164
190
189
161
189
189
161
189
189
160
173
175
146
140
151
120
86
106
73
31
57
20
39
61
26
174
182
149
204
208
174
204
204
171
202
202
168
200
200
166
199
200
163
194
195
162
184
189
157
131
142
107
45
65
24
36
62
22
33
58
20
36
62
20
50
78
35
65
93
49
81
105
65
86
115
72
52
89
39
75
121
66
84
124
70
80
99
53
58
72
26
44
61
8
65
85
28
85
111
50
94
128
66
82
122
61
65
108
47
49
89
30
44
85
23
75
119
59
79
124
56
79
120
46
68
106
33
50
87
23
86
124
68
119
158
101
98
134
78
87
119
63
69
99
42
65
98
41
62
103
44
94
146
79
88
153
72
76
143
61
76
136
64
76
142
64
79
139
64
82
132
65
78
120
60
82
116
63
121
140
96
119
140
95
75
96
56
117
139
99
117
142
101
110
133
93
65
83
39
72
96
44
90
132
73
39
100
37
132
157
100
124
149
91
115
140
83
107
132
75
99
124
67
96
121
63
94
119
61
93
118
60
93
118
60
92
117
59
90
115
57
85
110
52
90
115
57
106
131
74
108
133
75
99
120
62
135
153
94
165
183
121
164
181
117
158
176
108
145
165
96
119
140
73
101
121
59
71
91
36
48
66
14
90
103
62
136
149
104
137
151
101
139
152
98
126
139
83
112
124
60
138
147
72
151
156
76
164
162
87
206
192
119
207
183
112
198
170
103
169
140
73
153
136
73
117
115
25
117
112
16
109
104
12
116
110
30
185
176
107
188
178
117
191
180
122
191
179
121
191
179
121
190
178
120
187
175
117
184
173
115
185
174
117
180
170
115
161
152
97
153
146
91
137
132
80
110
112
67
87
88
44
73
74
29
68
69
24
66
67
21
89
86
40
170
166
114
154
149
94
158
150
99
198
189
141
216
206
161
210
199
154
202
191
145
201
188
142
199
186
140
200
181
139
199
180
137
197
179
135
196
177
132
193
175
129
192
174
127
191
173
126
190
171
124
191
170
124
192
171
125
192
170
125
185
163
116
180
158
108
189
168
114
203
182
126
199
178
118
201
180
115
196
175
107
191
173
107
194
180
119
192
181
131
192
184
144
182
176
130
180
168
116
186
165
104
189
167
109
191
170
116
190
168
116
188
166
117
187
165
116
184
167
116
183
166
115
185
162
113
188
162
114
187
163
115
185
161
108
164
140
84
172
149
92
169
147
90
165
143
86
149
129
76
148
128
81
150
128
84
150
129
88
155
136
97
165
150
116
174
164
134
179
170
140
179
173
144
179
173
146
177
171
145
175
169
143
175
169
144
171
165
140
168
162
136
165
158
132
167
157
132
164
154
129
159
149
124
156
146
121
157
146
122
145
134
112
126
111
91
142
125
107
159
145
126
158
148
129
167
159
140
170
162
143
169
161
142
167
159
140
169
160
141
167
156
136
167
156
134
167
157
133
173
163
136
164
154
127
176
166
141
172
162
137
178
168
143
192
182
157
199
190
165
200
194
168
180
170
145
163
151
125
171
162
135
182
177
147
192
190
162
192
191
163
191
190
162
189
188
160
187
186
158
183
183
155
175
177
148
173
179
149
135
142
113
116
126
95
141
146
117
203
206
176
200
203
172
199
201
168
200
201
167
199
200
166
199
200
166
200
201
167
198
199
165
174
175
143
119
129
95
72
92
55
42
73
32
47
82
41
40
75
34
37
75
29
26
64
15
27
68
20
41
85
36
57
93
46
72
98
55
75
101
56
68
94
47
69
92
42
70
98
44
58
89
34
50
79
24
59
88
32
65
93
35
63
90
32
62
90
26
56
86
12
58
95
24
68
107
41
90
127
64
111
145
86
96
132
71
58
99
35
82
128
67
44
93
32
32
83
21
32
81
19
59
109
45
41
88
25
43
89
18
55
100
29
58
113
44
67
122
56
67
124
61
74
134
71
89
147
85
113
152
99
118
156
104
114
154
102
87
126
76
101
140
88
92
125
71
76
109
59
101
137
86
80
116
69
50
87
44
130
156
99
113
139
82
96
122
65
90
116
59
89
115
58
91
116
58
91
116
58
90
115
57
89
114
56
90
115
57
90
115
57
84
109
51
80
105
47
77
102
44
89
113
56
101
121
64
138
156
97
163
182
119
156
174
109
158
176
108
155
176
107
135
156
89
105
125
63
89
108
52
64
81
31
62
75
33
127
140
94
137
151
102
141
153
101
132
145
91
115
128
67
122
131
60
146
151
73
156
152
76
210
193
118
188
158
85
141
102
29
136
92
20
97
68
14
99
95
23
115
111
23
110
104
18
153
145
77
200
191
126
189
179
121
189
177
122
190
178
120
193
181
123
192
180
122
189
177
119
186
175
116
186
176
117
189
180
126
123
116
68
104
97
53
86
82
42
77
79
40
75
77
38
73
75
35
78
80
41
83
84
44
115
113
72
168
165
115
163
158
106
230
223
174
227
218
172
215
204
158
203
192
146
198
186
140
198
186
138
199
185
137
199
181
134
198
180
131
196
178
129
193
176
125
191
173
123
191
173
124
190
172
123
190
170
121
190
169
121
192
170
122
194
172
122
196
174
123
201
180
126
206
185
128
206
186
126
203
182
122
206
179
109
192
162
67
182
153
47
180
151
58
185
164
90
192
175
129
188
177
134
182
168
113
184
164
103
187
166
110
190
170
117
189
169
117
189
169
118
187
167
117
183
167
116
183
164
114
183
161
112
181
158
110
177
158
108
175
158
106
174
158
106
148
137
85
127
119
65
104
101
45
113
108
58
102
96
52
95
89
49
114
107
70
125
115
81
156
145
113
171
162
131
177
169
139
178
171
143
175
169
142
173
166
140
172
163
138
169
161
135
167
159
134
165
157
132
157
147
122
157
145
121
156
144
120
156
144
120
152
140
116
147
135
112
149
136
114
137
120
101
109
92
74
155
140
122
155
144
124
162
154
133
167
159
139
170
162
141
166
158
137
166
158
137
167
156
136
162
151
129
161
151
127
170
160
133
161
151
124
169
159
134
170
160
135
175
165
140
185
175
150
193
184
158
201
195
168
193
184
157
168
156
130
165
156
127
193
189
159
197
196
168
195
194
166
197
196
168
193
192
164
191
190
162
187
187
159
182
183
155
178
181
152
179
184
154
170
176
146
147
152
123
163
166
137
200
204
172
199
201
168
200
201
167
200
201
167
200
201
167
200
201
167
199
200
166
198
199
165
194
200
166
156
166
133
82
97
65
71
94
56
42
69
29
34
70
30
81
118
80
102
136
98
101
132
96
99
124
91
91
119
82
56
88
47
49
76
31
86
103
63
128
145
100
133
151
108
129
142
105
121
131
96
108
121
83
111
128
87
142
160
103
171
197
113
122
165
76
89
139
51
109
151
71
102
141
69
100
146
82
62
114
49
46
104
38
43
105
40
51
109
48
60
109
50
68
117
57
60
105
45
57
101
39
64
104
44
64
105
50
62
105
51
56
105
52
52
107
52
34
91
35
36
93
35
37
93
36
41
92
37
44
93
39
45
91
39
41
88
32
41
88
33
55
97
48
62
102
56
62
102
57
123
151
93
105
133
75
92
120
62
88
115
58
84
112
54
90
115
57
89
114
56
88
113
55
89
114
56
92
117
59
92
117
59
88
113
55
86
111
53
80
105
47
76
101
43
74
95
37
133
150
92
168
186
124
163
181
116
149
166
98
152
173
104
149
170
103
115
135
73
89
109
52
79
97
45
55
70
23
66
78
38
134
148
100
143
155
105
138
150
99
125
139
83
114
123
57
141
144
68
155
147
70
184
163
87
136
100
26
131
87
6
131
82
8
107
77
22
77
73
17
110
108
26
112
106
25
194
185
116
205
195
133
198
188
130
187
175
118
186
174
118
189
177
121
193
180
124
192
179
123
189
178
120
183
173
114
188
179
127
149
143
100
109
104
68
99
97
64
92
93
60
90
91
58
83
85
52
83
85
52
82
83
48
126
123
86
170
167
121
164
160
112
230
222
177
226
217
173
215
205
157
206
195
147
202
190
141
204
190
141
204
190
140
202
184
133
199
182
131
199
182
129
197
180
126
195
178
124
195
175
125
196
176
126
196
175
126
196
174
125
195
173
124
194
173
120
197
176
122
199
178
122
199
179
121
196
176
117
192
172
110
199
169
93
190
154
39
190
150
14
184
144
16
170
140
34
182
162
105
196
184
142
188
173
122
181
160
108
185
165
113
187
167
116
188
168
117
189
170
117
187
168
115
183
164
114
178
159
109
180
159
110
178
159
109
174
159
108
171
160
110
165
157
107
149
147
97
114
118
68
73
83
30
58
69
21
66
77
33
40
52
9
37
44
7
65
63
34
132
126
96
165
159
127
176
169
139
176
169
141
174
166
140
172
162
136
167
157
131
166
156
129
162
152
125
156
146
120
152
141
115
153
139
115
153
139
115
153
139
116
144
130
107
144
130
106
146
130
107
152
133
113
120
100
81
139
122
103
162
148
128
156
148
125
165
157
134
170
162
139
165
157
135
161
152
130
163
152
132
160
149
127
157
147
123
163
153
126
162
152
126
164
154
129
167
157
132
176
166
141
182
172
147
189
179
154
199
192
164
197
192
163
178
168
140
168
156
128
200
196
165
201
200
171
199
198
170
198
197
169
196
195
167
194
193
165
191
191
163
187
187
159
182
184
155
182
185
156
183
187
157
180
185
155
160
163
134
183
187
155
199
202
168
200
201
167
202
203
169
202
203
169
202
203
169
200
201
167
199
200
166
200
201
169
202
205
172
185
192
158
143
155
120
109
124
89
43
67
34
41
73
41
92
121
90
113
138
108
124
148
117
120
146
113
101
121
89
169
181
147
214
223
185
223
230
188
212
221
180
201
214
175
188
206
164
171
193
150
146
171
127
119
143
94
92
122
59
55
99
32
37
89
20
34
87
21
37
88
25
39
93
30
43
97
36
49
103
45
33
91
32
40
97
40
64
119
63
56
109
55
46
97
44
44
96
42
43
90
41
69
103
64
92
121
84
103
128
92
115
136
101
120
140
104
115
138
99
108
134
93
87
117
73
56
91
43
53
89
42
109
147
95
96
134
83
63
97
49
71
100
57
85
110
71
121
148
93
106
133
78
95
122
67
93
120
65
88
116
60
92
117
59
90
115
57
88
113
55
88
113
55
90
115
57
93
118
60
92
117
59
91
116
58
88
113
55
83
108
50
86
107
48
134
152
94
167
185
123
171
188
123
168
185
117
142
163
94
136
157
90
131
152
89
102
121
65
77
95
43
75
90
41
56
69
25
77
89
48
139
151
103
143
155
106
135
148
96
115
124
62
131
132
57
139
129
51
126
100
25
119
82
2
124
83
5
119
79
5
101
81
19
59
58
5
103
101
23
148
141
69
200
191
125
210
199
141
201
191
133
194
182
125
186
173
118
187
174
119
191
178
123
190
177
122
190
179
121
186
177
117
182
175
122
162
158
114
106
104
66
104
105
72
100
104
71
102
106
73
95
99
66
90
94
61
92
94
60
115
113
77
165
162
120
127
124
81
233
226
184
222
213
173
212
200
152
204
192
142
198
185
134
193
180
128
189
175
123
198
180
130
203
185
134
201
183
132
199
182
129
198
181
128
200
180
128
198
178
126
197
176
124
195
172
121
191
168
117
188
167
115
186
164
113
184
163
110
188
167
114
194
173
119
195
178
119
196
170
91
184
145
20
185
142
3
177
135
4
170
138
38
187
170
114
184
176
132
187
174
118
172
152
95
177
158
106
176
159
108
177
160
108
176
159
105
175
158
104
178
159
108
182
162
112
179
159
109
174
159
108
165
157
104
135
130
82
110
106
63
105
106
61
99
105
58
79
89
43
74
89
39
55
69
22
92
100
57
118
119
81
113
110
75
113
108
75
150
145
114
174
168
138
175
166
138
173
163
138
170
159
134
168
156
130
163
151
125
156
144
118
156
144
118
156
143
118
154
138
115
152
136
113
155
139
116
147
131
108
147
131
108
144
127
104
151
130
109
133
111
92
134
115
96
157
143
121
146
139
114
153
145
121
167
159
135
164
156
132
160
152
129
160
149
129
157
146
125
157
147
123
160
150
123
161
151
124
163
153
128
164
154
129
170
160
135
179
169
144
187
177
151
194
187
159
200
196
166
185
175
146
166
154
124
201
198
166
203
203
174
202
201
173
200
199
171
199
198
170
197
196
168
194
193
165
191
191
163
189
189
161
187
187
159
186
186
158
183
187
158
184
187
157
181
185
153
194
196
162
205
206
172
204
205
171
204
205
171
204
205
171
199
200
166
196
197
163
199
198
166
200
199
168
201
200
169
189
193
160
167
177
142
111
124
93
50
75
44
58
87
55
45
73
41
77
105
72
103
131
99
137
156
127
180
192
162
184
197
162
153
165
129
108
124
87
73
99
60
50
86
40
50
92
43
60
104
55
78
110
65
119
143
99
131
156
112
120
150
102
86
122
71
72
115
59
71
116
56
72
120
61
81
131
74
72
126
68
64
120
64
50
102
49
64
104
60
99
127
89
118
142
108
130
152
121
141
163
134
143
162
133
147
165
133
188
204
170
187
199
165
229
235
201
235
241
207
228
235
201
215
222
190
196
208
171
171
183
136
183
195
150
209
221
178
170
183
141
159
172
133
120
149
93
107
136
80
97
125
69
98
125
70
95
122
66
98
123
65
96
121
63
95
119
62
96
121
63
98
122
65
97
122
64
95
120
62
93
118
60
86
111
53
81
106
48
94
114
56
127
144
86
166
184
121
164
182
117
168
185
117
165
185
117
137
158
92
118
137
75
125
144
87
109
127
73
82
99
46
72
87
37
61
75
27
80
91
48
131
142
96
144
157
107
124
134
77
116
115
44
117
105
29
112
83
2
119
83
4
115
82
6
107
79
5
93
83
15
53
55
1
95
92
21
155
148
84
171
162
106
158
147
99
194
182
132
196
184
132
193
180
127
191
179
125
189
177
122
188
176
121
188
177
120
188
178
120
182
175
122
159
156
110
125
126
86
121
123
88
110
114
79
113
117
83
112
116
82
107
111
78
103
106
73
104
103
68
107
105
68
126
122
86
236
231
191
219
211
170
209
197
147
200
188
137
195
181
129
192
178
126
190
174
123
189
171
122
190
173
123
195
178
128
196
178
128
194
177
126
190
171
118
186
166
114
186
166
113
189
167
115
192
171
118
191
169
119
189
168
118
190
170
121
194
173
128
215
194
152
229
214
168
205
181
105
183
146
12
181
140
12
168
130
21
160
133
43
162
149
93
169
164
117
172
160
105
171
151
94
181
162
110
180
162
111
180
163
110
183
165
111
183
166
110
181
161
109
172
152
101
177
158
108
157
143
93
129
123
72
145
142
91
154
150
101
146
144
95
138
141
90
105
113
65
71
79
31
110
113
61
117
111
65
133
122
81
136
125
86
121
113
77
120
116
84
170
165
134
172
164
136
172
162
136
170
158
133
166
153
126
161
148
121
157
143
117
155
141
115
156
141
116
152
136
112
149
133
109
151
135
110
145
128
104
147
131
106
145
128
103
144
124
101
140
120
97
133
114
92
149
133
111
145
135
110
149
140
115
165
156
131
163
155
129
162
153
128
158
147
126
156
145
122
157
146
121
160
149
122
159
149
122
161
150
124
164
154
128
165
155
129
174
163
138
186
176
150
189
182
153
199
194
164
186
175
146
162
149
119
194
190
157
205
205
176
204
204
175
203
202
173
202
202
172
200
200
170
197
197
167
196
195
166
197
196
167
196
195
166
194
191
162
186
188
158
189
191
160
196
199
167
176
178
145
190
191
158
206
207
173
206
207
173
205
206
172
204
205
171
199
200
166
200
200
168
203
201
170
199
196
165
197
198
166
194
200
166
183
191
158
86
102
70
67
101
62
43
84
41
40
85
40
49
90
51
66
93
63
59
82
51
39
67
28
53
81
41
78
102
62
96
116
77
114
134
92
106
129
86
84
106
64
151
169
126
165
173
134
168
175
136
167
175
134
173
184
140
170
184
140
160
180
132
132
156
109
126
161
111
71
116
64
71
113
65
133
170
127
106
134
94
127
146
111
136
151
121
140
154
125
138
152
126
134
149
120
126
141
110
119
133
99
161
173
136
203
211
170
215
221
181
219
223
185
220
223
186
211
214
176
222
223
180
198
202
160
169
178
137
174
189
148
170
188
148
120
149
93
112
139
84
107
132
77
104
127
73
99
121
67
100
122
67
99
122
66
99
122
66
99
122
66
100
123
67
102
126
68
103
127
69
102
126
68
95
119
61
83
107
49
87
106
47
91
109
49
148
167
104
161
180
113
149
169
99
159
179
111
161
180
115
135
154
90
108
126
63
113
131
70
112
132
73
87
105
51
71
88
34
65
78
27
69
77
35
129
142
93
140
149
93
96
92
29
97
79
7
105
81
4
111
84
8
107
84
7
98
82
8
91
84
16
65
65
4
91
91
31
117
113
61
123
117
74
132
124
82
148
140
98
192
182
139
198
187
141
199
188
140
192
182
130
186
176
123
187
177
122
190
179
124
184
176
124
130
126
82
123
121
87
116
117
87
114
117
84
107
111
79
110
113
82
105
108
79
92
95
67
94
97
66
90
90
60
104
102
70
220
217
178
212
207
161
203
191
139
199
186
134
199
184
132
199
183
131
198
182
130
195
179
127
193
177
125
190
174
122
188
172
120
185
169
117
192
177
126
198
182
131
203
186
135
203
184
133
198
179
129
192
172
123
181
162
115
154
138
97
140
124
92
228
215
188
243
232
198
188
162
84
187
145
14
186
152
54
188
164
95
171
158
95
170
160
103
184
174
122
164
151
100
164
143
92
186
166
115
188
168
116
180
160
107
177
157
104
175
156
101
178
155
101
175
153
100
163
145
92
156
144
89
157
148
93
148
145
89
143
143
89
127
124
74
113
110
63
77
83
37
123
124
71
129
116
67
123
107
61
132
119
75
119
111
67
89
86
46
74
74
37
139
141
105
168
166
135
172
165
138
168
159
131
161
151
121
157
146
116
154
140
111
152
137
108
151
136
107
151
134
106
153
136
109
152
135
107
148
131
103
145
128
100
142
125
97
139
122
94
142
125
97
135
118
90
136
119
93
147
129
109
148
132
110
162
147
124
161
149
123
164
152
126
160
148
122
158
146
120
158
146
120
157
145
119
160
148
122
164
150
123
165
152
125
169
158
130
168
158
130
185
176
147
186
179
150
199
192
163
193
184
153
168
159
128
175
164
133
206
205
175
205
206
175
207
208
176
205
206
172
203
205
170
202
202
168
197
197
163
199
199
165
203
203
169
201
200
167
197
197
163
198
198
164
199
199
165
189
189
155
122
122
93
194
194
162
213
213
179
207
207
173
207
207
173
204
204
170
200
200
166
199
199
165
200
200
166
199
199
165
197
197
163
198
201
168
174
184
151
81
102
67
36
76
32
21
72
26
13
66
15
48
80
36
91
109
70
113
128
87
120
135
94
128
138
99
133
140
102
145
152
114
159
165
127
173
179
141
174
178
141
178
178
142
176
176
140
179
179
143
180
180
144
184
183
149
184
182
149
181
186
149
143
155
115
85
106
62
133
156
108
113
129
86
103
119
74
115
130
82
131
144
93
126
140
86
136
155
96
123
145
85
105
128
71
102
119
67
166
179
130
202
210
165
207
210
169
207
212
172
204
212
173
202
209
171
201
209
168
149
164
122
129
153
111
123
149
111
93
118
83
117
146
90
113
140
85
112
137
82
110
133
79
107
128
75
107
129
73
104
127
70
102
124
68
101
123
67
102
124
68
101
124
67
98
122
64
95
119
61
91
115
57
86
110
52
88
107
47
96
114
53
105
124
60
156
175
108
153
173
102
138
158
88
150
169
102
157
177
110
138
157
92
105
125
60
99
120
57
111
131
71
94
112
55
72
86
32
67
78
27
71
79
31
107
110
56
83
77
11
94
80
7
101
85
7
101
84
9
97
83
7
91
81
4
87
82
11
96
98
25
123
126
63
129
130
80
145
145
100
145
143
97
141
140
93
152
147
103
169
161
116
206
198
153
221
213
165
211
204
153
201
194
141
185
177
125
159
152
107
128
124
86
124
123
88
122
124
89
118
122
89
111
115
83
104
107
76
98
101
72
91
94
67
92
95
66
98
98
70
100
98
67
189
185
148
201
195
150
187
176
124
186
174
121
185
172
119
183
168
114
181
166
111
180
164
112
181
165
113
184
168
116
186
170
118
186
170
118
182
169
116
178
164
113
157
143
96
138
122
78
143
125
81
163
142
100
159
138
101
101
82
50
109
95
64
173
163
132
213
205
164
184
157
74
178
135
14
185
157
83
191
180
134
187
178
134
194
186
140
198
189
143
183
170
123
162
144
93
182
164
113
187
170
117
187
170
116
176
159
105
160
143
87
153
133
78
147
127
73
142
127
73
138
128
72
130
124
69
113
114
60
83
92
39
74
87
30
78
84
32
119
119
68
125
118
68
126
116
63
132
124
74
145
134
86
102
96
52
81
82
37
88
94
48
86
93
52
145
148
114
172
168
138
165
157
129
159
149
119
158
147
117
154
140
111
152
137
108
151
136
107
154
137
109
153
136
109
152
135
107
148
131
103
143
126
98
141
124
96
136
119
91
133
116
88
138
121
93
136
119
92
147
129
107
145
129
105
154
140
115
162
150
123
162
151
123
159
148
119
155
144
115
156
145
117
154
143
114
158
147
119
163
149
121
162
149
121
172
161
133
171
161
132
180
171
141
187
180
151
196
189
160
197
188
157
156
147
116
166
155
124
184
179
150
206
204
173
209
208
175
207
208
174
206
207
173
206
206
172
205
205
171
201
201
167
199
199
165
198
198
164
202
202
168
202
202
168
201
201
167
192
192
158
168
168
135
121
121
92
209
209
176
213
213
179
210
210
176
207
207
173
204
204
170
203
203
169
200
200
166
202
202
168
202
202
168
201
199
166
198
199
167
170
181
145
82
104
66
54
84
43
45
80
34
92
117
73
121
134
94
127
135
97
132
139
101
153
158
121
170
174
137
175
179
142
177
180
143
173
176
139
173
175
138
176
176
140
186
186
150
186
186
150
179
179
143
180
179
145
181
179
147
181
181
146
177
179
141
158
163
121
158
166
119
161
169
116
157
165
113
141
151
99
123
133
80
118
129
74
92
108
52
92
113
52
88
116
51
83
112
46
94
121
60
103
123
71
111
129
81
116
133
87
105
124
79
111
134
91
121
151
108
94
130
87
62
101
59
93
128
90
132
162
126
91
120
65
111
138
83
113
138
83
117
141
86
122
144
90
123
144
87
117
138
81
110
131
74
106
127
70
105
126
69
103
126
67
100
124
64
94
118
58
90
114
54
81
105
46
81
101
41
97
115
54
99
118
54
124
144
77
165
185
114
151
172
100
130
151
80
135
157
86
144
166
96
136
157
89
115
137
71
95
116
52
97
116
55
97
111
53
79
90
35
81
87
32
75
73
14
85
78
9
92
82
7
97
87
10
96
88
11
88
83
3
85
83
4
90
90
22
133
136
66
149
155
86
155
162
101
158
165
104
154
160
96
147
153
90
145
146
89
150
146
94
152
146
102
156
150
110
169
163
122
176
170
127
143
138
94
130
126
88
119
117
83
121
122
86
121
124
87
124
128
95
115
119
86
107
110
79
107
110
81
113
116
89
102
105
78
109
109
83
105
102
73
138
134
100
207
201
158
193
181
133
188
176
125
184
172
120
183
170
117
176
163
108
174
158
106
173
157
105
172
156
104
172
156
104
172
156
104
174
158
105
177
159
108
169
149
103
141
120
79
123
100
60
145
122
83
143
120
87
106
83
55
137
113
84
194
171
139
187
167
126
190
159
77
177
141
26
191
171
105
195
190
146
196
190
151
187
181
139
184
178
130
182
173
120
162
148
94
172
156
104
181
165
112
184
168
114
185
170
115
172
156
100
153
135
79
149
133
77
145
133
77
124
116
61
98
95
41
105
108
55
98
109
52
75
87
33
121
121
68
132
120
71
128
115
64
135
123
71
130
121
68
111
106
53
92
88
36
113
107
55
105
100
49
89
88
42
127
127
90
173
170
138
164
158
129
160
150
119
158
147
117
155
141
112
153
138
109
152
136
107
152
135
107
151
134
106
150
133
105
147
130
102
145
128
100
139
122
94
136
119
91
125
108
80
131
114
86
140
123
96
144
126
102
147
131
105
148
133
107
155
144
116
157
146
116
153
142
112
150
139
109
152
141
111
156
145
115
157
145
115
160
146
117
164
150
121
170
159
129
171
161
130
178
169
138
184
177
148
197
190
161
206
197
166
162
153
122
159
148
116
165
159
127
192
187
155
209
205
173
208
207
173
207
208
174
208
208
174
209
209
175
208
208
174
206
206
172
200
200
166
195
195
161
197
197
163
199
199
165
196
196
162
185
185
151
174
174
140
143
143
111
211
211
178
214
214
180
209
209
175
206
206
171
208
208
172
209
209
173
203
203
168
203
203
167
209
205
171
208
203
169
205
207
171
156
164
128
65
80
44
57
74
33
54
68
28
136
142
106
177
180
143
173
175
139
176
178
142
178
179
144
174
175
140
172
174
139
171
173
138
185
186
151
205
205
171
230
230
195
225
225
190
175
175
141
177
176
143
177
174
142
180
177
143
181
180
143
165
166
125
179
181
139
183
185
143
183
187
144
188
194
150
194
202
157
208
218
175
206
219
181
208
218
180
205
213
174
198
206
163
178
186
136
175
184
119
175
181
121
181
185
132
182
195
146
139
167
119
66
108
65
92
127
90
127
159
122
128
158
121
123
151
116
79
108
52
85
112
58
96
120
66
109
132
78
118
139
85
121
141
84
118
139
81
114
135
77
110
131
73
108
128
71
104
127
67
101
125
65
97
121
61
92
116
56
86
109
50
83
102
42
95
113
52
99
118
54
110
129
62
151
171
100
165
187
113
155
178
104
128
151
77
122
145
72
135
157
85
138
161
90
125
146
79
98
117
52
91
106
44
97
108
49
82
88
31
73
72
8
82
75
5
87
79
4
93
85
9
94
89
11
90
87
7
83
84
8
116
120
57
147
155
89
157
166
100
161
170
103
160
169
98
159
167
90
152
159
84
149
153
86
153
152
97
156
152
110
148
144
110
143
139
106
141
138
103
131
129
94
128
127
92
122
123
88
126
128
93
128
131
96
125
129
95
116
120
88
111
114
84
113
116
87
120
123
96
108
111
86
112
111
87
112
108
81
111
107
73
152
146
108
200
189
148
194
181
138
193
181
134
188
175
125
182
168
117
174
158
106
173
157
105
170
154
102
168
152
100
168
152
100
169
151
98
174
153
102
177
155
105
182
160
111
175
152
105
161
139
93
153
129
85
151
126
85
152
123
87
161
133
97
173
144
106
200
170
97
174
148
50
193
182
122
201
199
152
182
178
137
184
181
136
183
182
128
180
175
118
156
144
88
159
144
91
173
158
105
180
166
111
184
170
115
182
169
112
166
151
96
151
138
82
138
129
74
129
126
70
145
145
88
130
135
79
82
89
36
133
133
80
154
143
90
159
141
91
155
139
87
154
138
86
155
143
89
116
111
56
130
122
67
121
105
50
117
100
45
109
99
50
123
117
78
175
169
137
169
161
132
164
155
124
162
151
121
159
145
116
156
141
112
154
138
109
152
135
107
151
134
106
149
132
104
146
129
101
144
127
99
138
121
93
134
117
89
124
107
79
126
109
81
138
121
94
142
125
99
147
131
104
146
132
103
150
139
108
151
140
109
149
138
106
149
138
106
149
138
106
157
146
114
160
149
117
161
147
117
165
152
122
171
160
129
172
162
131
180
171
139
184
177
148
195
187
158
208
199
168
179
170
139
149
138
106
164
155
121
177
170
136
191
186
153
198
197
163
203
204
171
208
208
174
207
207
173
208
208
174
212
212
178
209
209
175
202
202
168
198
198
164
194
194
160
196
196
162
195
195
161
188
188
154
177
177
143
152
152
119
208
208
174
210
210
176
208
208
173
207
207
171
206
206
170
209
209
173
208
208
172
206
204
167
208
206
168
207
209
170
200
205
165
151
158
120
67
74
37
147
154
117
178
184
146
181
181
145
176
175
139
176
177
141
176
176
142
175
175
141
175
175
141
189
189
155
207
207
173
218
218
184
234
234
200
242
242
208
219
219
185
201
200
167
199
194
163
199
197
163
206
206
168
199
201
160
199
200
160
200
201
163
208
209
170
207
209
168
208
210
168
217
219
177
220
221
176
225
217
169
221
208
155
211
197
142
221
206
145
216
202
122
186
173
98
188
185
123
152
167
115
76
105
63
124
152
122
145
170
139
145
163
134
147
167
137
146
169
139
71
100
44
74
102
48
52
77
28
64
87
37
93
115
63
106
127
70
112
132
75
113
134
76
110
131
75
108
129
72
104
128
70
96
122
61
94
118
58
94
119
58
92
116
54
88
108
47
96
114
52
100
119
55
102
121
54
112
133
64
155
178
104
156
180
105
153
176
102
135
159
86
118
141
68
121
144
72
129
151
81
128
148
80
107
123
60
90
102
41
67
74
14
72
72
6
78
73
2
80
72
1
84
78
3
87
82
8
82
80
6
100
103
33
144
152
86
157
168
104
162
172
108
171
178
115
169
175
107
165
172
97
161
165
92
160
161
97
165
164
111
154
152
111
154
150
118
147
143
112
132
129
98
137
136
107
136
137
103
142
144
107
149
152
117
135
139
105
136
140
107
134
138
106
127
130
100
120
123
94
125
128
101
115
117
93
115
115
92
111
109
82
116
112
80
123
118
82
146
136
101
189
178
140
192
179
138
190
177
132
181
167
119
174
160
108
174
159
107
172
156
104
170
154
102
170
154
102
174
158
105
179
163
109
183
165
111
181
163
108
184
165
109
186
165
111
186
165
110
184
163
109
172
151
103
152
131
88
149
128
84
193
170
98
175
155
79
193
186
145
184
184
147
188
184
146
184
181
135
177
176
120
167
164
108
132
123
69
155
142
89
159
146
92
171
158
103
176
163
108
179
166
110
182
169
112
174
162
105
169
161
104
167
163
105
158
157
100
96
101
48
128
130
78
144
136
84
151
134
83
152
136
84
153
136
84
153
136
83
151
140
84
140
127
72
149
136
79
138
122
65
121
105
48
108
97
46
138
130
91
181
171
139
174
165
135
170
161
130
167
156
126
165
151
122
160
145
116
155
140
111
152
135
107
151
134
106
149
132
104
144
127
99
141
125
96
139
123
94
131
115
86
127
110
82
124
108
79
130
113
86
142
126
99
146
131
102
145
132
101
146
134
103
145
134
102
151
141
107
152
142
108
152
142
107
158
148
114
158
148
114
163
150
118
167
154
123
174
163
131
175
165
133
182
173
140
184
177
148
197
190
161
211
202
171
195
185
154
163
152
120
159
148
114
175
166
131
185
179
146
190
187
154
192
192
160
197
197
163
201
201
167
205
204
171
209
209
175
210
210
176
209
209
175
206
206
172
202
202
168
198
198
164
197
197
163
199
199
165
193
193
160
180
180
146
167
167
132
197
197
163
215
215
179
211
210
174
206
206
169
204
203
166
209
208
171
208
209
170
205
208
166
203
206
164
208
211
169
205
209
166
177
180
141
182
188
149
174
181
143
168
170
134
172
174
138
173
174
139
176
174
140
179
177
144
202
200
167
210
208
174
215
214
180
224
224
189
230
230
196
236
236
202
234
233
200
210
208
175
200
195
162
200
196
160
199
196
157
188
185
144
183
181
138
175
175
131
151
148
104
163
158
108
166
160
104
167
159
91
173
156
65
171
145
50
168
138
36
164
137
30
167
142
44
179
156
68
186
175
96
163
173
104
78
106
57
155
182
146
158
179
152
152
170
145
148
165
140
153
170
143
154
177
148
115
146
90
119
150
93
110
140
87
86
115
66
45
74
26
56
83
32
81
107
57
70
94
48
54
78
35
54
78
34
54
79
33
56
82
32
67
94
40
75
103
43
75
102
39
78
100
37
88
106
45
100
115
54
100
118
55
100
121
56
126
147
84
149
169
105
148
169
102
149
170
100
146
168
95
127
148
78
111
133
65
121
144
76
126
145
79
96
108
47
65
72
9
69
70
5
75
72
5
79
74
5
80
78
5
80
81
9
75
78
7
121
130
59
155
164
93
165
171
101
171
178
107
174
181
109
176
182
110
175
177
107
169
170
100
167
166
100
181
175
119
174
169
123
161
156
120
171
167
137
170
167
138
180
179
149
151
151
119
142
143
109
145
146
112
147
149
115
144
147
115
137
140
109
135
138
108
130
133
104
128
131
104
120
124
99
117
120
92
117
119
88
120
119
88
160
160
127
160
159
126
137
132
97
174
165
126
190
176
134
184
168
123
172
161
107
172
160
106
172
158
105
171
154
104
168
151
100
169
151
100
170
153
101
171
154
101
173
156
102
175
158
103
179
161
105
182
165
109
186
169
112
187
171
113
187
171
113
188
173
110
184
166
91
183
167
108
189
181
144
190
187
152
183
177
139
184
174
126
182
173
114
169
161
102
125
116
60
149
133
80
158
142
89
165
148
96
170
155
103
175
162
109
176
164
109
175
164
108
175
164
110
172
161
109
128
119
70
129
121
70
159
151
96
159
147
94
144
130
78
156
139
87
157
140
87
149
132
78
149
132
78
152
135
81
149
132
78
145
127
75
139
122
72
124
110
64
158
146
112
181
171
142
176
168
137
173
163
133
168
157
127
167
153
124
159
144
115
155
138
110
155
136
110
151
133
106
147
131
102
140
126
95
135
121
89
134
121
87
132
119
86
126
113
81
122
109
78
127
113
83
145
130
100
146
131
101
150
137
106
148
136
105
146
135
104
153
143
108
154
144
109
157
147
112
159
149
114
157
147
112
165
150
119
168
154
123
178
165
135
179
169
138
182
173
143
186
179
151
200
193
164
208
199
169
205
196
165
185
174
143
175
167
131
176
170
133
186
181
145
189
186
150
186
184
149
188
185
151
192
189
155
198
195
161
204
201
167
208
205
171
208
207
172
210
210
174
211
211
175
208
208
172
203
203
167
203
202
170
204
204
170
202
202
166
189
189
151
171
172
131
187
185
147
218
214
177
213
209
171
212
209
169
207
204
164
208
206
162
213
212
167
210
209
164
207
207
161
213
212
166
208
208
166
192
193
154
170
172
134
167
169
134
170
173
139
171
172
138
180
180
146
198
198
164
217
217
183
211
211
177
214
215
179
222
224
185
223
224
188
218
218
182
198
196
162
190
186
151
187
182
142
171
166
124
164
160
113
166
162
111
167
165
112
166
165
115
165
160
113
164
155
101
167
156
84
168
156
65
168
147
36
165
134
25
168
141
42
183
166
82
197
184
113
188
184
124
159
171
112
76
109
53
150
181
136
210
221
186
154
163
134
131
145
123
153
162
146
159
170
150
143
167
137
116
147
90
112
144
87
110
140
86
106
137
84
88
118
66
74
104
52
68
98
46
48
78
30
34
63
15
32
61
15
26
55
20
23
52
18
21
49
9
34
63
16
49
77
27
68
93
38
79
100
45
94
110
54
97
112
53
97
115
53
96
115
54
104
124
62
127
148
83
141
162
94
144
165
94
145
167
95
135
157
86
116
138
69
115
133
66
74
86
27
64
71
8
68
71
7
74
72
7
79
77
9
80
80
9
75
76
5
80
85
16
141
150
78
161
171
97
169
177
104
175
182
109
176
183
109
176
182
108
177
180
107
175
177
104
172
171
104
189
182
122
187
182
125
184
179
131
173
169
130
156
153
119
147
146
114
137
137
104
141
142
107
147
149
112
142
145
109
139
143
109
138
141
110
132
135
106
130
133
107
123
125
102
128
131
106
125
127
100
117
117
87
131
130
98
188
186
153
191
190
156
156
151
116
144
135
97
156
143
101
173
156
113
177
161
109
177
160
108
175
156
105
175
154
105
173
153
104
170
154
103
169
153
102
168
152
100
168
152
100
168
153
98
169
153
99
170
154
100
172
156
101
173
158
101
173
158
100
177
159
98
174
156
93
197
184
132
193
185
148
187
182
147
189
179
134
176
159
110
159
139
84
176
157
103
137
119
65
148
127
74
156
135
82
159
139
86
163
146
94
168
152
100
171
159
105
172
161
106
173
162
108
164
153
100
153
141
90
163
151
98
160
148
94
162
149
96
160
144
92
154
137
86
154
137
84
148
131
77
145
128
74
144
127
74
155
138
84
161
143
90
160
143
91
144
129
82
164
151
116
182
172
141
178
169
138
174
164
134
167
156
126
162
149
119
156
141
112
153
136
108
155
137
109
153
136
107
146
131
100
135
120
88
122
107
74
126
112
78
129
115
81
126
112
78
122
108
74
126
111
77
143
128
95
145
130
97
148
134
101
151
138
105
153
141
108
157
146
112
158
147
113
160
149
115
159
149
114
159
148
113
164
149
118
167
152
121
175
163
132
178
167
137
183
174
143
192
185
156
200
193
163
202
193
161
187
178
145
175
165
130
176
167
129
182
174
136
188
182
144
188
183
146
185
182
144
181
178
141
185
181
144
188
184
147
190
186
149
193
189
153
196
194
158
200
200
164
206
206
169
210
210
173
211
210
174
209
208
174
208
208
173
207
207
169
204
204
165
204
204
164
192
190
150
172
169
130
200
196
156
209
206
164
208
205
163
204
202
157
201
199
153
207
204
158
211
208
162
210
207
161
212
210
167
207
205
164
172
172
132
170
171
133
175
177
140
175
176
139
187
187
151
207
207
171
217
217
181
208
208
172
208
208
171
212
213
175
201
201
164
189
188
152
181
178
143
175
171
135
172
167
127
162
157
114
158
154
108
157
153
104
156
153
103
153
150
101
154
150
100
158
151
96
163
154
90
171
162
91
168
159
85
181
165
98
187
172
109
174
164
105
170
162
108
162
168
113
83
122
60
78
118
59
130
154
102
203
206
159
186
187
143
163
172
138
176
184
165
188
195
181
177
190
174
112
145
89
110
143
87
102
135
79
96
129
73
90
123
66
84
117
60
78
111
54
69
102
47
62
94
42
56
89
37
44
76
32
31
63
19
38
69
25
30
62
16
25
55
8
33
60
12
71
94
44
90
107
54
93
109
53
92
110
50
89
108
49
87
107
47
89
110
47
116
137
71
120
141
72
134
154
84
132
153
84
126
147
79
107
124
60
59
70
8
60
69
8
66
72
11
70
70
8
75
75
10
73
76
7
71
74
4
105
111
42
152
163
87
164
176
98
173
182
105
179
187
111
178
185
111
177
183
109
178
182
108
178
180
107
175
173
104
187
179
116
187
180
117
191
186
128
185
180
131
170
167
126
157
154
118
153
152
117
156
157
123
151
155
120
151
155
122
146
150
118
138
141
112
139
141
116
160
162
140
156
158
136
144
147
121
136
137
109
133
133
102
159
156
124
204
202
168
199
198
163
171
167
131
153
144
107
194
180
143
177
160
121
164
144
99
161
139
94
164
142
98
171
148
105
178
156
112
175
158
110
175
159
110
173
157
107
171
155
104
171
155
103
172
156
108
172
155
107
175
158
110
176
160
110
175
159
109
179
161
107
183
170
119
197
188
142
188
179
138
191
179
136
171
154
92
157
132
65
141
116
58
172
153
99
143
126
71
148
125
71
152
128
74
158
137
85
160
142
91
167
151
100
171
159
107
170
159
106
168
156
103
152
138
86
159
144
92
162
147
95
159
143
91
158
141
89
155
138
86
151
134
82
142
125
72
149
132
78
154
137
83
158
141
87
158
141
87
171
153
100
160
142
89
145
129
80
173
160
123
183
172
140
178
169
136
173
164
132
165
154
123
159
146
115
156
141
110
152
137
106
155
139
108
154
138
106
143
127
94
126
111
77
113
97
63
120
105
70
126
111
76
125
110
74
123
108
70
123
108
70
138
123
85
142
128
91
145
131
96
153
139
106
157
144
111
160
147
113
161
148
114
163
150
116
162
149
115
161
147
113
163
148
115
166
151
119
172
160
128
176
166
134
183
174
142
194
187
157
205
198
166
192
184
148
167
159
121
163
154
114
163
152
111
173
164
124
183
176
135
190
185
145
187
183
143
185
181
142
183
178
139
178
173
135
182
177
139
186
181
143
185
181
143
187
184
146
190
187
149
197
194
156
204
201
163
211
208
171
212
208
172
209
206
168
211
207
169
211
208
169
210
206
166
204
200
159
195
190
149
188
184
141
209
206
162
206
202
156
204
201
153
202
199
151
203
200
152
211
208
160
213
210
163
214
210
166
201
199
156
182
179
138
185
184
144
183
182
144
191
191
154
206
206
168
216
216
179
205
205
167
207
207
169
196
196
157
181
180
142
176
173
137
173
170
135
174
170
133
159
154
114
149
144
103
154
150
106
156
152
107
159
155
109
163
159
113
166
162
113
169
163
112
173
167
115
173
167
115
172
165
114
163
154
105
163
153
105
170
162
115
178
177
128
115
139
84
82
116
58
152
175
113
94
113
53
147
158
96
169
165
107
172
177
133
181
189
162
182
190
175
209
220
206
106
139
84
105
139
83
99
133
75
95
129
70
90
124
64
85
117
53
81
112
49
77
108
46
74
104
45
70
101
43
71
103
43
66
98
38
68
98
41
68
97
43
64
91
40
60
86
35
71
94
40
80
99
45
77
97
41
78
101
41
80
101
43
81
101
42
80
100
39
75
96
31
73
93
28
86
104
43
103
121
61
103
123
61
87
102
45
57
65
9
59
68
11
59
68
8
64
67
7
71
73
10
69
74
7
75
79
12
138
145
72
157
169
91
168
181
101
171
183
101
178
187
107
180
187
111
180
187
110
178
182
106
176
178
103
181
179
108
186
177
113
186
178
116
188
181
122
188
182
126
185
181
129
168
165
120
163
163
122
169
171
136
154
158
129
153
157
131
176
178
155
190
192
168
197
199
175
183
185
161
146
148
124
143
144
118
148
148
119
148
146
116
171
168
134
205
202
167
198
196
161
190
185
149
158
150
115
146
133
102
103
85
51
99
76
38
97
74
38
97
76
39
82
62
28
97
78
45
117
102
66
127
113
77
134
120
82
142
128
89
141
127
87
145
130
94
142
128
91
140
126
89
133
119
82
143
128
87
155
139
95
192
186
142
193
189
147
198
185
139
177
156
98
158
134
60
135
111
43
163
145
86
179
167
115
151
138
86
150
129
72
155
132
77
162
142
89
165
149
98
171
159
109
167
156
105
167
155
103
166
153
100
152
137
84
158
141
87
160
141
89
159
139
88
158
140
88
154
136
85
149
132
80
148
131
78
163
146
93
159
142
88
156
139
85
167
150
96
160
141
88
150
131
76
139
122
72
171
157
118
180
169
135
174
164
130
170
161
128
161
150
118
155
142
110
151
136
105
153
139
107
153
138
105
141
127
93
132
117
82
119
102
68
116
98
62
120
102
67
127
109
72
126
108
69
125
107
66
123
106
63
125
110
67
132
117
76
145
130
93
156
142
107
159
144
111
159
145
112
160
146
113
161
148
114
162
148
114
161
148
114
163
149
115
167
152
119
169
158
124
174
164
131
185
176
143
195
189
157
206
199
165
181
173
136
154
146
104
152
144
99
159
147
103
163
152
109
169
160
117
177
170
127
174
168
125
171
164
124
174
167
127
175
167
127
177
169
129
184
176
136
182
177
138
183
179
140
185
180
142
187
183
144
192
188
149
201
196
158
211
207
168
212
208
170
204
199
161
206
201
163
210
205
165
207
203
160
212
207
163
210
206
161
205
201
155
207
202
154
209
203
155
211
205
156
206
200
151
203
197
149
207
201
152
210
204
156
211
207
160
216
212
167
191
187
144
184
182
141
187
188
148
207
208
168
211
212
172
204
205
165
197
198
158
182
180
141
173
171
133
173
170
132
171
167
130
166
161
125
156
151
111
157
152
112
157
152
111
161
156
115
167
162
120
171
163
122
168
163
120
167
163
120
161
158
113
157
154
108
161
157
110
165
160
110
180
172
120
183
182
128
145
156
102
64
96
33
145
154
94
172
166
109
120
133
71
109
136
66
169
175
112
151
158
110
152
166
131
147
168
139
135
161
131
93
127
72
94
128
72
90
124
66
85
120
59
78
113
51
80
109
41
81
110
41
82
111
44
82
110
45
79
108
44
76
106
42
72
101
38
72
100
39
71
98
37
72
98
39
69
95
35
75
97
39
74
94
37
62
84
27
58
85
25
59
81
24
63
82
24
65
85
24
64
84
20
60
81
16
53
71
11
46
64
10
49
66
14
56
69
17
53
60
10
56
65
12
54
63
6
60
66
7
65
70
8
66
73
7
97
104
38
154
163
87
167
180
100
170
184
102
169
182
98
176
185
104
181
189
112
184
190
113
179
182
106
174
176
101
188
185
114
189
179
116
194
184
126
188
179
123
184
178
121
189
184
127
184
181
128
176
175
130
170
170
138
178
181
158
211
215
195
225
226
206
179
181
159
149
151
126
148
149
121
144
146
117
144
143
115
137
136
107
145
142
111
172
168
135
205
201
166
197
195
159
196
191
154
132
123
90
93
79
45
88
70
37
80
58
28
70
50
19
66
47
17
67
50
20
70
53
25
73
57
34
82
65
43
82
65
42
69
53
28
53
36
10
51
34
5
61
45
17
91
77
50
127
113
82
149
134
101
147
137
100
195
194
151
194
192
149
190
175
126
164
139
73
164
141
79
184
165
108
165
155
106
171
165
121
169
157
110
157
137
83
156
136
81
170
154
101
171
160
108
165
157
107
165
156
105
164
152
101
160
147
95
155
139
86
157
139
86
150
130
78
151
130
79
152
132
81
153
134
83
159
141
89
161
144
91
161
144
91
159
142
88
167
150
96
164
147
93
147
129
74
142
123
67
152
135
84
168
154
114
178
166
131
170
161
126
166
157
123
158
146
113
153
140
108
147
133
101
142
129
96
140
127
93
135
121
86
131
115
80
114
97
61
112
95
58
120
102
65
127
109
70
130
113
71
130
113
70
128
112
66
119
104
58
116
102
58
139
124
84
153
139
102
157
142
108
159
144
110
160
145
111
160
145
112
161
146
113
163
148
115
164
150
116
168
153
120
171
159
125
174
164
130
182
173
140
197
190
157
206
199
163
175
168
129
151
144
98
152
144
97
155
143
97
159
147
102
162
153
108
167
160
116
174
167
123
168
161
118
162
155
112
161
155
111
161
154
111
166
159
116
176
170
130
179
174
135
182
177
137
184
179
139
186
181
141
189
184
144
192
187
147
203
198
159
210
204
166
208
203
164
206
200
158
202
196
152
203
198
153
204
199
152
207
201
155
209
204
155
210
205
155
210
204
154
213
206
156
219
213
162
220
214
166
209
202
152
204
198
147
207
203
155
209
205
159
192
190
147
177
178
139
180
181
141
194
195
155
192
193
152
179
179
139
174
172
133
172
170
131
173
169
132
168
164
127
157
152
115
157
152
112
156
152
112
161
156
116
163
158
118
164
158
119
163
155
117
161
154
117
159
155
117
161
161
118
164
166
120
169
172
125
173
172
125
167
163
116
143
152
99
77
101
45
121
136
72
162
152
92
150
134
79
134
145
84
99
132
65
177
180
120
200
199
150
186
191
151
147
160
117
118
144
100
105
137
86
104
135
81
101
130
73
88
114
56
86
111
49
89
112
47
94
116
51
94
119
53
90
116
50
85
112
45
86
110
45
85
108
44
76
101
36
72
97
32
71
97
33
68
94
30
65
90
28
63
87
26
63
85
26
64
85
26
60
82
20
61
83
19
64
86
22
67
89
26
73
95
31
76
99
43
82
103
50
87
103
54
73
84
39
49
56
12
51
59
11
52
60
10
56
65
13
60
69
9
66
77
9
117
128
54
152
165
84
164
178
92
166
180
92
167
181
96
175
185
106
180
186
110
184
188
112
179
181
106
172
172
99
187
183
115
190
182
120
191
182
122
196
187
128
187
178
119
186
177
118
192
183
123
190
184
136
213
212
182
229
231
213
222
226
206
165
165
141
151
149
122
151
147
117
152
145
113
147
139
106
137
127
95
131
118
87
119
106
75
151
144
112
206
202
166
199
195
157
195
189
152
122
114
82
69
56
24
66
51
20
67
51
20
67
51
21
63
47
20
68
53
29
76
62
39
66
56
34
53
43
21
47
35
10
52
39
12
77
64
40
116
102
74
141
126
94
151
139
104
148
138
100
140
132
93
148
142
103
200
194
153
199
191
147
187
176
129
178
165
115
182
169
124
172
161
118
161
154
108
170
161
115
176
163
116
159
142
93
162
148
96
177
165
113
167
159
108
161
157
104
164
154
101
167
154
101
157
142
90
158
142
90
150
134
82
145
129
78
149
134
83
156
141
90
162
147
96
164
149
98
160
146
95
159
146
93
165
150
98
166
151
96
153
136
81
141
123
67
157
139
85
156
140
90
155
142
98
165
155
116
165
155
119
162
150
114
156
140
106
148
132
98
133
120
85
127
115
80
130
117
83
130
117
82
121
109
69
105
94
51
98
85
43
112
97
55
130
116
71
135
121
76
140
126
80
136
122
74
130
118
66
117
104
55
121
106
62
147
132
91
155
139
100
156
143
103
157
145
106
159
146
110
161
148
113
163
149
116
165
150
117
168
153
121
175
160
128
176
161
129
187
173
141
198
188
152
203
194
155
160
151
109
151
143
97
153
145
98
156
145
100
159
149
104
160
152
109
161
154
110
161
156
114
165
160
118
164
159
117
162
157
115
159
154
112
155
150
108
157
153
114
165
161
123
174
170
132
179
175
137
182
178
140
186
180
142
188
182
142
188
182
140
189
183
140
194
188
143
204
197
153
207
201
158
207
204
157
202
199
150
199
193
144
199
195
145
200
195
149
210
201
150
211
203
148
207
202
149
221
212
168
228
217
164
207
199
136
203
198
139
212
207
158
222
218
179
212
212
178
190
190
153
180
181
140
179
181
135
176
177
134
175
176
137
173
173
135
167
165
127
157
153
116
155
152
114
155
153
114
155
153
114
159
156
117
159
157
118
161
158
119
166
161
123
167
163
124
170
167
127
173
172
129
171
171
126
157
159
111
145
141
94
140
144
94
103
126
72
96
114
64
157
155
103
169
161
108
187
180
126
150
162
105
84
115
53
159
165
98
187
183
120
200
194
129
198
190
113
191
188
108
109
141
89
105
135
80
94
122
65
96
121
61
101
124
62
103
125
61
106
128
63
105
130
64
102
127
61
97
124
57
91
114
49
89
111
47
80
104
39
77
102
37
76
102
37
75
101
36
78
103
39
80
104
42
79
102
40
78
99
40
77
99
36
77
99
35
78
100
37
81
102
39
76
98
36
72
95
39
65
86
35
58
75
28
42
54
13
42
50
11
46
55
14
47
56
12
50
59
12
50
61
5
89
101
37
127
139
63
143
154
72
153
165
79
161
173
86
169
181
97
174
184
104
176
184
106
177
184
107
174
178
102
168
170
97
181
179
111
191
183
121
188
179
119
202
193
134
198
189
130
185
176
118
192
182
122
194
186
131
194
187
146
177
171
143
168
162
139
153
143
118
140
128
103
132
118
91
131
115
86
126
109
79
126
107
79
123
103
74
120
101
72
151
137
106
206
197
161
197
193
154
196
191
153
122
114
84
67
53
23
64
49
21
67
50
28
67
51
29
65
48
27
58
41
21
49
32
13
48
33
8
68
53
31
105
89
65
139
123
95
157
140
110
158
143
110
146
132
96
148
137
98
157
148
107
164
157
114
179
169
125
200
189
146
201
193
147
184
175
130
176
168
122
177
165
122
169
159
117
162
155
108
167
158
111
177
165
117
157
142
92
179
165
114
174
162
110
165
157
105
162
156
104
164
155
102
162
150
98
147
134
82
154
140
88
156
141
89
160
146
95
162
149
97
164
151
99
163
150
98
161
148
96
160
147
95
165
152
99
170
155
102
160
145
90
144
127
73
152
135
81
157
140
88
167
152
103
153
140
96
140
130
89
153
144
106
152
140
102
145
128
93
132
112
79
113
94
62
115
100
65
114
105
66
114
104
67
110
101
61
79
70
27
80
70
28
117
103
60
134
121
76
138
124
79
141
128
81
145
133
84
139
128
76
136
124
74
129
115
69
128
113
71
140
126
85
150
138
96
156
144
102
158
146
107
160
147
110
162
149
113
162
150
113
164
152
114
171
159
121
173
160
123
184
173
135
197
188
149
200
191
150
159
150
106
150
142
95
152
144
95
158
147
101
163
154
108
165
157
114
164
157
114
161
156
114
163
158
116
161
156
114
160
155
113
159
154
112
157
152
110
153
149
110
152
149
110
152
149
110
161
158
120
174
171
133
178
173
135
179
174
135
186
181
141
187
182
139
187
183
138
189
181
136
193
184
138
200
191
145
203
195
146
201
195
144
200
194
142
195
189
137
197
188
136
196
188
130
195
189
134
202
191
133
214
201
136
212
200
122
208
194
116
219
205
159
239
232
202
237
237
203
226
226
188
195
195
153
191
192
147
192
193
149
200
201
161
208
207
168
199
197
160
164
161
124
162
159
121
161
160
122
161
160
122
165
163
125
165
164
126
165
164
126
163
167
127
164
165
125
164
162
122
167
162
122
156
152
111
162
156
112
172
168
124
137
154
103
81
111
58
168
181
130
191
188
138
189
183
131
169
163
111
129
141
87
69
102
44
163
172
112
176
173
111
177
169
99
154
136
47
153
133
34
102
132
78
98
126
71
94
120
61
108
131
68
114
136
71
114
136
71
115
137
72
111
136
70
107
132
66
103
130
63
102
125
60
100
122
58
93
118
52
90
115
49
87
114
47
86
113
46
87
113
47
87
112
47
84
107
44
82
104
41
80
102
39
81
103
39
78
100
36
74
96
32
60
82
19
52
76
17
45
67
13
36
55
9
30
44
6
23
34
4
34
44
13
39
48
15
39
50
10
47
60
8
99
114
51
122
134
60
137
146
64
149
159
72
163
173
86
168
178
93
169
179
96
171
180
97
169
177
96
169
174
96
166
169
93
177
175
106
187
179
117
187
179
118
197
188
129
206
197
138
194
185
129
190
181
124
191
182
121
194
184
128
173
160
118
134
118
88
132
113
86
134
114
88
130
110
83
122
101
75
111
90
64
94
76
51
80
60
34
82
63
33
144
131
101
202
194
157
195
191
152
196
190
153
120
112
82
71
57
30
71
55
31
64
47
31
54
37
20
52
34
16
60
41
25
104
87
70
144
125
100
155
135
106
159
139
108
158
139
106
155
137
102
159
145
108
180
166
127
185
174
132
178
170
124
178
171
124
181
174
122
186
177
127
195
187
140
188
178
135
179
169
129
172
160
119
169
159
116
162
155
109
164
154
108
176
164
116
162
148
98
183
170
118
169
157
105
165
156
105
163
156
104
162
153
101
162
151
99
150
139
88
165
153
102
167
155
104
167
154
103
165
152
100
163
151
99
162
149
97
160
147
95
166
153
100
168
155
101
168
153
100
150
135
82
149
133
80
156
140
88
168
153
104
164
150
102
156
144
99
138
128
83
127
118
76
130
119
78
112
95
60
99
78
46
89
69
39
88
73
42
93
86
50
95
88
51
80
73
42
56
49
15
95
87
45
139
127
83
143
131
86
142
131
85
135
123
76
139
128
79
147
137
85
147
136
86
142
130
81
131
117
72
126
113
68
132
121
76
145
134
89
155
143
101
158
146
105
160
148
109
160
151
110
159
150
109
166
157
116
171
162
121
180
171
130
190
181
140
169
160
118
147
139
92
149
141
92
156
148
97
157
146
101
158
149
104
163
155
111
169
162
118
170
165
123
170
165
123
166
162
120
162
157
115
159
154
112
158
153
111
153
152
112
151
150
111
150
149
110
149
148
109
154
154
114
162
159
121
165
161
124
174
171
130
171
168
125
178
175
130
182
177
132
189
182
136
195
189
142
200
195
146
205
201
149
209
203
152
208
201
142
204
195
141
204
195
135
204
195
129
214
205
123
209
193
97
207
185
79
192
173
83
209
201
146
219
217
182
220
217
184
223
221
184
224
222
181
196
195
150
185
185
140
185
184
143
196
194
155
217
215
177
214
212
177
170
169
134
166
166
131
165
165
130
166
166
131
166
166
131
165
165
130
164
165
127
162
163
124
165
167
128
175
177
137
182
183
142
184
182
140
157
168
122
90
117
67
148
167
120
183
186
142
171
168
121
152
150
100
159
155
106
137
149
98
61
97
41
127
144
84
154
156
92
165
164
98
159
158
85
123
125
49
103
131
75
96
123
66
97
121
61
107
129
65
116
137
72
118
140
75
118
140
75
111
136
70
109
134
68
106
133
66
106
129
63
106
128
63
100
125
59
92
117
51
89
116
49
89
116
47
87
113
45
87
112
45
89
112
47
90
112
48
92
114
50
92
114
51
87
109
45
83
105
41
72
94
30
56
80
19
44
67
12
35
55
11
29
46
14
21
34
12
23
33
12
27
37
12
31
42
9
44
57
11
83
98
39
115
126
52
133
141
58
153
162
75
160
169
81
164
172
87
168
175
92
171
176
94
167
170
91
166
166
92
169
166
96
182
176
111
184
176
114
184
176
115
189
180
121
208
199
140
209
200
144
193
183
129
191
181
123
196
185
124
197
185
131
167
153
111
113
95
64
95
77
48
83
65
38
73
55
29
73
55
30
70
56
30
72
56
28
77
62
30
159
150
116
198
194
154
195
192
151
195
190
152
103
95
68
55
40
15
54
38
16
55
40
23
105
91
74
136
119
97
163
143
117
164
143
115
165
144
112
163
144
110
155
138
101
153
136
97
181
166
125
188
175
132
188
175
131
186
176
129
178
171
122
181
175
122
178
173
118
170
162
109
186
178
130
193
183
139
174
164
124
168
156
114
170
159
117
162
155
109
160
151
104
171
159
111
167
154
104
183
171
119
167
156
104
167
157
106
166
156
105
167
159
108
169
160
110
160
150
100
170
159
109
168
156
106
167
155
104
166
154
102
163
151
99
160
148
96
164
152
100
169
157
103
167
154
99
160
145
91
143
127
75
153
136
85
171
156
107
173
161
114
165
154
106
157
146
99
141
131
84
120
109
63
88
76
35
57
41
4
75
58
23
56
43
9
60
51
21
48
43
14
58
53
24
40
34
8
56
52
17
131
126
82
157
149
103
158
150
103
152
144
97
145
137
89
135
127
77
132
122
71
152
142
91
153
142
92
141
129
81
137
125
77
130
120
70
133
122
74
147
136
90
157
146
102
158
147
105
166
158
120
182
174
136
172
164
126
171
163
125
179
172
133
166
157
115
136
128
82
133
125
77
139
131
80
157
150
97
166
156
110
166
157
112
161
153
110
160
153
110
160
155
113
162
157
115
168
163
121
173
168
126
171
166
124
162
158
115
157
156
116
153
154
114
150
151
111
148
149
109
147
148
108
154
152
114
153
151
112
153
151
112
157
155
113
148
146
102
136
139
95
127
133
90
136
143
98
153
157
112
192
190
142
205
199
149
207
203
146
212
207
148
215
205
143
215
201
122
200
188
83
184
170
54
192
174
80
203
191
129
199
198
162
199
199
169
202
198
165
202
199
162
202
200
159
208
207
162
202
200
155
177
175
132
176
174
134
197
196
158
217
217
182
204
204
172
197
197
166
203
203
172
196
196
165
187
187
156
185
183
151
175
171
137
170
170
134
172
178
139
157
167
127
135
147
106
123
132
93
103
129
81
101
126
80
160
167
125
153
151
112
152
150
106
161
162
114
176
173
126
142
153
105
49
90
35
84
110
52
155
159
97
171
169
110
179
178
117
162
165
107
111
137
81
100
126
68
95
118
57
108
129
65
114
134
68
121
143
78
126
148
83
118
143
77
108
133
67
105
132
64
109
133
66
108
131
64
107
132
65
109
134
66
108
135
67
109
135
66
109
134
65
109
134
66
111
134
68
110
132
67
107
129
65
106
128
64
97
119
55
88
110
46
75
97
34
58
82
21
45
68
13
35
56
13
31
48
18
24
39
20
21
33
17
21
32
13
23
35
8
32
46
5
54
70
14
103
113
41
133
139
55
149
156
68
155
162
74
159
165
79
162
165
86
163
161
90
156
152
86
152
144
82
159
150
92
182
173
114
181
173
112
181
172
112
183
174
115
202
193
134
214
205
150
209
199
149
196
185
132
193
184
124
193
183
124
188
177
128
97
85
50
73
60
25
72
58
27
68
55
27
65
51
26
65
50
26
75
59
32
85
70
38
183
174
138
198
193
152
197
194
153
194
188
151
87
77
51
85
71
51
156
141
121
209
194
170
217
201
174
173
155
124
165
145
111
169
148
112
162
143
107
151
134
96
160
146
106
187
175
131
189
177
132
189
176
131
189
176
130
185
176
126
179
172
119
178
172
117
177
166
115
180
169
118
185
176
128
191
185
139
170
165
121
166
154
112
170
159
116
163
156
110
158
148
102
166
153
106
170
159
108
183
172
120
171
160
108
172
162
111
176
166
115
175
166
116
173
165
116
161
153
104
169
159
110
167
157
107
167
155
105
166
154
102
163
151
99
165
153
101
168
156
104
165
153
98
160
148
91
144
130
75
145
128
77
162
145
94
186
172
124
182
171
125
171
160
114
161
151
103
150
139
91
133
122
75
104
92
49
57
45
5
57
48
8
55
52
13
50
48
13
41
36
9
42
37
16
49
45
12
110
109
66
168
165
117
171
164
118
168
160
114
162
154
108
155
148
100
148
141
92
139
131
80
140
130
79
149
139
88
154
142
92
147
135
85
143
133
82
138
128
78
136
126
78
146
135
90
184
174
132
209
202
167
217
210
176
215
208
174
201
195
160
179
173
139
147
139
98
127
120
74
129
121
73
134
127
75
139
132
78
154
143
98
164
155
110
177
169
125
169
163
119
162
157
115
158
153
111
157
152
110
156
151
109
160
155
113
163
158
116
161
162
121
159
161
121
157
159
119
151
153
113
152
154
114
148
148
110
147
146
108
147
147
108
144
144
102
146
146
103
123
133
91
60
83
37
58
83
35
79
93
51
146
147
104
169
166
123
202
201
148
201
197
136
209
195
132
199
180
87
194
175
82
210
195
132
211
204
166
204
199
170
201
199
168
204
202
169
206
202
169
205
201
164
202
199
158
202
199
154
200
196
150
204
200
156
212
209
170
217
217
179
217
217
182
227
227
195
226
227
196
219
220
189
212
213
183
199
200
170
200
199
169
187
183
152
168
168
135
138
145
108
129
141
103
142
159
117
124
145
102
87
115
67
129
148
103
151
151
112
161
161
122
175
174
132
176
180
132
168
166
119
118
129
83
42
86
30
83
112
50
156
164
97
172
173
109
187
185
118
194
190
122
103
126
72
94
117
60
87
111
50
91
115
49
111
136
66
122
147
81
132
157
91
127
152
84
122
148
77
119
145
74
121
146
77
119
144
76
117
142
74
119
143
75
119
144
75
118
142
72
112
135
65
113
136
67
108
131
63
103
126
59
98
119
55
90
112
48
83
105
41
78
100
39
71
93
32
68
90
31
56
77
21
42
62
12
34
52
13
25
41
15
22
37
10
21
36
8
19
32
10
20
33
5
28
43
3
98
109
44
130
138
51
140
146
58
152
157
72
152
160
73
150
157
83
134
132
79
107
97
58
104
90
56
97
84
49
161
150
104
181
172
117
179
171
112
180
171
110
184
175
118
206
197
142
217
207
155
209
199
150
194
184
135
192
182
129
190
181
127
172
161
118
78
66
32
74
60
33
77
62
38
74
58
36
71
56
35
64
47
24
72
58
28
193
184
145
197
192
147
199
194
152
198
186
148
156
137
104
176
156
124
172
153
122
181
162
130
194
175
142
182
163
129
164
146
110
154
138
101
154
140
100
184
171
129
190
178
136
190
180
138
188
180
136
189
178
133
192
181
135
178
168
119
183
174
121
179
170
116
171
162
108
162
151
99
181
173
125
191
187
140
171
163
120
165
154
110
168
157
112
164
153
107
157
146
100
161
151
103
167
157
108
174
164
115
174
164
115
180
170
121
179
169
120
177
167
120
173
162
115
163
153
103
168
158
106
168
158
105
167
157
105
164
154
102
167
157
104
171
159
106
165
154
100
155
144
89
150
137
82
142
124
72
159
140
90
163
146
99
189
175
129
186
173
129
181
168
124
169
157
112
155
144
98
136
126
79
114
107
54
74
73
13
62
71
7
58
67
12
50
51
10
43
42
12
47
44
13
65
61
26
134
129
91
185
180
137
181
177
135
177
173
130
175
171
128
165
161
119
156
151
108
156
145
99
159
148
102
149
138
92
146
135
89
150
140
94
152
142
94
149
139
89
143
133
82
146
136
88
205
195
153
219
211
174
217
210
174
214
209
175
214
209
177
214
211
179
202
198
161
166
162
123
141
136
93
130
125
77
138
132
82
142
132
86
147
138
93
150
143
100
160
154
114
178
174
134
173
168
126
165
160
118
159
154
113
156
151
109
154
149
107
147
147
106
147
148
108
150
151
111
151
152
112
150
151
111
150
149
112
150
148
112
147
148
109
144
145
105
141
143
102
114
127
88
46
69
30
49
69
34
34
46
15
52
61
32
47
51
20
186
190
142
211
205
146
205
187
102
189
173
58
207
199
138
213
204
176
205
206
182
207
201
179
205
204
175
206
208
178
206
207
173
209
209
168
206
206
159
210
204
148
202
187
123
202
188
133
226
221
184
227
225
190
227
226
189
226
225
191
221
220
188
214
213
184
214
213
188
204
203
182
201
200
179
203
202
178
178
179
150
173
175
141
171
174
135
147
153
112
108
127
81
122
139
93
159
161
120
177
175
135
180
182
141
171
172
130
155
160
111
168
169
119
122
136
86
42
91
29
86
118
56
146
154
92
161
167
102
160
166
99
160
165
100
100
124
69
91
116
57
83
109
46
86
112
45
92
118
49
117
141
73
130
153
84
134
157
86
119
143
71
116
141
67
119
141
69
118
141
67
116
142
67
111
138
65
111
139
67
105
131
61
98
123
55
94
119
51
95
119
53
99
123
58
102
124
60
107
127
65
112
132
70
110
130
69
99
119
58
88
109
53
73
94
39
59
80
25
48
67
22
42
58
29
29
43
20
21
35
7
41
55
20
59
75
30
45
61
13
84
96
36
121
132
48
140
147
56
140
146
62
130
140
59
121
129
59
72
72
25
64
54
17
67
52
21
65
51
17
98
88
50
181
171
122
181
171
116
181
172
113
176
167
110
185
176
120
204
194
141
215
205
154
211
201
152
197
187
135
191
182
128
194
184
137
161
150
113
63
50
21
57
41
14
55
39
13
52
36
11
69
52
27
105
91
62
197
186
145
199
194
148
200
194
151
198
185
146
163
144
110
166
145
113
171
152
120
186
167
134
191
172
139
183
166
131
176
160
124
166
151
113
188
175
133
191
179
137
189
178
136
188
178
135
186
177
134
188
177
132
182
171
125
173
163
113
171
161
109
168
158
105
159
151
97
151
140
89
176
167
119
191
186
139
173
164
121
165
154
110
168
157
111
164
153
107
158
148
100
160
150
101
166
156
107
157
147
98
172
162
113
181
171
122
180
170
121
178
168
121
170
159
112
163
153
103
168
158
106
168
158
105
167
158
105
170
160
108
171
161
108
166
154
101
158
147
93
152
141
86
142
128
74
155
138
87
162
143
94
158
142
94
184
171
125
183
171
125
182
169
124
177
166
119
164
153
106
144
135
86
122
117
59
88
90
20
76
86
14
64
71
11
50
50
7
53
51
16
55
52
15
91
86
48
124
118
77
182
175
134
195
190
150
191
186
144
191
186
143
184
179
135
176
170
126
166
157
111
167
158
113
168
160
114
163
154
109
110
102
62
115
106
63
156
146
96
157
147
96
157
146
99
210
199
157
218
210
172
216
209
173
214
209
173
214
210
177
214
211
178
214
211
175
212
209
170
193
189
149
146
141
98
137
132
86
147
139
92
145
138
91
149
143
98
152
147
105
138
135
94
157
154
116
173
169
129
165
161
120
163
159
119
161
157
116
154
153
114
150
151
111
148
149
109
148
149
109
147
148
108
146
148
108
145
147
108
145
146
106
144
145
105
141
142
101
81
90
58
44
63
36
53
70
43
64
77
52
77
89
64
66
74
47
171
175
131
205
201
132
189
173
61
207
188
111
207
203
164
207
207
178
205
211
184
209
207
178
217
212
183
215
207
169
209
199
154
194
180
124
191
170
98
183
154
64
177
141
37
190
164
85
228
219
170
224
225
189
220
222
184
218
218
184
219
219
187
217
216
187
215
215
191
210
209
188
203
202
182
202
202
180
199
200
174
154
156
124
145
147
108
149
155
111
110
130
80
154
170
121
178
180
136
173
173
129
165
167
122
172
173
125
176
179
128
164
165
114
117
133
79
41
87
23
94
127
65
147
158
97
139
149
84
125
136
71
123
133
69
92
119
57
88
115
51
88
116
49
88
116
46
88
116
44
90
115
46
99
123
55
123
147
78
114
138
68
117
142
71
122
145
74
111
135
60
108
135
57
92
122
45
84
114
42
73
99
32
102
127
61
117
142
76
117
143
77
119
144
79
119
140
77
118
138
75
118
138
75
113
133
72
102
122
61
93
113
60
78
99
43
67
89
29
56
76
24
34
51
16
20
35
10
53
67
33
88
107
54
80
99
36
73
91
29
61
76
11
99
112
32
129
138
52
119
127
51
96
106
43
88
96
41
88
90
44
66
59
25
66
52
27
73
58
30
80
66
33
135
125
85
181
171
120
178
168
112
177
168
110
178
169
112
185
175
121
203
194
140
216
206
154
210
200
148
194
185
133
189
182
131
197
187
141
131
121
87
88
74
46
124
110
82
151
135
104
165
145
112
175
157
120
197
185
143
198
191
146
202
196
152
190
178
138
169
150
114
160
140
107
155
136
103
168
150
116
180
164
128
183
168
131
184
170
132
190
177
138
192
181
139
190
179
137
186
177
134
186
177
134
183
174
131
179
168
122
164
154
105
163
153
104
167
157
107
158
148
98
145
135
84
154
141
92
175
164
117
190
183
136
175
166
121
166
155
109
169
158
112
166
156
108
160
150
101
158
148
99
163
153
105
171
160
113
181
170
123
182
171
124
180
169
122
178
167
120
167
157
110
165
155
105
169
159
107
169
159
106
172
162
109
174
164
113
169
158
106
159
148
95
156
145
91
145
134
80
151
139
86
161
148
96
157
143
92
163
147
97
175
161
112
176
164
115
178
166
117
177
167
117
170
160
110
154
147
95
123
122
62
90
95
24
85
92
21
62
65
9
55
53
10
58
56
14
72
68
27
118
112
70
170
162
117
166
158
114
198
193
150
201
197
154
202
198
154
200
195
152
194
189
145
182
174
132
181
172
132
188
179
138
187
179
138
184
176
134
139
129
88
92
83
37
153
143
92
163
153
105
198
188
146
216
208
170
216
209
172
214
209
173
214
210
176
213
210
177
211
210
175
215
213
176
215
212
175
199
196
158
155
151
112
145
138
93
161
155
110
150
146
101
153
151
108
161
160
118
167
164
127
146
143
107
147
144
107
150
147
109
158
155
117
159
159
120
153
154
115
146
147
108
145
146
107
145
146
107
147
147
105
146
147
107
143
145
108
128
130
99
106
109
82
69
81
59
66
87
65
64
84
61
79
97
72
82
101
74
79
93
62
164
168
126
197
193
115
181
164
29
208
188
138
206
202
178
206
208
178
206
210
186
209
207
177
212
200
166
180
155
89
167
139
51
164
125
16
174
127
6
175
130
3
178
133
5
181
145
42
214
200
134
223
221
179
219
217
176
215
212
176
218
218
186
218
218
189
215
215
191
212
213
192
202
204
183
200
202
181
201
203
181
177
180
151
158
163
123
164
172
124
114
137
82
144
161
108
157
161
112
157
160
112
138
143
94
127
134
80
118
127
72
98
107
54
70
91
36
34
81
17
70
108
43
92
105
44
95
107
42
97
109
43
104
116
51
92
123
57
87
118
51
82
113
45
84
115
45
82
114
43
82
112
41
77
107
39
79
107
46
82
107
54
69
92
45
71
93
42
101
127
64
119
146
75
122
149
76
127
153
83
93
115
50
113
133
70
112
132
70
110
130
69
109
128
69
111
129
69
114
133
71
117
135
74
111
130
70
104
122
62
96
116
58
85
106
45
72
94
28
49
71
11
37
57
8
35
52
7
45
63
13
99
119
55
106
126
56
97
117
47
76
94
28
81
94
30
96
106
38
69
79
17
46
58
9
49
60
14
59
64
21
67
61
32
69
55
33
71
56
32
71
57
29
66
54
20
161
151
106
178
169
114
176
167
109
174
165
108
176
167
110
179
170
113
198
189
134
212
202
150
210
201
151
194
189
136
189
181
129
194
182
136
174
158
118
172
154
118
172
154
115
178
157
118
171
152
111
197
183
140
201
192
147
201
195
151
182
170
129
150
131
94
155
135
100
162
143
110
168
153
117
182
168
130
189
176
137
191
179
139
190
179
138
186
179
135
183
176
132
183
175
131
180
171
128
172
161
118
164
154
106
163
153
104
168
158
109
159
149
100
127
117
68
144
133
85
152
138
91
181
170
123
186
179
131
176
166
120
168
156
110
172
162
114
170
160
111
162
152
101
158
148
97
162
151
104
182
171
125
177
166
120
178
167
121
175
164
118
175
164
118
168
157
110
168
158
107
170
160
108
174
164
111
177
168
115
171
161
109
158
148
95
156
145
92
149
138
84
149
137
84
158
146
94
159
149
96
161
149
96
155
140
89
159
145
94
173
161
109
172
160
108
167
157
104
166
156
103
146
141
84
109
114
47
99
109
39
81
86
22
79
77
26
71
67
21
75
71
24
102
97
50
165
157
111
175
166
118
131
123
74
130
125
78
204
198
153
215
209
166
216
209
170
206
199
161
195
188
151
192
185
148
203
196
159
205
198
161
203
195
156
158
148
106
90
80
30
131
121
72
151
140
93
156
146
104
207
199
160
217
209
172
214
209
172
214
210
175
212
209
175
210
210
176
208
208
174
209
208
174
216
213
178
210
207
171
180
175
136
162
157
117
175
172
133
171
170
132
179
179
142
183
183
147
195
195
159
185
185
151
162
162
129
148
148
115
140
140
104
128
128
91
122
122
85
130
130
93
130
130
93
130
126
88
123
121
85
108
109
78
86
90
66
82
90
71
74
85
67
71
89
67
71
92
65
67
87
56
71
96
60
98
112
77
167
168
129
192
184
96
184
159
19
207
187
127
210
204
178
208
206
179
205
207
184
206
204
177
201
187
147
166
122
26
171
126
10
165
122
5
172
127
5
174
129
2
177
128
4
179
138
13
200
182
87
217
208
149
217
209
166
216
210
176
213
213
181
213
214
184
212
214
189
211
213
191
207
210
189
203
205
184
200
202
182
194
196
171
156
161
122
142
152
102
118
143
84
121
138
81
117
124
71
118
125
73
91
97
44
89
103
45
76
91
37
69
86
33
46
76
20
35
82
19
65
102
39
82
93
37
76
87
25
77
88
24
82
92
34
87
117
58
81
111
50
77
108
46
81
111
49
74
105
42
65
97
39
54
85
30
42
73
22
40
70
23
43
73
28
35
65
24
46
75
24
87
113
52
122
147
79
129
151
85
101
116
56
97
110
52
76
89
32
81
94
39
94
108
53
91
107
47
77
94
33
65
82
22
69
86
29
86
102
45
90
111
47
82
104
38
67
89
22
56
78
13
60
81
22
67
87
22
64
85
16
103
123
57
118
137
69
111
131
60
90
108
43
67
79
34
40
48
5
81
91
32
54
67
17
61
74
30
46
53
12
49
44
17
51
38
18
54
39
17
56
42
16
67
54
22
132
121
78
168
159
106
173
164
106
176
167
109
175
166
109
176
167
107
179
170
112
198
189
137
207
198
150
210
206
152
197
189
135
191
179
129
190
175
131
169
151
111
169
151
108
168
148
106
173
154
111
199
185
142
200
190
145
204
198
152
180
168
126
161
143
105
159
140
104
172
155
120
189
175
138
188
175
136
189
177
136
187
177
135
186
178
134
181
176
131
179
174
129
176
168
125
166
157
114
160
149
105
154
144
94
166
157
106
162
152
103
137
127
78
126
115
68
130
119
71
147
133
86
188
176
128
184
175
127
176
165
118
169
158
110
176
166
117
175
165
115
164
154
103
157
147
96
167
156
109
180
169
123
177
166
120
175
164
118
173
162
116
173
162
115
167
156
109
170
160
109
175
165
113
176
167
113
173
163
110
162
151
100
156
145
93
150
138
85
152
141
87
163
150
98
163
151
100
159
149
96
152
141
88
144
129
77
142
128
75
164
154
99
163
152
98
160
151
96
153
144
88
119
115
53
99
108
31
96
106
35
83
85
25
100
97
41
89
86
33
96
93
42
133
127
78
175
167
116
159
149
99
130
121
68
128
122
66
138
132
84
204
197
156
228
219
184
221
212
180
206
200
165
203
197
162
212
206
171
216
210
175
217
210
173
156
147
104
104
94
44
105
95
46
158
148
101
157
147
103
162
154
115
203
195
157
214
209
172
213
209
173
214
211
176
209
210
178
207
208
176
204
204
172
206
206
174
212
209
177
213
208
172
202
198
162
205
202
168
203
202
170
193
194
161
189
189
155
184
184
150
185
185
151
186
186
152
185
185
151
184
184
148
184
184
148
179
179
143
179
179
142
178
178
141
172
171
137
165
165
133
164
165
135
154
158
131
143
148
123
132
135
113
126
133
108
102
113
82
90
101
66
84
101
61
141
154
115
165
160
125
184
170
69
189
155
15
192
172
92
214
207
176
207
207
182
203
207
177
205
208
178
209
199
152
162
119
13
165
124
5
156
118
1
163
121
1
169
124
1
175
124
11
179
131
10
193
168
50
213
199
115
204
196
137
199
197
155
197
198
166
200
202
173
203
205
181
209
212
190
209
212
191
205
207
188
200
202
184
197
200
176
133
139
102
112
123
72
102
127
65
102
118
59
111
119
63
102
111
55
81
87
32
82
95
40
80
92
44
60
75
28
39
66
15
38
78
19
80
110
49
130
137
82
158
164
102
165
173
107
170
176
112
70
107
46
70
107
46
69
106
45
61
97
37
35
70
12
29
62
14
33
66
19
31
64
18
33
66
20
30
64
18
32
69
24
27
65
19
30
62
12
70
96
39
128
148
84
159
160
106
172
167
121
145
139
100
144
143
99
143
149
94
144
148
92
138
143
87
133
140
83
132
142
82
126
139
77
119
135
69
108
127
58
100
120
51
101
121
53
103
121
54
95
110
38
84
100
28
113
129
61
119
131
66
114
127
60
83
100
40
55
66
29
44
51
13
65
76
18
69
84
21
77
92
37
97
102
59
150
143
106
167
153
119
179
165
131
176
164
127
173
162
118
173
163
116
162
152
100
165
155
101
173
163
108
175
164
108
175
164
108
176
165
109
184
173
118
192
182
127
207
198
146
212
203
152
198
187
139
191
180
134
175
162
118
172
157
114
168
154
112
163
150
108
181
170
129
201
191
150
206
194
152
178
167
125
157
145
100
176
165
119
182
171
124
159
150
105
173
165
120
187
179
134
185
179
132
183
177
130
177
173
129
177
172
128
166
159
113
157
150
102
159
150
100
155
150
95
164
155
102
145
132
84
132
117
72
131
117
73
127
114
69
149
137
92
191
180
134
181
171
125
177
167
121
167
159
112
176
166
119
177
167
117
162
152
99
162
152
98
175
165
116
177
167
121
173
162
116
170
157
112
170
157
112
170
160
110
166
157
105
175
166
113
176
167
114
169
160
107
165
154
101
162
150
97
153
141
88
151
138
86
167
152
101
170
155
103
163
149
99
153
139
87
151
138
81
120
106
51
153
141
82
164
155
95
156
151
93
148
144
83
132
126
58
105
104
24
108
117
37
77
83
15
108
110
50
107
105
54
98
95
51
117
111
66
158
151
101
164
156
101
136
125
70
141
131
76
139
131
73
137
127
75
137
127
81
204
192
155
233
222
186
216
210
174
211
205
169
215
209
174
219
214
178
205
198
162
133
124
78
120
110
62
108
98
50
125
115
69
173
162
116
163
153
110
165
156
116
193
184
147
214
207
170
214
207
173
212
211
176
211
211
177
208
208
173
206
206
172
204
203
172
203
203
169
205
206
172
206
207
173
206
207
173
206
207
173
207
207
173
206
206
172
206
206
172
203
203
169
201
201
167
202
201
169
198
197
165
192
192
159
191
191
157
191
191
156
190
190
158
189
189
157
187
187
153
186
185
148
185
184
146
184
181
143
182
179
140
186
182
141
175
173
127
175
173
125
167
163
117
150
141
85
175
154
46
185
148
9
177
148
60
216
206
160
207
210
179
212
210
182
216
214
189
216
202
154
162
122
24
167
124
10
164
122
3
173
133
8
174
129
3
181
128
10
180
133
11
188
157
28
203
188
90
203
196
136
201
195
158
198
195
168
198
197
172
198
200
178
200
205
184
202
208
188
201
206
185
201
205
185
199
202
180
181
186
152
183
190
140
181
190
134
174
183
124
168
176
118
171
179
123
167
174
122
166
175
122
163
172
119
160
170
116
165
176
120
171
184
125
174
186
124
186
195
133
188
196
134
183
190
128
175
182
121
66
104
44
66
102
42
61
96
35
54
89
28
51
86
25
51
84
29
41
74
20
31
64
11
30
63
9
29
62
8
23
59
8
23
59
9
26
61
8
40
67
12
90
111
51
137
140
85
171
164
119
174
160
125
170
155
121
168
155
115
162
158
109
154
154
103
147
150
97
139
146
90
131
140
82
126
140
75
127
141
73
141
152
86
143
154
89
128
143
78
95
112
44
88
106
35
97
112
45
108
118
51
107
118
48
107
120
63
39
50
16
50
59
18
66
76
16
73
86
19
83
95
37
146
149
101
194
187
140
181
167
123
185
172
129
199
188
143
197
187
140
180
170
121
164
154
103
165
156
102
168
158
103
172
161
105
175
164
108
176
165
109
177
166
110
180
169
114
186
177
123
205
195
143
214
204
155
197
186
139
191
180
134
169
156
112
164
152
109
166
154
112
170
159
117
199
189
148
199
187
145
177
166
123
172
161
115
177
166
119
164
154
105
158
150
102
188
180
132
186
178
132
183
176
131
180
174
129
174
170
127
163
159
113
159
152
105
162
154
105
156
147
96
160
153
98
156
147
93
132
120
71
136
120
76
139
120
78
127
116
70
165
156
111
180
172
125
178
172
124
176
170
122
165
159
111
172
166
117
172
165
114
157
150
96
167
159
105
175
168
116
174
167
117
169
161
110
165
156
105
170
159
109
173
164
115
169
162
111
171
164
111
169
162
107
159
153
95
156
148
92
157
146
92
157
146
92
165
152
99
170
157
104
163
150
97
156
142
92
162
149
97
139
127
69
125
114
53
161
150
90
166
157
100
161
153
94
144
139
71
118
118
35
98
104
17
87
95
20
87
91
33
91
91
42
82
78
43
76
72
42
98
93
56
143
138
91
124
116
64
139
129
74
148
138
82
149
140
82
149
140
83
148
138
85
145
135
85
193
184
138
208
203
162
206
201
161
198
193
152
192
187
146
160
155
113
143
134
88
140
131
85
124
115
68
132
123
77
160
151
105
175
167
120
167
159
113
166
159
115
187
180
139
211
204
164
207
206
168
209
209
172
212
212
177
210
210
176
208
207
176
200
200
166
200
200
166
201
202
168
204
204
170
205
205
171
203
203
169
200
199
166
198
198
164
198
197
163
195
195
161
201
200
169
201
201
168
200
200
166
201
201
166
201
201
165
203
203
169
204
203
169
205
203
166
208
205
166
203
200
159
199
195
153
192
187
144
190
185
139
186
180
131
180
175
124
179
170
116
181
172
100
180
160
52
178
142
8
174
137
23
199
181
116
215
210
180
216
214
189
222
223
193
228
211
160
160
120
24
169
133
28
162
125
16
173
132
18
177
130
6
186
134
7
184
134
2
189
155
17
204
188
89
199
194
132
195
192
151
197
194
167
199
198
173
199
201
178
196
200
180
196
201
181
200
205
184
201
204
184
199
203
181
160
164
132
131
138
88
129
138
75
137
146
80
149
159
89
153
163
93
157
167
100
160
171
107
156
167
103
147
158
94
143
154
93
131
143
81
117
130
71
111
124
65
103
116
54
98
110
48
104
115
54
77
114
54
74
110
49
73
106
45
70
102
39
77
108
45
71
102
39
63
93
31
61
91
30
57
87
25
57
88
26
49
81
21
48
83
21
49
84
21
50
81
18
54
77
17
127
140
80
142
145
94
168
157
120
174
156
123
173
153
116
169
159
114
160
156
109
149
148
99
142
143
93
142
146
94
138
147
89
134
146
85
124
136
78
98
113
57
65
84
29
43
65
7
77
95
33
111
124
57
119
129
56
126
136
59
90
101
45
28
38
4
49
58
14
62
72
9
68
79
9
122
127
73
186
185
131
192
184
133
201
189
141
194
181
135
185
174
127
184
174
125
189
179
128
186
176
125
177
167
116
168
158
105
172
161
105
172
161
106
173
162
107
174
163
108
176
166
111
181
172
117
186
176
123
193
183
132
210
200
151
200
190
143
197
187
141
186
176
131
163
152
108
171
159
117
197
185
144
198
186
144
173
161
119
162
151
106
167
157
110
157
148
99
171
163
114
184
176
128
184
177
130
181
174
130
177
171
128
166
162
118
159
156
110
171
165
118
164
156
106
157
148
96
161
149
97
140
128
76
137
123
76
139
123
79
140
123
80
133
123
77
172
164
116
172
166
117
177
172
123
176
172
123
165
159
112
173
166
119
171
163
115
155
147
98
170
159
111
174
165
116
172
164
115
169
161
111
170
160
111
176
166
116
180
169
119
168
157
105
163
153
100
161
151
95
158
148
92
155
144
89
159
146
94
167
153
100
168
153
101
164
148
97
163
149
96
158
146
92
144
132
77
127
116
53
139
129
64
164
155
93
165
156
97
162
153
90
131
128
52
123
129
45
96
106
23
78
84
19
108
110
59
57
55
19
65
60
37
34
29
9
42
39
9
100
96
55
119
112
62
140
129
77
152
141
88
157
148
93
159
150
96
154
144
90
145
136
82
158
151
98
166
162
115
171
167
120
169
165
118
186
182
135
191
187
140
181
173
128
160
153
108
140
132
87
156
148
103
171
164
119
154
146
101
171
164
118
173
166
121
169
163
119
180
176
133
205
202
169
207
204
173
210
207
175
212
209
176
209
206
173
203
201
168
200
199
165
198
197
163
200
198
165
204
202
169
208
206
172
210
207
173
212
209
176
212
209
175
212
209
175
211
208
174
210
206
172
206
203
168
205
202
166
205
202
165
205
203
166
205
202
165
205
202
162
204
200
157
204
200
155
203
198
153
197
191
145
193
186
138
192
183
132
190
180
127
191
178
117
187
175
100
185
168
69
180
147
20
182
141
8
177
143
45
207
187
134
220
213
182
223
225
195
215
201
153
162
134
65
202
183
113
180
163
96
180
152
79
172
137
51
165
125
22
179
134
8
192
161
36
200
185
97
193
189
134
187
186
145
190
189
161
197
197
171
198
200
177
198
202
181
200
204
184
200
203
183
201
204
183
201
203
182
168
171
138
100
105
58
89
98
35
90
100
31
92
102
28
96
106
32
96
107
35
94
105
38
91
102
37
91
102
39
75
87
24
73
86
23
66
83
21
64
81
19
63
80
18
74
88
31
81
95
39
73
110
51
66
100
41
73
103
43
100
129
66
96
123
58
91
119
53
83
112
46
80
109
42
68
97
31
61
90
23
58
88
20
55
87
17
54
89
20
48
79
15
51
77
20
56
75
29
56
64
31
82
79
55
132
123
95
144
135
100
132
127
84
136
135
88
139
141
91
120
125
73
112
119
68
95
106
55
68
84
33
37
61
6
31
59
5
30
57
7
29
51
5
106
121
59
134
144
74
122
134
57
106
119
41
55
64
14
35
43
7
51
62
12
62
72
5
80
87
15
107
106
53
191
183
129
185
175
123
184
172
122
185
174
123
185
175
125
181
171
121
178
168
117
178
168
117
181
171
120
174
163
112
170
159
105
168
157
103
172
161
108
174
163
109
175
164
109
175
166
109
179
170
115
184
174
121
188
178
127
207
198
148
206
199
152
199
191
144
195
187
141
201
190
145
203
192
149
209
197
155
189
177
135
164
153
107
170
159
112
154
144
96
176
167
122
183
175
129
181
173
127
180
173
127
170
164
117
165
162
116
174
170
123
171
165
116
160
153
102
148
139
87
149
133
76
164
144
87
150
130
77
139
124
73
138
131
78
136
134
77
153
151
93
159
159
101
173
173
114
174
176
117
157
157
98
167
166
108
160
158
100
145
141
83
156
152
95
168
165
107
166
164
106
166
163
105
169
165
107
171
165
108
172
165
109
162
154
99
154
145
90
157
149
94
152
143
89
156
146
91
167
156
100
167
155
100
163
150
95
163
148
94
154
142
83
133
123
61
128
118
56
137
128
63
139
129
67
165
154
98
168
156
104
153
146
85
127
130
48
107
118
33
80
91
15
99
104
49
117
119
71
70
68
31
67
62
34
44
40
18
31
31
7
78
76
42
121
115
70
140
129
80
151
140
88
159
149
100
160
150
101
149
139
90
159
149
100
169
160
111
169
165
117
158
154
106
169
165
118
189
185
138
200
195
148
205
198
156
190
183
141
177
170
129
185
178
137
194
188
145
137
131
86
132
125
80
171
166
120
178
174
127
169
165
119
175
172
137
201
197
164
209
205
172
215
212
179
207
204
171
204
200
167
200
195
163
197
192
160
195
190
158
192
187
155
191
188
153
191
187
152
194
191
156
193
190
155
194
191
156
195
191
156
194
189
154
195
190
154
193
189
151
192
188
150
192
188
149
188
185
144
185
181
137
186
182
135
187
182
133
191
185
135
194
187
137
196
187
134
194
182
128
192
178
122
191
176
113
187
173
105
185
169
81
182
154
30
185
148
12
171
132
6
166
134
46
200
184
131
221
217
179
190
183
140
189
178
128
196
193
150
204
202
157
203
194
144
196
182
122
188
169
99
175
148
62
185
166
77
194
186
118
199
196
151
198
196
160
196
197
166
199
201
173
201
203
179
203
206
184
205
207
187
203
206
186
204
205
186
205
206
185
185
186
154
130
134
89
109
116
63
112
121
60
113
122
54
120
130
60
120
131
60
123
136
59
102
114
40
100
112
43
109
121
56
90
102
39
78
90
30
94
105
48
121
131
74
141
150
91
150
159
100
76
112
55
73
107
48
99
129
68
124
151
86
125
150
84
118
145
78
103
130
63
84
111
44
83
110
43
82
108
42
74
101
34
59
90
22
54
87
21
53
84
27
37
62
16
21
39
8
19
31
7
31
37
13
47
53
20
61
68
21
65
76
21
69
81
25
70
85
27
58
76
16
48
69
6
48
77
15
43
73
12
40
67
11
38
63
12
30
54
5
76
95
43
133
148
76
120
127
54
114
126
50
107
123
54
45
55
14
38
46
9
50
63
9
65
75
6
94
97
26
147
141
74
161
150
91
165
155
97
171
162
103
173
164
107
174
164
109
174
164
112
172
162
111
170
160
109
166
156
107
182
171
120
192
181
128
182
170
118
171
159
106
173
161
108
173
162
108
173
164
106
175
166
109
177
168
112
183
173
120
185
177
126
198
192
144
207
200
152
200
192
145
202
191
146
204
192
148
210
198
156
205
193
150
182
171
125
170
159
112
163
152
105
178
169
128
176
168
125
180
173
126
170
164
114
161
156
102
160
159
99
150
149
89
151
148
84
140
135
70
137
131
62
154
137
67
168
144
74
170
145
79
139
127
61
110
115
47
104
116
43
123
135
60
121
133
57
117
129
55
115
127
53
112
125
45
113
125
46
110
120
41
109
118
40
110
118
40
109
118
42
110
120
45
112
121
46
114
121
48
116
123
50
116
120
51
110
112
45
110
113
44
115
117
47
119
122
48
127
127
60
141
138
74
140
138
73
136
133
68
127
124
57
125
119
48
125
117
46
133
124
57
127
119
55
149
139
79
170
156
102
168
155
102
139
136
74
106
115
35
69
82
6
83
91
35
119
123
71
123
125
77
91
91
47
69
66
24
52
50
18
30
32
13
59
58
29
124
119
76
143
133
84
151
140
89
157
148
98
147
137
89
161
151
105
172
162
117
167
158
113
136
131
88
152
148
102
166
162
116
181
177
131
193
189
144
203
198
158
208
203
163
206
201
161
207
203
162
177
172
132
103
98
50
117
113
61
120
117
64
132
130
79
155
154
102
153
152
100
151
150
102
190
187
147
217
213
177
207
202
171
202
197
165
198
193
161
194
189
157
190
185
153
185
180
148
184
180
145
181
177
142
183
178
143
179
175
140
178
174
138
177
171
135
175
169
133
173
167
130
172
167
129
171
166
127
170
165
124
171
167
123
174
168
122
174
168
118
174
168
116
176
170
118
179
170
117
180
169
115
181
167
112
183
165
108
180
165
104
176
161
96
175
158
70
175
151
29
173
144
7
172
137
9
168
132
22
163
139
53
199
186
131
194
186
145
189
185
146
199
195
164
200
198
161
197
196
154
197
191
145
193
183
133
184
176
118
196
189
128
193
192
138
195
196
153
207
206
172
205
207
176
206
209
181
208
210
186
209
211
189
210
211
191
209
210
190
206
208
188
207
207
186
187
188
156
122
126
78
115
123
64
115
124
58
114
125
50
104
116
38
96
107
28
99
113
30
99
112
32
96
109
37
83
95
28
100
110
49
127
130
76
140
142
87
141
142
87
151
151
97
157
156
103
86
122
64
81
116
53
85
117
49
113
142
73
128
155
88
119
146
77
109
137
68
109
137
68
112
140
71
100
128
59
85
116
45
73
104
36
60
90
28
38
66
10
28
54
4
26
46
6
39
56
14
69
88
35
71
92
27
69
91
16
68
91
18
72
96
25
65
90
20
53
79
10
49
76
9
48
79
10
50
77
14
48
71
14
47
71
13
45
67
5
111
127
56
123
137
60
122
136
57
122
137
60
91
104
46
30
40
5
44
55
11
47
58
2
58
65
2
84
83
21
148
142
72
162
154
86
163
155
89
170
162
98
175
169
104
179
173
111
181
173
114
181
172
115
181
172
117
179
170
116
179
169
116
180
170
116
177
167
114
176
166
113
176
166
112
166
156
102
170
161
104
173
164
108
174
165
109
176
167
111
179
169
113
184
174
117
188
182
127
194
189
140
202
195
149
199
190
146
203
193
149
204
194
148
195
186
138
172
162
117
179
170
127
175
169
124
177
171
125
172
168
118
150
147
90
126
125
58
107
111
26
100
104
15
101
105
16
98
102
13
103
106
19
118
108
25
180
156
76
183
158
83
132
124
51
76
89
7
69
89
7
70
90
8
73
93
12
70
90
8
70
89
7
70
89
8
70
88
8
71
87
7
71
86
6
72
85
7
69
85
7
67
84
7
66
84
7
69
86
9
70
87
11
69
85
9
68
83
8
67
81
4
73
86
8
75
87
7
78
87
6
82
89
8
84
92
13
85
91
15
89
96
21
96
100
25
103
104
29
110
112
36
108
109
35
123
123
56
139
138
75
141
141
75
114
119
50
93
100
36
73
82
30
113
118
70
122
122
75
123
123
77
97
97
53
70
70
23
52
52
15
32
34
17
44
44
19
119
116
79
136
132
85
145
140
90
145
140
92
150
145
99
169
164
119
157
151
110
110
105
68
51
52
7
121
120
76
145
143
98
176
172
127
181
176
133
185
181
142
198
195
152
204
203
152
168
168
116
112
113
55
109
112
42
113
116
43
113
117
41
113
117
39
110
115
35
109
115
36
110
115
44
109
110
55
187
186
144
209
206
171
200
194
160
193
188
153
190
184
150
186
180
146
182
176
142
182
175
138
180
173
135
179
171
133
177
170
131
177
169
131
177
169
130
176
168
130
175
167
128
175
168
127
175
168
126
177
170
127
177
171
126
178
172
124
176
170
120
174
169
115
175
169
116
179
172
120
179
171
117
178
168
113
177
167
110
177
167
105
175
162
98
173
156
71
177
154
32
181
150
2
173
141
5
166
132
11
163
126
9
168
143
71
195
186
148
189
190
159
193
192
165
189
188
154
188
185
146
187
182
142
186
179
136
186
180
131
187
184
135
192
190
145
190
188
147
195
195
157
202
203
170
208
209
180
212
212
186
213
213
190
212
212
191
209
211
187
209
211
189
209
211
187
190
195
155
121
129
68
107
118
43
97
113
34
93
111
32
94
109
30
85
97
23
74
86
24
76
86
29
90
97
41
106
110
55
121
123
69
143
142
89
142
141
87
142
140
86
151
149
95
161
159
105
63
97
44
73
105
52
74
104
47
79
107
47
102
128
66
124
153
84
121
151
81
123
153
83
115
144
75
92
121
53
70
100
33
48
79
13
52
81
17
60
88
27
67
93
35
71
95
30
85
107
39
80
103
32
76
100
25
78
102
24
81
105
29
68
92
18
61
86
13
59
85
14
56
83
12
54
82
12
52
76
15
51
74
17
49
74
10
77
97
32
132
147
70
136
150
73
123
137
58
100
115
38
79
92
34
31
41
3
43
54
8
46
57
3
50
57
3
66
64
11
134
128
66
161
153
87
166
158
93
169
161
97
174
167
104
179
171
108
182
174
111
184
176
114
187
178
118
187
178
121
188
179
123
189
180
125
189
180
125
190
181
126
188
179
124
184
174
120
169
159
106
161
151
98
168
159
104
175
166
108
182
172
114
188
176
120
190
177
127
193
183
137
201
194
149
198
192
147
201
188
147
201
189
145
205
194
148
196
185
141
183
173
131
175
168
124
177
170
126
177
170
124
175
170
118
148
143
89
111
110
52
89
89
28
79
80
11
79
80
8
82
83
7
118
105
35
159
135
61
144
120
49
135
130
56
88
99
22
66
80
13
54
68
3
56
70
4
60
77
10
59
77
10
59
78
9
58
75
7
64
76
10
65
72
8
68
72
10
66
71
9
64
69
7
63
68
6
62
67
6
62
67
6
61
68
10
63
70
13
65
70
14
66
71
13
68
71
13
68
72
9
68
71
5
67
71
4
70
73
8
73
76
13
78
80
16
74
77
8
72
76
5
76
81
8
77
82
15
75
81
13
92
101
30
114
124
53
99
109
46
56
67
17
72
79
35
88
91
46
97
102
54
85
90
42
71
76
24
56
62
14
44
48
13
45
47
8
84
83
43
127
125
74
127
125
71
127
127
75
153
153
103
139
138
91
80
79
36
56
56
10
52
54
6
73
73
31
125
124
78
151
148
102
177
173
126
180
178
126
174
173
119
132
133
78
90
93
27
87
92
21
87
91
15
88
93
14
90
94
15
89
93
13
89
94
13
85
92
13
89
95
22
89
92
29
103
102
55
149
147
107
194
189
152
193
187
151
189
183
147
186
180
144
182
176
140
183
175
137
183
175
136
183
175
136
181
173
134
181
173
134
181
173
134
182
174
134
182
175
134
189
182
140
196
189
146
178
170
127
148
140
98
120
113
69
100
94
48
85
79
32
137
131
82
187
180
127
191
183
129
191
182
127
187
178
121
181
171
111
176
163
104
176
159
85
177
154
46
183
152
11
184
152
14
170
134
7
168
132
8
179
157
87
196
189
157
181
184
157
182
183
157
181
181
151
184
181
147
184
179
140
182
177
131
181
176
124
180
177
126
183
181
134
183
183
138
188
189
148
194
195
161
202
203
172
207
207
181
209
209
186
210
210
190
208
210
188
208
210
188
209
211
185
174
179
139
99
107
46
97
107
41
91
104
37
80
94
29
82
93
33
100
109
52
92
104
54
86
94
45
97
101
54
103
102
57
113
109
63
143
137
85
145
140
88
145
142
89
149
148
94
156
156
102
47
83
34
40
74
28
41
71
25
54
82
30
55
81
24
87
116
52
104
133
67
84
113
47
66
95
30
55
84
18
58
87
23
55
83
19
74
101
36
92
119
49
88
115
44
92
117
35
87
112
28
80
104
23
84
107
29
91
114
38
85
108
31
68
91
13
71
94
18
68
92
17
62
87
14
59
84
13
54
77
16
52
75
18
51
77
9
112
129
62
140
153
77
114
128
51
101
115
36
106
121
44
79
92
35
34
44
4
42
53
8
47
59
7
49
57
7
54
53
6
80
75
29
151
145
88
157
151
91
161
154
92
166
158
95
173
166
100
178
170
105
181
173
109
184
176
114
188
179
119
192
183
125
192
183
128
196
187
131
198
189
133
197
188
133
195
186
132
197
187
138
201
191
139
195
186
132
191
182
126
186
177
120
184
173
115
193
178
121
194
180
126
199
190
142
199
193
147
199
189
137
197
188
136
204
197
147
213
207
159
187
181
136
177
168
124
176
167
122
177
168
123
172
164
117
166
158
109
156
150
95
134
128
75
124
117
67
127
120
69
121
114
61
137
120
64
152
126
66
151
128
64
125
118
56
69
77
20
63
73
18
67
76
20
90
98
42
95
103
47
100
108
51
102
107
51
105
109
53
117
117
62
123
120
65
128
122
68
131
124
68
131
124
67
129
121
64
127
120
62
126
118
61
122
119
60
122
120
60
116
114
55
125
122
63
126
123
64
125
124
67
125
124
71
130
129
78
127
126
76
112
111
63
96
96
46
79
82
24
71
76
14
69
76
11
65
74
9
68
78
9
112
125
51
124
136
64
77
89
27
38
50
1
47
57
8
55
63
13
61
69
18
61
70
16
71
81
24
79
88
31
78
85
28
83
88
29
84
87
26
80
81
19
79
81
20
70
75
18
65
69
15
61
66
11
62
66
14
61
64
15
59
64
15
55
58
10
65
66
22
97
95
53
124
122
79
111
110
62
78
78
25
80
82
22
85
90
27
83
88
22
80
83
16
80
82
17
79
81
18
84
86
29
118
118
71
142
143
98
138
138
94
146
145
100
161
159
116
169
166
124
185
180
142
190
184
147
190
184
148
189
183
146
187
182
145
189
181
142
190
182
143
191
183
144
190
182
143
190
182
143
191
183
141
192
185
142
194
186
142
206
199
154
214
207
161
216
208
164
216
208
164
213
205
158
196
189
138
178
171
118
172
165
110
179
170
114
174
165
107
172
163
102
172
163
101
174
164
100
172
162
97
172
157
85
177
155
59
178
150
23
181
149
11
174
137
5
166
133
11
184
170
106
187
185
159
181
185
159
182
185
157
182
182
155
185
182
151
185
181
142
184
180
134
181
178
128
179
176
128
180
179
133
174
175
129
179
181
139
189
190
155
202
202
170
203
202
175
205
204
181
209
208
187
209
208
187
208
208
185
197
197
169
120
122
84
90
95
41
93
100
53
105
112
65
120
127
80
125
132
84
111
117
71
87
89
48
87
89
48
96
97
56
99
97
58
109
107
66
139
136
87
140
137
87
146
147
95
145
148
96
150
154
101
44
80
32
39
73
25
40
70
21
81
110
56
84
112
53
79
109
44
78
109
43
74
105
39
71
102
36
73
103
37
71
99
35
81
108
42
89
115
46
88
114
39
88
113
34
91
115
34
91
114
34
94
117
38
93
116
38
88
110
35
84
106
25
79
101
19
79
101
20
74
97
19
67
91
13
65
87
13
61
83
15
54
78
15
53
77
13
123
137
70
129
141
65
111
125
48
107
122
42
103
118
41
65
78
20
33
43
5
41
51
12
49
61
11
52
61
10
56
59
7
56
54
5
82
78
35
147
142
89
167
160
101
169
161
99
172
165
100
174
166
103
178
170
107
181
173
112
179
171
112
182
173
115
186
177
120
184
175
118
187
178
121
188
179
122
188
179
124
202
192
141
210
200
149
201
191
140
192
182
131
191
181
130
190
179
124
189
177
116
192
178
115
187
174
116
201
188
135
206
192
142
203
191
144
200
190
144
200
193
146
205
200
152
177
168
120
171
162
110
166
156
103
162
153
100
156
146
94
146
136
79
127
116
65
119
106
62
126
114
69
127
114
66
140
121
64
146
121
57
127
107
41
90
85
26
66
72
18
59
68
13
59
67
12
109
113
59
119
118
65
122
119
67
122
116
64
125
119
67
130
122
71
133
124
73
135
125
74
136
126
72
137
126
72
132
121
67
127
116
62
127
116
62
132
122
67
128
119
63
121
112
57
132
125
71
138
131
78
140
136
84
142
139
88
142
139
88
136
133
81
134
130
77
131
128
74
121
120
65
111
112
56
97
102
42
91
100
33
100
111
39
131
143
68
105
117
47
63
74
11
52
60
9
51
58
10
53
59
8
56
62
11
49
56
5
55
62
11
58
63
12
62
66
14
61
64
13
63
65
14
62
62
11
62
63
12
60
63
12
60
63
14
56
57
10
57
59
14
56
58
15
51
57
14
46
50
9
49
50
9
50
49
9
52
50
9
55
54
11
59
58
15
62
64
19
69
71
26
74
76
31
82
81
35
98
97
53
128
126
88
166
164
126
204
202
162
203
200
164
198
196
159
196
192
155
196
192
156
198
192
157
199
194
156
198
193
155
198
193
155
199
194
156
201
196
158
203
195
157
203
195
156
203
195
156
202
194
155
200
193
153
200
192
149
192
183
139
186
178
132
180
172
126
180
172
126
187
177
133
186
175
131
185
175
128
182
172
122
179
170
117
178
169
112
179
170
110
180
170
110
177
167
104
177
167
103
176
167
103
174
165
99
175
162
96
178
157
81
181
153
52
174
141
11
180
141
8
158
129
17
192
185
129
183
186
162
182
186
156
180
184
153
185
188
154
187
187
150
188
185
143
184
181
134
184
181
135
184
182
136
174
173
130
113
115
73
168
170
129
181
181
145
192
192
159
203
202
174
206
204
181
209
207
186
207
207
182
205
205
178
139
139
112
115
116
79
124
129
81
126
132
89
127
130
90
130
131
92
131
134
96
95
100
61
90
90
48
91
90
48
98
96
54
100
97
55
107
103
61
130
128
80
142
139
91
141
139
90
150
149
100
148
146
97
50
88
36
50
85
30
89
123
62
96
128
65
89
118
56
92
122
58
90
119
56
90
120
56
84
114
50
79
109
45
93
119
53
94
120
51
86
111
39
84
108
31
90
115
33
97
120
42
100
123
45
97
120
43
90
112
37
85
107
32
86
107
25
82
103
19
81
102
20
77
99
17
74
97
17
72
93
17
70
91
16
65
89
21
42
65
7
138
150
86
142
153
77
122
136
59
106
121
41
88
103
27
77
91
33
41
50
12
32
40
7
48
60
11
56
66
10
62
69
5
62
63
6
64
62
8
65
61
12
113
106
60
152
144
92
171
161
105
187
179
119
186
178
119
189
180
124
177
168
115
166
157
103
188
179
122
189
180
123
190
181
124
190
181
124
190
181
124
189
180
125
198
188
136
210
200
151
210
199
154
226
215
171
228
218
174
211
201
155
197
184
130
184
167
102
161
141
71
185
166
101
209
191
132
215
199
148
211
197
151
204
193
145
178
167
116
145
135
77
159
150
86
154
144
80
146
136
75
141
128
73
128
114
64
127
112
61
128
115
54
126
115
41
133
116
36
130
110
19
114
101
4
86
85
2
83
89
24
81
84
34
55
56
8
119
117
71
139
136
89
144
139
93
137
135
86
138
136
86
139
135
85
140
130
83
140
128
81
139
128
80
137
128
78
129
120
71
122
113
64
126
117
68
133
122
73
132
119
72
128
117
71
133
125
79
139
131
86
134
127
82
129
122
74
129
122
73
128
121
70
130
124
71
128
121
68
120
114
62
130
127
73
123
125
64
111
119
46
125
136
59
130
140
66
89
98
29
99
105
43
104
107
57
108
109
63
106
106
59
100
100
56
92
92
52
55
54
16
45
44
7
49
48
11
47
47
10
49
49
12
52
52
14
51
51
12
51
48
9
54
51
13
54
51
15
56
52
18
48
47
13
53
58
22
53
58
23
56
58
23
61
61
27
65
65
29
67
65
26
69
70
29
76
77
37
81
83
43
84
86
45
133
131
93
173
171
131
182
180
140
187
185
145
206
204
165
201
198
163
200
196
160
198
194
157
198
193
157
199
194
158
199
194
156
198
193
155
197
192
154
197
192
154
197
192
154
198
190
151
198
190
151
197
189
150
193
185
146
182
174
135
179
171
127
179
171
125
177
169
123
175
167
120
178
170
122
182
172
128
183
172
128
183
172
126
179
169
119
178
169
116
179
169
117
181
170
118
183
171
117
186
174
118
187
174
116
185
175
111
180
172
101
177
166
96
176
156
87
176
148
65
171
138
18
178
139
6
158
130
29
194
190
143
182
188
162
184
190
155
170
176
141
145
148
109
179
180
134
195
194
147
190
188
140
186
184
135
183
182
133
133
134
87
108
111
62
118
120
77
161
161
125
187
187
154
196
195
166
206
204
179
206
204
179
199
198
168
168
167
137
124
123
94
123
123
89
125
127
87
127
133
92
133
133
95
137
135
97
117
119
82
83
91
49
89
105
50
91
107
52
94
109
54
100
115
60
95
110
55
112
126
73
138
151
98
144
153
102
141
146
96
148
151
101
61
94
46
93
126
72
107
138
78
105
135
71
103
132
70
104
131
68
98
125
62
92
120
56
86
115
50
91
120
54
103
130
62
98
124
53
90
114
38
94
116
37
101
121
42
104
125
48
103
124
47
92
113
36
87
108
30
89
110
32
86
107
27
85
107
26
81
105
20
78
102
15
76
100
18
76
99
22
70
94
18
59
82
17
32
56
3
125
141
80
153
167
90
132
145
66
103
117
42
94
110
36
87
103
37
48
61
13
23
34
1
41
51
8
51
60
2
61
67
2
65
70
9
66
71
13
65
68
11
65
64
8
59
56
3
73
68
25
95
90
51
98
94
54
92
86
48
72
66
24
83
76
31
170
162
107
192
183
126
193
184
127
191
182
125
190
181
124
189
181
121
189
180
125
204
194
145
211
199
156
215
205
164
226
220
178
234
227
188
232
224
184
229
220
174
199
188
139
182
166
111
168
151
98
170
153
103
177
160
112
200
184
135
199
190
133
119
111
51
140
132
64
149
139
72
149
138
75
135
125
63
120
108
47
136
123
48
138
125
29
133
120
15
135
117
12
138
123
12
136
129
19
99
97
5
91
91
22
98
95
38
110
106
56
135
131
83
149
146
102
150
147
106
148
144
100
150
144
99
149
143
98
145
137
92
140
132
88
140
132
83
137
130
80
110
103
53
107
100
51
133
125
75
132
124
76
134
126
79
127
120
73
130
124
76
130
123
76
130
123
76
137
131
83
144
138
90
136
130
82
131
125
76
124
117
69
122
114
64
136
131
80
141
144
80
121
137
49
129
144
56
103
111
39
119
122
63
115
114
62
108
105
55
114
112
63
111
112
62
107
108
62
102
102
61
56
56
18
55
53
17
56
52
15
56
52
15
63
59
23
63
60
23
58
56
18
55
53
15
59
56
19
62
60
23
63
61
24
58
56
19
56
57
20
62
62
25
65
62
26
65
62
26
68
63
27
75
72
34
79
78
39
82
81
42
79
79
41
90
89
51
168
164
123
186
181
139
184
180
138
182
178
136
199
194
153
204
199
162
200
194
158
199
193
156
199
193
157
199
193
157
198
193
155
199
194
156
200
195
157
201
196
158
201
196
158
202
195
155
202
195
154
189
181
140
176
169
128
177
169
128
179
170
127
177
168
124
173
164
121
177
168
124
179
171
126
178
169
128
178
170
129
180
172
129
182
175
129
185
177
130
187
175
131
188
174
129
192
177
122
185
168
104
168
147
75
161
136
56
164
141
47
171
155
66
174
154
83
172
147
71
174
146
45
168
139
20
162
137
40
198
194
151
189
193
168
186
192
165
192
196
165
170
176
137
111
118
71
146
155
103
172
178
121
170
171
114
179
178
124
147
147
97
105
110
61
108
115
68
123
125
85
137
138
101
137
137
103
165
163
134
156
154
124
138
136
104
123
122
89
123
123
90
125
126
93
129
130
95
137
136
101
137
138
102
140
146
105
117
127
79
109
126
69
102
128
64
98
127
62
96
129
63
94
132
64
91
130
62
90
123
62
104
143
80
120
155
92
132
157
95
142
161
100
101
131
82
112
143
88
105
134
74
105
133
70
106
132
71
105
130
69
103
127
65
102
128
65
98
126
60
97
126
59
102
128
61
99
125
52
96
120
42
108
130
50
106
127
50
103
124
47
100
121
44
94
115
37
89
110
32
87
108
29
83
104
25
81
102
23
83
107
23
82
106
21
80
105
26
81
107
32
64
91
19
38
69
8
31
62
12
72
91
38
154
169
94
131
144
65
98
111
41
110
125
55
86
102
32
56
70
12
41
52
10
44
52
9
58
65
10
61
66
7
60
65
3
58
63
2
54
58
2
55
56
3
53
54
4
56
57
9
52
54
5
55
56
9
53
52
8
56
54
13
60
56
11
126
118
67
187
178
120
184
175
116
183
174
116
183
174
115
183
174
115
181
172
116
184
174
123
208
197
151
213
203
159
210
203
159
219
212
173
227
219
182
225
218
177
225
217
173
226
214
172
224
211
170
223
211
170
219
207
166
209
197
155
216
207
156
199
190
136
120
111
46
140
130
58
152
141
66
140
133
46
139
132
36
146
138
30
141
130
12
135
123
2
135
122
3
132
122
3
127
120
11
105
99
11
104
97
31
109
103
50
125
119
69
128
122
75
156
150
107
160
154
114
158
150
108
158
150
106
158
149
106
153
144
101
143
135
91
144
136
89
137
129
80
91
83
35
129
121
73
136
128
79
135
128
81
133
127
80
135
129
82
135
128
81
137
131
84
150
144
96
159
153
105
152
146
98
126
120
72
122
116
68
125
118
71
123
116
67
131
128
70
131
137
57
120
138
32
105
121
27
134
140
75
143
145
91
124
122
74
115
111
64
118
114
67
119
116
70
120
117
74
95
91
54
54
50
13
61
56
21
62
56
20
60
56
19
58
54
17
62
60
22
65
63
25
69
67
29
67
65
28
60
58
20
59
57
19
64
63
25
66
65
27
65
63
25
64
61
24
70
66
29
74
70
33
73
70
33
77
75
37
80
78
40
82
82
44
88
87
48
139
134
94
178
173
131
184
179
137
185
180
138
184
179
138
193
188
149
201
196
157
200
195
156
199
194
155
199
194
155
198
193
155
198
193
155
198
193
155
198
193
155
198
193
155
199
192
153
184
176
137
175
167
128
174
166
127
177
169
130
178
170
129
178
170
128
179
171
129
181
173
130
179
172
129
179
171
132
181
173
134
183
176
134
186
179
135
187
180
134
189
181
131
187
173
115
156
134
67
146
116
33
155
121
34
159
128
35
166
142
43
169
152
62
183
165
93
174
152
79
172
146
58
170
143
43
165
141
54
196
190
146
190
193
166
189
192
166
190
191
165
193
198
163
186
196
151
135
148
99
110
122
66
161
170
112
188
195
139
157
161
111
175
177
130
175
174
130
165
163
122
134
133
94
127
127
91
123
124
90
119
121
88
120
123
87
124
126
90
127
127
92
131
131
96
136
135
100
139
140
105
136
139
106
108
112
80
98
105
67
115
124
82
112
122
77
109
121
76
109
124
78
109
128
79
111
131
82
115
131
83
109
131
78
114
141
84
81
113
46
109
136
70
109
137
87
106
134
79
105
132
72
112
137
75
115
138
79
115
136
79
114
136
77
108
132
69
93
119
53
100
126
58
103
128
59
107
131
58
106
130
51
113
136
57
105
127
51
101
122
45
98
119
42
96
117
40
98
119
40
91
112
33
78
100
17
82
104
22
82
106
22
82
105
23
83
107
31
76
100
29
54
81
15
35
65
16
32
62
23
33
51
10
128
140
77
123
136
61
111
124
53
116
128
57
84
97
24
65
78
13
102
112
59
80
88
40
108
113
64
108
113
60
98
103
40
93
97
35
69
72
21
51
55
5
48
51
9
50
53
14
44
49
9
42
46
5
41
43
4
49
50
14
106
104
63
177
168
111
186
177
118
185
176
117
186
177
118
186
177
118
180
170
113
172
162
106
164
153
101
187
176
126
208
198
149
215
206
161
214
206
165
216
208
169
218
210
169
216
210
167
215
207
169
214
206
166
214
207
163
216
209
162
210
204
156
210
200
157
214
203
154
169
159
103
125
117
39
137
129
40
151
147
33
136
133
6
140
134
4
136
128
2
129
118
1
125
112
0
123
110
4
115
106
14
104
96
25
90
83
29
92
87
43
121
115
72
128
121
80
161
152
111
171
160
119
165
156
113
164
155
112
164
155
112
159
150
107
147
138
95
145
137
90
133
125
78
107
99
54
140
132
85
139
131
84
140
132
87
146
139
95
155
148
104
149
142
98
157
150
106
161
154
107
147
141
93
125
119
71
121
115
66
123
117
68
125
120
75
125
123
69
126
130
52
125
137
28
112
130
13
116
126
52
159
161
104
160
159
111
147
145
100
126
123
78
128
123
81
134
126
85
137
129
90
87
80
46
65
57
22
64
57
23
63
59
24
64
60
25
65
61
26
65
63
28
64
63
27
63
61
23
60
58
20
64
62
25
67
65
27
66
64
26
68
65
27
69
66
29
68
65
28
72
68
31
75
72
35
77
74
37
82
80
42
86
84
46
83
83
45
87
86
48
99
94
55
149
144
105
165
160
120
169
164
124
169
164
124
170
165
123
178
173
131
189
184
142
198
193
151
200
195
154
199
194
156
198
192
155
197
191
154
197
191
154
193
188
151
176
171
133
171
166
127
174
169
131
178
173
135
179
174
136
180
173
134
177
170
131
175
168
129
176
169
130
178
171
133
181
173
136
184
176
137
187
180
139
186
179
136
176
169
124
165
157
105
171
160
104
178
163
105
186
168
105
182
163
98
180
163
91
174
160
82
167
153
78
169
151
81
170
146
73
169
143
65
171
146
63
171
149
75
192
183
139
194
193
167
192
194
168
203
203
175
212
214
182
214
217
176
194
200
146
154
162
105
110
123
71
128
143
93
159
172
121
171
179
131
179
180
136
179
177
135
161
158
118
128
125
88
137
134
100
137
136
102
132
135
99
132
135
98
134
137
100
134
135
99
134
136
100
130
135
102
97
100
73
89
90
68
109
110
85
111
110
83
116
114
85
124
122
94
133
132
104
152
152
125
174
173
148
207
203
182
230
229
200
222
234
192
91
115
66
171
198
137
95
120
67
102
127
70
111
135
73
120
142
82
122
141
84
118
138
82
116
136
79
104
126
64
96
120
53
103
129
59
104
127
57
112
136
61
116
140
61
111
135
56
102
125
50
104
126
49
99
120
43
96
117
39
93
114
35
86
107
28
82
104
21
80
103
20
81
104
22
84
107
28
80
103
33
69
90
29
50
68
19
34
53
19
21
41
14
22
35
5
80
90
42
130
144
72
126
139
64
108
120
47
90
101
24
78
89
16
70
81
14
82
90
35
89
94
48
111
115
63
109
115
56
103
108
54
118
122
71
95
98
55
45
49
6
43
44
8
54
52
20
64
62
27
87
85
45
150
149
99
178
175
118
180
172
111
181
173
112
180
171
110
181
172
112
182
173
114
186
175
119
190
179
123
187
176
121
180
169
114
186
175
122
211
199
152
217
207
164
217
208
169
217
210
170
215
210
167
217
209
170
214
205
164
211
203
158
205
198
151
199
192
143
192
182
139
192
181
135
181
171
116
123
115
37
119
112
15
131
124
15
134
127
13
134
128
9
125
116
2
118
106
4
117
101
17
119
104
32
111
103
42
86
82
33
88
87
46
99
99
63
99
98
62
113
109
71
151
144
104
173
163
122
167
156
114
166
155
113
167
156
114
165
154
111
157
146
103
154
145
100
123
115
69
135
127
81
142
134
88
146
138
92
152
144
100
155
148
105
162
155
113
160
153
110
147
140
98
131
124
78
122
116
66
121
115
65
127
121
71
135
129
79
138
135
84
132
135
66
129
140
42
122
137
23
110
122
31
158
161
101
162
161
114
165
163
122
160
159
116
144
142
100
140
137
98
149
144
106
148
142
106
80
74
41
65
58
24
67
61
27
70
66
31
63
60
25
59
56
21
61
61
25
69
69
32
66
64
26
63
61
23
62
60
22
69
67
29
76
73
36
73
69
32
70
66
29
69
66
28
70
68
31
81
79
41
82
79
42
82
80
42
81
79
42
85
85
47
92
91
53
94
90
52
99
94
57
129
124
87
144
139
102
146
141
104
151
146
105
148
143
103
148
143
103
151
146
106
159
154
114
164
158
122
167
161
125
169
163
128
169
163
128
173
167
131
172
166
130
175
169
132
178
172
135
179
174
137
176
170
134
172
168
131
174
169
132
175
171
134
178
174
136
178
173
136
182
175
138
183
175
137
181
173
134
178
171
128
176
169
125
181
172
126
183
175
128
180
173
125
174
166
115
173
162
105
172
160
97
172
160
94
171
161
93
171
159
87
171
157
81
171
153
80
170
149
79
171
153
89
180
168
119
198
195
166
198
198
174
214
215
184
225
224
189
209
203
162
183
176
124
191
187
134
188
195
146
158
167
121
106
118
73
107
121
75
140
149
104
175
179
135
179
183
141
168
170
132
162
162
127
155
154
120
155
155
119
155
158
120
156
161
123
159
164
126
159
164
128
143
146
119
156
158
134
174
174
150
193
193
166
210
210
180
217
219
188
221
223
193
226
230
199
234
239
208
231
237
206
224
228
200
206
210
178
185
199
157
125
150
99
85
118
62
100
124
70
105
128
70
111
133
72
115
135
76
116
133
78
112
130
77
108
127
71
97
118
56
105
127
60
106
129
58
112
134
62
125
147
73
117
141
63
106
130
53
102
125
52
99
120
45
96
117
40
92
113
36
86
107
28
84
105
26
83
105
26
81
102
27
87
109
36
84
105
37
60
80
24
37
56
14
19
32
4
18
26
8
19
30
7
21
35
2
88
99
49
132
145
76
127
139
69
107
118
46
105
115
35
86
97
16
69
80
3
77
85
26
110
114
72
90
93
45
104
111
59
135
142
95
133
140
92
137
140
91
120
121
75
143
141
90
159
152
97
166
159
102
170
162
102
168
160
98
172
164
101
176
168
106
179
171
109
183
175
113
184
176
113
185
175
116
186
175
121
187
176
121
188
177
120
188
178
119
192
181
124
185
172
123
199
186
144
218
208
168
215
208
168
216
211
169
218
209
171
212
204
164
207
199
158
203
195
153
200
192
148
202
193
143
202
191
144
202
191
138
132
124
52
132
124
33
114
103
13
125
116
12
121
113
6
119
107
21
120
107
38
120
108
48
125
115
64
121
116
74
105
105
67
99
103
64
90
97
64
95
100
66
94
95
58
137
133
93
169
161
118
167
156
114
167
155
113
167
155
113
163
151
109
157
145
103
150
141
97
125
117
72
143
134
90
147
139
94
156
147
103
160
152
110
161
154
113
160
153
112
126
119
81
97
90
51
107
101
56
112
106
57
116
110
61
128
122
72
140
134
84
143
143
80
132
142
51
129
144
39
109
122
25
150
155
91
173
171
126
163
159
121
165
161
124
165
163
123
157
155
116
153
150
114
156
155
118
136
134
99
69
67
32
69
67
32
69
66
32
64
61
28
66
63
31
58
58
24
58
58
24
66
65
30
70
68
31
78
76
39
82
80
42
75
73
36
70
67
30
77
71
35
79
75
38
72
70
32
69
68
30
74
74
36
80
77
40
86
84
46
89
87
49
86
86
48
90
89
51
92
86
50
98
92
56
103
97
61
99
93
57
107
101
65
112
107
70
117
112
74
117
112
75
117
111
74
122
116
79
126
120
85
131
125
90
139
133
98
166
160
125
173
167
132
178
173
137
177
172
136
176
171
135
173
168
133
171
166
130
173
169
133
175
171
136
175
171
136
178
174
139
182
178
143
181
175
139
178
170
133
175
167
129
178
171
130
182
175
131
180
172
127
179
170
124
184
173
126
184
171
125
185
173
125
182
172
116
178
169
109
175
166
104
171
162
93
170
162
93
176
163
102
179
159
102
176
160
103
172
159
100
191
187
149
210
208
183
212
211
186
218
216
180
182
177
134
181
173
125
195
188
142
195
190
149
187
183
142
180
179
138
160
165
123
125
134
91
93
107
60
103
117
74
140
153
113
157
171
131
183
193
154
194
200
160
206
212
172
218
223
183
221
226
186
223
226
188
222
223
188
224
224
193
221
222
191
217
219
186
209
212
176
188
195
159
180
190
153
177
193
155
165
185
145
152
173
133
156
171
132
146
162
120
123
142
97
122
153
102
43
86
33
93
121
64
87
113
55
88
114
54
88
112
51
92
116
54
94
116
57
91
115
53
88
115
49
99
125
56
101
126
54
124
145
69
130
151
73
117
140
61
105
128
51
100
125
48
94
119
43
88
112
33
83
106
24
84
106
25
81
101
23
78
101
22
88
111
37
86
107
45
53
71
24
26
43
9
16
33
11
17
28
13
18
27
12
21
35
8
39
53
13
122
134
75
139
151
81
124
136
64
117
129
53
111
123
42
82
94
13
73
85
2
70
80
8
101
109
59
105
112
65
103
110
62
116
122
80
122
126
84
127
128
86
137
136
93
149
144
96
161
151
92
159
148
87
164
153
88
170
157
90
172
158
91
177
164
97
181
170
103
181
171
106
180
171
106
182
173
111
187
175
120
185
173
117
183
171
115
179
167
111
160
149
93
139
131
76
158
146
94
177
164
115
203
192
142
214
203
154
220
207
162
224
216
175
224
219
181
221
217
177
219
214
170
220
213
162
210
201
150
203
194
137
174
166
102
120
114
35
98
90
16
110
103
28
110
102
35
120
112
56
125
116
68
118
116
76
107
106
69
105
105
72
99
100
67
103
105
73
91
100
70
87
97
65
96
103
67
124
122
83
167
159
117
168
156
113
168
155
112
167
155
111
165
154
110
159
150
105
132
124
80
119
112
69
145
139
96
147
141
100
153
147
108
154
150
112
124
121
86
88
85
50
68
65
28
63
60
24
61
57
15
74
69
23
79
77
31
130
132
79
140
146
79
137
146
62
139
150
54
120
129
39
147
148
88
185
182
133
175
170
131
164
161
123
161
159
120
167
165
126
157
157
118
160
159
121
163
163
125
119
119
85
68
68
31
69
69
32
75
73
36
79
77
41
66
67
38
41
46
21
44
49
26
61
64
39
72
74
45
78
79
49
83
82
49
84
83
47
84
81
44
87
79
45
88
82
48
85
81
46
84
82
48
89
89
54
84
84
48
86
84
47
92
90
52
90
87
49
95
92
54
94
85
52
95
87
54
103
96
62
106
102
67
108
104
69
108
105
70
110
107
72
114
111
75
122
119
83
125
121
86
127
120
89
139
132
102
170
163
133
179
173
142
181
174
144
179
173
140
176
170
138
173
168
135
171
165
133
172
166
134
173
167
135
175
169
136
178
172
139
183
177
144
181
175
143
176
170
138
180
173
140
183
176
142
185
177
139
181
173
134
180
172
130
189
180
136
192
183
138
185
178
132
176
171
125
174
168
122
177
169
122
183
173
123
186
176
119
189
177
117
186
167
108
182
158
99
182
165
109
171
161
110
172
170
127
210
209
175
212
209
180
198
195
160
184
180
139
187
181
136
201
194
152
192
186
149
185
180
141
178
174
132
170
170
125
176
178
130
167
174
124
147
159
111
117
138
92
58
88
40
61
91
44
82
105
59
107
127
80
119
135
89
132
148
103
147
164
118
162
175
133
176
187
147
185
192
153
160
168
128
133
145
104
129
145
108
127
144
107
103
123
85
88
110
70
89
111
71
92
108
72
70
95
55
75
106
66
81
120
75
60
102
57
73
105
47
66
97
38
56
86
26
68
98
35
69
99
35
72
100
38
76
106
42
80
112
45
80
111
42
91
119
47
125
147
69
130
151
72
118
141
62
106
129
51
106
130
52
99
123
48
86
111
33
83
107
25
81
104
22
82
103
24
88
111
32
88
111
40
62
82
28
22
39
4
19
34
12
12
28
10
11
22
7
22
33
14
38
53
21
73
86
42
148
159
98
141
153
83
119
131
58
123
136
58
109
122
41
78
90
11
80
91
10
73
85
6
93
101
43
111
119
68
102
108
63
120
123
82
126
127
87
121
119
80
123
120
81
128
122
82
142
132
88
146
137
86
147
138
79
144
135
69
147
137
69
154
142
76
163
151
86
168
158
94
169
159
96
174
165
102
171
159
100
172
160
101
167
155
96
166
154
95
154
142
86
157
146
96
169
159
105
180
169
111
176
159
100
135
113
51
143
114
52
157
129
79
215
188
136
204
182
128
176
159
100
181
170
116
184
175
119
177
170
115
186
182
124
138
137
80
85
87
32
82
83
33
83
84
40
75
76
41
97
98
66
94
98
67
86
90
59
83
87
57
90
94
65
94
97
69
87
95
67
91
101
70
91
97
63
101
101
63
156
148
110
165
155
113
166
155
113
164
154
111
157
149
106
141
133
90
100
97
53
93
92
49
116
115
74
115
115
76
114
114
78
79
81
48
61
65
32
63
66
33
68
72
39
71
75
42
71
69
35
76
73
34
82
82
36
141
146
82
141
153
70
144
156
61
127
137
47
120
123
58
158
156
108
197
193
152
177
172
134
167
164
125
164
162
124
167
166
128
165
165
128
163
162
125
156
153
118
80
76
42
79
75
40
74
71
36
76
72
37
80
78
44
72
76
47
50
60
36
44
55
35
35
46
24
47
53
28
74
78
51
84
84
55
85
81
50
90
85
53
95
90
58
95
92
60
93
91
59
79
78
48
87
88
56
93
94
61
97
97
64
101
100
66
91
90
55
91
89
54
98
92
61
101
95
64
101
96
65
102
98
67
109
107
75
112
109
76
119
116
82
123
120
86
116
113
79
122
118
85
132
127
98
173
167
138
182
176
147
180
174
145
175
169
140
175
169
138
173
167
136
172
166
135
173
167
136
172
166
135
173
168
137
179
174
143
184
178
147
178
172
141
178
173
142
184
178
149
182
176
145
183
177
144
185
178
142
192
184
146
194
185
147
190
181
141
183
175
134
177
171
128
178
174
130
184
179
137
190
181
136
188
177
130
181
172
122
177
162
99
152
129
54
174
153
83
177
164
113
179
172
137
179
175
146
180
178
148
189
187
156
183
180
145
183
179
140
187
182
138
194
185
145
189
179
143
179
175
135
168
169
125
156
163
116
150
161
111
143
158
108
125
143
95
95
117
73
56
83
38
93
113
73
139
150
108
144
153
111
146
154
110
136
146
103
104
117
75
85
101
62
79
92
53
99
115
76
126
148
105
122
149
104
107
132
94
91
111
74
122
136
100
139
149
112
146
152
116
138
144
111
129
145
109
79
106
69
50
87
46
64
99
57
49
85
26
39
75
14
33
69
7
67
101
38
65
99
34
70
101
39
66
100
36
61
97
30
52
87
17
84
114
47
127
150
72
130
153
73
118
141
62
115
138
60
107
130
53
98
120
45
92
115
37
80
104
21
81
105
21
86
108
28
86
109
36
68
90
29
31
49
5
21
37
11
14
28
12
6
22
5
10
24
5
30
43
17
44
57
17
113
125
73
152
163
99
134
146
76
128
140
66
126
138
60
107
120
39
78
91
13
80
93
15
79
92
11
85
94
26
120
127
72
122
125
78
133
132
90
139
137
96
135
131
90
134
128
88
129
122
86
122
114
81
114
107
67
119
113
65
127
122
67
134
127
68
139
130
70
144
134
74
150
140
80
157
147
88
160
151
93
160
150
90
162
152
93
172
162
102
175
165
105
172
162
102
174
165
105
179
170
110
183
172
114
196
182
126
186
168
112
164
134
71
144
111
46
137
103
35
142
114
51
180
160
98
198
191
132
217
210
155
217
211
161
210
207
155
162
160
111
69
76
32
68
76
36
66
73
41
83
91
65
89
97
73
90
96
69
86
92
64
90
96
69
87
93
67
92
97
72
90
99
71
89
100
69
96
106
71
99
104
67
119
117
80
156
150
109
145
139
97
137
132
91
131
126
84
105
101
59
82
85
43
85
90
50
78
84
45
69
75
39
68
75
40
60
69
39
57
67
40
47
57
29
44
54
26
53
63
35
67
72
42
77
79
45
94
100
46
146
156
74
144
158
61
132
143
48
113
119
44
137
138
84
137
135
91
196
192
151
187
184
146
174
172
133
164
163
126
169
169
133
169
169
135
168
168
135
110
106
78
79
74
45
78
74
44
78
74
45
85
81
50
87
85
54
73
76
47
54
63
39
50
64
42
50
67
45
40
55
30
62
71
46
86
89
63
94
92
66
97
93
66
94
91
64
92
92
64
87
92
63
68
76
48
71
81
52
88
92
64
97
100
73
101
104
74
100
102
72
105
106
76
101
100
71
99
99
69
100
100
70
95
95
65
99
100
70
100
99
66
109
108
75
116
115
82
119
118
85
128
127
95
173
169
140
181
176
148
178
173
145
176
171
143
173
169
140
171
166
138
169
165
136
169
165
136
173
169
140
178
173
145
185
180
152
183
178
149
181
176
148
186
181
152
188
183
154
185
180
152
185
180
151
194
188
156
192
186
151
186
179
142
182
174
139
183
174
139
188
180
143
186
178
140
190
182
143
188
180
138
181
172
127
177
166
120
177
163
112
172
152
85
153
132
55
181
166
100
173
167
124
185
183
155
193
190
164
192
187
160
186
184
155
179
176
143
182
178
140
188
183
142
186
179
138
187
177
140
179
176
135
135
139
96
107
117
72
98
114
69
100
121
78
102
119
79
114
125
88
149
156
121
170
173
140
168
168
132
169
168
131
173
170
133
170
169
130
176
175
137
169
167
132
139
141
105
100
124
83
35
79
30
65
105
58
112
128
92
142
154
118
142
150
115
146
149
114
148
148
115
151
151
120
145
153
120
84
107
70
111
142
101
90
113
75
42
78
20
37
73
13
51
85
26
70
105
42
70
105
41
70
100
41
64
97
36
62
98
32
69
104
36
98
129
61
131
156
78
125
149
68
124
147
68
125
147
70
113
135
58
105
127
48
95
118
36
81
105
21
77
101
20
84
108
31
68
89
27
38
57
11
22
38
9
13
28
9
7
21
7
8
22
5
21
36
13
35
50
17
73
82
36
147
158
96
146
158
91
133
145
75
135
147
74
125
138
60
109
121
42
76
90
11
85
98
21
88
100
23
84
94
17
98
105
40
116
118
66
123
119
77
137
131
89
146
138
96
152
141
101
146
137
97
139
131
94
125
118
79
116
110
69
110
106
62
112
107
60
117
109
56
118
110
56
114
105
51
112
103
49
124
114
61
132
121
68
137
126
73
137
126
74
147
136
84
160
150
95
169
161
101
173
162
105
170
159
105
174
166
112
195
190
137
206
196
148
206
194
145
204
193
142
217
208
158
224
218
169
222
219
168
217
214
165
202
198
151
196
191
142
172
168
117
74
79
33
75
82
39
79
85
49
72
79
48
83
89
60
93
98
70
87
92
65
71
76
50
77
82
57
84
88
65
94
100
74
83
93
63
84
95
62
87
96
60
87
91
55
105
102
64
128
125
86
123
121
81
91
90
50
87
87
47
80
85
47
68
75
39
57
65
31
65
74
41
66
75
43
54
66
40
57
71
45
39
52
27
45
58
33
52
65
40
53
63
34
50
58
19
124
136
66
150
164
71
138
152
55
115
122
43
129
130
69
131
131
79
130
129
83
156
153
116
201
199
160
183
183
144
174
174
138
172
173
139
173
174
143
120
122
95
50
53
26
59
62
35
66
69
41
66
69
42
68
72
43
73
77
47
67
74
44
56
66
40
44
59
36
41
60
39
34
57
32
52
70
46
60
72
49
67
74
51
81
85
62
85
87
65
84
90
67
75
87
63
60
78
53
67
86
60
70
77
55
85
92
70
90
95
72
94
98
75
97
101
77
86
92
67
95
99
75
83
87
63
73
76
52
86
89
64
102
101
71
108
107
77
116
115
85
120
119
88
157
156
126
183
180
154
179
176
150
175
172
146
171
169
143
173
170
144
174
172
146
178
175
149
180
177
152
182
179
154
187
184
158
187
184
158
184
181
156
187
184
158
185
182
157
190
187
161
194
190
164
192
187
159
182
177
147
179
173
141
180
174
139
187
180
147
191
184
150
188
181
144
186
178
139
183
174
133
182
169
124
177
166
117
175
162
109
178
156
99
160
138
74
173
159
97
176
168
115
181
179
141
185
186
159
193
190
169
193
191
167
195
195
167
190
188
157
180
176
140
181
177
137
182
177
137
180
176
136
178
176
135
173
173
131
171
173
130
176
178
137
179
181
144
159
160
126
134
136
105
135
135
108
138
139
111
151
153
121
149
152
120
145
146
114
154
151
119
153
147
115
160
151
120
145
146
111
112
134
93
62
100
53
89
120
78
139
150
115
147
153
119
145
148
115
153
153
119
155
153
121
142
145
115
128
140
107
93
116
79
123
147
110
126
143
108
52
83
28
55
87
30
67
98
39
72
103
43
76
107
45
83
110
53
82
112
53
81
114
51
88
120
54
94
123
56
117
143
65
121
146
66
130
153
74
129
151
74
115
136
59
100
120
42
92
114
35
76
98
22
71
94
24
65
87
25
42
61
14
23
39
6
11
26
6
8
22
9
8
22
6
14
28
10
27
45
20
46
61
21
96
105
51
155
165
97
142
153
84
141
152
82
135
147
74
128
141
62
102
115
37
79
94
11
84
99
23
89
102
28
91
102
23
96
103
29
129
128
74
133
125
82
134
125
82
139
127
85
141
127
86
147
135
93
147
136
93
133
125
81
123
116
72
117
111
69
110
106
61
106
101
53
109
103
54
113
105
55
120
110
59
120
110
59
118
108
59
118
107
58
120
110
61
115
105
57
112
101
52
113
101
51
133
122
72
154
144
93
152
142
93
163
153
108
198
191
153
208
204
159
205
203
153
207
203
158
209
203
163
207
201
160
198
192
152
203
199
156
213
212
161
163
163
109
90
93
47
105
108
66
94
98
60
76
80
47
85
88
57
101
103
73
107
109
79
88
90
61
80
82
55
85
86
59
104
102
79
102
102
77
91
96
66
88
92
60
80
81
49
92
91
55
101
101
63
94
95
56
85
87
48
83
86
47
87
92
57
70
75
43
75
81
51
71
77
49
67
74
48
61
72
47
50
64
39
49
63
38
41
55
30
41
55
30
49
64
26
116
132
70
155
173
86
148
162
70
114
125
40
118
121
57
129
128
77
132
130
85
97
95
60
51
48
18
148
148
114
191
191
153
181
181
146
174
175
143
125
125
99
53
60
33
46
62
34
41
57
30
43
59
32
51
67
40
49
67
39
45
66
34
49
67
35
61
79
49
51
71
47
36
62
39
30
58
35
37
63
40
44
66
44
60
80
59
69
87
65
71
84
62
69
83
62
71
85
65
74
91
71
61
77
58
69
79
62
83
92
75
78
86
67
84
91
72
89
96
76
82
92
69
86
95
72
83
90
68
89
94
73
85
89
67
97
98
68
106
107
76
115
116
85
126
127
96
175
176
145
182
180
155
180
178
153
178
176
151
176
174
150
180
178
153
184
182
158
183
181
158
183
181
158
187
185
162
189
187
164
189
187
163
188
186
163
192
190
167
193
191
168
190
188
165
185
181
157
180
175
150
183
178
149
187
182
151
192
186
153
192
187
152
189
183
147
181
174
135
180
172
129
174
166
120
174
160
114
169
153
96
136
117
54
144
121
61
167
150
98
177
169
120
181
178
137
187
186
155
188
188
163
193
194
170
193
193
169
194
194
168
192
191
161
176
173
138
168
164
126
170
167
125
175
169
127
179
173
132
180
174
134
177
172
132
180
174
138
180
173
144
151
148
120
132
134
108
130
138
112
124
132
106
117
121
92
124
131
101
119
127
95
129
134
102
140
141
110
147
153
119
124
140
103
83
111
70
64
99
56
107
135
95
149
158
124
148
154
121
154
157
124
159
159
125
163
163
130
164
169
139
108
129
95
93
119
83
119
144
108
98
123
87
69
97
43
69
97
42
77
105
48
91
119
60
95
123
64
94
122
63
92
122
62
88
119
58
81
112
51
75
106
44
79
111
39
112
137
64
126
145
71
117
136
59
102
125
45
86
110
34
61
85
17
40
68
11
34
62
18
33
57
20
14
33
5
7
23
3
7
23
5
8
24
7
8
24
6
12
30
3
36
54
11
72
86
29
115
122
59
150
159
89
147
159
88
143
156
85
132
144
71
135
146
69
87
97
24
83
95
16
86
99
21
91
102
26
95
105
26
94
103
24
112
113
48
120
113
62
119
109
61
124
114
65
132
119
75
141
128
87
143
131
89
137
129
85
129
122
77
118
113
67
118
114
67
115
111
64
114
108
61
112
105
57
116
108
58
123
114
65
121
113
64
116
107
58
121
110
61
125
113
64
124
111
63
117
106
56
116
106
56
135
125
77
155
144
96
151
137
92
150
134
93
203
189
140
209
202
152
210
206
161
209
201
158
207
199
156
219
212
170
228
222
177
214
210
162
169
164
119
117
112
73
121
117
80
118
113
77
124
119
84
124
119
85
121
115
83
120
115
82
125
120
86
131
125
91
125
120
85
125
119
87
119
114
81
118
114
80
113
109
75
109
104
70
102
100
63
95
93
56
95
95
57
90
90
52
75
77
39
87
90
56
89
91
59
84
86
55
82
85
54
75
78
48
68
72
45
64
70
43
62
68
43
64
72
44
65
77
38
108
124
63
152
171
90
158
176
87
115
128
50
116
122
58
129
131
79
125
126
83
98
99
62
46
49
20
44
48
23
47
51
26
63
65
40
69
73
48
61
67
43
39
49
23
45
57
32
41
57
31
45
61
36
47
63
40
39
56
34
43
63
38
49
72
44
52
74
46
44
65
38
38
60
37
41
65
42
41
68
45
47
73
51
44
67
46
59
79
59
69
87
67
71
85
67
66
79
61
67
80
63
73
87
69
71
84
67
86
99
82
87
99
82
89
100
81
85
95
74
87
97
76
92
104
84
90
102
80
73
83
61
73
82
58
85
92
68
102
101
72
117
115
85
110
107
77
121
118
89
178
174
145
182
180
153
181
180
153
182
180
153
184
183
156
183
181
154
182
180
153
179
177
153
187
185
164
191
189
168
191
190
167
190
190
166
190
190
166
191
191
167
190
188
165
186
184
161
184
180
155
189
185
158
195
190
161
191
186
156
188
183
153
186
181
148
180
176
136
173
169
124
173
167
123
170
163
116
164
152
100
144
128
72
177
163
105
188
175
122
182
172
130
189
183
149
193
189
160
192
190
165
190
190
168
192
193
172
192
195
173
196
196
173
192
191
161
176
173
137
169
165
126
169
165
124
174
171
128
177
172
131
184
176
137
183
175
136
187
181
145
152
152
123
120
123
101
118
124
103
122
132
108
129
139
113
116
122
98
107
116
89
123
129
102
137
139
111
144
149
118
137
154
117
85
117
75
55
91
46
76
111
64
95
127
81
121
139
99
120
139
100
131
151
113
136
154
116
142
158
121
121
140
102
59
97
55
49
87
47
53
81
47
62
96
64
82
107
55
81
107
53
79
106
50
96
123
64
99
126
67
98
126
67
89
118
59
80
110
50
69
99
40
66
97
37
57
93
29
62
89
26
85
103
41
86
104
39
74
96
29
51
80
13
39
69
12
34
64
21
23
47
17
10
28
6
7
22
4
8
22
5
9
24
5
11
26
7
16
31
10
25
42
7
56
73
24
96
109
46
133
139
74
151
158
90
150
162
92
133
145
75
139
150
80
137
147
75
82
91
20
81
92
14
88
99
21
91
102
24
103
113
34
101
110
31
106
109
38
112
107
49
115
108
56
121
112
61
119
110
62
120
110
68
122
113
72
132
124
81
133
127
82
117
113
67
119
115
68
119
115
68
119
113
66
113
106
60
111
104
57
117
109
61
120
113
62
119
110
58
122
110
59
124
111
59
124
112
60
123
112
60
121
110
59
127
117
65
136
125
73
143
133
81
134
120
66
151
130
77
205
193
139
205
203
154
212
207
162
211
204
158
215
208
165
224
217
171
191
185
138
214
207
163
137
131
96
126
120
85
125
119
84
124
118
83
125
119
84
130
121
88
128
119
85
131
122
87
128
120
84
127
119
83
128
121
87
129
123
89
117
111
77
117
111
77
117
111
77
115
111
76
116
113
78
104
101
66
103
102
67
103
103
67
105
106
71
104
105
70
100
101
66
101
101
66
104
104
69
99
99
66
91
92
59
88
90
56
85
92
48
118
130
65
147
163
85
162
180
96
126
141
62
81
90
26
88
91
44
96
98
56
78
81
44
43
49
13
57
64
34
44
54
28
48
56
32
45
51
27
43
52
27
50
61
35
50
64
37
52
66
39
46
60
34
43
58
33
52
68
44
49
66
45
52
67
46
49
64
41
49
64
43
61
75
54
60
75
55
57
73
53
50
71
51
64
84
63
73
90
71
75
90
71
61
75
56
67
81
61
64
79
59
64
80
60
74
90
70
72
88
68
72
84
66
75
87
68
89
100
80
94
103
82
83
92
71
79
92
72
90
102
80
86
98
75
83
93
69
86
94
70
108
109
82
118
117
89
119
115
87
118
113
85
169
164
136
177
175
147
176
175
147
175
174
146
176
175
147
174
173
145
174
173
143
173
172
147
191
189
168
191
190
170
191
190
168
189
188
167
189
188
166
188
188
164
187
185
162
188
186
162
189
186
160
190
186
159
191
186
157
187
182
150
183
177
144
177
173
137
171
167
127
170
162
119
169
162
116
166
162
114
164
154
101
185
172
116
182
172
118
181
174
127
180
175
138
195
190
161
196
191
167
195
192
169
192
192
171
192
194
174
194
196
178
198
197
177
192
191
161
179
176
139
172
168
128
169
164
123
175
170
128
179
175
133
183
178
136
185
179
138
172
169
132
128
132
107
127
131
113
123
129
114
125
133
114
121
132
107
123
136
110
129
139
113
141
145
118
144
151
121
141
154
120
94
114
78
56
90
47
105
133
89
92
119
73
70
108
58
107
141
94
78
114
68
70
106
62
84
116
75
82
109
70
62
93
52
49
99
53
93
128
92
103
130
99
100
129
100
92
115
63
85
108
55
79
102
47
88
112
55
91
115
57
87
112
55
76
103
45
68
96
37
67
97
37
72
101
42
65
94
32
63
90
28
63
88
29
58
83
25
51
77
21
45
73
23
32
57
17
17
37
9
9
23
5
13
23
9
9
21
5
10
23
5
11
24
6
14
28
8
24
37
17
30
46
9
85
102
48
99
110
48
138
141
79
157
162
96
147
157
88
141
152
83
146
155
88
126
135
71
79
88
21
77
88
15
92
103
26
92
103
25
100
110
32
105
113
35
108
113
40
110
109
47
105
102
49
109
105
54
116
110
62
116
109
65
117
110
68
114
108
64
111
106
61
122
118
71
122
118
72
115
111
65
111
106
59
119
112
66
119
112
64
118
110
60
114
107
53
116
108
53
122
111
56
125
114
58
122
110
54
122
111
55
123
112
57
127
117
61
128
117
62
126
116
59
126
116
52
126
108
35
161
145
77
202
193
135
213
205
160
213
206
158
211
204
159
204
197
150
186
179
132
213
206
163
156
150
118
126
121
89
126
120
88
124
118
86
126
121
89
125
118
87
124
118
86
126
120
87
126
120
85
124
118
82
126
120
87
126
120
88
124
118
86
121
115
83
123
117
85
118
112
80
120
115
82
117
112
80
116
113
80
110
107
74
109
108
74
118
117
82
115
115
80
108
108
73
108
108
74
110
107
74
112
109
76
105
106
67
118
123
66
144
156
75
157
172
86
135
149
72
95
105
39
89
94
47
91
90
59
88
89
56
84
88
49
81
85
49
75
79
47
67
71
43
80
83
56
75
78
51
73
76
50
71
76
49
72
79
50
73
81
52
76
84
56
65
73
47
58
67
42
64
73
50
72
80
58
82
88
64
77
83
59
63
69
47
64
69
48
76
84
63
72
85
62
71
83
60
74
85
63
68
78
56
66
76
54
74
85
62
71
82
59
67
80
56
75
89
65
79
93
69
88
97
76
91
100
79
91
99
78
92
100
79
94
103
82
93
106
84
95
107
85
77
90
68
72
84
62
78
89
66
100
104
80
108
110
85
116
115
90
124
121
94
154
150
123
172
170
141
170
169
140
168
167
137
166
165
136
165
164
134
163
162
133
175
174
149
191
190
169
191
190
170
191
190
168
188
187
165
187
186
164
188
186
162
189
187
162
189
185
159
188
183
158
185
179
154
182
177
147
178
172
136
172
166
126
166
164
120
170
162
118
176
161
110
155
142
84
171
164
112
181
171
122
182
170
119
179
170
121
178
173
131
183
179
148
197
194
169
196
194
171
195
194
172
193
193
173
195
197
176
197
199
179
200
199
178
191
191
161
177
174
137
178
173
134
179
172
132
185
176
136
183
177
138
182
179
142
170
170
135
130
134
103
129
140
115
127
137
118
123
133
117
127
137
120
126
136
115
133
140
114
145
147
121
147
151
122
145
158
124
101
122
85
64
88
50
116
134
96
142
160
118
115
141
95
59
93
44
94
112
72
124
137
102
145
158
123
153
164
131
156
166
134
114
140
101
73
116
75
124
155
120
108
133
104
109
134
107
92
111
61
87
106
54
87
106
52
85
105
48
87
107
51
78
101
44
75
99
41
70
96
38
68
94
36
67
95
36
72
96
31
65
92
28
54
85
25
44
76
22
42
71
23
27
47
14
12
25
4
14
25
11
13
22
11
10
20
8
12
24
7
13
25
6
13
25
6
20
32
12
29
41
20
56
70
30
106
122
65
106
115
54
142
143
85
161
164
101
144
152
84
150
160
90
148
157
93
115
124
69
86
96
36
79
90
18
91
102
27
94
105
28
98
108
30
107
115
38
104
111
37
106
109
48
93
93
44
92
90
45
102
100
55
108
104
61
105
101
58
105
102
57
110
106
61
109
104
58
109
105
58
110
107
58
108
104
54
113
107
56
112
105
53
118
111
57
124
118
59
133
126
67
140
130
70
146
135
75
139
128
67
137
126
65
137
126
66
137
126
66
138
127
66
131
121
61
129
123
58
126
120
37
121
103
13
140
118
54
202
188
136
210
204
152
208
202
155
205
198
151
202
195
148
211
205
163
155
150
119
128
123
93
126
121
91
128
123
94
128
123
93
129
124
94
128
123
92
123
118
87
122
118
85
123
119
85
125
119
88
125
118
88
125
118
88
129
123
93
123
117
87
126
119
89
125
117
87
126
119
89
122
117
86
124
120
89
120
117
86
115
113
82
118
115
85
118
116
86
118
115
85
115
111
81
116
114
81
120
123
74
147
155
86
146
160
72
137
150
66
97
106
39
98
103
53
103
104
68
98
97
69
89
88
59
88
88
53
94
92
58
96
92
61
92
87
58
94
88
60
92
87
58
97
92
64
99
95
66
98
93
64
96
92
63
96
94
65
97
95
67
89
88
63
94
93
70
86
86
60
100
100
70
107
107
78
100
99
71
101
100
72
105
106
77
99
103
72
101
105
75
103
108
77
102
106
76
98
100
72
101
100
76
105
106
82
109
110
86
103
105
81
98
101
77
92
96
73
93
97
75
94
98
76
89
95
73
89
96
75
93
104
83
98
110
88
83
96
76
72
85
65
73
86
67
91
99
78
97
103
81
114
116
93
121
120
95
136
132
106
162
160
131
162
161
131
160
159
129
157
156
126
157
156
126
151
150
120
180
178
154
188
187
166
189
188
167
187
187
165
188
186
165
190
188
166
186
183
160
186
182
155
182
178
149
176
171
143
173
167
138
171
165
131
167
161
122
168
161
119
169
162
117
169
157
109
147
130
69
138
124
55
173
161
106
178
167
121
178
169
122
175
169
125
179
175
139
191
190
164
194
193
172
195
196
175
195
195
174
192
193
173
197
200
179
199
201
181
200
200
179
190
190
160
179
176
139
178
173
134
190
183
144
186
178
139
174
173
131
163
169
125
118
132
85
105
125
77
111
133
92
121
142
105
124
145
110
130
152
117
124
143
109
145
153
125
156
159
130
147
154
122
99
117
81
60
84
45
113
130
96
154
164
129
120
136
96
89
116
69
65
87
44
155
163
126
167
171
138
171
173
142
167
169
140
157
162
133
99
119
85
92
127
91
137
161
131
115
140
113
103
129
105
91
109
59
93
111
59
90
108
55
87
105
50
83
101
46
83
105
48
80
103
45
76
100
42
76
100
42
73
98
40
68
94
31
56
89
28
43
79
27
37
68
27
11
33
4
10
23
5
15
22
10
15
18
11
16
21
12
17
26
12
15
26
8
18
29
9
22
33
14
33
44
23
18
29
8
92
105
60
113
128
70
106
114
55
141
139
84
152
153
93
150
156
89
155
163
94
146
155
94
90
98
50
83
93
37
81
93
23
91
101
27
97
108
32
99
109
32
109
117
41
106
114
42
98
104
45
90
92
49
84
84
46
78
78
40
77
75
37
68
67
26
78
75
31
86
82
38
100
95
51
115
110
64
125
122
70
137
134
80
152
147
91
157
151
94
152
146
87
148
142
80
143
136
74
142
133
71
143
133
70
142
131
67
140
129
64
139
128
64
138
127
62
134
123
59
139
127
64
139
128
65
130
123
49
133
116
30
128
103
19
155
138
74
207
201
146
207
201
153
203
197
149
201
194
147
194
188
146
148
142
113
135
130
102
134
129
101
133
128
100
128
122
94
130
126
97
132
128
98
129
126
95
125
122
90
122
119
86
127
121
92
132
125
97
138
131
103
137
130
102
139
132
104
136
126
99
141
131
104
140
130
103
132
125
97
136
129
101
133
129
97
127
124
91
117
114
81
124
121
88
122
119
86
124
125
88
126
130
84
145
154
85
138
154
62
141
158
60
101
112
32
111
115
60
108
108
69
108
108
73
104
103
70
98
100
66
98
100
66
101
100
66
106
102
69
104
97
65
108
101
69
104
99
67
106
100
68
109
103
71
108
102
70
109
103
71
107
101
70
97
92
62
96
91
64
99
95
70
110
108
80
108
108
75
103
102
71
106
105
74
117
116
86
115
113
83
111
109
78
113
111
80
116
115
84
117
116
85
120
118
88
125
119
92
124
118
92
120
115
88
125
121
94
128
126
99
119
119
94
119
121
97
113
116
94
112
116
95
92
98
77
89
100
78
80
92
70
80
93
73
88
103
84
86
101
83
89
101
82
84
94
74
84
89
66
96
96
72
116
112
87
132
131
101
134
133
102
134
133
102
133
132
101
137
136
105
133
132
102
177
175
151
187
185
164
185
184
164
184
183
161
183
181
161
182
180
159
177
173
149
175
171
142
171
166
136
166
160
126
164
158
123
164
158
121
168
160
122
158
150
112
155
146
107
140
130
89
136
126
75
171
161
104
180
170
121
179
169
126
179
171
128
177
172
133
186
184
152
194
194
172
193
194
176
194
195
176
194
196
175
194
196
175
201
201
181
201
201
182
200
200
179
190
190
160
178
175
139
179
175
135
187
181
142
190
184
146
141
145
105
97
114
69
81
110
60
74
105
56
72
100
54
61
91
45
57
90
45
65
98
56
82
114
74
107
135
99
132
158
120
99
126
87
56
85
43
114
132
95
157
165
132
124
139
102
98
118
77
144
164
120
80
97
55
162
171
135
165
171
137
153
161
128
150
162
130
144
161
129
114
138
103
104
133
101
124
146
118
130
148
126
119
141
120
98
115
67
95
112
62
90
108
56
91
109
54
87
105
50
85
107
51
81
104
48
79
103
46
81
105
47
73
97
39
61
88
40
47
74
33
31
56
22
11
31
7
11
27
10
13
23
8
15
22
8
18
23
10
22
27
14
21
28
13
19
29
9
28
39
16
31
41
17
22
30
10
32
39
15
119
134
85
115
131
72
106
113
55
138
136
81
149
149
93
154
160
97
158
166
98
141
149
88
87
94
50
72
80
36
88
97
39
89
99
29
99
108
33
101
109
34
109
116
41
112
120
48
99
107
45
72
76
26
88
89
43
114
115
66
133
135
84
142
145
92
151
152
100
158
156
107
162
156
109
162
156
107
164
159
103
160
154
99
139
133
77
135
129
70
133
127
67
136
129
66
144
136
73
148
140
75
149
141
75
145
136
69
145
136
69
137
127
60
134
123
57
120
108
43
118
105
42
116
104
46
112
100
39
116
101
27
130
112
29
125
110
31
187
181
127
204
199
149
204
199
150
196
191
144
191
186
144
142
141
114
124
126
102
119
121
98
123
124
103
122
125
105
117
119
99
116
117
97
121
123
102
118
120
98
114
115
93
128
126
103
134
131
109
130
128
105
130
128
106
137
135
112
126
124
101
128
125
102
135
132
110
135
133
110
133
131
108
131
131
102
128
128
96
131
130
100
134
130
104
128
124
95
123
125
85
150
160
97
136
153
64
140
162
58
103
124
32
108
116
60
121
122
81
119
119
85
118
118
84
110
110
76
109
110
78
112
113
83
116
116
86
118
116
86
112
109
80
111
108
78
112
108
77
111
107
76
112
108
77
109
104
74
109
105
75
111
108
80
114
112
84
104
101
75
105
102
76
107
105
77
116
114
83
119
116
85
119
116
86
116
114
83
118
115
85
122
120
89
121
119
88
125
122
91
127
123
92
123
119
89
131
124
96
137
130
103
131
126
99
129
125
100
127
125
100
128
125
100
127
124
100
123
123
99
121
123
98
101
104
80
91
102
80
88
100
79
85
99
79
85
102
83
82
99
80
78
94
76
79
92
72
87
95
73
97
100
76
118
118
92
130
129
100
130
129
100
130
129
100
134
133
104
132
131
102
132
131
104
168
166
142
187
185
161
186
183
161
183
180
156
181
176
151
178
173
145
170
164
132
169
163
129
166
159
126
167
160
123
164
157
119
157
150
113
140
132
96
120
111
76
122
116
81
126
121
84
156
152
113
177
172
128
178
173
128
180
172
130
178
171
133
182
177
147
192
189
165
197
196
176
196
197
178
194
196
176
194
196
175
195
197
176
200
201
181
201
201
183
202
201
182
189
188
158
179
176
138
184
179
142
189
183
147
191
186
150
173
174
140
118
129
97
108
127
96
111
132
102
110
128
99
109
132
101
97
124
91
98
121
91
92
114
82
69
98
60
31
69
27
43
82
38
103
124
86
158
164
129
152
158
124
100
122
86
134
149
114
155
167
126
84
106
59
140
161
119
137
154
117
118
138
103
105
128
92
96
127
87
47
78
40
111
140
107
134
158
131
127
144
123
124
142
120
96
114
64
91
109
58
91
109
56
97
116
60
89
109
53
86
107
55
82
105
49
80
104
45
78
102
42
74
97
41
54
72
35
22
34
7
19
25
4
20
26
10
18
26
12
15
24
8
23
33
17
24
34
16
17
27
8
21
31
11
33
45
21
32
43
19
24
34
8
21
28
8
61
66
41
128
141
93
120
134
78
110
116
58
137
134
78
150
146
94
155
157
100
157
162
98
132
138
81
72
79
36
61
69
30
79
88
35
89
98
31
99
108
34
99
107
33
110
116
42
116
124
50
114
122
56
122
127
73
140
142
93
142
143
92
141
143
89
141
143
91
142
140
91
142
137
91
133
126
84
120
113
70
117
110
60
113
106
55
127
121
67
139
133
74
142
135
75
144
136
74
144
136
74
144
136
72
142
134
69
141
133
66
142
133
66
141
132
65
139
128
62
137
126
60
133
121
56
121
111
46
109
97
32
106
93
24
117
102
29
130
115
46
180
174
119
192
187
138
187
183
135
190
186
138
184
181
140
108
109
83
113
120
96
115
122
100
112
116
99
109
118
101
105
112
96
107
114
98
103
110
94
96
103
87
110
116
100
120
127
106
116
123
101
116
123
102
104
111
89
105
112
90
109
116
94
103
110
88
106
113
92
111
118
96
116
123
101
110
115
92
103
107
82
104
107
84
123
123
101
122
122
93
138
145
94
143
155
86
130
149
56
117
138
50
92
112
48
116
123
84
121
121
91
116
116
88
116
116
88
117
117
91
117
118
92
108
110
84
118
120
94
117
118
93
114
116
90
115
116
90
114
114
89
111
111
86
116
116
90
118
118
92
119
117
91
116
113
87
118
115
89
119
116
90
118
115
89
118
116
88
113
113
82
120
119
89
122
122
91
126
126
95
124
123
92
125
124
93
123
121
90
118
115
83
129
126
93
130
125
93
133
126
98
136
129
102
133
127
101
131
127
101
130
127
101
127
122
98
131
128
103
123
121
96
125
124
99
123
124
98
99
107
85
91
102
81
93
106
86
92
109
90
84
102
83
88
107
88
74
89
69
78
88
66
115
119
96
135
136
111
136
135
107
131
130
102
134
133
105
136
135
107
136
135
107
136
134
109
144
142
117
183
180
155
185
181
156
179
174
149
178
172
145
172
166
135
164
158
123
158
150
115
152
143
110
141
133
97
128
120
81
119
111
72
125
117
78
139
131
92
140
135
97
148
144
107
172
168
130
179
174
133
179
174
133
181
175
133
180
173
137
187
182
154
192
189
168
197
196
176
198
198
179
195
196
178
193
194
176
195
196
178
199
200
182
203
203
186
200
200
179
183
183
150
180
180
141
184
182
144
191
187
154
187
181
151
167
166
138
130
135
110
123
134
110
125
136
114
124
133
111
128
139
116
130
142
117
141
150
124
145
157
127
81
107
70
44
76
34
101
120
84
151
159
125
163
164
132
127
137
100
116
135
101
153
165
132
150
162
123
76
101
50
96
119
75
103
119
84
108
130
96
125
147
112
131
161
122
54
87
47
108
138
104
110
135
109
131
150
128
137
154
131
90
109
54
87
106
51
91
111
55
93
112
56
88
107
51
85
106
52
82
104
45
79
101
42
70
91
41
51
69
30
28
37
9
26
29
6
29
28
9
25
25
8
23
25
11
26
37
21
24
36
19
15
28
7
20
33
10
33
47
22
35
48
23
24
35
10
23
33
6
20
28
7
88
94
65
134
143
97
128
137
82
115
119
60
137
132
76
152
144
94
159
150
101
159
153
101
120
118
70
81
83
44
66
72
34
78
86
34
93
102
36
99
108
34
103
111
38
110
116
44
116
123
48
118
125
56
102
106
55
66
68
31
71
73
33
73
76
33
69
70
28
61
60
19
60
56
14
72
66
25
113
107
61
129
122
69
136
129
75
135
129
71
136
130
71
139
132
72
142
133
73
142
134
72
148
140
77
147
139
74
145
137
71
143
135
68
144
135
68
140
130
64
140
129
64
134
124
57
127
119
47
122
113
42
126
114
46
130
115
49
137
123
60
170
163
111
187
181
134
185
181
134
197
193
147
184
180
141
126
127
102
123
129
105
124
131
109
127
132
115
120
129
112
109
117
101
100
109
92
102
111
94
119
127
110
99
108
91
99
112
92
105
119
97
97
111
90
102
116
95
100
114
93
96
110
89
102
116
95
103
117
96
96
111
89
95
109
88
94
106
88
91
101
86
100
108
91
108
115
89
111
119
79
155
168
102
128
145
60
119
139
55
89
109
43
80
97
61
93
105
81
92
101
78
84
93
71
95
104
83
86
94
74
89
98
76
86
94
71
93
101
78
94
101
78
88
96
73
100
108
87
103
112
92
98
107
88
87
96
76
90
99
79
91
98
77
110
113
92
113
116
95
103
106
84
103
106
84
107
110
88
113
116
91
110
113
88
115
119
93
116
120
94
120
123
97
124
124
97
129
130
102
123
123
94
127
126
97
125
122
94
131
125
101
138
133
107
132
128
101
125
121
93
130
126
98
133
130
105
129
127
102
133
131
106
128
126
101
126
125
100
119
122
100
105
112
90
92
104
83
80
97
77
76
96
76
83
103
85
72
88
69
84
93
72
112
115
92
128
127
103
137
135
108
136
135
107
140
139
111
137
136
108
132
131
103
137
135
108
143
140
113
153
149
122
173
168
142
171
165
139
163
158
129
146
141
110
134
128
96
129
123
89
144
136
104
159
151
115
162
154
115
165
158
116
168
161
117
166
159
113
160
156
113
179
176
136
177
173
134
179
173
135
181
176
138
185
178
139
183
175
139
190
185
154
191
188
165
196
195
175
198
199
180
196
197
179
192
193
175
196
197
179
199
200
182
200
199
183
190
187
167
182
179
148
177
174
140
153
150
118
146
142
115
139
137
111
139
138
115
139
141
120
136
141
122
135
140
122
145
145
125
150
147
127
148
150
126
137
148
119
91
111
79
42
78
35
98
115
82
150
155
123
156
157
126
150
157
124
112
126
88
139
152
120
161
170
139
145
157
119
69
93
45
140
155
117
158
170
138
146
163
133
138
156
126
118
145
110
67
98
59
116
145
111
117
141
115
138
156
134
134
150
128
87
108
53
83
104
49
85
106
52
82
102
49
80
100
49
80
101
45
83
104
47
67
87
38
36
52
18
15
30
12
24
34
13
26
32
11
25
29
9
25
31
11
28
39
18
23
39
17
13
30
6
18
35
11
32
50
24
34
52
25
22
36
10
23
34
8
25
35
7
22
30
8
93
100
70
136
146
100
123
132
78
119
124
63
130
130
71
152
143
95
169
150
110
161
141
103
121
109
73
75
73
38
68
72
37
66
74
25
100
109
43
96
105
33
105
113
41
109
116
44
114
121
46
121
128
58
108
113
58
64
69
27
66
70
33
56
62
26
42
47
13
45
49
11
51
52
9
96
96
50
122
118
68
127
120
66
129
122
68
133
127
70
137
131
72
142
136
76
148
139
81
149
140
80
149
141
79
147
139
76
144
136
71
138
130
65
143
135
70
150
141
77
152
142
78
147
138
73
146
139
72
149
141
75
150
139
74
148
135
72
146
133
72
159
153
104
194
188
143
182
178
132
193
189
145
190
186
149
122
123
97
121
127
103
115
122
100
124
129
112
101
110
93
99
109
92
112
122
106
113
123
106
123
133
116
115
125
108
112
124
105
98
110
92
99
111
93
105
117
99
109
121
103
105
120
100
103
118
98
105
120
100
108
123
103
92
107
87
85
99
84
89
102
91
97
109
91
102
116
78
147
162
103
132
150
67
116
136
45
92
112
37
82
100
57
89
106
85
91
108
92
76
94
75
77
96
77
80
98
80
84
102
85
78
95
77
81
97
78
78
93
74
79
95
76
83
98
79
75
94
76
69
92
75
74
97
80
75
98
81
71
94
77
72
92
76
84
98
84
83
98
84
76
90
76
81
96
82
87
100
85
90
99
83
91
100
83
92
101
84
97
105
89
97
104
87
87
93
72
108
114
93
107
112
90
113
118
95
117
120
99
104
106
87
115
116
95
125
126
102
133
134
106
130
130
102
132
131
105
133
131
106
132
130
105
133
130
105
133
130
105
131
129
106
116
119
96
101
111
89
78
95
76
73
94
75
67
89
71
71
88
70
90
100
80
116
118
96
132
130
107
138
137
110
137
136
108
138
137
109
138
137
109
136
135
108
140
136
107
138
134
105
130
126
97
136
131
103
134
128
99
139
134
104
146
141
112
169
163
134
181
175
144
184
178
144
179
172
134
176
168
128
174
167
125
172
165
121
170
163
118
181
177
136
183
179
141
178
173
136
181
176
138
182
176
139
188
181
144
181
173
137
188
183
150
188
185
159
195
194
174
198
198
181
198
199
182
197
198
181
198
199
182
199
201
183
202
199
183
187
182
162
186
182
154
174
172
141
148
145
119
142
141
119
139
140
117
141
141
119
139
139
119
145
145
128
143
141
123
146
142
122
149
146
124
139
147
119
94
119
84
36
78
36
89
117
81
140
150
117
151
152
122
154
162
130
127
143
107
106
123
84
150
156
127
152
157
127
126
141
103
76
99
55
163
172
138
144
149
123
132
144
119
143
158
132
112
136
105
79
109
71
120
147
114
132
154
129
142
160
138
144
158
136
77
97
46
76
96
47
75
94
47
76
95
49
80
99
55
76
93
53
49
64
28
26
41
9
23
37
12
22
36
15
23
35
15
25
36
15
28
37
15
28
41
16
18
36
9
14
36
5
21
44
14
32
55
26
30
52
26
13
34
10
18
33
7
27
39
12
26
37
7
23
31
7
91
98
67
133
145
99
118
129
75
113
124
59
122
129
66
145
139
90
167
146
112
162
140
110
109
97
69
56
57
23
57
68
32
66
77
28
100
109
44
97
106
34
106
113
43
110
117
46
116
122
50
121
128
59
122
130
66
83
90
39
55
62
20
61
67
33
54
59
27
54
58
20
79
80
38
113
113
61
119
116
61
129
122
68
136
129
75
139
133
76
143
137
78
149
142
83
148
139
82
144
135
75
143
135
74
147
139
76
152
144
81
153
147
82
145
137
73
135
127
64
128
119
59
150
141
78
155
149
83
155
148
83
155
146
83
155
144
82
150
138
79
191
184
136
190
183
140
183
179
136
174
170
129
200
196
160
156
157
132
120
126
102
113
119
98
125
129
112
118
128
111
122
134
117
120
133
115
114
127
109
108
121
103
119
132
114
112
124
107
118
131
113
110
123
105
109
122
104
109
122
104
102
117
98
101
116
98
103
118
100
97
112
94
98
113
94
107
122
103
100
114
98
107
120
96
138
153
99
137
155
80
122
141
52
97
116
35
88
107
52
98
116
83
85
102
87
83
101
87
84
102
84
80
98
82
85
103
88
84
102
88
87
107
92
83
105
89
76
99
83
80
103
86
71
93
77
83
107
91
78
104
87
72
98
82
67
93
77
70
96
79
72
95
80
76
95
83
79
99
87
73
92
80
84
104
92
91
108
95
99
112
99
94
107
94
88
102
89
85
98
85
86
99
86
99
112
100
96
109
95
88
99
85
86
97
83
94
104
90
81
90
79
96
105
90
97
105
85
110
117
92
129
134
107
137
138
112
135
135
109
130
128
103
137
133
108
137
131
107
141
135
110
130
130
107
113
121
99
92
109
90
73
96
77
83
106
88
90
108
90
97
107
87
106
107
87
131
127
106
134
133
106
139
138
110
139
138
110
137
136
108
140
139
111
141
137
108
143
138
108
145
140
111
154
148
119
162
155
126
165
161
129
181
178
148
190
184
157
187
181
151
186
180
146
185
178
139
182
174
135
178
170
131
178
170
132
178
170
133
197
192
156
178
174
139
179
175
138
182
177
138
185
180
140
187
180
142
181
174
137
179
174
138
183
180
152
193
192
172
197
196
181
198
199
183
198
199
183
199
200
184
201
202
186
193
193
173
182
184
154
157
160
125
149
154
117
141
147
115
141
146
119
143
147
120
143
145
121
143
141
119
149
145
125
153
148
127
147
149
125
133
146
117
87
110
77
41
74
34
83
108
72
139
151
119
150
152
123
153
154
126
141
153
121
104
127
89
127
146
107
160
162
133
160
162
133
93
109
71
93
115
71
160
165
135
154
155
133
140
148
126
138
150
127
94
115
87
93
122
84
130
156
124
139
160
136
137
154
133
138
152
130
70
89
40
69
89
42
51
71
28
35
57
17
34
55
18
29
46
19
22
40
13
25
42
16
22
39
13
21
39
12
27
41
15
28
42
17
29
44
20
23
40
17
18
42
11
33
58
16
41
65
25
39
59
30
14
31
11
6
21
6
16
27
7
33
43
14
34
42
12
23
29
7
81
87
57
131
142
95
117
126
70
112
123
57
119
131
64
139
137
82
158
140
105
157
139
112
100
94
68
55
65
30
43
64
26
54
71
25
95
103
43
103
108
39
108
112
42
113
117
48
116
121
51
120
127
58
120
130
65
119
125
70
67
68
26
61
60
21
82
79
36
102
99
53
114
111
60
122
119
64
131
127
72
139
134
79
146
140
86
146
139
84
148
139
84
149
141
83
149
142
79
150
144
79
157
150
86
158
150
89
139
131
74
107
100
47
111
102
52
144
137
82
159
151
92
157
150
89
156
151
92
152
146
89
134
127
73
112
103
54
123
116
71
200
195
152
192
185
144
159
155
117
135
132
96
197
193
160
157
160
135
122
126
103
125
129
109
130
133
117
121
126
110
99
113
91
113
127
106
125
139
119
107
119
101
101
113
96
109
126
107
118
137
117
117
135
116
108
126
106
102
120
100
105
124
105
101
120
100
102
120
100
104
121
102
103
120
103
105
119
102
116
129
107
125
140
99
146
162
98
123
142
55
108
129
42
85
105
44
111
128
93
94
113
90
89
109
94
92
110
97
89
106
91
84
103
88
86
105
90
90
109
95
80
102
86
70
94
78
84
107
91
79
103
87
84
108
92
91
115
99
80
104
89
78
102
88
73
97
83
73
97
82
60
83
69
70
92
78
93
114
99
91
111
97
86
104
91
94
111
98
97
111
98
103
117
104
101
115
102
97
111
98
94
107
94
94
108
95
102
114
101
89
102
88
101
113
100
98
110
96
96
105
93
98
107
92
106
114
97
103
112
91
103
111
88
118
123
97
130
133
107
136
135
109
140
137
111
141
135
109
139
133
106
135
133
109
127
131
109
117
127
108
88
108
90
91
113
96
90
109
90
95
109
90
97
105
86
110
114
95
111
113
90
109
110
85
133
132
106
158
156
126
166
163
132
166
163
132
170
165
135
170
165
135
168
161
132
169
162
133
182
179
150
190
188
159
189
184
156
187
182
153
186
180
148
186
178
143
183
175
139
179
173
134
174
168
130
192
187
156
194
188
160
180
175
144
181
175
142
185
178
141
191
183
145
191
182
142
186
177
138
168
163
125
168
165
132
187
186
163
195
196
177
197
199
181
198
199
182
200
201
183
198
199
178
187
188
161
178
182
146
136
144
106
112
123
84
92
107
67
91
107
68
99
114
76
120
132
95
127
135
101
132
137
106
129
136
105
105
123
89
62
93
55
45
80
39
111
130
92
153
161
127
152
158
127
146
149
119
157
161
127
119
140
100
99
126
84
145
160
123
155
153
124
152
157
126
59
82
43
126
147
107
163
163
139
165
163
142
151
158
134
131
147
119
81
103
73
113
139
105
131
155
125
139
158
134
135
152
131
147
161
142
66
84
40
53
74
30
31
55
11
28
54
11
31
58
16
32
55
20
24
45
12
23
44
12
27
49
16
32
53
21
37
52
21
32
48
16
25
44
14
22
45
14
33
59
20
40
66
20
44
67
27
20
36
11
10
23
7
9
19
8
14
21
6
34
42
14
40
47
18
29
34
12
70
75
47
131
142
94
118
125
69
121
130
64
128
140
71
137
139
78
145
134
91
146
133
104
62
59
35
54
66
34
53
76
40
50
69
27
91
99
43
104
108
41
108
109
42
110
112
46
115
119
52
121
125
60
119
126
66
125
125
74
84
79
38
98
92
48
116
110
58
122
116
64
130
124
70
137
132
77
144
140
85
145
141
86
144
139
83
147
140
84
149
142
85
151
144
83
152
148
78
155
150
86
142
134
78
105
95
48
88
77
34
137
128
81
159
151
100
158
152
100
156
151
98
140
136
84
103
101
59
75
74
32
73
72
33
75
74
37
141
140
107
204
201
162
192
185
146
149
146
110
121
121
88
143
140
107
170
172
141
124
126
97
131
133
106
137
139
114
126
128
105
122
131
107
123
135
112
108
121
100
101
117
96
102
120
100
103
120
101
108
126
107
102
121
101
105
124
104
107
126
106
91
111
93
89
108
88
101
120
98
103
121
101
118
134
116
116
129
111
111
126
92
146
163
105
122
141
62
109
129
40
82
102
26
103
121
78
96
112
91
93
110
95
99
119
103
98
118
103
102
120
106
100
119
105
89
110
95
93
115
100
90
112
96
80
102
87
84
107
91
84
107
91
87
110
94
87
110
95
80
104
90
74
97
83
67
90
77
77
100
86
82
105
91
83
107
91
91
114
98
89
110
95
89
107
93
101
117
104
98
112
99
107
121
108
99
113
100
106
120
107
103
116
102
101
112
96
110
121
105
109
120
104
106
117
101
109
119
103
109
115
101
104
111
95
107
114
98
107
114
98
113
120
101
117
126
101
136
141
116
136
136
111
137
135
109
141
136
110
144
140
111
140
138
113
141
141
119
121
127
107
102
118
98
93
113
94
97
115
97
87
102
84
98
111
92
100
110
90
111
114
94
145
147
124
167
166
140
168
166
135
169
166
132
168
165
133
168
164
133
168
163
133
164
158
129
177
170
141
190
187
161
189
188
160
189
185
156
187
182
152
185
178
148
181
174
139
178
170
134
174
169
130
172
168
129
199
195
168
187
182
157
183
178
148
182
176
144
193
185
150
198
188
152
197
187
147
180
171
131
171
165
128
174
170
135
184
182
156
191
192
171
194
196
176
200
200
183
202
202
182
195
195
170
185
182
153
189
184
153
179
177
145
150
151
118
138
142
108
137
145
106
126
137
94
113
126
85
84
105
60
64
91
46
60
94
50
47
87
44
74
101
64
119
140
102
143
159
121
144
155
119
151
163
130
138
151
117
108
126
86
62
105
53
80
109
67
156
164
130
165
166
134
122
134
100
74
97
60
149
166
130
161
162
136
171
166
142
163
167
139
133
151
118
65
90
55
129
151
122
136
155
129
144
162
139
142
157
138
137
150
133
40
61
22
27
50
8
35
58
14
49
74
26
48
74
24
44
67
22
41
64
20
42
65
21
41
64
20
41
63
20
41
58
21
34
52
14
28
49
9
41
66
22
51
78
29
52
76
35
24
43
12
10
25
5
13
24
11
12
20
9
12
19
6
20
29
4
38
43
19
33
38
18
61
65
40
130
138
93
123
130
73
130
139
73
130
142
73
134
141
79
127
126
76
100
96
66
46
49
23
40
52
24
40
59
29
48
64
26
89
96
43
107
111
47
107
107
42
107
109
45
116
118
56
120
121
64
121
120
66
121
112
65
110
96
53
121
111
65
126
120
68
131
125
73
138
132
78
141
136
81
143
138
83
145
140
85
148
143
86
149
144
85
151
146
85
154
150
88
145
142
84
101
96
49
79
71
29
106
97
59
162
153
110
158
150
98
157
151
101
140
136
90
95
93
53
72
72
32
54
59
26
62
66
35
73
76
45
79
82
52
182
184
154
198
194
156
193
187
146
133
131
96
108
109
79
117
117
83
167
167
124
186
186
144
190
189
148
186
186
146
184
183
145
168
168
138
145
147
119
126
133
106
107
119
92
107
123
96
112
125
103
116
129
108
110
124
105
108
123
106
101
117
100
101
118
99
106
124
102
92
109
87
97
113
92
108
123
103
112
125
100
138
154
105
130
151
78
114
136
46
95
115
30
92
110
60
108
124
95
100
114
100
101
117
105
99
116
101
101
119
105
105
122
108
100
118
104
99
118
104
94
115
100
97
119
103
96
119
103
96
119
103
93
116
100
89
112
96
89
111
97
89
111
98
84
106
93
77
99
86
86
108
95
82
105
91
91
115
99
92
115
99
102
123
108
94
112
98
101
118
104
102
116
103
99
113
100
107
121
108
98
112
99
93
106
92
118
129
113
119
130
114
117
128
112
108
119
103
98
108
92
103
109
95
109
115
101
103
110
95
112
119
103
114
121
103
110
118
96
136
141
118
143
144
119
139
137
111
142
137
110
142
139
110
145
144
116
146
144
121
132
134
113
109
120
98
94
109
91
91
105
87
100
111
93
113
122
101
135
141
119
157
159
136
167
168
142
166
165
137
165
163
132
167
164
130
166
163
131
166
163
132
167
163
132
166
161
131
187
182
152
191
188
162
189
188
160
189
185
156
186
180
151
182
175
145
179
172
135
177
171
132
175
170
132
180
176
143
198
194
172
185
180
155
184
179
150
190
184
152
197
188
154
197
188
152
192
182
143
189
180
144
181
174
140
158
154
121
156
153
125
190
189
166
191
193
173
196
197
179
197
196
176
187
187
162
185
182
153
189
182
153
177
172
143
148
144
116
149
146
118
150
148
118
145
148
112
141
156
115
97
123
79
39
73
24
69
97
57
115
139
103
145
158
124
128
136
103
101
118
82
90
114
76
79
102
66
79
104
67
102
129
86
77
113
63
133
149
110
162
166
133
150
161
126
75
95
59
127
143
107
163
169
136
159
163
132
173
168
140
175
174
143
131
149
113
88
113
77
149
165
137
145
160
135
136
150
128
139
152
134
133
146
128
33
58
20
33
57
16
57
81
35
58
82
31
61
84
29
53
75
25
53
75
25
51
74
24
48
70
20
45
67
17
44
64
20
38
59
15
42
65
16
56
80
27
54
80
28
37
56
23
12
28
7
11
23
9
14
22
11
15
21
9
17
23
10
14
22
2
27
32
11
37
42
23
52
56
34
130
136
93
128
135
79
132
139
74
130
142
73
132
145
81
131
141
87
66
73
37
48
56
32
47
59
34
40
55
26
49
62
26
91
98
48
108
111
50
111
111
49
112
113
53
115
115
58
121
118
66
119
110
62
123
103
61
120
96
57
128
113
69
131
125
73
136
130
78
139
134
80
142
137
82
145
140
85
144
139
84
147
142
87
149
146
89
149
146
89
114
112
61
70
66
26
74
70
30
117
112
72
164
159
110
158
153
100
151
145
97
103
99
57
70
69
30
63
65
30
65
70
38
72
77
47
73
76
46
77
78
48
109
109
79
202
200
169
195
190
151
186
181
138
133
131
97
101
104
77
120
122
88
163
160
112
180
177
128
190
186
137
195
192
143
194
190
142
194
189
147
194
190
151
190
189
151
182
182
145
160
161
125
137
142
113
128
134
109
123
131
109
117
128
108
108
121
104
102
118
96
109
125
103
116
130
109
109
123
102
105
119
96
126
139
98
134
150
89
121
143
56
101
124
37
82
102
36
92
108
76
100
114
99
100
113
103
109
123
111
103
119
103
105
120
106
104
119
106
105
120
107
104
120
107
96
113
100
86
106
91
95
116
101
91
112
97
98
119
104
106
127
112
96
117
103
92
114
101
92
113
101
90
111
98
93
115
102
93
115
101
93
117
101
88
111
95
101
121
106
106
124
110
100
117
103
97
111
98
104
118
105
108
122
109
105
119
106
114
127
114
114
125
109
102
113
97
108
119
103
111
122
106
106
116
101
103
109
97
95
101
88
115
121
107
122
129
114
115
122
106
114
121
102
120
125
103
135
136
113
143
140
115
149
144
116
151
149
119
147
146
118
145
141
117
140
138
115
126
133
109
86
97
80
92
101
85
103
110
91
134
138
116
163
166
142
164
164
137
162
162
133
161
161
130
164
165
131
167
167
132
168
167
135
165
163
132
164
161
130
160
156
126
172
168
138
185
182
155
183
182
154
182
178
149
176
171
142
177
170
140
178
172
136
176
172
133
175
171
136
182
178
150
191
189
167
184
179
154
188
183
153
192
186
154
195
187
152
195
185
149
191
183
146
163
156
122
130
124
93
113
108
76
186
182
151
189
187
162
189
190
170
193
192
174
191
188
170
183
182
157
187
183
155
188
181
153
175
169
141
145
141
112
153
150
121
152
152
121
136
146
111
88
108
70
70
92
53
112
123
86
154
156
124
159
159
133
157
159
131
156
162
132
147
157
125
146
156
123
155
162
131
155
167
133
139
157
117
95
114
71
163
171
133
171
175
142
123
136
102
92
110
75
158
169
134
168
167
136
165
169
137
168
165
135
179
177
146
105
123
87
115
136
101
161
169
144
160
168
145
146
156
136
132
144
126
126
139
122
37
65
24
51
77
35
71
96
48
65
87
37
67
86
34
57
79
26
56
79
26
55
78
25
56
78
25
52
75
21
48
70
21
57
79
32
66
89
36
59
84
29
56
79
33
15
31
8
19
32
18
17
27
17
18
25
15
20
24
12
20
25
14
15
22
7
14
19
2
21
25
8
37
41
21
130
135
93
132
137
81
131
138
73
129
141
72
128
145
80
123
141
86
73
86
51
46
58
35
45
58
33
55
69
37
46
58
21
78
85
37
110
112
54
116
115
56
112
113
55
113
114
57
124
118
66
121
105
60
123
94
57
120
87
56
131
111
71
131
125
73
136
130
78
136
131
76
140
135
80
144
139
84
149
143
88
156
151
98
139
136
87
89
86
42
71
68
23
74
71
30
133
131
87
161
158
107
154
151
96
129
125
75
83
79
39
75
73
34
73
75
40
68
73
42
62
69
40
68
73
44
80
83
52
88
89
56
154
153
119
201
198
162
198
191
153
174
169
124
124
123
88
111
116
92
113
117
85
165
158
112
179
171
123
185
177
130
190
182
134
189
181
132
190
184
136
191
184
138
191
185
141
185
180
138
177
173
132
174
175
138
160
163
130
135
140
111
121
128
106
117
127
108
107
121
104
108
122
105
113
126
107
115
128
102
117
131
96
144
158
104
116
135
58
119
140
54
88
109
38
103
120
82
102
115
100
102
116
105
101
114
102
106
118
106
103
115
101
107
119
106
105
118
106
106
120
107
99
114
101
95
111
98
97
115
101
98
118
104
91
112
97
95
115
101
98
119
104
95
115
102
92
112
100
91
111
99
94
114
102
99
119
107
93
114
101
84
107
92
90
113
97
81
101
86
99
116
103
115
132
118
115
129
116
114
128
115
107
121
108
109
123
110
113
127
113
112
123
107
106
117
101
108
119
103
106
117
101
106
116
100
112
118
106
115
121
109
110
116
102
114
120
106
116
122
108
108
115
98
111
116
96
129
130
107
141
139
113
140
136
107
145
144
114
149
149
119
151
145
119
147
141
117
136
138
113
118
125
109
118
124
108
117
121
101
158
160
137
163
163
137
166
165
135
159
158
127
164
164
132
167
168
134
166
168
132
162
161
129
158
157
126
157
155
124
144
141
110
134
131
101
124
122
95
123
122
94
124
120
92
124
119
90
126
119
90
155
149
116
157
152
116
155
151
119
175
172
148
191
190
164
187
183
155
187
182
153
187
181
150
186
178
143
164
155
119
136
129
94
112
105
75
119
112
85
132
126
95
186
181
147
195
192
165
195
194
175
190
189
171
188
185
167
185
184
159
186
181
155
185
180
153
172
171
140
142
145
108
144
150
111
113
121
83
88
99
63
114
127
92
141
152
118
153
154
124
166
160
135
157
152
129
155
155
130
163
166
138
164
164
137
163
161
133
165
165
136
164
165
135
121
128
91
157
165
124
169
175
137
149
159
125
80
94
59
147
156
122
166
168
136
170
169
139
169
170
141
171
170
142
172
172
143
77
98
62
143
163
128
171
173
150
160
162
141
162
169
150
145
156
138
140
153
135
44
67
27
75
97
55
75
96
51
73
93
45
69
88
38
62
83
29
60
81
28
56
77
24
54
76
23
52
74
21
63
88
37
75
99
51
74
98
46
71
93
44
39
57
23
20
32
16
20
30
18
22
30
20
23
30
19
20
26
13
17
24
11
21
29
13
24
31
15
23
30
12
27
33
13
117
123
84
130
137
83
134
144
77
132
143
78
122
137
81
89
104
62
25
39
10
41
54
29
60
73
45
66
79
46
64
77
41
68
76
33
109
111
59
119
117
60
115
114
56
119
113
60
124
110
64
122
98
57
123
90
56
119
85
54
130
109
69
131
124
71
137
131
78
139
134
79
144
140
85
148
145
91
148
147
96
111
110
65
73
72
28
73
73
30
81
81
42
140
139
96
156
155
108
138
138
89
97
96
50
72
72
29
75
77
40
71
75
40
67
72
40
71
78
48
68
75
48
75
81
53
76
81
51
84
85
53
189
189
154
195
193
155
201
195
156
171
165
123
121
120
87
106
111
86
114
118
88
160
151
107
176
167
121
186
176
130
188
179
132
186
177
131
186
178
133
189
182
137
191
185
141
188
182
140
185
179
138
181
178
139
175
175
137
170
171
138
154
157
129
129
133
109
110
118
102
104
116
101
97
112
91
111
129
88
140
159
100
115
132
59
129
147
66
103
121
46
95
112
64
107
121
99
112
125
115
113
125
115
109
122
110
108
120
109
108
120
109
106
118
105
105
117
104
100
113
99
103
116
102
87
101
87
93
107
94
107
121
110
108
125
113
105
124
111
94
115
101
96
116
103
92
111
99
94
113
101
99
118
106
90
109
97
90
109
96
97
117
102
98
118
103
96
113
99
113
130
116
113
129
116
108
121
108
112
124
112
120
132
120
112
123
111
114
125
113
108
120
106
108
119
105
109
121
107
103
114
100
108
118
106
113
120
108
116
123
112
112
119
107
115
122
110
105
112
100
113
120
107
109
115
98
121
125
103
148
149
123
147
145
117
144
144
114
139
138
108
147
144
116
146
142
115
144
144
116
132
134
113
120
122
103
119
120
101
162
163
142
164
164
140
167
165
138
162
161
133
152
153
124
156
157
127
155
154
124
143
141
112
134
131
103
120
117
89
111
107
79
106
102
74
103
102
73
106
104
75
108
104
75
108
104
74
131
125
95
154
149
117
153
149
115
155
152
120
182
178
151
188
186
158
187
182
152
186
179
149
172
164
134
133
124
92
112
102
69
110
102
69
109
103
73
114
108
80
144
139
109
178
173
141
193
191
164
197
196
176
194
192
174
195
193
175
191
189
167
186
182
156
182
183
153
135
141
109
99
110
73
102
115
76
127
134
101
151
151
124
149
149
123
148
147
123
159
158
135
164
161
139
154
152
130
154
153
130
157
156
133
158
158
134
161
161
136
163
162
137
162
160
135
158
159
131
172
175
144
165
168
138
101
109
79
140
143
116
168
167
139
172
169
142
169
169
142
175
171
149
178
178
154
157
163
135
75
93
59
168
179
146
182
177
155
179
179
157
169
174
152
158
165
143
149
158
136
80
98
59
82
100
59
80
99
54
76
96
48
69
89
39
66
86
33
60
80
27
54
74
22
54
74
23
70
91
41
85
111
61
81
106
58
85
107
59
57
74
34
27
40
17
24
33
19
22
30
17
21
29
16
22
30
17
24
32
19
23
33
17
21
32
15
21
32
14
30
42
22
31
42
22
93
100
65
127
137
83
135
148
81
125
137
78
76
85
50
35
45
22
44
56
31
54
67
40
58
71
40
58
72
38
62
76
41
50
59
21
94
96
48
121
118
63
119
114
57
122
110
61
123
101
62
125
96
60
128
95
62
120
89
56
128
108
66
138
131
78
140
135
80
146
141
87
148
145
91
143
141
91
75
76
40
63
64
24
66
67
25
93
93
56
146
146
106
148
146
107
107
105
69
78
78
39
70
70
31
74
77
38
76
83
46
76
82
48
72
78
45
74
79
49
75
81
52
79
83
55
79
83
53
116
117
86
206
206
170
197
195
157
197
191
152
169
162
123
123
122
89
112
117
91
114
117
89
155
147
104
171
163
117
182
174
128
188
180
133
181
173
127
173
166
123
177
169
127
182
175
133
189
182
139
189
182
140
186
180
138
184
178
139
180
176
139
179
176
142
173
171
140
153
154
130
109
117
94
92
107
75
136
156
101
124
143
66
132
146
65
120
135
57
92
109
44
110
127
88
102
119
102
106
119
108
108
120
108
106
119
106
103
115
103
109
121
109
98
112
98
98
114
99
105
121
106
111
127
112
101
118
103
94
109
96
102
118
106
100
116
104
98
116
103
98
117
105
96
115
102
83
101
87
102
120
106
101
120
106
96
114
100
107
125
111
97
114
100
94
112
98
109
127
113
115
133
119
115
131
118
114
129
116
104
118
105
110
122
110
117
127
116
119
130
118
111
125
112
103
115
103
97
109
97
102
112
101
113
123
112
103
111
100
111
119
108
102
110
99
100
108
97
116
124
113
114
121
110
113
122
107
105
114
94
121
124
101
140
139
114
144
143
114
141
140
111
135
134
105
141
140
110
140
139
110
144
142
115
132
131
109
116
115
97
140
141
123
143
145
124
128
126
106
110
111
90
89
93
70
92
94
71
110
109
84
112
109
82
110
106
79
107
104
77
106
103
75
106
103
75
103
101
73
102
101
72
104
100
71
105
101
71
147
142
112
153
150
116
157
154
121
163
159
128
180
176
148
184
180
153
182
176
146
153
146
115
117
109
78
118
108
78
116
106
75
114
106
76
117
110
81
123
118
88
146
141
111
177
173
143
195
194
167
198
197
176
195
194
177
197
194
178
194
192
171
194
190
165
190
187
157
152
155
125
137
143
110
145
150
119
155
156
130
160
155
135
162
157
137
157
152
132
166
161
141
163
159
139
155
154
133
157
156
135
168
167
146
163
162
141
162
161
140
160
158
137
171
169
148
172
170
149
173
171
150
149
148
127
124
126
103
174
171
149
171
166
144
172
169
146
174
172
149
175
169
150
170
173
148
120
133
104
111
127
93
167
176
141
169
169
142
172
176
148
175
182
153
171
182
151
171
182
151
91
109
68
83
102
59
76
96
49
72
92
42
72
92
40
73
93
40
69
89
36
62
82
31
72
92
42
92
113
63
92
117
67
82
107
58
59
78
38
26
41
12
28
40
20
29
37
23
26
34
21
23
31
18
24
32
19
26
34
21
28
39
22
26
39
21
26
38
20
30
43
23
34
47
27
67
77
41
122
132
81
124
136
80
73
85
39
48
57
33
50
61
41
43
55
31
56
69
41
56
69
38
55
69
35
57
69
34
62
71
34
76
80
37
111
110
61
123
118
65
122
110
62
121
99
60
124
95
59
125
92
59
121
90
57
133
113
72
137
130
80
140
134
83
139
134
83
139
136
84
97
95
51
63
61
22
70
68
29
123
121
82
153
152
108
123
121
83
79
75
41
78
75
38
74
72
34
69
67
29
74
73
35
73
75
37
78
81
44
84
86
52
95
96
65
75
77
46
80
81
50
92
93
61
143
143
110
201
199
162
206
204
166
193
188
147
171
165
124
137
135
102
115
118
91
115
116
88
150
142
100
172
163
119
176
168
122
185
177
130
183
175
129
174
165
122
170
161
118
166
157
114
169
160
117
178
169
126
186
175
132
190
179
136
189
180
139
184
177
138
175
170
133
172
168
136
155
154
119
173
175
130
171
176
114
156
162
85
136
143
63
112
121
48
105
117
61
106
122
86
102
121
104
111
127
114
106
122
106
103
119
103
106
122
106
104
120
104
107
125
110
104
122
108
95
113
99
94
112
98
96
114
100
108
126
112
108
126
111
98
117
101
94
114
98
95
116
99
82
103
88
92
112
98
104
124
110
100
120
105
101
122
107
101
121
106
104
122
108
101
119
105
111
129
115
101
119
105
103
121
107
110
127
113
106
122
109
112
128
115
102
117
104
107
122
109
113
127
114
112
125
113
108
120
108
116
127
116
99
110
99
104
114
103
110
119
108
105
114
103
109
118
107
100
109
98
96
104
94
97
107
94
102
112
94
113
117
97
132
132
110
141
139
113
142
140
114
146
144
118
150
148
122
137
136
110
140
138
113
136
134
113
119
118
98
98
98
80
84
86
67
83
84
66
84
88
69
84
91
70
82
87
66
96
97
76
104
103
75
108
107
77
108
107
77
105
104
74
107
106
76
107
106
79
105
104
77
111
109
81
128
125
96
152
148
119
156
154
123
163
161
130
169
167
137
174
172
144
174
171
144
164
160
130
126
120
90
118
112
81
119
111
82
115
107
78
115
108
80
121
115
87
127
122
93
122
117
88
161
157
128
195
194
168
198
198
178
196
195
179
196
193
178
196
193
174
197
192
167
198
192
163
182
179
149
155
153
124
159
158
130
165
161
137
164
159
139
159
154
134
157
152
132
167
163
143
164
160
140
160
158
137
157
155
134
157
155
134
164
162
141
170
168
147
171
169
148
171
169
148
164
162
141
167
165
144
174
173
151
173
173
149
169
167
144
159
155
133
170
165
143
169
166
143
176
172
148
164
170
142
80
96
64
137
157
119
151
167
129
144
152
119
140
147
114
135
147
113
126
147
110
125
151
112
87
105
61
80
99
53
73
92
44
74
94
42
72
92
38
71
91
38
70
90
39
72
91
41
94
114
65
107
127
78
94
118
69
66
88
45
30
48
16
28
42
18
29
39
19
33
42
26
31
39
24
29
37
22
28
36
21
26
34
19
25
38
20
27
41
22
34
48
29
37
50
30
39
52
32
45
56
24
83
93
56
68
79
44
48
60
30
48
61
34
51
63
39
52
64
40
56
69
42
60
73
42
62
76
41
56
68
35
59
68
35
61
66
30
79
78
38
122
117
70
123
110
65
122
100
61
119
91
55
123
90
57
123
92
58
131
111
71
133
125
79
129
123
76
125
119
73
97
93
49
75
71
23
99
96
51
148
144
98
149
146
101
102
99
57
80
76
36
86
79
42
84
79
41
85
81
43
91
87
49
91
88
49
90
88
48
95
92
53
94
91
54
103
99
65
108
105
72
101
98
63
100
96
61
171
168
132
199
196
158
204
200
162
196
192
150
171
165
124
131
129
94
119
119
92
129
127
99
146
138
97
166
157
114
176
168
124
183
175
129
184
176
130
179
170
126
175
165
121
171
161
118
169
159
115
167
157
113
170
157
113
174
161
117
182
171
127
184
175
133
183
176
133
179
172
133
168
160
114
210
201
143
204
197
129
174
169
96
155
154
81
108
109
45
112
117
73
123
132
104
121
133
114
111
125
109
112
127
111
110
125
109
106
122
105
95
110
94
101
115
99
98
112
96
100
113
97
109
123
106
110
124
108
111
124
108
109
122
105
111
128
110
105
125
106
100
123
103
85
105
87
95
110
95
110
125
110
109
124
109
102
117
102
102
116
102
105
120
107
110
125
112
113
128
115
112
127
114
107
121
108
99
114
101
110
125
112
108
124
111
103
120
106
97
113
100
104
120
107
108
123
110
115
129
116
114
126
114
100
112
100
95
105
94
101
111
100
104
114
103
111
121
110
115
125
114
106
117
108
90
102
90
102
114
99
110
116
100
133
134
117
140
138
114
138
136
111
138
136
111
146
144
120
148
146
122
146
144
121
142
141
118
134
133
111
111
113
92
97
98
82
87
91
77
83
91
76
79
90
73
85
94
76
84
89
72
101
102
77
110
110
84
108
108
81
109
109
82
110
110
84
111
111
86
108
108
82
111
110
84
135
133
106
152
149
121
158
156
128
170
169
142
173
171
145
172
171
144
166
165
138
156
154
125
120
117
87
114
111
81
116
111
82
118
113
84
124
118
91
125
118
93
125
119
93
120
114
89
140
135
109
196
195
171
197
198
178
196
196
180
197
195
180
198
197
178
196
192
166
199
193
161
190
182
154
159
152
125
157
150
126
160
154
132
163
158
138
169
164
144
166
161
141
160
155
135
157
153
132
165
162
141
171
168
147
163
160
140
156
153
133
163
160
139
167
165
144
173
171
150
172
170
149
172
170
149
170
168
147
171
169
146
172
170
147
170
168
145
175
170
148
171
165
143
169
167
139
149
158
126
85
101
67
130
145
108
114
125
89
134
138
105
151
152
121
147
160
125
69
95
57
75
107
66
89
108
63
78
97
50
69
89
38
70
90
35
71
92
36
72
92
40
72
91
41
78
98
50
107
127
78
107
126
80
88
110
65
38
57
27
37
51
30
33
46
21
34
44
20
34
43
26
31
39
24
28
36
21
27
35
20
29
37
22
27
40
22
26
42
23
33
48
29
31
46
25
32
47
26
40
52
25
48
58
32
47
58
37
51
64
41
52
65
39
52
65
39
48
60
35
45
58
31
55
68
37
58
72
37
53
65
32
57
66
35
59
65
34
52
54
19
98
91
52
127
112
70
128
106
67
120
92
55
126
93
60
122
91
57
105
83
46
71
63
20
79
72
28
72
66
21
83
79
35
133
129
85
156
151
103
127
121
77
91
85
39
91
85
40
97
90
45
95
88
45
99
92
49
96
91
48
93
90
46
102
97
54
105
99
56
105
99
58
106
99
60
111
104
67
114
106
70
124
118
81
118
113
75
177
172
135
209
205
165
205
202
161
199
196
152
176
170
127
141
138
103
134
134
106
141
136
109
148
139
99
160
151
108
177
168
125
183
174
130
183
175
129
186
175
130
182
171
126
177
166
121
173
162
117
171
160
115
171
159
117
167
155
113
167
158
115
170
163
120
174
168
125
182
174
131
168
165
110
154
154
84
122
120
53
111
103
38
131
124
63
143
138
86
155
151
116
158
157
132
155
156
133
135
139
118
133
138
118
131
136
116
131
136
116
139
143
123
124
128
109
126
129
111
125
128
110
134
136
118
138
140
123
140
142
126
129
131
115
128
133
116
127
135
117
120
130
112
113
123
107
116
125
112
119
127
114
114
122
109
114
123
110
118
127
114
120
129
118
113
122
111
107
115
104
103
112
101
105
115
104
109
120
109
105
117
105
99
112
100
101
115
103
117
131
118
108
124
111
101
117
104
100
114
101
105
119
106
104
116
104
107
117
106
110
120
109
104
115
104
98
108
97
102
112
102
105
116
108
99
112
101
102
115
102
106
113
99
121
123
109
141
140
117
147
145
122
143
141
119
141
139
116
141
139
116
145
143
122
144
143
120
144
144
120
131
133
112
109
110
95
96
103
91
92
103
91
86
99
85
83
95
80
77
85
71
92
94
74
109
110
89
109
110
90
114
115
94
111
112
91
115
115
93
116
116
92
113
112
88
123
121
97
150
148
123
163
162
138
174
173
148
173
173
147
174
174
148
172
171
146
140
140
113
115
114
86
115
114
86
118
116
88
124
121
93
122
116
91
126
119
96
126
120
96
132
126
102
136
132
107
196
196
173
197
199
181
196
197
183
196
195
181
198
197
179
196
195
168
199
195
161
195
188
157
172
163
138
160
154
131
160
155
133
159
154
134
163
158
138
170
165
145
171
166
147
161
156
136
163
158
138
167
162
142
164
159
139
168
163
143
175
171
151
167
165
144
166
164
143
173
171
150
171
169
148
171
168
147
174
169
147
173
172
149
170
169
145
178
173
151
178
171
148
175
176
144
111
120
88
132
143
108
178
183
148
178
179
145
180
178
149
183
182
153
150
160
128
79
101
66
154
172
137
80
100
55
70
91
45
64
86
36
65
88
34
68
91
35
61
80
37
53
72
29
95
112
70
112
128
84
104
119
78
52
69
34
32
47
22
30
42
22
37
49
23
44
54
28
37
47
27
32
43
25
25
39
21
30
44
27
37
50
33
33
50
31
28
46
26
29
46
27
27
42
22
33
47
27
46
58
33
48
60
34
43
55
31
46
59
35
49
62
37
43
57
31
48
62
35
46
59
30
53
66
34
53
66
32
62
72
40
57
68
38
59
68
38
61
63
31
77
73
35
117
103
65
129
104
70
128
99
67
128
98
68
127
97
67
115
91
57
81
69
28
77
68
25
97
87
45
146
139
93
143
138
94
108
100
62
90
81
42
91
83
41
86
78
34
96
88
43
100
92
48
106
98
55
105
97
53
96
89
45
100
93
50
108
100
58
111
104
63
113
105
65
109
101
63
111
103
65
117
109
70
129
121
82
190
183
144
213
207
167
209
204
164
205
201
161
179
173
134
136
131
96
144
140
109
150
144
113
147
137
101
148
139
100
166
157
115
179
171
126
182
174
128
187
176
131
187
176
131
183
172
127
180
169
124
178
167
122
175
165
123
171
161
119
169
159
116
168
161
117
166
162
117
163
159
114
154
158
96
122
134
56
85
91
10
99
91
31
136
125
72
148
139
96
159
150
119
160
152
129
163
157
134
163
158
134
165
160
135
158
154
129
149
146
120
152
149
124
151
149
126
149
146
125
152
149
128
145
142
121
150
146
126
159
154
136
151
146
128
153
149
131
141
137
119
142
139
121
147
146
129
143
143
128
145
144
129
136
136
120
137
137
122
139
140
124
138
140
125
148
150
135
145
147
131
130
132
116
136
137
122
139
140
127
128
135
121
117
127
114
111
122
111
112
125
113
97
114
101
98
115
103
110
125
113
108
123
111
103
117
105
107
118
108
107
119
109
98
111
100
93
107
96
76
91
80
74
90
80
91
107
96
100
116
104
100
113
100
105
115
101
122
129
107
139
140
119
149
144
125
149
145
124
149
147
125
144
142
120
145
144
120
142
142
117
144
143
122
129
128
111
99
107
94
93
104
92
101
114
102
96
109
97
84
94
84
95
100
86
108
111
97
114
117
102
115
117
102
118
120
105
119
122
104
121
124
104
121
124
103
120
120
99
144
144
122
167
168
145
175
176
153
174
174
150
174
174
148
175
175
148
133
133
106
121
120
93
119
118
91
122
121
94
121
120
93
123
118
94
123
118
95
123
120
96
136
130
107
137
133
109
196
196
173
197
199
179
198
197
181
198
195
180
199
196
176
198
195
167
200
197
161
200
194
161
173
165
137
156
149
126
157
151
130
163
157
137
170
163
144
162
155
136
154
148
129
167
160
141
171
165
146
168
162
143
161
156
136
170
165
145
168
163
143
168
164
144
169
166
145
170
167
146
167
164
143
160
156
136
167
164
141
176
176
152
175
173
149
180
174
152
175
169
145
157
161
127
79
92
58
166
174
140
178
176
145
173
169
139
180
176
148
182
182
151
101
109
79
142
152
122
179
182
156
67
90
60
61
85
53
56
80
45
48
72
34
42
66
26
47
66
37
50
68
32
116
132
91
110
123
84
78
88
56
42
52
26
40
50
25
39
49
24
44
54
29
41
50
26
45
56
34
47
62
40
28
49
27
25
46
26
26
45
26
26
47
27
32
52
32
37
54
35
34
47
29
38
48
31
46
58
34
48
62
34
50
64
36
48
62
34
46
60
32
47
62
34
45
61
32
49
64
34
61
73
43
58
68
36
56
68
35
55
69
37
68
78
47
76
78
46
80
79
42
94
85
49
126
104
73
126
101
71
129
104
74
124
96
69
113
86
56
82
68
27
108
97
56
156
144
99
136
127
79
98
92
45
89
81
43
93
85
48
94
86
48
98
90
51
97
89
49
100
91
50
96
87
46
105
96
55
111
102
61
109
100
60
111
103
64
107
99
61
112
104
65
116
108
69
121
113
74
117
109
70
128
120
81
206
198
160
219
211
172
220
212
173
211
205
168
165
159
123
133
127
91
138
132
98
148
142
108
151
140
107
147
137
102
164
155
115
174
165
121
183
175
129
183
172
127
182
171
126
184
173
128
184
173
128
183
172
127
179
171
127
177
167
124
176
164
122
172
163
119
164
161
115
156
160
106
162
171
105
107
116
36
87
89
14
135
126
69
147
135
99
164
153
122
169
160
131
169
161
135
161
155
132
161
155
131
166
160
134
164
160
133
155
151
124
152
149
122
148
146
121
149
144
122
155
150
128
158
153
131
161
155
133
155
149
127
155
149
127
160
154
132
156
151
129
149
144
122
143
139
118
147
142
122
155
150
130
157
152
132
156
151
131
150
145
125
146
142
122
153
148
128
153
149
129
157
153
133
152
147
127
146
142
123
134
136
119
117
125
110
120
130
118
113
124
114
102
120
108
101
119
107
106
122
111
113
129
118
114
130
119
107
120
111
101
115
106
98
114
104
82
99
89
81
100
90
75
95
84
66
86
74
65
85
73
85
106
91
96
116
100
109
126
105
133
139
119
138
133
114
146
140
120
150
147
125
150
148
123
145
143
119
143
141
118
145
143
121
142
141
120
120
128
111
113
123
108
106
117
104
88
99
89
82
94
85
91
100
90
98
106
94
107
112
100
106
109
96
105
107
94
114
120
106
113
120
105
113
120
104
113
118
102
130
135
118
160
163
143
172
174
152
174
175
151
179
179
154
170
169
143
125
123
97
126
124
99
116
114
89
120
118
93
126
124
99
128
125
102
123
121
98
127
127
103
135
130
108
138
135
113
197
198
175
197
198
178
199
197
180
201
195
176
199
193
169
204
198
167
204
198
162
202
196
160
189
183
151
161
153
128
162
154
134
165
157
138
172
164
145
156
148
130
166
158
139
166
159
140
166
159
140
168
161
142
169
163
144
165
160
141
175
170
150
167
162
142
171
166
146
177
172
152
178
173
153
169
165
144
166
165
141
171
172
148
178
175
150
178
172
148
175
174
147
126
138
105
101
120
86
165
175
141
175
172
143
183
179
152
174
170
140
149
153
120
104
112
80
171
176
146
191
188
167
46
70
61
24
49
37
24
49
36
39
65
49
44
70
51
60
82
58
76
96
62
121
138
96
105
120
82
61
72
43
61
71
46
57
67
42
58
68
44
53
62
38
59
69
44
66
77
54
66
81
58
48
68
46
31
55
32
26
48
28
24
45
25
26
46
26
40
58
38
47
62
43
46
58
41
46
61
37
44
59
33
48
63
37
52
67
41
39
54
28
39
56
29
42
59
32
50
66
38
55
69
42
52
64
37
56
70
40
56
71
41
53
65
36
76
79
48
81
82
46
85
83
45
107
94
62
123
105
73
125
104
73
127
100
71
119
92
62
106
91
54
142
130
87
120
108
66
92
82
36
94
88
42
93
85
45
96
89
49
98
90
53
100
92
55
102
93
56
101
92
52
98
89
49
105
96
56
109
100
60
113
104
65
116
108
69
114
106
67
115
107
68
113
105
66
124
116
77
124
116
77
136
128
90
216
209
170
224
216
177
222
214
175
216
210
173
150
144
109
130
124
88
133
127
93
133
127
94
149
138
107
148
137
104
159
150
112
166
157
115
178
170
125
183
172
127
180
169
124
177
166
121
179
168
123
180
170
125
182
174
129
183
173
130
181
170
129
176
170
126
165
165
117
164
173
107
118
128
54
90
97
22
130
127
72
170
160
114
175
161
133
172
160
135
168
158
132
165
157
130
167
162
134
167
160
134
165
159
133
157
151
125
160
156
129
158
154
127
156
151
127
151
146
124
151
145
123
154
148
126
164
157
135
162
155
134
152
146
124
148
142
120
157
152
130
161
156
134
164
159
138
153
148
128
147
142
122
150
145
125
153
148
128
153
147
127
156
150
130
145
139
120
142
136
116
152
146
127
155
149
129
152
146
127
139
139
121
123
128
113
114
122
109
110
122
111
107
124
113
102
119
108
102
120
108
100
118
106
101
119
108
103
121
111
98
116
106
84
103
92
71
90
80
90
110
99
78
99
87
81
102
90
79
100
88
81
103
87
99
121
105
112
129
110
119
126
109
138
137
119
147
144
124
140
139
116
143
141
116
147
145
122
148
146
123
151
149
128
138
136
115
125
130
113
114
121
106
113
122
109
109
120
109
101
113
104
83
94
84
100
109
98
117
124
113
116
121
110
114
117
105
106
112
102
99
107
96
94
103
91
98
110
95
98
111
95
129
133
114
171
173
152
175
174
153
181
181
156
156
155
130
123
121
96
123
121
96
125
123
98
127
125
100
128
126
101
125
122
98
127
125
102
129
129
105
131
126
104
139
136
114
195
196
174
198
199
182
201
198
181
199
194
173
202
196
167
207
201
167
205
200
163
203
197
160
196
190
157
170
162
136
170
162
141
166
158
139
170
162
143
162
154
135
166
158
139
173
165
146
167
160
141
162
155
136
162
157
137
167
162
142
177
172
152
176
171
151
169
164
144
167
162
142
166
161
141
174
169
148
170
167
144
177
176
153
178
174
150
175
172
147
168
174
145
74
99
62
102
125
90
168
180
145
170
167
138
176
171
144
173
176
142
100
105
72
154
159
127
175
176
148
184
181
158
45
74
69
48
77
70
53
82
73
49
79
66
44
74
58
58
80
61
89
110
77
116
137
95
86
103
66
58
70
46
60
70
47
64
74
50
62
72
48
69
79
55
67
77
53
59
69
45
48
63
39
27
49
25
31
56
33
29
55
33
21
43
22
30
51
31
32
52
32
36
53
34
42
59
40
42
59
37
32
50
27
33
51
28
31
49
26
28
46
23
26
45
19
37
55
29
34
51
26
45
60
35
49
61
38
53
67
40
53
69
41
43
56
29
51
55
27
76
78
43
79
83
44
90
87
53
107
95
63
125
110
77
126
104
72
122
99
65
126
111
72
112
99
59
92
79
37
91
81
39
93
87
44
100
92
51
99
91
51
100
92
54
100
92
56
102
93
56
107
98
60
105
96
58
111
102
63
109
100
61
110
102
63
122
114
75
121
113
74
126
118
80
121
113
74
120
112
73
123
115
76
136
128
90
220
212
173
229
221
182
222
214
175
209
203
166
124
118
82
122
117
81
125
119
85
131
125
91
135
126
97
143
134
102
156
148
112
159
151
111
172
165
122
182
171
126
181
170
125
183
172
127
181
170
125
179
168
123
179
171
125
179
170
128
179
171
128
174
171
122
151
156
97
125
137
62
99
109
33
114
115
58
165
159
112
170
160
122
172
160
126
172
161
129
167
157
127
158
150
122
163
157
129
165
159
132
167
161
135
158
152
126
162
156
130
158
153
127
162
157
133
161
156
134
159
153
131
163
156
135
157
149
128
162
154
133
168
160
139
167
160
138
157
151
129
149
144
122
158
152
131
159
154
134
156
151
131
143
138
118
142
137
117
145
140
120
153
146
127
158
151
132
158
151
132
154
147
128
149
142
122
156
150
129
159
155
136
140
141
125
113
119
104
106
118
105
110
126
115
102
120
108
104
124
112
101
121
109
86
107
95
89
111
99
87
109
97
87
109
97
84
105
94
78
100
88
83
105
93
89
111
98
89
111
98
96
119
103
97
119
104
99
116
103
105
116
102
124
128
111
149
150
130
143
143
121
141
139
114
140
138
114
143
141
118
151
149
128
151
149
128
140
142
124
127
131
115
108
114
100
115
126
113
103
115
104
100
113
103
99
110
101
103
113
103
101
108
98
105
111
100
108
115
106
100
109
100
102
113
102
98
111
98
92
106
91
113
118
100
165
167
146
175
175
154
180
180
157
148
146
122
125
123
98
124
122
97
124
122
97
131
129
104
128
126
101
136
132
109
135
133
110
137
137
113
136
131
109
140
137
114
192
193
172
200
201
182
204
201
183
185
180
158
193
188
157
209
203
168
207
202
164
206
201
163
205
199
164
180
173
145
170
162
141
172
164
145
172
164
145
164
156
137
171
163
144
165
157
138
161
154
135
170
163
144
171
165
145
170
165
145
169
164
144
161
156
136
171
166
146
170
165
145
172
167
147
179
174
154
173
169
147
174
171
148
176
171
148
176
177
151
130
141
112
88
116
78
87
110
73
165
174
141
189
186
158
177
173
145
127
134
99
128
132
101
176
176
147
178
176
151
181
182
156
59
86
81
59
87
80
63
91
81
60
89
75
48
77
62
63
86
69
98
121
90
109
131
90
73
91
55
71
85
64
70
80
58
70
80
56
69
79
55
77
87
63
76
86
62
68
78
54
47
62
37
32
56
30
26
54
28
34
61
39
32
56
34
29
51
30
30
51
31
28
49
29
28
49
29
33
53
32
31
52
31
19
40
19
21
42
21
27
48
27
37
59
34
47
68
41
42
60
36
33
48
26
35
50
30
44
60
36
44
62
35
33
48
22
49
55
27
66
71
37
68
74
38
80
80
46
79
72
39
96
88
53
123
108
72
125
106
70
115
100
61
97
84
45
94
80
41
96
85
46
97
90
50
97
89
52
104
96
58
106
98
60
105
97
58
104
95
57
111
101
64
114
104
67
116
106
69
116
106
69
117
107
70
122
114
75
117
109
70
126
118
79
128
120
81
123
115
76
116
108
69
128
120
81
214
206
168
230
222
183
223
215
176
211
206
169
117
111
75
115
109
73
124
118
84
127
121
88
130
121
92
136
127
97
139
131
96
150
142
104
161
154
112
180
169
125
179
168
123
183
172
127
184
173
128
183
172
127
180
172
126
180
171
128
177
171
123
159
161
100
132
143
66
102
117
34
87
95
30
158
156
108
174
166
126
172
164
126
176
164
128
174
164
130
168
159
129
166
158
131
162
156
132
168
160
136
160
153
127
169
162
136
168
162
136
162
156
130
154
148
124
162
156
134
165
158
137
163
155
134
158
150
129
156
146
126
157
148
128
160
152
131
165
158
136
161
155
133
154
148
127
150
145
125
151
146
126
152
147
127
154
149
129
151
144
125
148
140
121
153
145
126
159
151
132
161
153
134
161
154
133
151
145
122
150
144
124
148
146
129
131
136
120
114
125
111
99
115
104
90
108
96
88
108
96
82
104
91
85
109
95
75
102
88
72
98
84
85
109
96
94
117
105
81
104
92
82
105
93
74
97
84
84
107
94
89
112
96
86
108
94
100
118
108
106
120
108
112
121
105
136
140
120
146
146
124
151
149
124
151
149
126
144
142
119
144
142
120
142
140
119
142
142
123
140
142
124
130
135
119
106
116
101
95
108
95
105
118
110
104
117
108
104
114
106
97
106
97
91
98
89
104
114
101
105
116
103
118
128
114
117
125
111
123
131
117
124
127
110
163
165
145
178
178
157
178
177
156
131
129
107
122
120
96
129
127
102
127
125
100
131
129
104
127
125
100
133
129
106
134
132
109
138
137
114
148
143
121
139
135
113
182
183
160
200
201
179
203
201
181
171
166
144
175
169
141
209
203
170
207
202
163
206
201
162
205
199
164
190
183
155
166
158
136
161
153
134
165
157
138
173
165
146
175
167
148
164
156
137
166
159
140
167
160
141
173
168
148
167
162
142
176
171
151
170
165
145
172
167
147
173
168
148
174
169
149
176
171
151
174
169
147
176
171
149
174
169
145
162
166
139
86
101
71
151
172
135
122
135
103
159
163
132
177
178
148
151
150
122
103
109
73
175
175
144
180
175
150
175
176
149
149
156
127
54
79
77
53
79
75
57
85
78
61
89
78
66
95
82
75
99
79
107
130
97
106
128
86
65
83
48
72
87
66
75
86
64
75
86
63
72
83
59
66
77
52
68
80
54
66
76
50
47
61
35
39
62
35
30
60
33
30
59
35
36
60
38
25
47
26
32
55
33
27
49
28
28
51
30
27
51
30
32
55
34
28
51
30
22
45
24
16
39
18
21
43
21
37
59
36
41
60
39
33
49
30
31
46
28
40
56
35
45
63
40
39
56
32
54
63
38
69
72
43
65
68
35
66
67
34
75
73
40
80
76
42
85
78
43
101
89
55
109
96
60
104
94
57
97
86
49
98
89
51
95
88
50
100
92
56
103
95
59
107
99
61
112
105
65
115
107
67
109
100
62
109
100
62
110
102
63
119
110
72
124
115
77
123
115
76
117
109
70
124
116
77
124
116
77
121
113
74
121
113
75
125
117
79
177
169
132
230
223
184
226
218
180
210
204
168
111
105
70
114
108
72
120
114
80
122
115
81
124
115
84
122
113
81
128
120
85
130
122
86
140
132
93
166
157
117
177
168
126
177
166
123
179
168
123
184
173
128
182
173
128
182
173
130
173
168
116
143
146
74
102
113
29
91
99
27
153
152
98
180
174
130
179
170
133
176
167
130
178
168
135
175
166
135
166
157
129
165
157
131
165
159
136
168
160
136
159
151
125
159
152
126
162
155
130
167
161
135
167
161
137
161
154
133
153
145
124
161
153
132
163
153
133
161
151
131
157
148
127
154
146
125
151
144
123
156
149
127
159
153
132
155
149
130
146
140
120
150
144
125
152
146
127
157
148
130
153
142
124
149
139
121
152
142
124
153
144
125
164
156
136
157
151
129
149
143
123
144
140
123
138
141
125
108
119
103
97
112
101
109
127
115
85
105
94
75
97
86
69
94
82
69
98
84
94
121
108
88
113
101
86
109
96
77
99
87
65
89
76
70
94
80
89
113
99
69
93
78
62
86
72
76
96
89
76
92
82
100
112
97
123
130
112
135
138
118
146
145
121
147
145
123
151
149
127
150
148
127
149
146
125
145
143
124
139
140
121
128
133
116
116
126
110
107
120
106
95
110
101
95
109
100
98
110
102
97
108
100
113
123
114
113
123
111
117
126
112
125
131
117
131
136
121
140
142
128
138
140
124
154
155
138
175
175
156
180
180
159
130
130
106
124
123
99
125
123
99
127
125
100
130
128
104
129
127
103
135
131
108
137
136
112
140
139
115
149
145
122
148
145
122
168
167
142
202
201
176
199
196
173
159
154
131
159
154
128
207
201
170
207
201
164
208
203
164
205
199
163
200
194
163
165
158
133
161
154
133
174
167
147
175
167
147
179
171
153
171
164
145
175
169
149
177
171
151
174
168
148
165
160
140
167
162
142
173
168
148
178
173
153
177
172
152
176
171
151
174
170
149
175
170
151
176
170
150
176
174
148
129
134
105
105
117
88
170
181
147
148
155
122
148
152
119
171
175
142
103
108
77
165
169
135
178
176
145
179
174
146
173
177
144
91
102
68
64
89
86
62
88
84
64
91
83
63
91
79
56
86
70
64
87
61
99
122
84
103
124
81
73
91
56
66
80
58
74
86
65
75
86
64
73
85
61
67
80
54
56
68
40
60
71
41
56
69
40
43
64
37
26
55
30
24
51
30
21
44
23
22
46
24
27
51
30
17
41
19
24
50
28
24
50
29
24
49
28
23
48
27
23
48
27
24
49
28
15
38
18
24
45
26
28
48
29
23
41
22
23
38
21
37
52
33
58
76
57
36
55
35
51
64
42
74
76
53
74
73
45
74
75
43
74
74
43
84
83
52
80
79
49
83
80
50
76
69
39
82
75
43
88
82
48
94
88
52
101
94
58
105
96
63
106
98
62
103
95
59
111
103
66
114
106
69
119
112
72
118
110
71
116
108
69
117
109
70
119
111
72
122
114
75
123
115
77
122
114
75
115
107
68
122
114
76
127
119
82
133
125
88
126
118
82
170
162
127
222
214
177
209
203
168
116
110
74
120
114
78
119
113
78
114
108
72
122
113
79
124
115
81
122
113
79
120
111
77
125
116
83
129
123
88
151
143
107
164
155
116
178
169
126
178
167
122
179
169
121
182
173
127
157
151
97
122
121
45
86
87
6
122
116
68
184
176
128
181
173
130
180
171
133
179
169
135
178
171
138
172
166
134
158
151
122
157
151
122
165
158
132
170
163
137
171
165
139
162
155
129
156
149
123
162
155
129
163
156
133
172
164
143
152
144
123
151
143
122
159
151
130
164
156
135
161
153
132
160
152
131
155
147
126
155
147
126
152
144
124
154
146
127
157
149
130
151
143
124
150
142
123
154
145
127
156
147
128
162
154
135
155
147
128
148
141
122
147
140
121
148
142
123
156
151
132
155
149
133
147
148
131
119
129
112
95
111
99
95
113
101
85
104
95
74
95
88
64
88
81
71
98
86
87
113
100
77
101
88
83
105
92
84
106
93
77
98
87
81
103
91
87
109
97
82
103
91
89
110
99
90
108
102
83
98
90
86
98
86
122
130
115
140
144
127
148
148
127
143
142
121
141
140
119
138
136
115
150
148
127
152
150
131
143
144
125
132
137
120
123
133
117
116
128
114
114
129
118
102
118
108
96
112
102
95
110
101
96
110
100
104
113
103
131
138
126
130
135
123
135
137
123
136
137
123
146
147
133
142
143
128
173
174
155
176
178
156
128
130
106
126
125
102
129
127
104
130
128
105
131
129
106
127
125
102
139
137
113
141
139
114
138
136
111
140
138
113
142
140
115
157
153
129
189
183
159
190
184
159
172
166
140
158
152
126
199
193
164
207
201
167
207
202
164
205
200
163
210
204
171
175
168
140
162
156
131
167
161
138
170
163
142
173
166
148
169
163
145
181
176
156
164
159
139
170
165
145
169
164
144
176
171
151
164
159
139
157
152
132
167
162
142
170
165
145
173
168
148
174
170
150
172
169
147
152
157
124
93
102
67
161
165
137
176
179
150
155
159
126
122
129
92
115
123
86
151
158
125
186
186
157
182
181
151
183
184
149
145
150
112
90
101
60
55
82
80
67
95
91
73
99
93
60
84
75
60
83
72
76
96
74
99
119
87
101
120
83
74
90
60
76
88
68
74
83
63
76
86
62
74
84
59
69
78
52
63
74
45
65
74
44
56
68
39
45
65
39
29
57
32
30
55
35
34
57
36
36
59
38
32
56
34
33
58
36
33
58
36
34
59
39
18
43
24
15
40
21
22
46
27
42
67
48
31
55
36
30
53
33
28
49
30
35
53
35
41
58
40
53
70
51
57
76
56
51
72
53
45
60
39
79
83
60
77
77
50
82
83
54
84
84
55
81
80
51
79
78
49
85
81
53
86
79
51
91
85
56
97
91
59
95
89
55
101
94
61
109
102
69
105
98
65
108
101
67
104
97
62
113
106
70
120
112
76
121
113
77
121
113
77
120
112
76
118
110
74
117
109
73
122
115
78
126
118
82
129
121
85
117
109
73
124
116
79
129
121
85
133
125
88
129
121
85
165
158
123
205
199
166
126
120
87
126
120
86
123
117
83
119
113
79
120
111
79
124
115
83
127
118
86
121
112
80
116
107
75
120
112
81
121
113
80
124
115
80
151
142
104
167
158
118
171
163
118
173
165
119
126
120
66
111
107
44
122
118
65
177
170
121
184
176
129
184
175
133
180
171
133
179
169
134
176
168
136
175
168
138
170
163
134
160
153
126
162
155
129
170
163
137
166
159
133
160
153
127
164
157
131
154
147
121
153
146
123
163
155
134
152
144
123
159
151
130
158
150
129
155
147
126
153
145
124
157
149
128
161
153
132
153
145
124
151
143
123
151
143
124
155
147
128
156
148
129
160
152
133
153
145
126
148
140
121
150
143
124
152
145
126
152
146
127
150
144
125
147
143
123
148
144
125
152
146
130
149
149
133
129
138
121
97
111
99
90
106
96
86
105
96
78
100
93
76
101
93
85
113
101
87
113
102
89
113
101
95
117
105
102
122
111
113
129
119
110
126
116
104
120
110
110
125
115
110
125
115
110
124
117
108
119
111
111
118
109
122
127
114
135
137
122
145
145
126
153
153
133
147
145
125
144
141
122
146
143
124
149
146
127
145
146
127
142
145
129
133
140
125
114
124
111
100
113
103
98
114
104
108
124
114
103
119
109
93
109
99
103
114
104
119
128
116
131
137
124
146
149
135
140
141
127
137
138
124
136
137
122
167
168
150
176
178
157
128
130
106
127
126
103
129
127
104
130
128
105
138
136
113
128
126
103
128
126
102
131
129
104
135
133
108
145
143
118
149
147
122
150
145
121
164
158
134
187
181
156
184
178
152
163
157
131
182
176
147
208
202
168
208
203
166
206
201
164
210
204
171
189
182
154
178
172
148
169
163
141
165
158
137
171
164
145
176
169
151
178
173
153
167
162
142
162
157
137
163
158
138
177
172
152
177
172
152
173
168
148
174
169
149
175
170
150
171
166
145
180
177
149
179
183
150
110
119
83
135
141
106
181
181
150
181
183
155
153
156
125
108
113
78
143
147
115
170
174
143
174
172
145
179
177
149
168
169
137
104
109
75
140
149
111
47
83
80
64
97
93
67
95
90
72
96
89
75
95
88
83
100
83
90
106
82
97
113
84
76
89
64
83
94
75
83
92
70
76
85
61
71
79
55
71
80
53
73
82
53
70
79
48
64
74
46
44
63
36
38
66
41
44
68
48
43
65
45
43
65
44
39
62
40
35
59
37
39
63
41
43
68
49
45
69
51
36
61
42
30
54
36
28
52
34
31
56
36
47
72
51
48
72
52
45
66
47
52
72
53
61
81
61
58
79
60
57
80
60
61
78
57
73
79
56
76
78
53
90
93
66
91
92
66
91
91
66
90
89
64
96
92
67
102
94
70
103
96
70
105
98
70
106
99
69
112
106
75
111
104
75
118
111
82
120
113
82
116
110
79
121
114
82
123
114
82
119
110
79
125
116
85
126
117
86
127
118
86
125
116
84
121
112
80
124
115
82
129
120
87
128
119
87
132
123
89
125
116
82
126
117
84
132
123
90
133
124
91
144
138
106
126
121
88
129
123
90
128
122
90
129
123
91
127
118
87
125
116
85
130
121
90
131
122
91
130
121
91
123
114
86
124
114
86
120
111
81
117
110
78
130
124
90
147
139
103
158
150
112
151
143
101
162
153
109
173
164
124
178
169
129
182
172
133
184
174
137
181
171
137
177
166
135
171
163
132
170
163
134
168
161
133
167
160
134
177
169
146
165
158
133
162
155
129
169
162
136
171
164
138
168
161
135
160
152
129
155
147
126
154
146
125
164
156
135
164
156
135
161
153
132
154
146
125
154
146
125
157
149
128
162
154
133
157
149
129
151
143
124
154
146
127
153
145
126
153
145
126
164
156
137
159
152
133
145
138
119
146
140
121
155
150
130
156
152
132
152
150
129
150
146
127
147
140
124
146
144
129
139
146
130
117
130
119
110
126
116
90
110
101
68
91
84
67
93
86
78
105
95
73
99
89
77
101
90
72
94
83
87
107
96
104
116
108
105
116
108
104
116
108
111
122
114
103
114
106
112
123
116
118
128
120
127
133
124
132
136
124
119
123
109
137
138
119
147
148
128
153
152
132
156
155
135
148
146
127
142
140
120
144
143
124
142
144
128
141
145
131
131
137
125
105
117
107
99
112
103
100
116
106
104
120
110
99
117
106
110
124
113
109
120
107
125
131
118
139
141
127
143
143
130
144
145
131
137
138
123
164
166
147
175
177
156
121
123
99
127
127
103
127
125
102
126
124
102
133
131
108
128
126
103
132
130
105
138
136
111
131
129
104
141
139
114
144
142
118
154
150
125
163
157
133
180
174
148
193
187
161
170
164
138
172
166
137
205
199
165
209
204
167
208
203
166
207
201
169
192
186
158
175
170
145
180
176
152
175
170
148
173
168
149
174
169
150
173
168
148
168
163
143
171
166
146
175
170
150
170
165
145
170
165
145
172
167
147
177
172
152
181
176
156
175
170
148
167
168
134
126
134
96
118
127
89
173
176
141
181
178
148
169
171
143
120
123
92
148
149
118
178
178
149
165
165
139
177
171
148
170
168
143
162
163
135
150
155
125
175
180
148
44
91
86
55
97
92
54
88
83
69
95
89
81
101
95
80
95
82
83
96
78
80
93
71
85
95
74
84
92
74
91
97
76
84
90
67
76
83
58
71
79
51
74
81
52
81
89
58
77
86
58
49
67
41
37
63
39
42
65
46
47
67
47
49
71
50
44
67
46
37
61
39
35
58
36
33
56
39
47
71
55
41
65
49
11
35
19
27
50
34
32
58
39
28
55
34
55
79
59
62
85
65
53
74
55
53
74
55
54
77
58
57
82
63
75
93
73
86
94
71
89
91
68
91
93
70
93
95
73
102
103
80
103
103
80
107
103
82
106
98
76
104
96
73
114
107
80
121
114
86
119
112
85
118
111
84
118
111
84
119
112
84
127
120
92
130
123
94
125
116
88
125
115
87
121
112
84
123
114
86
131
122
93
131
122
91
132
123
92
132
123
92
130
121
90
136
127
96
136
127
95
138
129
98
138
129
98
133
124
92
127
119
87
129
122
92
136
129
99
133
126
96
127
120
90
127
120
90
133
123
96
131
121
94
131
121
93
135
126
98
129
119
92
128
117
92
131
121
96
123
115
89
119
113
86
118
112
85
121
113
84
124
115
86
133
123
94
133
121
91
133
121
89
146
135
104
163
152
122
166
155
126
167
156
129
179
167
141
174
166
137
167
160
131
164
157
130
167
159
134
176
168
145
172
165
140
171
164
138
169
162
136
168
161
135
168
161
135
170
163
140
169
161
140
164
156
135
151
143
122
159
151
130
162
154
133
160
152
131
159
151
130
151
143
122
152
144
123
155
147
127
162
154
135
164
156
137
149
141
122
140
132
113
155
147
128
156
149
130
156
149
130
156
151
131
148
143
123
144
141
120
152
151
130
157
155
136
160
153
137
150
147
132
132
137
122
109
121
110
82
97
87
70
91
82
82
107
99
63
91
83
60
87
78
56
82
73
81
104
94
99
120
111
97
117
107
108
119
111
103
114
106
105
116
108
104
115
107
103
115
107
110
123
113
108
120
111
112
123
112
108
118
105
119
127
113
142
144
126
146
147
129
143
143
125
146
145
127
148
147
129
151
149
130
148
147
128
138
138
123
141
142
129
141
144
133
120
130
121
114
126
117
104
118
109
91
108
98
91
110
100
96
113
101
104
118
104
127
136
122
134
137
123
134
133
120
139
140
126
143
144
129
157
158
139
160
162
141
124
126
103
126
125
102
127
125
102
132
130
107
128
126
103
128
126
103
127
125
100
129
127
102
134
132
107
138
136
111
137
135
110
148
144
119
164
158
134
171
165
140
195
189
163
184
178
151
176
171
141
195
189
155
208
202
165
208
202
166
208
202
170
196
190
162
168
164
138
171
166
143
172
167
146
177
172
153
172
167
147
168
163
143
170
165
145
167
162
142
176
171
151
181
176
156
170
165
145
167
162
142
161
156
136
174
169
149
175
171
148
129
133
98
114
124
83
157
162
125
173
170
142
179
177
150
171
172
145
137
138
108
165
165
134
171
168
143
183
178
158
176
168
148
176
173
152
178
180
157
174
177
152
178
180
154
35
84
79
36
82
77
40
78
72
66
96
91
80
103
98
86
100
90
97
109
96
98
108
92
92
101
84
95
102
85
86
92
71
87
92
69
86
92
67
83
89
61
75
82
52
78
86
55
77
87
59
54
70
46
41
65
42
49
73
53
52
73
53
47
68
46
45
67
45
50
73
51
41
64
42
38
61
43
48
73
56
46
71
54
35
60
43
42
67
50
26
52
33
33
58
38
51
75
56
71
95
75
63
86
67
67
88
70
54
77
59
44
68
49
69
86
66
103
110
88
102
103
81
99
101
79
99
100
78
102
102
81
104
103
82
112
109
88
116
109
88
116
108
86
122
113
91
127
121
95
126
121
95
135
130
104
131
126
99
121
117
90
124
120
91
126
121
93
130
123
95
130
123
95
129
121
94
127
118
91
130
121
93
135
126
97
140
132
103
141
133
104
137
130
101
128
121
92
140
132
101
143
135
105
140
132
101
141
132
102
134
125
96
128
121
93
136
129
101
147
139
111
140
132
104
139
132
103
131
123
96
135
127
99
133
124
97
133
125
98
134
126
98
136
127
102
138
129
106
137
129
105
133
127
102
129
123
98
122
115
88
124
116
89
128
119
94
129
118
92
125
114
84
124
114
87
130
121
95
136
126
102
152
142
119
161
152
130
161
155
128
166
160
132
163
157
131
156
149
124
162
155
131
167
160
136
175
167
142
173
164
140
165
157
131
166
158
132
166
159
136
170
163
142
163
156
135
159
152
131
155
148
127
155
148
127
151
143
123
166
158
138
160
152
132
159
151
131
154
146
126
157
149
130
156
148
129
158
151
132
155
148
129
151
145
126
147
141
123
152
147
128
155
151
132
164
161
142
155
152
133
153
151
132
151
148
130
157
152
136
148
144
129
146
148
133
129
137
125
96
108
97
76
95
85
76
102
94
83
112
104
66
93
84
51
76
67
81
103
94
93
113
104
105
123
114
122
134
126
120
133
124
101
113
104
88
100
91
106
118
110
113
127
117
114
129
118
106
119
108
103
115
104
109
122
109
122
127
110
138
141
124
143
145
128
142
142
124
141
140
121
147
146
127
153
152
134
144
143
128
143
143
129
140
141
129
126
133
123
113
124
114
107
121
111
98
117
106
94
116
104
85
105
92
95
111
98
117
128
115
131
135
122
136
136
124
130
129
117
137
137
123
144
144
128
152
153
133
127
128
106
122
122
99
126
125
102
130
129
106
127
127
102
127
127
102
126
125
101
123
121
97
130
128
103
125
123
99
129
127
103
143
140
114
150
145
119
154
149
122
188
184
157
188
184
157
185
179
149
188
181
146
209
203
165
208
202
164
210
203
169
198
191
163
179
175
151
172
167
145
175
170
148
170
165
145
175
170
150
172
168
148
171
167
147
168
164
143
166
162
142
168
164
144
174
170
149
180
176
156
173
169
149
178
174
154
168
165
144
144
148
117
176
182
147
180
181
151
173
169
146
169
167
144
172
172
146
163
161
135
179
177
150
183
178
156
175
169
150
174
167
148
175
172
151
187
188
166
180
181
159
177
176
155
49
89
87
43
85
81
50
89
83
62
95
89
76
102
97
95
105
100
103
113
104
106
114
102
101
109
94
93
100
83
88
93
73
95
100
78
95
100
77
92
97
72
80
86
59
78
87
55
69
80
52
60
75
54
55
77
57
51
76
55
43
69
46
46
70
48
52
75
53
55
76
55
59
77
57
63
85
67
53
78
61
34
61
43
36
63
45
35
64
45
50
74
58
67
90
73
59
82
65
58
81
64
61
84
67
62
84
69
54
74
59
58
77
59
72
83
63
104
106
86
115
113
92
112
110
89
112
110
89
104
103
82
110
108
87
110
108
86
123
118
96
126
116
96
126
116
96
125
119
97
118
116
92
125
124
96
131
130
102
127
126
98
128
127
99
118
116
88
128
124
96
127
123
94
130
125
96
133
127
100
129
123
96
135
129
101
130
125
96
136
132
103
137
134
105
135
133
103
141
135
103
140
133
103
144
137
108
144
135
107
142
134
107
149
141
118
136
129
104
135
129
101
143
137
108
145
140
110
136
130
103
139
134
107
135
129
102
141
135
108
137
131
104
138
132
106
141
135
109
136
130
104
132
126
100
133
127
101
127
122
95
131
127
100
127
122
95
133
128
102
130
125
98
128
123
96
125
121
94
135
132
106
137
134
109
143
142
117
149
147
120
159
157
130
165
163
135
170
166
139
161
156
129
163
156
133
168
159
136
160
151
129
168
160
135
166
158
133
157
151
128
152
147
125
155
150
129
158
153
133
166
161
142
159
153
134
151
143
124
155
147
128
154
146
127
162
154
135
157
149
130
154
147
128
150
143
124
162
155
136
160
154
135
159
155
137
150
147
130
153
150
133
150
147
130
154
151
134
159
156
139
159
156
139
154
151
134
153
150
133
148
145
128
152
149
133
146
147
133
139
146
134
98
113
103
74
97
90
70
97
90
60
87
78
81
104
94
86
107
98
91
107
98
113
128
118
117
128
120
116
127
119
106
117
109
107
118
110
114
125
117
108
119
111
106
118
109
104
117
108
105
120
111
102
117
107
111
120
108
126
132
118
144
147
132
151
152
134
149
147
128
140
141
123
138
139
121
141
142
124
152
153
135
145
147
129
143
147
134
120
128
115
90
104
92
84
105
92
95
120
107
101
125
112
103
123
111
105
119
109
115
123
113
139
141
132
135
135
125
140
139
127
137
137
124
138
139
123
129
129
112
126
127
106
127
127
104
122
123
99
121
121
96
128
129
103
125
124
100
123
121
98
126
124
101
128
126
103
128
126
103
130
128
101
134
133
103
137
136
106
161
160
130
194
193
164
184
180
149
183
177
141
203
197
157
211
205
166
209
203
167
197
191
162
172
167
145
174
169
147
173
168
146
174
169
147
165
161
140
163
161
140
167
165
144
176
174
153
171
169
148
174
172
151
166
164
143
169
167
146
177
175
155
177
175
154
179
177
156
175
173
152
180
178
157
183
181
160
177
175
154
178
175
154
183
178
158
174
169
149
175
170
150
178
173
153
185
180
160
182
180
159
181
179
158
179
177
156
177
175
154
183
181
160
57
94
92
54
92
88
64
101
96
59
91
85
64
88
84
86
97
89
104
114
105
105
113
101
102
109
95
103
110
94
98
102
85
98
103
84
95
100
78
101
106
84
101
106
82
90
99
72
76
87
63
66
81
62
52
73
55
53
79
59
45
74
52
43
71
49
45
69
49
53
74
55
67
84
66
68
90
73
61
84
69
43
68
52
38
65
48
47
73
57
75
100
83
77
100
84
70
93
77
66
89
73
65
88
72
71
92
78
78
98
84
76
95
77
88
99
81
109
111
92
116
113
93
116
114
93
115
113
92
120
118
97
119
117
96
116
114
93
119
114
92
130
121
100
129
119
99
134
128
106
121
119
95
120
119
91
121
120
92
128
127
99
132
131
103
128
126
98
127
123
94
125
121
94
130
127
100
134
131
106
135
132
108
132
130
105
132
130
104
130
129
103
131
132
106
132
133
106
135
133
105
141
139
111
140
138
111
132
129
103
135
133
109
135
135
112
129
129
105
134
134
108
133
135
106
141
142
113
141
138
114
145
142
118
145
142
119
136
133
110
134
131
107
130
127
101
138
136
108
143
140
113
141
138
111
138
136
108
136
134
106
139
138
109
133
133
103
136
135
106
130
130
101
127
125
96
135
133
105
140
139
111
144
143
117
145
145
119
144
142
118
145
142
119
156
152
130
165
160
137
175
169
147
178
172
150
164
157
135
161
154
130
163
156
133
162
156
131
169
163
140
162
157
135
151
146
125
161
156
136
164
159
139
162
156
137
169
161
142
160
152
133
154
146
127
152
144
125
161
153
134
161
153
134
154
147
128
149
142
123
153
147
127
157
153
134
158
155
138
167
164
147
156
153
136
152
149
132
154
151
134
154
151
134
158
155
138
155
152
135
141
138
121
148
145
129
154
154
140
140
146
133
112
125
114
76
96
88
55
78
70
79
102
92
88
109
99
98
116
106
115
131
121
118
131
122
110
122
113
110
122
113
104
116
108
104
116
107
119
130
122
94
107
98
98
111
102
98
113
103
97
113
103
102
118
108
125
136
126
119
128
115
130
135
121
142
144
128
148
148
130
149
150
133
144
145
128
144
145
128
144
145
128
138
140
123
148
150
138
148
155
143
115
127
116
86
104
92
88
111
99
94
116
104
98
118
106
103
118
108
111
121
111
121
128
118
128
133
122
128
131
121
139
142
129
139
141
127
131
132
117
126
125
106
129
126
106
127
124
104
129
127
105
124
122
100
124
122
99
122
120
98
123
121
99
130
128
106
130
128
106
127
126
101
125
124
97
130
129
102
137
135
108
189
188
161
187
183
154
184
179
145
189
184
146
210
205
167
208
203
168
192
186
158
176
171
149
166
161
139
167
162
140
171
166
144
180
176
155
175
173
152
165
163
142
167
165
144
172
170
149
178
176
155
176
174
153
176
174
153
173
171
150
173
171
150
175
173
152
182
180
159
179
177
156
180
178
157
177
175
155
174
171
151
178
173
153
177
172
152
183
178
158
181
176
156
177
173
153
180
178
157
182
180
159
180
178
157
184
182
161
177
175
154
72
102
101
66
99
95
62
94
89
49
77
72
75
97
92
98
109
100
104
114
104
100
108
96
103
110
97
104
110
97
110
114
100
101
105
89
98
102
85
103
108
88
104
109
88
108
116
95
84
93
76
70
84
71
58
79
65
55
80
62
58
84
66
63
89
71
62
87
70
60
84
67
61
84
67
67
90
74
67
90
75
68
92
76
76
101
85
76
103
86
61
86
70
63
86
70
70
92
77
72
94
79
74
96
81
64
86
72
64
84
71
81
99
83
95
106
88
112
114
96
116
113
93
116
114
93
115
113
92
125
123
102
120
118
97
119
117
95
125
121
96
126
117
95
132
122
100
133
127
103
129
128
102
128
127
100
125
124
96
124
123
95
126
125
97
126
124
96
133
129
100
131
129
102
130
129
105
124
123
101
121
121
100
122
124
103
118
121
100
115
119
97
100
105
84
103
108
86
109
117
98
117
126
107
108
118
99
96
105
88
71
81
64
89
103
86
107
119
102
102
110
91
115
118
99
129
129
110
126
127
107
134
135
115
139
139
119
137
138
118
125
126
106
126
128
104
128
130
106
128
130
106
140
141
117
145
146
122
141
140
115
138
137
112
138
137
112
138
136
111
143
141
117
141
137
113
143
138
115
138
134
111
143
141
119
148
146
124
152
149
129
151
146
127
149
143
125
155
148
130
163
155
138
167
160
141
170
164
142
166
160
138
162
156
133
161
155
131
164
159
136
173
168
146
170
165
144
167
162
142
155
150
130
160
153
134
161
153
134
171
163
144
170
162
143
157
149
130
149
141
122
159
151
132
161
154
135
169
162
143
158
152
133
141
136
118
152
149
132
156
153
136
160
157
140
167
164
147
153
150
133
147
144
127
146
143
126
151
148
131
154
151
134
153
150
133
144
142
126
133
137
123
119
129
117
85
101
92
96
114
107
106
124
115
95
112
102
100
115
105
111
125
115
107
120
110
113
128
119
113
128
118
108
123
113
95
110
100
101
116
106
108
121
112
121
136
127
106
122
112
97
114
104
104
121
111
111
127
116
108
121
110
126
135
121
136
138
124
138
138
123
137
138
122
139
140
124
148
149
133
146
147
131
134
135
119
136
137
125
139
144
132
127
137
126
99
116
105
99
120
108
93
114
102
85
104
92
102
119
108
118
132
120
119
132
120
105
116
105
110
119
110
118
125
114
133
137
125
134
137
124
135
134
119
131
129
112
128
126
108
128
126
107
128
126
106
130
128
108
126
124
103
126
124
103
126
124
103
127
125
104
126
124
102
127
125
100
126
124
99
130
128
103
160
158
134
194
191
164
181
177
146
180
177
141
195
192
155
201
197
165
180
176
149
178
173
151
180
175
153
167
162
140
169
164
142
172
168
146
171
169
148
174
172
151
174
172
151
164
162
141
168
166
145
171
169
148
181
179
158
182
180
159
172
170
149
175
173
152
175
173
152
178
176
155
184
182
161
184
182
161
175
173
152
169
164
145
168
163
143
176
171
151
186
181
161
182
177
157
178
176
155
176
174
153
176
174
153
184
182
161
185
183
162
74
99
99
74
101
99
56
85
80
51
76
71
80
100
95
101
112
102
103
113
102
100
108
97
102
110
97
106
112
100
106
110
98
98
102
88
107
111
96
105
109
92
100
104
86
98
105
89
83
91
79
79
93
83
64
84
73
50
75
60
62
89
73
53
79
63
57
84
68
64
90
75
66
91
75
68
90
77
73
95
82
78
100
87
87
111
97
85
109
95
74
97
84
59
81
68
70
92
79
77
99
86
66
88
75
78
99
87
66
87
74
70
88
73
87
98
81
114
116
99
124
121
102
124
122
101
125
123
102
115
113
92
118
116
95
127
125
102
130
126
101
136
126
104
131
121
99
121
115
91
123
121
95
132
131
103
130
129
101
131
130
102
130
129
101
126
124
96
133
129
101
133
132
106
131
131
108
109
111
91
99
103
85
102
107
91
102
108
92
97
105
88
103
112
95
91
102
85
92
107
95
97
113
101
89
107
95
74
94
82
78
101
88
74
101
87
64
86
72
77
92
78
110
119
106
118
122
109
110
114
98
114
117
101
115
118
102
119
122
106
118
121
105
116
120
103
114
117
100
116
119
102
118
121
104
119
122
105
128
128
110
135
136
117
123
124
105
123
124
104
131
131
112
136
136
117
131
132
113
137
139
121
139
142
124
135
137
121
147
148
131
146
145
128
151
149
133
148
145
129
150
146
130
153
149
130
160
155
135
174
169
147
172
167
145
165
160
137
159
154
131
160
155
133
165
160
139
169
164
144
165
160
140
159
152
133
160
152
133
166
158
139
160
152
133
165
157
138
157
149
130
154
146
127
155
148
129
151
144
125
158
153
133
158
154
135
159
156
139
155
152
135
157
154
137
156
153
136
153
150
133
153
150
133
149
146
129
147
144
127
152
149
132
152
149
131
155
153
134
149
151
136
126
133
121
105
116
107
107
121
112
111
125
115
108
120
112
111
123
114
108
120
110
98
111
101
107
124
114
112
128
118
107
123
113
107
123
113
108
124
114
109
125
115
113
128
119
113
129
119
107
124
114
92
109
99
85
106
94
88
105
94
106
117
105
139
143
130
141
142
129
139
140
125
137
138
123
139
140
125
144
145
130
149
150
135
145
144
133
130
132
121
130
138
128
115
130
119
112
130
120
99
118
107
96
113
102
104
122
110
101
119
106
100
118
104
115
132
122
106
120
111
100
111
102
113
120
110
122
128
116
127
130
116
128
130
115
126
129
112
118
121
103
124
126
108
132
131
112
134
131
111
135
133
113
132
130
110
130
127
107
129
127
105
132
130
107
128
126
103
132
130
107
131
130
107
191
188
163
186
182
153
176
173
140
178
175
142
179
175
146
172
168
143
175
170
148
172
167
145
172
167
145
164
159
137
171
167
146
166
164
143
167
165
144
176
174
153
173
171
150
170
168
147
165
163
142
171
169
148
171
169
148
176
174
153
171
169
148
175
173
152
177
175
154
174
172
151
172
170
149
166
164
143
179
174
154
174
169
149
176
171
151
174
169
149
182
178
158
176
174
153
170
168
147
180
178
157
177
175
154
179
177
156
76
99
99
80
105
103
79
105
101
58
82
77
74
94
89
100
111
100
112
121
110
111
118
107
104
112
101
98
104
93
96
102
91
107
110
98
113
117
103
108
112
97
105
111
94
97
104
90
75
85
75
71
87
79
60
82
72
54
80
66
61
90
76
61
89
76
52
77
64
69
91
79
79
100
88
85
104
92
81
102
89
70
92
79
75
100
86
79
103
89
87
109
96
75
97
84
70
91
79
70
92
79
72
94
81
77
98
86
67
86
75
67
86
71
87
98
82
111
112
95
124
122
103
127
125
104
126
123
103
130
126
106
123
118
98
124
120
98
133
128
104
137
127
105
137
127
105
137
131
107
131
128
103
131
130
103
132
131
103
134
133
106
128
127
100
123
121
94
127
124
97
130
128
103
127
128
104
112
116
96
102
107
92
97
106
93
97
108
94
96
108
93
104
116
101
101
116
100
95
113
99
79
97
84
77
98
85
87
110
98
85
111
98
71
99
84
78
103
88
92
112
96
102
117
101
111
124
107
113
122
106
114
122
108
114
122
109
108
116
102
100
108
93
104
112
98
110
119
104
118
127
112
101
109
95
96
105
90
113
121
106
118
125
110
107
113
98
104
111
96
106
112
97
113
123
106
116
126
109
109
119
102
110
119
103
118
127
112
124
130
116
119
123
110
126
131
117
140
143
130
142
145
132
138
138
122
141
141
122
154
156
135
162
162
141
170
167
146
171
167
146
161
157
135
160
156
135
160
156
136
160
156
136
161
156
136
166
159
140
156
148
129
153
146
127
164
156
137
174
165
146
172
164
145
158
151
132
156
149
130
154
149
129
155
150
131
162
159
141
157
154
136
155
152
135
145
142
125
151
148
131
159
156
139
163
160
143
156
153
136
151
148
131
148
145
128
156
153
135
151
153
136
149
153
139
126
134
124
104
117
108
105
116
108
110
121
113
121
133
123
116
128
118
111
123
113
110
126
116
101
118
108
104
121
111
121
137
127
118
134
124
108
124
114
97
113
103
103
120
110
99
116
106
103
121
110
111
133
122
98
117
106
105
118
106
122
129
117
141
144
131
150
151
137
146
147
133
144
145
131
135
136
122
134
135
121
139
138
128
149
149
139
149
154
143
125
135
124
104
118
108
94
109
100
116
132
121
120
137
126
105
124
112
101
121
108
108
127
116
104
120
112
117
131
121
111
122
112
122
130
120
115
124
110
113
121
106
113
122
106
110
120
103
116
125
108
129
129
112
135
132
114
138
135
118
135
132
115
136
133
115
132
129
110
135
133
113
129
128
107
126
124
104
130
129
108
155
153
131
197
195
169
191
190
161
192
191
162
179
178
151
183
180
157
175
171
149
160
156
134
165
160
139
171
167
146
170
166
145
172
170
149
162
160
139
159
157
136
165
163
142
169
167
146
169
166
146
174
172
151
172
170
149
171
169
148
174
172
151
177
175
154
182
180
159
166
164
143
166
164
143
172
170
149
179
176
155
177
173
153
181
177
157
171
166
146
179
175
154
182
180
159
176
174
153
178
176
155
174
172
151
176
174
153
67
93
90
80
106
103
85
111
107
79
104
100
74
98
93
99
107
98
113
119
109
111
117
107
112
118
108
109
115
105
102
111
96
105
111
96
119
121
107
108
112
97
110
119
100
98
109
94
67
82
71
53
75
66
59
86
77
69
96
84
78
101
92
79
100
92
72
93
82
85
105
93
87
108
95
92
107
95
90
106
95
82
105
92
76
103
88
78
102
88
88
109
96
80
100
88
82
102
90
80
100
88
75
95
83
72
93
82
80
99
88
68
88
73
90
102
85
112
113
95
111
111
90
119
118
97
126
122
101
137
130
111
130
121
102
128
118
98
130
122
99
136
128
105
136
128
105
141
133
110
133
127
103
127
125
100
128
126
101
137
135
110
134
132
107
135
133
109
130
128
104
130
126
97
133
131
104
121
124
104
109
116
103
96
108
96
107
120
106
97
113
96
89
106
87
94
114
94
96
119
101
102
125
110
86
112
97
68
94
81
72
99
87
77
104
90
93
117
101
98
120
102
107
123
105
110
125
105
104
119
100
117
131
117
115
128
118
108
122
108
104
118
100
102
119
101
106
123
105
106
122
105
103
119
101
105
122
104
102
118
102
111
128
112
108
125
109
110
126
110
108
124
108
101
119
100
102
118
99
104
118
99
110
121
104
124
132
115
133
137
127
114
117
109
114
117
110
122
125
118
123
126
118
130
133
123
128
136
122
131
143
125
137
142
125
154
149
134
163
158
139
165
163
142
166
164
143
150
148
127
155
153
132
168
166
145
173
168
148
171
164
145
162
155
136
155
147
128
161
151
133
162
155
136
164
157
138
164
157
138
160
154
134
152
147
128
154
151
132
157
154
135
157
154
137
148
145
128
145
142
125
149
146
129
152
149
132
153
150
133
156
153
136
150
146
130
153
151
135
146
148
129
145
144
128
136
139
127
120
133
123
118
129
121
108
119
111
108
119
111
107
118
110
112
124
115
102
117
108
102
118
108
107
123
113
111
127
117
111
127
117
105
121
111
104
120
110
106
122
112
96
112
102
104
120
110
103
126
116
110
128
117
115
131
120
108
122
109
124
131
118
142
143
129
144
145
131
146
147
133
142
143
129
134
134
121
135
135
125
145
142
131
150
149
135
145
149
135
132
140
129
109
120
111
114
125
117
112
126
117
113
129
119
113
130
120
109
125
116
106
123
113
106
122
112
112
128
117
114
129
119
118
135
122
99
112
100
105
120
107
108
128
113
113
124
112
135
134
123
131
127
115
134
130
118
133
130
115
133
130
115
136
133
117
133
131
113
129
128
110
133
133
115
129
130
112
133
132
113
177
175
154
205
203
182
207
205
183
174
172
151
174
172
151
167
165
144
170
168
147
169
167
146
168
166
145
173
171
150
167
165
144
170
168
147
170
168
147
170
168
147
164
161
140
163
158
138
166
162
142
175
173
152
171
169
148
166
165
144
166
164
143
172
170
149
167
165
144
179
177
156
180
178
157
178
177
156
176
174
153
177
175
154
171
166
146
172
167
147
175
173
152
185
183
162
177
175
154
175
173
152
182
180
159
