P3
100 100
255
139 139 139
142 142 142
137 137 137
133 133 133
131 131 131
130 130 130
129 129 129
129 129 129
128 128 128
133 133 133
146 146 146
159 159 159
169 169 169
173 173 173
176 176 176
174 174 174
171 171 171
167 167 167
162 162 162
158 158 158
157 157 157
155 155 155
152 152 152
142 142 142
137 137 137
141 141 141
145 145 145
148 148 148
149 149 149
150 150 150
151 151 151
148 148 148
147 147 147
146 146 146
145 145 145
144 144 144
143 143 143
143 143 143
142 142 142
140 140 140
137 137 137
135 135 135
133 133 133
131 131 131
131 131 131
129 129 129
126 126 126
118 118 118
98 98 98
109 109 109
108 108 108
111 111 111
111 111 111
113 113 113
114 114 114
115 115 115
113 113 113
113 113 113
117 117 117
139 139 139
150 150 150
155 155 155
158 158 158
159 159 159
159 159 159
161 161 161
164 164 164
167 167 167
173 173 173
177 177 177
176 176 176
170 170 170
153 153 153
128 128 128
118 118 118
116 116 116
114 114 114
113 113 113
113 113 113
109 109 109
103 103 103
96 96 96
86 86 86
81 81 81
172 172 172
191 191 191
192 192 192
189 189 189
188 188 188
188 188 188
188 188 188
187 187 187
190 190 190
191 191 191
193 193 193
195 195 195
195 195 195
195 195 195
196 196 196
196 196 196
150 150 150
155 155 155
149 149 149
144 144 144
141 141 141
140 140 140
138 138 138
136 136 136
136 136 136
141 141 141
155 155 155
171 171 171
181 181 181
187 187 187
189 189 189
187 187 187
183 183 183
178 178 178
173 173 173
168 168 168
166 166 166
163 163 163
160 160 160
155 155 155
147 147 147
149 149 149
152 152 152
157 157 157
158 158 158
160 160 160
159 159 159
159 159 159
156 156 156
155 155 155
154 154 154
152 152 152
150 150 150
149 149 149
147 147 147
145 145 145
141 141 141
136 136 136
132 132 132
130 130 130
131 131 131
133 133 133
132 132 132
123 123 123
101 101 101
114 114 114
115 115 115
118 118 118
121 121 121
122 122 122
121 121 121
120 120 120
120 120 120
115 115 115
116 116 116
150 150 150
160 160 160
163 163 163
166 166 166
169 169 169
170 170 170
172 172 172
176 176 176
181 181 181
190 190 190
190 190 190
185 185 185
172 172 172
155 155 155
132 132 132
128 128 128
126 126 126
124 124 124
124 124 124
124 124 124
118 118 118
112 112 112
106 106 106
95 95 95
94 94 94
182 182 182
201 201 201
202 202 202
201 201 201
200 200 200
201 201 201
201 201 201
201 201 201
202 202 202
203 203 203
204 204 204
204 204 204
204 204 204
205 205 205
206 206 206
207 207 207
154 154 154
158 158 158
153 153 153
147 147 147
144 144 144
143 143 143
140 140 140
139 139 139
136 136 136
141 141 141
157 157 157
175 175 175
183 183 183
185 185 185
187 187 187
186 186 186
185 185 185
182 182 182
177 177 177
171 171 171
166 166 166
161 161 161
159 159 159
155 155 155
150 150 150
149 149 149
152 152 152
155 155 155
157 157 157
159 159 159
159 159 159
158 158 158
156 156 156
154 154 154
152 152 152
150 150 150
148 148 148
141 141 141
123 123 123
103 103 103
89 89 89
77 77 77
67 67 67
64 64 64
64 64 64
75 75 75
97 97 97
112 112 112
96 96 96
114 114 114
116 116 116
120 120 120
121 121 121
121 121 121
118 118 118
118 118 118
109 109 109
117 117 117
144 144 144
155 155 155
161 161 161
163 163 163
166 166 166
168 168 168
170 170 170
174 174 174
178 178 178
190 190 190
193 193 193
188 188 188
182 182 182
165 165 165
148 148 148
133 133 133
130 130 130
128 128 128
128 128 128
128 128 128
127 127 127
125 125 125
120 120 120
111 111 111
104 104 104
101 101 101
181 181 181
200 200 200
201 201 201
202 202 202
201 201 201
202 202 202
201 201 201
201 201 201
202 202 202
202 202 202
202 202 202
203 203 203
203 203 203
204 204 204
206 206 206
207 207 207
156 156 156
161 161 161
157 157 157
150 150 150
148 148 148
147 147 147
144 144 144
142 142 142
137 137 137
141 141 141
156 156 156
169 169 169
173 173 173
178 178 178
179 179 179
180 180 180
180 180 180
179 179 179
177 177 177
173 173 173
167 167 167
161 161 161
157 157 157
153 153 153
152 152 152
149 149 149
150 150 150
153 153 153
157 157 157
159 159 159
158 158 158
157 157 157
156 156 156
153 153 153
149 149 149
146 146 146
133 133 133
88 88 88
53 53 53
44 44 44
42 42 42
41 41 41
41 41 41
40 40 40
41 41 41
42 42 42
43 43 43
47 47 47
63 63 63
93 93 93
113 113 113
120 120 120
115 115 115
116 116 116
113 113 113
101 101 101
128 128 128
147 147 147
154 154 154
159 159 159
163 163 163
165 165 165
169 169 169
170 170 170
174 174 174
177 177 177
187 187 187
193 193 193
189 189 189
184 184 184
175 175 175
161 161 161
145 145 145
136 136 136
134 134 134
134 134 134
136 136 136
135 135 135
134 134 134
130 130 130
124 124 124
115 115 115
106 106 106
96 96 96
179 179 179
200 200 200
202 202 202
206 206 206
205 205 205
204 204 204
203 203 203
202 202 202
201 201 201
202 202 202
202 202 202
203 203 203
204 204 204
205 205 205
207 207 207
209 209 209
159 159 159
163 163 163
158 158 158
152 152 152
151 151 151
150 150 150
149 149 149
145 145 145
137 137 137
140 140 140
151 151 151
161 161 161
167 167 167
170 170 170
172 172 172
174 174 174
173 173 173
172 172 172
172 172 172
169 169 169
165 165 165
161 161 161
156 156 156
153 153 153
150 150 150
148 148 148
147 147 147
150 150 150
154 154 154
157 157 157
156 156 156
156 156 156
153 153 153
150 150 150
144 144 144
126 126 126
77 77 77
46 46 46
40 40 40
35 35 35
33 33 33
33 33 33
34 34 34
36 36 36
38 38 38
39 39 39
42 42 42
45 45 45
47 47 47
47 47 47
53 53 53
81 81 81
101 101 101
102 102 102
100 100 100
134 134 134
147 147 147
153 153 153
157 157 157
162 162 162
164 164 164
167 167 167
169 169 169
172 172 172
175 175 175
182 182 182
188 188 188
188 188 188
185 185 185
183 183 183
170 170 170
156 156 156
150 150 150
147 147 147
147 147 147
148 148 148
147 147 147
145 145 145
141 141 141
135 135 135
127 127 127
115 115 115
98 98 98
93 93 93
185 185 185
200 200 200
202 202 202
205 205 205
203 203 203
203 203 203
201 201 201
200 200 200
200 200 200
201 201 201
202 202 202
204 204 204
205 205 205
207 207 207
211 211 211
212 212 212
159 159 159
163 163 163
159 159 159
155 155 155
155 155 155
154 154 154
152 152 152
147 147 147
137 137 137
138 138 138
148 148 148
159 159 159
163 163 163
167 167 167
169 169 169
169 169 169
167 167 167
166 166 166
165 165 165
164 164 164
162 162 162
159 159 159
155 155 155
150 150 150
148 148 148
147 147 147
147 147 147
148 148 148
152 152 152
154 154 154
154 154 154
151 151 151
146 146 146
123 123 123
88 88 88
55 55 55
41 41 41
37 37 37
31 31 31
30 30 30
29 29 29
31 31 31
34 34 34
36 36 36
39 39 39
39 39 39
39 39 39
40 40 40
40 40 40
41 41 41
42 42 42
44 44 44
46 46 46
73 73 73
130 130 130
144 144 144
152 152 152
156 156 156
159 159 159
164 164 164
165 165 165
166 166 166
170 170 170
174 174 174
180 180 180
187 187 187
184 184 184
185 185 185
187 187 187
182 182 182
172 172 172
169 169 169
165 165 165
161 161 161
161 161 161
158 158 158
153 153 153
150 150 150
145 145 145
138 138 138
126 126 126
110 110 110
93 93 93
99 99 99
191 191 191
200 200 200
204 204 204
205 205 205
202 202 202
202 202 202
202 202 202
202 202 202
202 202 202
204 204 204
205 205 205
207 207 207
208 208 208
210 210 210
212 212 212
213 213 213
159 159 159
163 163 163
157 157 157
156 156 156
157 157 157
157 157 157
156 156 156
150 150 150
138 138 138
137 137 137
145 145 145
155 155 155
159 159 159
162 162 162
163 163 163
162 162 162
162 162 162
161 161 161
160 160 160
158 158 158
158 158 158
157 157 157
153 153 153
149 149 149
146 146 146
146 146 146
145 145 145
147 147 147
153 153 153
154 154 154
141 141 141
115 115 115
84 84 84
51 51 51
42 42 42
38 38 38
32 32 32
26 26 26
23 23 23
24 24 24
28 28 28
32 32 32
34 34 34
36 36 36
36 36 36
35 35 35
35 35 35
34 34 34
35 35 35
35 35 35
36 36 36
39 39 39
41 41 41
41 41 41
55 55 55
117 117 117
150 150 150
156 156 156
159 159 159
162 162 162
165 165 165
168 168 168
172 172 172
176 176 176
185 185 185
185 185 185
182 182 182
189 189 189
189 189 189
184 184 184
181 181 181
177 177 177
174 174 174
170 170 170
161 161 161
153 153 153
150 150 150
146 146 146
142 142 142
131 131 131
117 117 117
104 104 104
92 92 92
115 115 115
190 190 190
199 199 199
203 203 203
204 204 204
201 201 201
201 201 201
201 201 201
201 201 201
202 202 202
203 203 203
205 205 205
207 207 207
208 208 208
209 209 209
210 210 210
210 210 210
158 158 158
162 162 162
155 155 155
158 158 158
161 161 161
161 161 161
160 160 160
152 152 152
138 138 138
136 136 136
141 141 141
148 148 148
152 152 152
155 155 155
154 154 154
153 153 153
151 151 151
151 151 151
151 151 151
152 152 152
153 153 153
152 152 152
149 149 149
147 147 147
144 144 144
143 143 143
145 145 145
147 147 147
152 152 152
154 154 154
108 108 108
57 57 57
55 55 55
41 41 41
38 38 38
32 32 32
26 26 26
23 23 23
22 22 22
25 25 25
28 28 28
32 32 32
33 33 33
33 33 33
32 32 32
31 31 31
30 30 30
31 31 31
30 30 30
31 31 31
31 31 31
33 33 33
34 34 34
34 34 34
35 35 35
41 41 41
94 94 94
150 150 150
158 158 158
162 162 162
165 165 165
169 169 169
173 173 173
181 181 181
185 185 185
182 182 182
184 184 184
190 190 190
189 189 189
185 185 185
183 183 183
177 177 177
171 171 171
162 162 162
157 157 157
153 153 153
152 152 152
146 146 146
140 140 140
127 127 127
115 115 115
103 103 103
94 94 94
127 127 127
189 189 189
197 197 197
202 202 202
203 203 203
202 202 202
203 203 203
201 201 201
203 203 203
205 205 205
205 205 205
205 205 205
205 205 205
206 206 206
206 206 206
207 207 207
209 209 209
159 159 159
161 161 161
154 154 154
160 160 160
162 162 162
162 162 162
160 160 160
151 151 151
135 135 135
133 133 133
137 137 137
141 141 141
145 145 145
146 146 146
144 144 144
142 142 142
141 141 141
142 142 142
143 143 143
146 146 146
148 148 148
148 148 148
147 147 147
144 144 144
142 142 142
142 142 142
144 144 144
149 149 149
155 155 155
161 161 161
137 137 137
62 62 62
56 56 56
40 40 40
35 35 35
30 30 30
23 23 23
21 21 21
24 24 24
27 27 27
30 30 30
32 32 32
33 33 33
31 31 31
30 30 30
29 29 29
29 29 29
29 29 29
30 30 30
31 31 31
30 30 30
30 30 30
30 30 30
30 30 30
33 33 33
36 36 36
38 38 38
74 74 74
144 144 144
159 159 159
164 164 164
170 170 170
179 179 179
185 185 185
185 185 185
184 184 184
190 190 190
191 191 191
186 186 186
176 176 176
173 173 173
168 168 168
166 166 166
161 161 161
160 160 160
156 156 156
149 149 149
139 139 139
131 131 131
121 121 121
111 111 111
102 102 102
96 96 96
140 140 140
188 188 188
196 196 196
203 203 203
204 204 204
206 206 206
206 206 206
205 205 205
205 205 205
204 204 204
203 203 203
203 203 203
203 203 203
204 204 204
206 206 206
206 206 206
207 207 207
158 158 158
157 157 157
156 156 156
161 161 161
162 162 162
161 161 161
159 159 159
150 150 150
133 133 133
130 130 130
133 133 133
136 136 136
139 139 139
141 141 141
141 141 141
138 138 138
136 136 136
136 136 136
136 136 136
140 140 140
142 142 142
143 143 143
144 144 144
142 142 142
141 141 141
141 141 141
143 143 143
148 148 148
156 156 156
166 166 166
170 170 170
102 102 102
61 61 61
40 40 40
35 35 35
27 27 27
26 26 26
25 25 25
29 29 29
33 33 33
35 35 35
35 35 35
34 34 34
30 30 30
29 29 29
28 28 28
27 27 27
30 30 30
30 30 30
30 30 30
31 31 31
30 30 30
30 30 30
31 31 31
32 32 32
34 34 34
35 35 35
38 38 38
62 62 62
142 142 142
162 162 162
173 173 173
184 184 184
184 184 184
185 185 185
189 189 189
191 191 191
185 185 185
172 172 172
171 171 171
171 171 171
170 170 170
166 166 166
164 164 164
160 160 160
147 147 147
133 133 133
125 125 125
119 119 119
112 112 112
108 108 108
102 102 102
97 97 97
152 152 152
188 188 188
196 196 196
203 203 203
205 205 205
206 206 206
206 206 206
204 204 204
202 202 202
201 201 201
201 201 201
203 203 203
204 204 204
204 204 204
205 205 205
206 206 206
207 207 207
153 153 153
153 153 153
156 156 156
161 161 161
162 162 162
160 160 160
154 154 154
147 147 147
131 131 131
128 128 128
132 132 132
136 136 136
138 138 138
140 140 140
140 140 140
139 139 139
138 138 138
137 137 137
135 135 135
137 137 137
138 138 138
139 139 139
139 139 139
139 139 139
140 140 140
140 140 140
141 141 141
146 146 146
156 156 156
167 167 167
181 181 181
146 146 146
71 71 71
41 41 41
34 34 34
29 29 29
28 28 28
31 31 31
36 36 36
41 41 41
40 40 40
38 38 38
33 33 33
29 29 29
27 27 27
27 27 27
29 29 29
31 31 31
31 31 31
31 31 31
31 31 31
31 31 31
32 32 32
33 33 33
34 34 34
35 35 35
35 35 35
38 38 38
45 45 45
76 76 76
151 151 151
181 181 181
184 184 184
183 183 183
187 187 187
190 190 190
183 183 183
169 169 169
171 171 171
171 171 171
167 167 167
163 163 163
157 157 157
152 152 152
139 139 139
129 129 129
123 123 123
120 120 120
116 116 116
110 110 110
106 106 106
101 101 101
98 98 98
160 160 160
190 190 190
199 199 199
205 205 205
205 205 205
205 205 205
203 203 203
202 202 202
202 202 202
201 201 201
201 201 201
203 203 203
205 205 205
206 206 206
207 207 207
208 208 208
209 209 209
149 149 149
149 149 149
155 155 155
159 159 159
160 160 160
148 148 148
121 121 121
139 139 139
132 132 132
133 133 133
137 137 137
142 142 142
147 147 147
150 150 150
152 152 152
150 150 150
147 147 147
143 143 143
139 139 139
135 135 135
135 135 135
134 134 134
134 134 134
135 135 135
137 137 137
139 139 139
142 142 142
146 146 146
156 156 156
168 168 168
182 182 182
167 167 167
103 103 103
57 57 57
49 49 49
48 48 48
51 51 51
54 54 54
54 54 54
58 58 58
57 57 57
52 52 52
41 41 41
31 31 31
29 29 29
28 28 28
32 32 32
35 35 35
35 35 35
36 36 36
35 35 35
35 35 35
36 36 36
37 37 37
38 38 38
35 35 35
37 37 37
40 40 40
55 55 55
104 104 104
164 164 164
183 183 183
181 181 181
183 183 183
187 187 187
184 184 184
169 169 169
169 169 169
169 169 169
164 164 164
155 155 155
153 153 153
148 148 148
137 137 137
128 128 128
123 123 123
119 119 119
115 115 115
112 112 112
108 108 108
104 104 104
100 100 100
101 101 101
169 169 169
192 192 192
200 200 200
205 205 205
205 205 205
204 204 204
203 203 203
202 202 202
202 202 202
202 202 202
202 202 202
204 204 204
205 205 205
206 206 206
207 207 207
208 208 208
210 210 210
142 142 142
142 142 142
153 153 153
155 155 155
154 154 154
106 106 106
74 74 74
134 134 134
128 128 128
131 131 131
138 138 138
145 145 145
153 153 153
159 159 159
162 162 162
160 160 160
158 158 158
153 153 153
146 146 146
138 138 138
135 135 135
133 133 133
132 132 132
133 133 133
134 134 134
138 138 138
142 142 142
147 147 147
155 155 155
162 162 162
172 172 172
165 165 165
146 146 146
95 95 95
84 84 84
87 87 87
97 97 97
107 107 107
102 102 102
97 97 97
102 102 102
85 85 85
60 60 60
44 44 44
56 56 56
56 56 56
51 51 51
51 51 51
45 45 45
47 47 47
40 40 40
42 42 42
43 43 43
44 44 44
45 45 45
40 40 40
41 41 41
49 49 49
92 92 92
148 148 148
175 175 175
180 180 180
178 178 178
180 180 180
180 180 180
169 169 169
166 166 166
165 165 165
159 159 159
155 155 155
153 153 153
144 144 144
131 131 131
125 125 125
122 122 122
118 118 118
115 115 115
113 113 113
110 110 110
106 106 106
104 104 104
100 100 100
111 111 111
178 178 178
193 193 193
197 197 197
203 203 203
205 205 205
204 204 204
204 204 204
202 202 202
202 202 202
203 203 203
204 204 204
207 207 207
207 207 207
208 208 208
208 208 208
207 207 207
207 207 207
130 130 130
137 137 137
146 146 146
148 148 148
125 125 125
48 48 48
54 54 54
129 129 129
127 127 127
131 131 131
138 138 138
146 146 146
151 151 151
155 155 155
158 158 158
161 161 161
161 161 161
157 157 157
152 152 152
143 143 143
138 138 138
132 132 132
132 132 132
132 132 132
134 134 134
139 139 139
143 143 143
148 148 148
156 156 156
160 160 160
166 166 166
159 159 159
153 153 153
137 137 137
133 133 133
136 136 136
157 157 157
168 168 168
169 169 169
164 164 164
173 173 173
144 144 144
96 96 96
77 77 77
105 105 105
119 119 119
95 95 95
77 77 77
80 80 80
82 82 82
65 65 65
65 65 65
65 65 65
63 63 63
64 64 64
51 51 51
52 52 52
81 81 81
137 137 137
165 165 165
174 174 174
175 175 175
172 172 172
177 177 177
167 167 167
164 164 164
161 161 161
157 157 157
153 153 153
149 149 149
136 136 136
126 126 126
122 122 122
121 121 121
119 119 119
118 118 118
117 117 117
115 115 115
112 112 112
109 109 109
103 103 103
100 100 100
125 125 125
182 182 182
193 193 193
197 197 197
204 204 204
203 203 203
205 205 205
204 204 204
204 204 204
204 204 204
204 204 204
205 205 205
205 205 205
205 205 205
203 203 203
202 202 202
201 201 201
202 202 202
78 78 78
105 105 105
117 117 117
112 112 112
61 61 61
34 34 34
35 35 35
104 104 104
121 121 121
124 124 124
132 132 132
140 140 140
146 146 146
152 152 152
157 157 157
161 161 161
161 161 161
160 160 160
155 155 155
147 147 147
142 142 142
138 138 138
134 134 134
135 135 135
137 137 137
141 141 141
148 148 148
153 153 153
159 159 159
160 160 160
166 166 166
163 163 163
157 157 157
151 151 151
151 151 151
161 161 161
184 184 184
195 195 195
200 200 200
202 202 202
201 201 201
190 190 190
163 163 163
154 154 154
164 164 164
173 173 173
153 153 153
135 135 135
142 142 142
140 140 140
125 125 125
109 109 109
106 106 106
96 96 96
93 93 93
76 76 76
82 82 82
121 121 121
155 155 155
166 166 166
168 168 168
168 168 168
170 170 170
166 166 166
159 159 159
156 156 156
152 152 152
148 148 148
143 143 143
127 127 127
119 119 119
120 120 120
121 121 121
122 122 122
122 122 122
121 121 121
119 119 119
117 117 117
113 113 113
108 108 108
104 104 104
101 101 101
137 137 137
183 183 183
191 191 191
196 196 196
203 203 203
202 202 202
206 206 206
206 206 206
205 205 205
204 204 204
203 203 203
201 201 201
201 201 201
201 201 201
201 201 201
201 201 201
201 201 201
203 203 203
53 53 53
56 56 56
56 56 56
55 55 55
50 50 50
44 44 44
34 34 34
101 101 101
128 128 128
130 130 130
140 140 140
150 150 150
154 154 154
158 158 158
161 161 161
165 165 165
166 166 166
163 163 163
159 159 159
152 152 152
147 147 147
143 143 143
141 141 141
140 140 140
143 143 143
146 146 146
152 152 152
157 157 157
162 162 162
166 166 166
173 173 173
175 175 175
170 170 170
162 162 162
160 160 160
173 173 173
193 193 193
201 201 201
205 205 205
206 206 206
206 206 206
201 201 201
190 190 190
189 189 189
188 188 188
189 189 189
185 185 185
189 189 189
193 193 193
190 190 190
168 168 168
143 143 143
132 132 132
125 125 125
118 118 118
107 107 107
117 117 117
138 138 138
153 153 153
161 161 161
164 164 164
165 165 165
164 164 164
154 154 154
149 149 149
147 147 147
144 144 144
140 140 140
124 124 124
117 117 117
121 121 121
123 123 123
125 125 125
126 126 126
125 125 125
125 125 125
123 123 123
118 118 118
114 114 114
108 108 108
102 102 102
99 99 99
151 151 151
185 185 185
193 193 193
198 198 198
204 204 204
203 203 203
207 207 207
205 205 205
203 203 203
199 199 199
196 196 196
197 197 197
197 197 197
198 198 198
198 198 198
198 198 198
200 200 200
202 202 202
51 51 51
54 54 54
53 53 53
52 52 52
49 49 49
45 45 45
41 41 41
113 113 113
139 139 139
135 135 135
143 143 143
150 150 150
155 155 155
159 159 159
162 162 162
162 162 162
163 163 163
161 161 161
159 159 159
155 155 155
152 152 152
147 147 147
145 145 145
145 145 145
147 147 147
151 151 151
157 157 157
166 166 166
171 171 171
176 176 176
186 186 186
193 193 193
182 182 182
172 172 172
175 175 175
191 191 191
196 196 196
196 196 196
201 201 201
206 206 206
205 205 205
202 202 202
190 190 190
190 190 190
193 193 193
195 195 195
196 196 196
200 200 200
202 202 202
201 201 201
190 190 190
168 168 168
145 145 145
136 136 136
128 128 128
125 125 125
132 132 132
140 140 140
150 150 150
157 157 157
161 161 161
164 164 164
153 153 153
147 147 147
144 144 144
144 144 144
139 139 139
123 123 123
120 120 120
123 123 123
127 127 127
128 128 128
128 128 128
129 129 129
130 130 130
130 130 130
126 126 126
121 121 121
117 117 117
109 109 109
101 101 101
99 99 99
166 166 166
188 188 188
194 194 194
198 198 198
202 202 202
202 202 202
202 202 202
200 200 200
197 197 197
195 195 195
196 196 196
196 196 196
197 197 197
197 197 197
199 199 199
200 200 200
201 201 201
203 203 203
51 51 51
53 53 53
53 53 53
52 52 52
49 49 49
42 42 42
29 29 29
110 110 110
151 151 151
142 142 142
143 143 143
148 148 148
153 153 153
155 155 155
158 158 158
159 159 159
159 159 159
158 158 158
156 156 156
156 156 156
154 154 154
152 152 152
152 152 152
151 151 151
152 152 152
158 158 158
166 166 166
178 178 178
185 185 185
189 189 189
196 196 196
199 199 199
187 187 187
180 180 180
190 190 190
198 198 198
191 191 191
186 186 186
192 192 192
202 202 202
202 202 202
199 199 199
182 182 182
184 184 184
193 193 193
197 197 197
197 197 197
199 199 199
199 199 199
199 199 199
196 196 196
186 186 186
159 159 159
141 141 141
135 135 135
136 136 136
139 139 139
146 146 146
151 151 151
155 155 155
163 163 163
157 157 157
148 148 148
145 145 145
146 146 146
143 143 143
127 127 127
125 125 125
126 126 126
127 127 127
129 129 129
130 130 130
132 132 132
133 133 133
133 133 133
132 132 132
127 127 127
121 121 121
114 114 114
106 106 106
101 101 101
110 110 110
176 176 176
190 190 190
194 194 194
197 197 197
202 202 202
202 202 202
201 201 201
199 199 199
197 197 197
196 196 196
197 197 197
198 198 198
198 198 198
198 198 198
201 201 201
202 202 202
203 203 203
204 204 204
48 48 48
51 51 51
51 51 51
49 49 49
45 45 45
30 30 30
11 11 11
84 84 84
158 158 158
155 155 155
144 144 144
146 146 146
150 150 150
154 154 154
156 156 156
157 157 157
159 159 159
158 158 158
156 156 156
155 155 155
156 156 156
156 156 156
157 157 157
157 157 157
161 161 161
169 169 169
180 180 180
187 187 187
191 191 191
192 192 192
195 195 195
198 198 198
189 189 189
190 190 190
200 200 200
201 201 201
190 190 190
182 182 182
183 183 183
195 195 195
196 196 196
190 190 190
170 170 170
175 175 175
190 190 190
196 196 196
196 196 196
193 193 193
190 190 190
190 190 190
191 191 191
190 190 190
182 182 182
162 162 162
147 147 147
151 151 151
154 154 154
155 155 155
155 155 155
162 162 162
163 163 163
152 152 152
149 149 149
147 147 147
154 154 154
134 134 134
131 131 131
130 130 130
128 128 128
131 131 131
133 133 133
134 134 134
134 134 134
133 133 133
132 132 132
128 128 128
124 124 124
118 118 118
113 113 113
106 106 106
101 101 101
130 130 130
180 180 180
188 188 188
192 192 192
196 196 196
200 200 200
200 200 200
200 200 200
199 199 199
200 200 200
199 199 199
199 199 199
200 200 200
202 202 202
204 204 204
204 204 204
204 204 204
203 203 203
201 201 201
49 49 49
51 51 51
50 50 50
50 50 50
44 44 44
25 25 25
13 13 13
69 69 69
158 158 158
165 165 165
154 154 154
151 151 151
154 154 154
158 158 158
161 161 161
162 162 162
162 162 162
161 161 161
161 161 161
159 159 159
160 160 160
161 161 161
162 162 162
164 164 164
169 169 169
179 179 179
187 187 187
191 191 191
192 192 192
192 192 192
191 191 191
195 195 195
191 191 191
196 196 196
206 206 206
202 202 202
189 189 189
176 176 176
177 177 177
189 189 189
188 188 188
175 175 175
158 158 158
172 172 172
184 184 184
194 194 194
195 195 195
189 189 189
176 176 176
175 175 175
183 183 183
192 192 192
194 194 194
181 181 181
168 168 168
171 171 171
174 174 174
171 171 171
169 169 169
175 175 175
159 159 159
153 153 153
156 156 156
160 160 160
150 150 150
138 138 138
136 136 136
133 133 133
133 133 133
135 135 135
136 136 136
137 137 137
137 137 137
136 136 136
134 134 134
130 130 130
124 124 124
119 119 119
112 112 112
108 108 108
104 104 104
148 148 148
179 179 179
185 185 185
190 190 190
194 194 194
200 200 200
200 200 200
201 201 201
201 201 201
201 201 201
200 200 200
202 202 202
204 204 204
204 204 204
203 203 203
201 201 201
199 199 199
197 197 197
196 196 196
47 47 47
50 50 50
50 50 50
47 47 47
35 35 35
16 16 16
11 11 11
89 89 89
160 160 160
174 174 174
167 167 167
158 158 158
155 155 155
155 155 155
156 156 156
157 157 157
159 159 159
159 159 159
160 160 160
163 163 163
164 164 164
166 166 166
169 169 169
173 173 173
178 178 178
184 184 184
189 189 189
192 192 192
191 191 191
188 188 188
185 185 185
189 189 189
193 193 193
202 202 202
209 209 209
202 202 202
185 185 185
174 174 174
175 175 175
184 184 184
180 180 180
163 163 163
150 150 150
170 170 170
182 182 182
189 189 189
192 192 192
187 187 187
171 171 171
165 165 165
176 176 176
194 194 194
200 200 200
192 192 192
183 183 183
183 183 183
187 187 187
184 184 184
187 187 187
175 175 175
160 160 160
162 162 162
166 166 166
160 160 160
150 150 150
146 146 146
142 142 142
141 141 141
142 142 142
142 142 142
143 143 143
142 142 142
142 142 142
139 139 139
136 136 136
131 131 131
126 126 126
120 120 120
113 113 113
110 110 110
113 113 113
164 164 164
180 180 180
186 186 186
191 191 191
195 195 195
199 199 199
200 200 200
203 203 203
203 203 203
203 203 203
203 203 203
202 202 202
201 201 201
199 199 199
198 198 198
196 196 196
195 195 195
194 194 194
195 195 195
47 47 47
50 50 50
49 49 49
45 45 45
33 33 33
12 12 12
12 12 12
121 121 121
164 164 164
179 179 179
181 181 181
172 172 172
163 163 163
159 159 159
159 159 159
159 159 159
159 159 159
161 161 161
163 163 163
166 166 166
169 169 169
172 172 172
177 177 177
181 181 181
186 186 186
192 192 192
195 195 195
192 192 192
188 188 188
181 181 181
178 178 178
183 183 183
195 195 195
206 206 206
209 209 209
198 198 198
182 182 182
176 176 176
179 179 179
185 185 185
178 178 178
163 163 163
150 150 150
170 170 170
179 179 179
189 189 189
190 190 190
187 187 187
171 171 171
160 160 160
169 169 169
192 192 192
202 202 202
198 198 198
187 187 187
186 186 186
189 189 189
192 192 192
192 192 192
180 180 180
172 172 172
179 179 179
163 163 163
158 158 158
153 153 153
151 151 151
149 149 149
150 150 150
151 151 151
149 149 149
147 147 147
145 145 145
142 142 142
137 137 137
132 132 132
127 127 127
121 121 121
115 115 115
111 111 111
107 107 107
128 128 128
174 174 174
182 182 182
188 188 188
192 192 192
195 195 195
200 200 200
201 201 201
204 204 204
203 203 203
201 201 201
198 198 198
196 196 196
197 197 197
196 196 196
196 196 196
196 196 196
196 196 196
196 196 196
196 196 196
44 44 44
47 47 47
45 45 45
41 41 41
28 28 28
10 10 10
21 21 21
138 138 138
168 168 168
183 183 183
187 187 187
187 187 187
178 178 178
166 166 166
164 164 164
162 162 162
161 161 161
162 162 162
165 165 165
167 167 167
170 170 170
174 174 174
180 180 180
189 189 189
196 196 196
199 199 199
201 201 201
193 193 193
182 182 182
172 172 172
170 170 170
180 180 180
198 198 198
206 206 206
206 206 206
193 193 193
183 183 183
179 179 179
183 183 183
184 184 184
178 178 178
169 169 169
158 158 158
173 173 173
177 177 177
189 189 189
190 190 190
190 190 190
176 176 176
160 160 160
167 167 167
191 191 191
201 201 201
199 199 199
188 188 188
185 185 185
189 189 189
198 198 198
198 198 198
194 194 194
195 195 195
173 173 173
159 159 159
157 157 157
155 155 155
155 155 155
155 155 155
158 158 158
158 158 158
156 156 156
156 156 156
152 152 152
148 148 148
142 142 142
136 136 136
129 129 129
117 117 117
110 110 110
107 107 107
104 104 104
144 144 144
180 180 180
185 185 185
190 190 190
194 194 194
198 198 198
200 200 200
200 200 200
199 199 199
197 197 197
195 195 195
195 195 195
195 195 195
194 194 194
195 195 195
195 195 195
196 196 196
196 196 196
197 197 197
197 197 197
45 45 45
48 48 48
45 45 45
40 40 40
29 29 29
9 9 9
46 46 46
158 158 158
178 178 178
187 187 187
187 187 187
185 185 185
183 183 183
176 176 176
169 169 169
167 167 167
164 164 164
165 165 165
167 167 167
170 170 170
173 173 173
175 175 175
181 181 181
191 191 191
199 199 199
204 204 204
204 204 204
193 193 193
174 174 174
165 165 165
166 166 166
180 180 180
198 198 198
204 204 204
200 200 200
189 189 189
185 185 185
184 184 184
188 188 188
183 183 183
178 178 178
174 174 174
163 163 163
174 174 174
183 183 183
193 193 193
194 194 194
195 195 195
185 185 185
167 167 167
170 170 170
187 187 187
198 198 198
199 199 199
187 187 187
181 181 181
193 193 193
197 197 197
202 202 202
205 205 205
194 194 194
174 174 174
164 164 164
162 162 162
160 160 160
157 157 157
157 157 157
161 161 161
162 162 162
161 161 161
160 160 160
156 156 156
151 151 151
144 144 144
136 136 136
128 128 128
117 117 117
111 111 111
106 106 106
104 104 104
161 161 161
184 184 184
189 189 189
192 192 192
194 194 194
195 195 195
195 195 195
199 199 199
197 197 197
195 195 195
194 194 194
193 193 193
193 193 193
194 194 194
194 194 194
195 195 195
196 196 196
196 196 196
197 197 197
197 197 197
45 45 45
47 47 47
44 44 44
38 38 38
31 31 31
27 27 27
80 80 80
174 174 174
187 187 187
188 188 188
187 187 187
186 186 186
184 184 184
180 180 180
174 174 174
171 171 171
167 167 167
168 168 168
170 170 170
173 173 173
175 175 175
178 178 178
183 183 183
190 190 190
199 199 199
207 207 207
206 206 206
196 196 196
170 170 170
162 162 162
165 165 165
182 182 182
197 197 197
200 200 200
194 194 194
186 186 186
186 186 186
190 190 190
192 192 192
185 185 185
181 181 181
182 182 182
164 164 164
178 178 178
189 189 189
198 198 198
199 199 199
198 198 198
190 190 190
178 178 178
177 177 177
187 187 187
196 196 196
195 195 195
186 186 186
178 178 178
188 188 188
194 194 194
206 206 206
208 208 208
203 203 203
195 195 195
182 182 182
171 171 171
166 166 166
163 163 163
161 161 161
164 164 164
164 164 164
163 163 163
161 161 161
158 158 158
152 152 152
145 145 145
134 134 134
120 120 120
111 111 111
107 107 107
105 105 105
108 108 108
173 173 173
183 183 183
186 186 186
188 188 188
189 189 189
192 192 192
194 194 194
196 196 196
195 195 195
194 194 194
193 193 193
192 192 192
192 192 192
193 193 193
194 194 194
196 196 196
197 197 197
198 198 198
199 199 199
199 199 199
45 45 45
46 46 46
42 42 42
35 35 35
19 19 19
9 9 9
111 111 111
186 186 186
190 190 190
190 190 190
190 190 190
187 187 187
185 185 185
184 184 184
182 182 182
180 180 180
180 180 180
180 180 180
181 181 181
183 183 183
185 185 185
187 187 187
192 192 192
197 197 197
202 202 202
206 206 206
206 206 206
197 197 197
169 169 169
160 160 160
166 166 166
183 183 183
191 191 191
194 194 194
188 188 188
183 183 183
186 186 186
195 195 195
197 197 197
190 190 190
189 189 189
189 189 189
163 163 163
185 185 185
196 196 196
201 201 201
202 202 202
201 201 201
193 193 193
184 184 184
179 179 179
184 184 184
188 188 188
188 188 188
181 181 181
169 169 169
179 179 179
190 190 190
206 206 206
213 213 213
215 215 215
210 210 210
195 195 195
179 179 179
172 172 172
164 164 164
161 161 161
161 161 161
161 161 161
161 161 161
160 160 160
158 158 158
152 152 152
143 143 143
130 130 130
118 118 118
110 110 110
105 105 105
105 105 105
120 120 120
172 172 172
179 179 179
184 184 184
187 187 187
189 189 189
191 191 191
192 192 192
198 198 198
195 195 195
195 195 195
195 195 195
194 194 194
194 194 194
194 194 194
195 195 195
197 197 197
197 197 197
195 195 195
193 193 193
190 190 190
44 44 44
46 46 46
40 40 40
34 34 34
19 19 19
11 11 11
136 136 136
194 194 194
194 194 194
191 191 191
191 191 191
190 190 190
189 189 189
190 190 190
193 193 193
194 194 194
195 195 195
196 196 196
197 197 197
197 197 197
198 198 198
198 198 198
198 198 198
201 201 201
203 203 203
205 205 205
204 204 204
197 197 197
172 172 172
156 156 156
163 163 163
177 177 177
184 184 184
185 185 185
180 180 180
177 177 177
187 187 187
199 199 199
202 202 202
199 199 199
198 198 198
195 195 195
171 171 171
197 197 197
201 201 201
203 203 203
202 202 202
203 203 203
192 192 192
189 189 189
174 174 174
175 175 175
173 173 173
176 176 176
167 167 167
157 157 157
166 166 166
182 182 182
203 203 203
214 214 214
218 218 218
212 212 212
200 200 200
188 188 188
177 177 177
167 167 167
163 163 163
160 160 160
158 158 158
157 157 157
157 157 157
154 154 154
146 146 146
138 138 138
125 125 125
117 117 117
108 108 108
106 106 106
103 103 103
138 138 138
173 173 173
179 179 179
184 184 184
187 187 187
190 190 190
191 191 191
192 192 192
197 197 197
195 195 195
196 196 196
197 197 197
196 196 196
195 195 195
194 194 194
193 193 193
192 192 192
191 191 191
190 190 190
189 189 189
188 188 188
45 45 45
45 45 45
38 38 38
33 33 33
17 17 17
15 15 15
144 144 144
196 196 196
197 197 197
196 196 196
194 194 194
195 195 195
197 197 197
198 198 198
200 200 200
201 201 201
201 201 201
201 201 201
200 200 200
198 198 198
197 197 197
197 197 197
197 197 197
196 196 196
196 196 196
201 201 201
203 203 203
196 196 196
175 175 175
155 155 155
159 159 159
170 170 170
176 176 176
178 178 178
172 172 172
175 175 175
187 187 187
202 202 202
208 208 208
207 207 207
206 206 206
202 202 202
194 194 194
209 209 209
213 213 213
204 204 204
204 204 204
202 202 202
195 195 195
198 198 198
156 156 156
151 151 151
144 144 144
150 150 150
147 147 147
141 141 141
152 152 152
172 172 172
195 195 195
210 210 210
215 215 215
211 211 211
204 204 204
191 191 191
181 181 181
172 172 172
166 166 166
159 159 159
157 157 157
154 154 154
155 155 155
151 151 151
139 139 139
134 134 134
125 125 125
115 115 115
109 109 109
106 106 106
105 105 105
146 146 146
175 175 175
181 181 181
185 185 185
187 187 187
190 190 190
193 193 193
194 194 194
198 198 198
196 196 196
197 197 197
195 195 195
192 192 192
189 189 189
189 189 189
188 188 188
187 187 187
187 187 187
188 188 188
187 187 187
186 186 186
46 46 46
46 46 46
38 38 38
32 32 32
20 20 20
39 39 39
160 160 160
195 195 195
197 197 197
199 199 199
199 199 199
200 200 200
202 202 202
205 205 205
205 205 205
204 204 204
200 200 200
197 197 197
194 194 194
186 186 186
176 176 176
166 166 166
163 163 163
162 162 162
166 166 166
176 176 176
192 192 192
191 191 191
175 175 175
156 156 156
154 154 154
161 161 161
167 167 167
171 171 171
169 169 169
176 176 176
188 188 188
206 206 206
211 211 211
212 212 212
211 211 211
208 208 208
205 205 205
209 209 209
221 221 221
203 203 203
208 208 208
206 206 206
210 210 210
198 198 198
130 130 130
119 119 119
113 113 113
119 119 119
121 121 121
126 126 126
138 138 138
160 160 160
187 187 187
204 204 204
209 209 209
208 208 208
202 202 202
190 190 190
181 181 181
177 177 177
171 171 171
162 162 162
158 158 158
157 157 157
159 159 159
144 144 144
139 139 139
134 134 134
122 122 122
111 111 111
108 108 108
108 108 108
109 109 109
146 146 146
176 176 176
181 181 181
186 186 186
188 188 188
191 191 191
193 193 193
195 195 195
198 198 198
195 195 195
193 193 193
191 191 191
189 189 189
188 188 188
187 187 187
187 187 187
186 186 186
185 185 185
185 185 185
184 184 184
184 184 184
47 47 47
45 45 45
37 37 37
27 27 27
16 16 16
38 38 38
149 149 149
184 184 184
188 188 188
190 190 190
196 196 196
201 201 201
204 204 204
203 203 203
203 203 203
202 202 202
197 197 197
187 187 187
174 174 174
153 153 153
126 126 126
101 101 101
91 91 91
86 86 86
88 88 88
95 95 95
121 121 121
164 164 164
169 169 169
157 157 157
151 151 151
159 159 159
165 165 165
171 171 171
173 173 173
180 180 180
190 190 190
207 207 207
214 214 214
214 214 214
212 212 212
209 209 209
207 207 207
207 207 207
224 224 224
236 236 236
237 237 237
237 237 237
233 233 233
194 194 194
101 101 101
96 96 96
97 97 97
101 101 101
105 105 105
111 111 111
125 125 125
146 146 146
173 173 173
191 191 191
199 199 199
203 203 203
197 197 197
188 188 188
184 184 184
182 182 182
177 177 177
168 168 168
162 162 162
161 161 161
158 158 158
144 144 144
138 138 138
127 127 127
115 115 115
109 109 109
109 109 109
110 110 110
108 108 108
141 141 141
178 178 178
184 184 184
186 186 186
188 188 188
188 188 188
189 189 189
190 190 190
194 194 194
194 194 194
192 192 192
190 190 190
189 189 189
187 187 187
185 185 185
185 185 185
184 184 184
183 183 183
184 184 184
184 184 184
166 166 166
48 48 48
44 44 44
36 36 36
25 25 25
16 16 16
35 35 35
117 117 117
167 167 167
179 179 179
185 185 185
192 192 192
199 199 199
203 203 203
203 203 203
203 203 203
201 201 201
194 194 194
175 175 175
149 149 149
123 123 123
96 96 96
80 80 80
71 71 71
63 63 63
60 60 60
59 59 59
60 60 60
85 85 85
141 141 141
151 151 151
152 152 152
164 164 164
172 172 172
180 180 180
183 183 183
185 185 185
192 192 192
210 210 210
216 216 216
217 217 217
213 213 213
209 209 209
207 207 207
209 209 209
219 219 219
241 241 241
239 239 239
230 230 230
217 217 217
177 177 177
87 87 87
88 88 88
91 91 91
96 96 96
99 99 99
101 101 101
109 109 109
126 126 126
145 145 145
165 165 165
173 173 173
174 174 174
166 166 166
168 168 168
174 174 174
179 179 179
178 178 178
175 175 175
169 169 169
166 166 166
157 157 157
146 146 146
138 138 138
123 123 123
112 112 112
112 112 112
112 112 112
112 112 112
111 111 111
134 134 134
174 174 174
178 178 178
180 180 180
181 181 181
182 182 182
185 185 185
187 187 187
192 192 192
191 191 191
190 190 190
188 188 188
187 187 187
186 186 186
184 184 184
184 184 184
186 186 186
186 186 186
164 164 164
111 111 111
52 52 52
48 48 48
43 43 43
36 36 36
25 25 25
22 22 22
34 34 34
92 92 92
152 152 152
168 168 168
179 179 179
189 189 189
195 195 195
200 200 200
200 200 200
200 200 200
200 200 200
194 194 194
164 164 164
128 128 128
102 102 102
79 79 79
68 68 68
60 60 60
54 54 54
49 49 49
47 47 47
49 49 49
55 55 55
85 85 85
134 134 134
154 154 154
172 172 172
184 184 184
194 194 194
193 193 193
190 190 190
196 196 196
212 212 212
217 217 217
217 217 217
211 211 211
209 209 209
208 208 208
208 208 208
209 209 209
233 233 233
229 229 229
198 198 198
188 188 188
162 162 162
84 84 84
87 87 87
90 90 90
96 96 96
98 98 98
99 99 99
101 101 101
106 106 106
114 114 114
118 118 118
121 121 121
125 125 125
131 131 131
144 144 144
155 155 155
167 167 167
176 176 176
178 178 178
174 174 174
168 168 168
160 160 160
152 152 152
143 143 143
126 126 126
118 118 118
116 116 116
115 115 115
115 115 115
115 115 115
130 130 130
169 169 169
175 175 175
178 178 178
180 180 180
181 181 181
185 185 185
187 187 187
191 191 191
189 189 189
190 190 190
190 190 190
189 189 189
189 189 189
188 188 188
179 179 179
135 135 135
90 90 90
48 48 48
44 44 44
39 39 39
48 48 48
43 43 43
36 36 36
24 24 24
20 20 20
31 31 31
79 79 79
148 148 148
164 164 164
173 173 173
179 179 179
185 185 185
190 190 190
196 196 196
197 197 197
198 198 198
192 192 192
159 159 159
115 115 115
84 84 84
72 72 72
66 66 66
57 57 57
48 48 48
42 42 42
41 41 41
42 42 42
45 45 45
53 53 53
97 97 97
148 148 148
183 183 183
198 198 198
207 207 207
202 202 202
194 194 194
198 198 198
213 213 213
216 216 216
216 216 216
209 209 209
205 205 205
203 203 203
205 205 205
207 207 207
222 222 222
214 214 214
170 170 170
159 159 159
148 148 148
84 84 84
89 89 89
93 93 93
95 95 95
96 96 96
95 95 95
93 93 93
89 89 89
85 85 85
77 77 77
73 73 73
77 77 77
98 98 98
116 116 116
131 131 131
150 150 150
165 165 165
172 172 172
173 173 173
170 170 170
166 166 166
160 160 160
150 150 150
134 134 134
124 124 124
119 119 119
117 117 117
117 117 117
118 118 118
131 131 131
167 167 167
174 174 174
178 178 178
181 181 181
183 183 183
185 185 185
188 188 188
191 191 191
189 189 189
195 195 195
195 195 195
195 195 195
193 193 193
154 154 154
71 71 71
40 40 40
39 39 39
38 38 38
35 35 35
33 33 33
49 49 49
45 45 45
37 37 37
27 27 27
34 34 34
59 59 59
103 103 103
156 156 156
165 165 165
169 169 169
170 170 170
173 173 173
178 178 178
189 189 189
196 196 196
199 199 199
192 192 192
158 158 158
106 106 106
81 81 81
71 71 71
78 78 78
214 214 214
121 121 121
37 37 37
34 34 34
32 32 32
36 36 36
44 44 44
60 60 60
130 130 130
192 192 192
211 211 211
217 217 217
210 210 210
200 200 200
203 203 203
213 213 213
217 217 217
215 215 215
207 207 207
202 202 202
203 203 203
202 202 202
206 206 206
214 214 214
202 202 202
150 150 150
123 123 123
93 93 93
87 87 87
92 92 92
95 95 95
96 96 96
95 95 95
91 91 91
81 81 81
67 67 67
50 50 50
42 42 42
40 40 40
41 41 41
45 45 45
57 57 57
75 75 75
104 104 104
131 131 131
150 150 150
162 162 162
167 167 167
167 167 167
165 165 165
151 151 151
139 139 139
129 129 129
119 119 119
115 115 115
116 116 116
120 120 120
135 135 135
168 168 168
176 176 176
179 179 179
182 182 182
185 185 185
186 186 186
190 190 190
192 192 192
192 192 192
196 196 196
190 190 190
159 159 159
97 97 97
53 53 53
39 39 39
37 37 37
35 35 35
34 34 34
33 33 33
33 33 33
48 48 48
46 46 46
40 40 40
35 35 35
61 61 61
103 103 103
145 145 145
170 170 170
176 176 176
180 180 180
186 186 186
193 193 193
197 197 197
202 202 202
206 206 206
208 208 208
205 205 205
168 168 168
98 98 98
76 76 76
59 59 59
59 59 59
192 192 192
135 135 135
36 36 36
34 34 34
32 32 32
31 31 31
39 39 39
45 45 45
107 107 107
202 202 202
224 224 224
226 226 226
217 217 217
204 204 204
206 206 206
215 215 215
217 217 217
215 215 215
205 205 205
199 199 199
199 199 199
200 200 200
203 203 203
205 205 205
183 183 183
123 123 123
89 89 89
82 82 82
88 88 88
94 94 94
97 97 97
95 95 95
92 92 92
85 85 85
63 63 63
41 41 41
38 38 38
34 34 34
33 33 33
36 36 36
40 40 40
47 47 47
56 56 56
68 68 68
88 88 88
115 115 115
142 142 142
158 158 158
164 164 164
164 164 164
156 156 156
146 146 146
132 132 132
118 118 118
115 115 115
115 115 115
120 120 120
141 141 141
171 171 171
179 179 179
183 183 183
185 185 185
186 186 186
187 187 187
188 188 188
191 191 191
188 188 188
158 158 158
99 99 99
59 59 59
49 49 49
37 37 37
34 34 34
33 33 33
35 35 35
35 35 35
34 34 34
41 41 41
48 48 48
47 47 47
44 44 44
43 43 43
79 79 79
133 133 133
167 167 167
177 177 177
182 182 182
187 187 187
194 194 194
203 203 203
209 209 209
213 213 213
215 215 215
213 213 213
203 203 203
149 149 149
90 90 90
68 68 68
43 43 43
35 35 35
34 34 34
34 34 34
34 34 34
33 33 33
31 31 31
31 31 31
35 35 35
42 42 42
72 72 72
200 200 200
229 229 229
232 232 232
220 220 220
210 210 210
211 211 211
217 217 217
217 217 217
214 214 214
204 204 204
200 200 200
199 199 199
200 200 200
204 204 204
203 203 203
169 169 169
100 100 100
86 86 86
85 85 85
92 92 92
95 95 95
96 96 96
93 93 93
86 86 86
65 65 65
37 37 37
32 32 32
31 31 31
30 30 30
30 30 30
31 31 31
35 35 35
41 41 41
50 50 50
60 60 60
74 74 74
92 92 92
117 117 117
142 142 142
155 155 155
159 159 159
155 155 155
147 147 147
133 133 133
118 118 118
113 113 113
113 113 113
116 116 116
141 141 141
172 172 172
177 177 177
179 179 179
179 179 179
177 177 177
176 176 176
178 178 178
172 172 172
119 119 119
63 63 63
38 38 38
30 30 30
28 28 28
29 29 29
29 29 29
30 30 30
31 31 31
31 31 31
31 31 31
58 58 58
50 50 50
51 51 51
51 51 51
71 71 71
133 133 133
168 168 168
177 177 177
181 181 181
184 184 184
189 189 189
195 195 195
205 205 205
212 212 212
215 215 215
216 216 216
212 212 212
191 191 191
128 128 128
89 89 89
64 64 64
37 37 37
32 32 32
35 35 35
35 35 35
33 33 33
33 33 33
40 40 40
41 41 41
34 34 34
41 41 41
54 54 54
191 191 191
233 233 233
233 233 233
221 221 221
214 214 214
217 217 217
220 220 220
218 218 218
215 215 215
208 208 208
200 200 200
195 195 195
199 199 199
204 204 204
205 205 205
184 184 184
130 130 130
91 91 91
90 90 90
94 94 94
97 97 97
97 97 97
91 91 91
72 72 72
37 37 37
33 33 33
31 31 31
26 26 26
25 25 25
24 24 24
24 24 24
28 28 28
37 37 37
45 45 45
57 57 57
69 69 69
81 81 81
98 98 98
121 121 121
140 140 140
147 147 147
148 148 148
145 145 145
134 134 134
120 120 120
112 112 112
109 109 109
109 109 109
131 131 131
155 155 155
165 165 165
166 166 166
160 160 160
155 155 155
152 152 152
130 130 130
72 72 72
57 57 57
29 29 29
27 27 27
26 26 26
25 25 25
26 26 26
27 27 27
27 27 27
29 29 29
32 32 32
38 38 38
50 50 50
51 51 51
52 52 52
56 56 56
119 119 119
173 173 173
180 180 180
182 182 182
181 181 181
183 183 183
188 188 188
196 196 196
205 205 205
212 212 212
217 217 217
217 217 217
214 214 214
187 187 187
122 122 122
92 92 92
64 64 64
34 34 34
36 36 36
54 54 54
33 33 33
33 33 33
31 31 31
41 41 41
60 60 60
37 37 37
43 43 43
55 55 55
189 189 189
230 230 230
232 232 232
221 221 221
216 216 216
218 218 218
220 220 220
219 219 219
217 217 217
210 210 210
201 201 201
193 193 193
197 197 197
202 202 202
201 201 201
187 187 187
160 160 160
108 108 108
94 94 94
98 98 98
99 99 99
96 96 96
81 81 81
44 44 44
33 33 33
32 32 32
28 28 28
27 27 27
26 26 26
26 26 26
26 26 26
29 29 29
37 37 37
46 46 46
56 56 56
65 65 65
74 74 74
86 86 86
100 100 100
114 114 114
128 128 128
135 135 135
136 136 136
132 132 132
121 121 121
107 107 107
100 100 100
97 97 97
107 107 107
117 117 117
104 104 104
83 83 83
66 66 66
56 56 56
51 51 51
54 54 54
49 49 49
26 26 26
23 23 23
23 23 23
23 23 23
23 23 23
24 24 24
27 27 27
29 29 29
32 32 32
34 34 34
41 41 41
48 48 48
54 54 54
58 58 58
76 76 76
158 158 158
185 185 185
186 186 186
185 185 185
183 183 183
176 176 176
175 175 175
184 184 184
200 200 200
211 211 211
216 216 216
218 218 218
215 215 215
192 192 192
129 129 129
98 98 98
67 67 67
31 31 31
32 32 32
40 40 40
33 33 33
32 32 32
31 31 31
31 31 31
35 35 35
42 42 42
49 49 49
60 60 60
194 194 194
222 222 222
221 221 221
215 215 215
215 215 215
217 217 217
219 219 219
216 216 216
213 213 213
207 207 207
198 198 198
189 189 189
195 195 195
198 198 198
196 196 196
185 185 185
165 165 165
136 136 136
105 105 105
101 101 101
99 99 99
93 93 93
65 65 65
34 34 34
34 34 34
30 30 30
30 30 30
28 28 28
27 27 27
25 25 25
24 24 24
24 24 24
29 29 29
43 43 43
58 58 58
63 63 63
70 70 70
79 79 79
88 88 88
99 99 99
111 111 111
125 125 125
132 132 132
130 130 130
121 121 121
105 105 105
95 95 95
82 82 82
66 66 66
57 57 57
56 56 56
53 53 53
54 54 54
54 54 54
50 50 50
40 40 40
25 25 25
23 23 23
23 23 23
23 23 23
23 23 23
23 23 23
26 26 26
28 28 28
30 30 30
33 33 33
36 36 36
42 42 42
46 46 46
53 53 53
60 60 60
113 113 113
184 184 184
191 191 191
189 189 189
190 190 190
187 187 187
176 176 176
168 168 168
164 164 164
171 171 171
198 198 198
215 215 215
218 218 218
217 217 217
198 198 198
145 145 145
105 105 105
80 80 80
28 28 28
30 30 30
35 35 35
34 34 34
42 42 42
40 40 40
31 31 31
36 36 36
49 49 49
62 62 62
78 78 78
193 193 193
205 205 205
207 207 207
211 211 211
213 213 213
215 215 215
214 214 214
211 211 211
205 205 205
198 198 198
193 193 193
185 185 185
191 191 191
193 193 193
194 194 194
184 184 184
166 166 166
149 149 149
121 121 121
99 99 99
97 97 97
87 87 87
49 49 49
33 33 33
35 35 35
31 31 31
30 30 30
28 28 28
27 27 27
27 27 27
26 26 26
34 34 34
26 26 26
34 34 34
54 54 54
61 61 61
68 68 68
79 79 79
86 86 86
94 94 94
104 104 104
118 118 118
130 130 130
133 133 133
129 129 129
115 115 115
100 100 100
78 78 78
64 64 64
56 56 56
46 46 46
40 40 40
36 36 36
30 30 30
25 25 25
21 21 21
21 21 21
21 21 21
20 20 20
21 21 21
21 21 21
21 21 21
23 23 23
25 25 25
28 28 28
32 32 32
37 37 37
43 43 43
49 49 49
53 53 53
62 62 62
143 143 143
190 190 190
192 192 192
191 191 191
194 194 194
193 193 193
179 179 179
165 165 165
159 159 159
161 161 161
177 177 177
205 205 205
215 215 215
217 217 217
206 206 206
160 160 160
103 103 103
96 96 96
40 40 40
30 30 30
33 33 33
32 32 32
50 50 50
44 44 44
32 32 32
40 40 40
72 72 72
82 82 82
134 134 134
185 185 185
192 192 192
201 201 201
207 207 207
210 210 210
211 211 211
210 210 210
205 205 205
197 197 197
192 192 192
187 187 187
181 181 181
181 181 181
184 184 184
188 188 188
183 183 183
170 170 170
151 151 151
131 131 131
102 102 102
92 92 92
76 76 76
41 41 41
35 35 35
34 34 34
30 30 30
41 41 41
31 31 31
28 28 28
27 27 27
26 26 26
62 62 62
24 24 24
28 28 28
44 44 44
57 57 57
65 65 65
82 82 82
94 94 94
98 98 98
104 104 104
117 117 117
127 127 127
134 134 134
134 134 134
128 128 128
111 111 111
83 83 83
64 64 64
50 50 50
41 41 41
35 35 35
32 32 32
27 27 27
22 22 22
18 18 18
18 18 18
18 18 18
18 18 18
19 19 19
19 19 19
20 20 20
22 22 22
23 23 23
27 27 27
33 33 33
38 38 38
44 44 44
51 51 51
52 52 52
65 65 65
164 164 164
191 191 191
194 194 194
197 197 197
203 203 203
202 202 202
186 186 186
168 168 168
161 161 161
160 160 160
169 169 169
192 192 192
211 211 211
216 216 216
214 214 214
192 192 192
128 128 128
101 101 101
75 75 75
33 33 33
34 34 34
34 34 34
35 35 35
36 36 36
37 37 37
73 73 73
110 110 110
154 154 154
188 188 188
173 173 173
185 185 185
197 197 197
206 206 206
209 209 209
210 210 210
207 207 207
201 201 201
193 193 193
186 186 186
180 180 180
175 175 175
173 173 173
176 176 176
180 180 180
180 180 180
172 172 172
154 154 154
139 139 139
116 116 116
90 90 90
69 69 69
40 40 40
38 38 38
35 35 35
32 32 32
46 46 46
30 30 30
29 29 29
29 29 29
27 27 27
33 33 33
24 24 24
26 26 26
39 39 39
52 52 52
61 61 61
90 90 90
111 111 111
128 128 128
144 144 144
154 154 154
155 155 155
147 147 147
139 139 139
131 131 131
121 121 121
100 100 100
74 74 74
57 57 57
45 45 45
37 37 37
32 32 32
25 25 25
21 21 21
19 19 19
19 19 19
20 20 20
19 19 19
20 20 20
20 20 20
20 20 20
22 22 22
23 23 23
27 27 27
30 30 30
36 36 36
42 42 42
50 50 50
46 46 46
65 65 65
169 169 169
192 192 192
194 194 194
199 199 199
210 210 210
207 207 207
193 193 193
176 176 176
169 169 169
168 168 168
169 169 169
174 174 174
191 191 191
208 208 208
214 214 214
214 214 214
202 202 202
158 158 158
115 115 115
55 55 55
31 31 31
31 31 31
34 34 34
38 38 38
73 73 73
138 138 138
182 182 182
193 193 193
172 172 172
165 165 165
178 178 178
196 196 196
205 205 205
207 207 207
206 206 206
202 202 202
196 196 196
189 189 189
179 179 179
173 173 173
169 169 169
167 167 167
170 170 170
176 176 176
178 178 178
174 174 174
156 156 156
142 142 142
130 130 130
103 103 103
74 74 74
52 52 52
42 42 42
39 39 39
34 34 34
35 35 35
34 34 34
37 37 37
33 33 33
30 30 30
26 26 26
24 24 24
26 26 26
36 36 36
49 49 49
60 60 60
108 108 108
141 141 141
166 166 166
177 177 177
179 179 179
170 170 170
154 154 154
138 138 138
126 126 126
124 124 124
114 114 114
93 93 93
70 70 70
51 51 51
39 39 39
28 28 28
23 23 23
20 20 20
18 18 18
17 17 17
18 18 18
19 19 19
19 19 19
19 19 19
20 20 20
22 22 22
23 23 23
26 26 26
30 30 30
35 35 35
42 42 42
52 52 52
40 40 40
70 70 70
172 172 172
190 190 190
190 190 190
197 197 197
209 209 209
209 209 209
196 196 196
181 181 181
174 174 174
174 174 174
177 177 177
179 179 179
180 180 180
187 187 187
197 197 197
208 208 208
213 213 213
215 215 215
209 209 209
193 193 193
173 173 173
163 163 163
161 161 161
172 172 172
193 193 193
200 200 200
190 190 190
171 171 171
162 162 162
164 164 164
173 173 173
193 193 193
204 204 204
204 204 204
201 201 201
198 198 198
192 192 192
183 183 183
173 173 173
167 167 167
166 166 166
165 165 165
172 172 172
177 177 177
176 176 176
172 172 172
156 156 156
143 143 143
135 135 135
122 122 122
96 96 96
71 71 71
51 51 51
44 44 44
38 38 38
32 32 32
39 39 39
52 52 52
36 36 36
32 32 32
29 29 29
27 27 27
27 27 27
39 39 39
46 46 46
83 83 83
161 161 161
184 184 184
193 193 193
193 193 193
185 185 185
164 164 164
142 142 142
125 125 125
117 117 117
116 116 116
116 116 116
111 111 111
88 88 88
58 58 58
38 38 38
27 27 27
23 23 23
20 20 20
18 18 18
18 18 18
18 18 18
18 18 18
19 19 19
20 20 20
21 21 21
22 22 22
23 23 23
26 26 26
28 28 28
34 34 34
40 40 40
37 37 37
34 34 34
84 84 84
172 172 172
185 185 185
185 185 185
196 196 196
205 205 205
205 205 205
198 198 198
182 182 182
175 175 175
177 177 177
182 182 182
184 184 184
189 189 189
192 192 192
192 192 192
194 194 194
199 199 199
206 206 206
209 209 209
210 210 210
210 210 210
210 210 210
210 210 210
207 207 207
202 202 202
189 189 189
171 171 171
166 166 166
165 165 165
164 164 164
170 170 170
193 193 193
204 204 204
205 205 205
200 200 200
196 196 196
189 189 189
179 179 179
170 170 170
168 168 168
168 168 168
169 169 169
172 172 172
175 175 175
174 174 174
169 169 169
153 153 153
140 140 140
133 133 133
126 126 126
111 111 111
87 87 87
64 64 64
50 50 50
41 41 41
31 31 31
34 34 34
39 39 39
33 33 33
32 32 32
30 30 30
29 29 29
30 30 30
42 42 42
52 52 52
173 173 173
208 208 208
208 208 208
202 202 202
190 190 190
168 168 168
141 141 141
121 121 121
112 112 112
107 107 107
106 106 106
110 110 110
116 116 116
105 105 105
69 69 69
40 40 40
26 26 26
22 22 22
19 19 19
19 19 19
19 19 19
18 18 18
19 19 19
19 19 19
20 20 20
20 20 20
21 21 21
22 22 22
24 24 24
27 27 27
29 29 29
22 22 22
23 23 23
33 33 33
99 99 99
168 168 168
178 178 178
178 178 178
189 189 189
199 199 199
199 199 199
194 194 194
184 184 184
175 175 175
173 173 173
179 179 179
188 188 188
192 192 192
196 196 196
197 197 197
197 197 197
197 197 197
198 198 198
201 201 201
204 204 204
208 208 208
209 209 209
209 209 209
205 205 205
197 197 197
180 180 180
173 173 173
171 171 171
169 169 169
166 166 166
170 170 170
194 194 194
205 205 205
204 204 204
200 200 200
193 193 193
185 185 185
175 175 175
169 169 169
167 167 167
168 168 168
171 171 171
172 172 172
171 171 171
170 170 170
164 164 164
145 145 145
132 132 132
126 126 126
124 124 124
121 121 121
103 103 103
81 81 81
73 73 73
62 62 62
44 44 44
30 30 30
32 32 32
33 33 33
32 32 32
31 31 31
31 31 31
32 32 32
58 58 58
171 171 171
215 215 215
212 212 212
205 205 205
189 189 189
168 168 168
141 141 141
119 119 119
110 110 110
105 105 105
102 102 102
102 102 102
105 105 105
113 113 113
112 112 112
80 80 80
44 44 44
25 25 25
21 21 21
21 21 21
21 21 21
18 18 18
17 17 17
17 17 17
18 18 18
18 18 18
18 18 18
18 18 18
17 17 17
17 17 17
15 15 15
20 20 20
60 60 60
68 68 68
35 35 35
108 108 108
160 160 160
168 168 168
172 172 172
185 185 185
190 190 190
187 187 187
180 180 180
174 174 174
173 173 173
178 178 178
186 186 186
190 190 190
193 193 193
196 196 196
196 196 196
196 196 196
193 193 193
190 190 190
192 192 192
195 195 195
199 199 199
202 202 202
203 203 203
201 201 201
195 195 195
181 181 181
179 179 179
180 180 180
176 176 176
170 170 170
171 171 171
196 196 196
205 205 205
205 205 205
199 199 199
189 189 189
179 179 179
170 170 170
164 164 164
166 166 166
169 169 169
171 171 171
170 170 170
167 167 167
163 163 163
152 152 152
133 133 133
118 118 118
115 115 115
119 119 119
121 121 121
110 110 110
97 97 97
90 90 90
106 106 106
113 113 113
112 112 112
102 102 102
96 96 96
91 91 91
98 98 98
115 115 115
150 150 150
194 194 194
210 210 210
207 207 207
197 197 197
178 178 178
152 152 152
131 131 131
116 116 116
107 107 107
102 102 102
98 98 98
98 98 98
98 98 98
99 99 99
108 108 108
109 109 109
91 91 91
53 53 53
26 26 26
23 23 23
76 76 76
120 120 120
109 109 109
89 89 89
63 63 63
18 18 18
17 17 17
16 16 16
13 13 13
12 12 12
11 11 11
11 11 11
13 13 13
24 24 24
45 45 45
25 25 25
97 97 97
155 155 155
165 165 165
170 170 170
182 182 182
184 184 184
179 179 179
171 171 171
163 163 163
160 160 160
170 170 170
180 180 180
187 187 187
192 192 192
196 196 196
196 196 196
194 194 194
192 192 192
193 193 193
194 194 194
196 196 196
200 200 200
203 203 203
203 203 203
200 200 200
195 195 195
188 188 188
188 188 188
188 188 188
182 182 182
173 173 173
176 176 176
198 198 198
204 204 204
203 203 203
197 197 197
182 182 182
167 167 167
160 160 160
157 157 157
160 160 160
163 163 163
166 166 166
164 164 164
159 159 159
151 151 151
137 137 137
115 115 115
108 108 108
113 113 113
119 119 119
125 125 125
127 127 127
127 127 127
125 125 125
126 126 126
157 157 157
182 182 182
194 194 194
202 202 202
204 204 204
207 207 207
209 209 209
207 207 207
204 204 204
200 200 200
192 192 192
174 174 174
151 151 151
134 134 134
118 118 118
106 106 106
99 99 99
95 95 95
92 92 92
91 91 91
91 91 91
91 91 91
99 99 99
102 102 102
94 94 94
60 60 60
46 46 46
91 91 91
129 129 129
146 146 146
150 150 150
143 143 143
124 124 124
72 72 72
25 25 25
14 14 14
14 14 14
14 14 14
14 14 14
14 14 14
15 15 15
16 16 16
17 17 17
28 28 28
104 104 104
154 154 154
162 162 162
168 168 168
181 181 181
183 183 183
174 174 174
164 164 164
161 161 161
164 164 164
169 169 169
173 173 173
181 181 181
186 186 186
189 189 189
191 191 191
190 190 190
190 190 190
193 193 193
199 199 199
204 204 204
208 208 208
208 208 208
205 205 205
199 199 199
198 198 198
199 199 199
197 197 197
193 193 193
185 185 185
175 175 175
183 183 183
196 196 196
199 199 199
199 199 199
190 190 190
173 173 173
159 159 159
153 153 153
151 151 151
153 153 153
154 154 154
152 152 152
148 148 148
144 144 144
136 136 136
119 119 119
101 101 101
107 107 107
119 119 119
127 127 127
133 133 133
135 135 135
140 140 140
151 151 151
164 164 164
182 182 182
197 197 197
205 205 205
206 206 206
206 206 206
202 202 202
195 195 195
188 188 188
182 182 182
173 173 173
161 161 161
148 148 148
137 137 137
122 122 122
110 110 110
100 100 100
93 93 93
88 88 88
85 85 85
84 84 84
84 84 84
83 83 83
89 89 89
94 94 94
92 92 92
61 61 61
66 66 66
137 137 137
143 143 143
143 143 143
142 142 142
151 151 151
151 151 151
143 143 143
91 91 91
20 20 20
18 18 18
18 18 18
19 19 19
20 20 20
20 20 20
21 21 21
23 23 23
33 33 33
118 118 118
154 154 154
159 159 159
171 171 171
185 185 185
188 188 188
186 186 186
177 177 177
171 171 171
166 166 166
169 169 169
173 173 173
177 177 177
182 182 182
185 185 185
189 189 189
193 193 193
197 197 197
204 204 204
210 210 210
213 213 213
213 213 213
209 209 209
204 204 204
203 203 203
204 204 204
204 204 204
202 202 202
197 197 197
187 187 187
179 179 179
186 186 186
188 188 188
185 185 185
182 182 182
176 176 176
165 165 165
155 155 155
150 150 150
151 151 151
153 153 153
151 151 151
145 145 145
138 138 138
129 129 129
120 120 120
107 107 107
92 92 92
102 102 102
117 117 117
128 128 128
135 135 135
139 139 139
146 146 146
163 163 163
182 182 182
190 190 190
196 196 196
198 198 198
197 197 197
193 193 193
188 188 188
183 183 183
178 178 178
171 171 171
164 164 164
154 154 154
141 141 141
128 128 128
116 116 116
104 104 104
93 93 93
85 85 85
82 82 82
79 79 79
78 78 78
78 78 78
80 80 80
84 84 84
88 88 88
88 88 88
59 59 59
31 31 31
107 107 107
144 144 144
171 171 171
177 177 177
184 184 184
184 184 184
182 182 182
141 141 141
58 58 58
23 23 23
23 23 23
21 21 21
22 22 22
21 21 21
22 22 22
22 22 22
35 35 35
116 116 116
151 151 151
158 158 158
173 173 173
186 186 186
189 189 189
187 187 187
182 182 182
176 176 176
167 167 167
165 165 165
167 167 167
171 171 171
176 176 176
182 182 182
187 187 187
191 191 191
200 200 200
208 208 208
214 214 214
215 215 215
213 213 213
211 211 211
210 210 210
210 210 210
209 209 209
209 209 209
205 205 205
202 202 202
193 193 193
178 178 178
177 177 177
159 159 159
148 148 148
147 147 147
150 150 150
149 149 149
144 144 144
144 144 144
144 144 144
146 146 146
145 145 145
139 139 139
128 128 128
116 116 116
106 106 106
97 97 97
88 88 88
94 94 94
104 104 104
116 116 116
129 129 129
139 139 139
148 148 148
161 161 161
178 178 178
187 187 187
190 190 190
189 189 189
187 187 187
185 185 185
182 182 182
176 176 176
169 169 169
164 164 164
159 159 159
150 150 150
139 139 139
126 126 126
112 112 112
98 98 98
86 86 86
79 79 79
75 75 75
76 76 76
77 77 77
77 77 77
78 78 78
81 81 81
85 85 85
85 85 85
58 58 58
31 31 31
49 49 49
163 163 163
164 164 164
182 182 182
186 186 186
185 185 185
183 183 183
153 153 153
90 90 90
31 31 31
22 22 22
22 22 22
22 22 22
22 22 22
22 22 22
20 20 20
34 34 34
110 110 110
149 149 149
159 159 159
175 175 175
187 187 187
191 191 191
189 189 189
181 181 181
172 172 172
168 168 168
169 169 169
171 171 171
170 170 170
171 171 171
177 177 177
181 181 181
191 191 191
203 203 203
212 212 212
214 214 214
213 213 213
212 212 212
210 210 210
210 210 210
210 210 210
209 209 209
209 209 209
207 207 207
203 203 203
195 195 195
182 182 182
159 159 159
133 133 133
118 118 118
102 102 102
114 114 114
125 125 125
128 128 128
131 131 131
134 134 134
135 135 135
132 132 132
120 120 120
106 106 106
93 93 93
86 86 86
84 84 84
82 82 82
82 82 82
94 94 94
107 107 107
117 117 117
129 129 129
142 142 142
151 151 151
162 162 162
173 173 173
179 179 179
179 179 179
177 177 177
174 174 174
168 168 168
163 163 163
158 158 158
153 153 153
148 148 148
143 143 143
134 134 134
122 122 122
110 110 110
95 95 95
83 83 83
76 76 76
75 75 75
75 75 75
75 75 75
76 76 76
77 77 77
79 79 79
81 81 81
81 81 81
55 55 55
33 33 33
29 29 29
72 72 72
63 63 63
105 105 105
208 208 208
186 186 186
184 184 184
163 163 163
116 116 116
71 71 71
22 22 22
21 21 21
21 21 21
21 21 21
21 21 21
18 18 18
33 33 33
109 109 109
147 147 147
162 162 162
177 177 177
186 186 186
189 189 189
185 185 185
172 172 172
160 160 160
156 156 156
157 157 157
160 160 160
166 166 166
174 174 174
180 180 180
189 189 189
200 200 200
206 206 206
209 209 209
210 210 210
210 210 210
210 210 210
209 209 209
207 207 207
207 207 207
208 208 208
208 208 208
208 208 208
206 206 206
202 202 202
197 197 197
183 183 183
129 129 129
82 82 82
58 58 58
56 56 56
100 100 100
113 113 113
117 117 117
118 118 118
119 119 119
113 113 113
87 87 87
58 58 58
62 62 62
69 69 69
70 70 70
69 69 69
71 71 71
95 95 95
112 112 112
116 116 116
125 125 125
135 135 135
143 143 143
150 150 150
159 159 159
170 170 170
175 175 175
174 174 174
167 167 167
159 159 159
150 150 150
143 143 143
137 137 137
134 134 134
129 129 129
123 123 123
114 114 114
105 105 105
95 95 95
83 83 83
77 77 77
76 76 76
74 74 74
74 74 74
74 74 74
75 75 75
77 77 77
77 77 77
76 76 76
54 54 54
34 34 34
30 30 30
33 33 33
53 53 53
44 44 44
211 211 211
192 192 192
194 194 194
203 203 203
167 167 167
121 121 121
45 45 45
20 20 20
19 19 19
19 19 19
17 17 17
29 29 29
33 33 33
106 106 106
148 148 148
163 163 163
176 176 176
183 183 183
183 183 183
176 176 176
157 157 157
139 139 139
133 133 133
138 138 138
147 147 147
161 161 161
175 175 175
184 184 184
194 194 194
202 202 202
206 206 206
206 206 206
206 206 206
206 206 206
206 206 206
206 206 206
207 207 207
208 208 208
209 209 209
210 210 210
209 209 209
206 206 206
202 202 202
197 197 197
192 192 192
176 176 176
122 122 122
61 61 61
36 36 36
81 81 81
102 102 102
103 103 103
104 104 104
102 102 102
92 92 92
37 37 37
32 32 32
39 39 39
49 49 49
53 53 53
58 58 58
74 74 74
114 114 114
127 127 127
120 120 120
121 121 121
126 126 126
133 133 133
138 138 138
143 143 143
152 152 152
160 160 160
166 166 166
162 162 162
151 151 151
139 139 139
131 131 131
123 123 123
117 117 117
111 111 111
107 107 107
102 102 102
98 98 98
93 93 93
85 85 85
79 79 79
76 76 76
75 75 75
72 72 72
73 73 73
74 74 74
74 74 74
75 75 75
73 73 73
50 50 50
32 32 32
30 30 30
27 27 27
41 41 41
161 161 161
214 214 214
197 197 197
186 186 186
192 192 192
177 177 177
143 143 143
66 66 66
18 18 18
16 16 16
15 15 15
26 26 26
29 29 29
35 35 35
81 81 81
130 130 130
154 154 154
171 171 171
178 178 178
179 179 179
171 171 171
148 148 148
137 137 137
141 141 141
150 150 150
163 163 163
177 177 177
189 189 189
196 196 196
201 201 201
203 203 203
203 203 203
198 198 198
196 196 196
199 199 199
201 201 201
204 204 204
204 204 204
205 205 205
206 206 206
208 208 208
208 208 208
205 205 205
201 201 201
197 197 197
192 192 192
186 186 186
177 177 177
133 133 133
65 65 65
84 84 84
97 97 97
94 94 94
94 94 94
92 92 92
77 77 77
29 29 29
36 36 36
42 42 42
50 50 50
58 58 58
70 70 70
90 90 90
124 124 124
133 133 133
127 127 127
121 121 121
124 124 124
124 124 124
124 124 124
125 125 125
128 128 128
135 135 135
148 148 148
154 154 154
147 147 147
136 136 136
124 124 124
114 114 114
105 105 105
96 96 96
89 89 89
85 85 85
82 82 82
80 80 80
78 78 78
76 76 76
75 75 75
74 74 74
73 73 73
73 73 73
72 72 72
71 71 71
71 71 71
70 70 70
46 46 46
30 30 30
27 27 27
27 27 27
25 25 25
180 180 180
209 209 209
198 198 198
178 178 178
171 171 171
154 154 154
110 110 110
49 49 49
15 15 15
18 18 18
24 24 24
28 28 28
37 37 37
30 30 30
55 55 55
117 117 117
143 143 143
165 165 165
173 173 173
174 174 174
162 162 162
141 141 141
135 135 135
135 135 135
145 145 145
161 161 161
176 176 176
189 189 189
198 198 198
203 203 203
202 202 202
199 199 199
196 196 196
196 196 196
198 198 198
200 200 200
202 202 202
203 203 203
203 203 203
204 204 204
204 204 204
204 204 204
203 203 203
200 200 200
196 196 196
191 191 191
187 187 187
179 179 179
164 164 164
113 113 113
98 98 98
96 96 96
87 87 87
88 88 88
88 88 88
71 71 71
48 48 48
61 61 61
69 69 69
72 72 72
78 78 78
86 86 86
111 111 111
130 130 130
135 135 135
132 132 132
123 123 123
121 121 121
120 120 120
119 119 119
119 119 119
118 118 118
120 120 120
125 125 125
136 136 136
137 137 137
130 130 130
120 120 120
109 109 109
101 101 101
92 92 92
84 84 84
76 76 76
71 71 71
70 70 70
71 71 71
71 71 71
71 71 71
71 71 71
71 71 71
70 70 70
69 69 69
69 69 69
70 70 70
68 68 68
42 42 42
26 26 26
23 23 23
22 22 22
23 23 23
61 61 61
150 150 150
148 148 148
142 142 142
136 136 136
118 118 118
67 67 67
13 13 13
16 16 16
23 23 23
23 23 23
24 24 24
24 24 24
16 16 16
34 34 34
89 89 89
134 134 134
162 162 162
170 170 170
168 168 168
155 155 155
136 136 136
132 132 132
131 131 131
134 134 134
149 149 149
172 172 172
191 191 191
199 199 199
197 197 197
191 191 191
191 191 191
192 192 192
194 194 194
199 199 199
202 202 202
204 204 204
204 204 204
203 203 203
202 202 202
202 202 202
201 201 201
199 199 199
197 197 197
193 193 193
190 190 190
185 185 185
176 176 176
166 166 166
138 138 138
108 108 108
99 99 99
85 85 85
85 85 85
85 85 85
70 70 70
60 60 60
80 80 80
97 97 97
106 106 106
109 109 109
114 114 114
125 125 125
132 132 132
134 134 134
133 133 133
124 124 124
119 119 119
115 115 115
112 112 112
111 111 111
109 109 109
108 108 108
108 108 108
120 120 120
125 125 125
121 121 121
115 115 115
108 108 108
98 98 98
89 89 89
82 82 82
76 76 76
72 72 72
70 70 70
69 69 69
68 68 68
68 68 68
67 67 67
66 66 66
68 68 68
67 67 67
69 69 69
70 70 70
69 69 69
42 42 42
24 24 24
23 23 23
21 21 21
22 22 22
21 21 21
78 78 78
91 91 91
96 96 96
97 97 97
81 81 81
73 73 73
42 42 42
17 17 17
20 20 20
22 22 22
23 23 23
25 25 25
9 9 9
24 24 24
62 62 62
130 130 130
161 161 161
167 167 167
163 163 163
148 148 148
132 132 132
128 128 128
127 127 127
127 127 127
133 133 133
150 150 150
174 174 174
187 187 187
185 185 185
179 179 179
179 179 179
180 180 180
196 196 196
205 205 205
206 206 206
204 204 204
201 201 201
198 198 198
195 195 195
193 193 193
192 192 192
191 191 191
190 190 190
190 190 190
185 185 185
178 178 178
172 172 172
164 164 164
150 150 150
120 120 120
103 103 103
85 85 85
83 83 83
83 83 83
73 73 73
83 83 83
125 125 125
137 137 137
137 137 137
132 132 132
128 128 128
128 128 128
129 129 129
129 129 129
129 129 129
125 125 125
120 120 120
113 113 113
110 110 110
107 107 107
105 105 105
104 104 104
103 103 103
110 110 110
116 116 116
116 116 116
112 112 112
105 105 105
96 96 96
89 89 89
84 84 84
79 79 79
76 76 76
74 74 74
73 73 73
73 73 73
74 74 74
74 74 74
75 75 75
76 76 76
73 73 73
72 72 72
72 72 72
70 70 70
42 42 42
24 24 24
23 23 23
21 21 21
21 21 21
21 21 21
33 33 33
72 72 72
60 60 60
67 67 67
71 71 71
77 77 77
83 83 83
44 44 44
19 19 19
22 22 22
23 23 23
25 25 25
9 9 9
12 12 12
52 52 52
121 121 121
156 156 156
164 164 164
159 159 159
144 144 144
129 129 129
124 124 124
118 118 118
109 109 109
110 110 110
123 123 123
146 146 146
158 158 158
156 156 156
149 149 149
184 184 184
210 210 210
213 213 213
209 209 209
204 204 204
199 199 199
194 194 194
187 187 187
185 185 185
185 185 185
187 187 187
189 189 189
191 191 191
187 187 187
181 181 181
175 175 175
168 168 168
161 161 161
153 153 153
132 132 132
107 107 107
87 87 87
84 84 84
84 84 84
92 92 92
144 144 144
158 158 158
155 155 155
148 148 148
140 140 140
132 132 132
127 127 127
124 124 124
123 123 123
123 123 123
123 123 123
122 122 122
118 118 118
115 115 115
109 109 109
101 101 101
100 100 100
98 98 98
102 102 102
107 107 107
110 110 110
111 111 111
105 105 105
96 96 96
88 88 88
82 82 82
78 78 78
76 76 76
75 75 75
76 76 76
78 78 78
83 83 83
85 85 85
87 87 87
86 86 86
83 83 83
79 79 79
76 76 76
71 71 71
43 43 43
27 27 27
24 24 24
21 21 21
21 21 21
22 22 22
22 22 22
62 62 62
88 88 88
85 85 85
83 83 83
75 75 75
81 81 81
78 78 78
32 32 32
22 22 22
23 23 23
24 24 24
9 9 9
21 21 21
56 56 56
103 103 103
152 152 152
160 160 160
154 154 154
136 136 136
121 121 121
130 130 130
143 143 143
150 150 150
158 158 158
168 168 168
182 182 182
185 185 185
184 184 184
191 191 191
214 214 214
217 217 217
215 215 215
207 207 207
197 197 197
195 195 195
191 191 191
189 189 189
189 189 189
192 192 192
193 193 193
193 193 193
188 188 188
182 182 182
175 175 175
169 169 169
163 163 163
156 156 156
150 150 150
138 138 138
115 115 115
91 91 91
91 91 91
104 104 104
154 154 154
175 175 175
168 168 168
159 159 159
149 149 149
140 140 140
131 131 131
123 123 123
118 118 118
114 114 114
113 113 113
114 114 114
117 117 117
121 121 121
123 123 123
119 119 119
111 111 111
103 103 103
94 94 94
89 89 89
93 93 93
101 101 101
105 105 105
102 102 102
91 91 91
82 82 82
72 72 72
69 69 69
68 68 68
68 68 68
70 70 70
76 76 76
82 82 82
87 87 87
88 88 88
87 87 87
85 85 85
80 80 80
78 78 78
70 70 70
44 44 44
33 33 33
31 31 31
29 29 29
27 27 27
26 26 26
26 26 26
34 34 34
83 83 83
88 88 88
78 78 78
79 79 79
81 81 81
76 76 76
45 45 45
23 23 23
26 26 26
37 37 37
10 10 10
18 18 18
32 32 32
84 84 84
156 156 156
182 182 182
178 178 178
167 167 167
153 153 153
142 142 142
129 129 129
125 125 125
122 122 122
119 119 119
130 130 130
149 149 149
183 183 183
213 213 213
215 215 215
215 215 215
213 213 213
208 208 208
204 204 204
202 202 202
201 201 201
201 201 201
200 200 200
198 198 198
194 194 194
189 189 189
183 183 183
176 176 176
167 167 167
160 160 160
151 151 151
144 144 144
140 140 140
135 135 135
122 122 122
99 99 99
109 109 109
155 155 155
174 174 174
175 175 175
165 165 165
155 155 155
146 146 146
137 137 137
127 127 127
118 118 118
111 111 111
107 107 107
104 104 104
105 105 105
105 105 105
110 110 110
116 116 116
117 117 117
118 118 118
117 117 117
112 112 112
101 101 101
98 98 98
99 99 99
101 101 101
99 99 99
96 96 96
89 89 89
80 80 80
72 72 72
67 67 67
65 65 65
67 67 67
70 70 70
76 76 76
82 82 82
86 86 86
83 83 83
81 81 81
77 77 77
75 75 75
68 68 68
40 40 40
32 32 32
30 30 30
28 28 28
26 26 26
25 25 25
22 22 22
23 23 23
63 63 63
90 90 90
86 86 86
85 85 85
89 89 89
74 74 74
71 71 71
60 60 60
42 42 42
36 36 36
35 35 35
77 77 77
104 104 104
122 122 122
149 149 149
167 167 167
143 143 143
117 117 117
107 107 107
109 109 109
108 108 108
109 109 109
108 108 108
115 115 115
143 143 143
184 184 184
211 211 211
212 212 212
206 206 206
204 204 204
207 207 207
207 207 207
208 208 208
208 208 208
208 208 208
206 206 206
203 203 203
201 201 201
193 193 193
186 186 186
178 178 178
169 169 169
158 158 158
152 152 152
144 144 144
138 138 138
134 134 134
130 130 130
123 123 123
111 111 111
135 135 135
166 166 166
169 169 169
167 167 167
157 157 157
147 147 147
138 138 138
131 131 131
124 124 124
115 115 115
109 109 109
105 105 105
102 102 102
102 102 102
102 102 102
101 101 101
104 104 104
104 104 104
108 108 108
115 115 115
122 122 122
122 122 122
120 120 120
112 112 112
107 107 107
103 103 103
100 100 100
95 95 95
90 90 90
86 86 86
82 82 82
78 78 78
76 76 76
75 75 75
77 77 77
81 81 81
84 84 84
83 83 83
81 81 81
75 75 75
71 71 71
61 61 61
32 32 32
22 22 22
20 20 20
20 20 20
20 20 20
21 21 21
20 20 20
22 22 22
37 37 37
75 75 75
79 79 79
84 84 84
82 82 82
77 77 77
76 76 76
64 64 64
24 24 24
19 19 19
79 79 79
53 53 53
19 19 19
44 44 44
112 112 112
155 155 155
139 139 139
122 122 122
112 112 112
108 108 108
109 109 109
127 127 127
152 152 152
181 181 181
196 196 196
206 206 206
207 207 207
199 199 199
203 203 203
208 208 208
210 210 210
210 210 210
209 209 209
209 209 209
207 207 207
204 204 204
201 201 201
197 197 197
189 189 189
181 181 181
172 172 172
165 165 165
155 155 155
144 144 144
137 137 137
133 133 133
130 130 130
127 127 127
122 122 122
113 113 113
137 137 137
157 157 157
158 158 158
157 157 157
148 148 148
140 140 140
131 131 131
123 123 123
117 117 117
111 111 111
108 108 108
105 105 105
102 102 102
102 102 102
102 102 102
102 102 102
102 102 102
101 101 101
102 102 102
109 109 109
118 118 118
122 122 122
122 122 122
116 116 116
107 107 107
96 96 96
88 88 88
82 82 82
80 80 80
79 79 79
78 78 78
77 77 77
77 77 77
78 78 78
81 81 81
85 85 85
88 88 88
88 88 88
85 85 85
78 78 78
72 72 72
59 59 59
30 30 30
21 21 21
19 19 19
18 18 18
18 18 18
20 20 20
21 21 21
22 22 22
24 24 24
60 60 60
74 74 74
85 85 85
82 82 82
83 83 83
81 81 81
69 69 69
50 50 50
30 30 30
5 5 5
7 7 7
13 13 13
35 35 35
106 106 106
151 151 151
139 139 139
116 116 116
110 110 110
130 130 130
157 157 157
171 171 171
175 175 175
180 180 180
181 181 181
169 169 169
187 187 187
205 205 205
207 207 207
205 205 205
205 205 205
206 206 206
206 206 206
203 203 203
201 201 201
197 197 197
194 194 194
192 192 192
184 184 184
176 176 176
171 171 171
164 164 164
151 151 151
142 142 142
136 136 136
130 130 130
125 125 125
119 119 119
115 115 115
105 105 105
128 128 128
150 150 150
152 152 152
148 148 148
141 141 141
133 133 133
125 125 125
116 116 116
110 110 110
107 107 107
106 106 106
104 104 104
103 103 103
104 104 104
103 103 103
103 103 103
103 103 103
104 104 104
107 107 107
111 111 111
115 115 115
117 117 117
117 117 117
115 115 115
110 110 110
100 100 100
90 90 90
82 82 82
80 80 80
79 79 79
77 77 77
74 74 74
72 72 72
71 71 71
74 74 74
80 80 80
87 87 87
89 89 89
88 88 88
83 83 83
77 77 77
64 64 64
42 42 42
35 35 35
31 31 31
26 26 26
24 24 24
22 22 22
22 22 22
24 24 24
27 27 27
42 42 42
60 60 60
77 77 77
78 78 78
76 76 76
77 77 77
70 70 70
62 62 62
56 56 56
6 6 6
7 7 7
9 9 9
35 35 35
128 128 128
150 150 150
135 135 135
138 138 138
160 160 160
163 163 163
165 165 165
155 155 155
140 140 140
130 130 130
134 134 134
170 170 170
203 203 203
202 202 202
198 198 198
195 195 195
195 195 195
196 196 196
198 198 198
203 203 203
202 202 202
202 202 202
200 200 200
195 195 195
190 190 190
185 185 185
179 179 179
166 166 166
153 153 153
143 143 143
135 135 135
125 125 125
118 118 118
111 111 111
105 105 105
95 95 95
114 114 114
139 139 139
143 143 143
142 142 142
136 136 136
130 130 130
121 121 121
113 113 113
108 108 108
105 105 105
103 103 103
101 101 101
101 101 101
100 100 100
100 100 100
100 100 100
100 100 100
101 101 101
103 103 103
105 105 105
106 106 106
108 108 108
110 110 110
111 111 111
109 109 109
101 101 101
87 87 87
79 79 79
74 74 74
76 76 76
76 76 76
78 78 78
80 80 80
82 82 82
83 83 83
87 87 87
90 90 90
92 92 92
90 90 90
86 86 86
81 81 81
73 73 73
59 59 59
54 54 54
50 50 50
48 48 48
45 45 45
42 42 42
41 41 41
39 39 39
39 39 39
41 41 41
50 50 50
64 64 64
73 73 73
67 67 67
62 62 62
61 61 61
52 52 52
47 47 47
5 5 5
6 6 6
10 10 10
84 84 84
141 141 141
169 169 169
177 177 177
165 165 165
133 133 133
108 108 108
106 106 106
112 112 112
116 116 116
120 120 120
135 135 135
172 172 172
190 190 190
185 185 185
178 178 178
186 186 186
196 196 196
206 206 206
210 210 210
209 209 209
207 207 207
206 206 206
202 202 202
196 196 196
189 189 189
181 181 181
173 173 173
163 163 163
150 150 150
139 139 139
128 128 128
117 117 117
107 107 107
101 101 101
97 97 97
88 88 88
100 100 100
128 128 128
136 136 136
136 136 136
132 132 132
127 127 127
120 120 120
114 114 114
110 110 110
106 106 106
103 103 103
102 102 102
100 100 100
98 98 98
95 95 95
95 95 95
95 95 95
96 96 96
96 96 96
99 99 99
100 100 100
103 103 103
106 106 106
108 108 108
107 107 107
103 103 103
92 92 92
81 81 81
71 71 71
67 67 67
65 65 65
63 63 63
60 60 60
59 59 59
64 64 64
77 77 77
85 85 85
86 86 86
82 82 82
71 71 71
65 65 65
54 54 54
45 45 45
41 41 41
42 42 42
41 41 41
41 41 41
41 41 41
39 39 39
38 38 38
39 39 39
39 39 39
54 54 54
74 74 74
78 78 78
72 72 72
68 68 68
69 69 69
73 73 73
58 58 58
4 4 4
6 6 6
70 70 70
142 142 142
183 183 183
180 180 180
144 144 144
118 118 118
111 111 111
108 108 108
104 104 104
105 105 105
111 111 111
141 141 141
169 169 169
182 182 182
184 184 184
192 192 192
207 207 207
213 213 213
213 213 213
212 212 212
210 210 210
208 208 208
207 207 207
205 205 205
199 199 199
190 190 190
181 181 181
176 176 176
168 168 168
159 159 159
146 146 146
134 134 134
122 122 122
110 110 110
103 103 103
95 95 95
86 86 86
68 68 68
79 79 79
112 112 112
123 123 123
129 129 129
130 130 130
126 126 126
120 120 120
114 114 114
110 110 110
108 108 108
106 106 106
105 105 105
101 101 101
99 99 99
96 96 96
94 94 94
93 93 93
93 93 93
92 92 92
93 93 93
95 95 95
98 98 98
103 103 103
106 106 106
106 106 106
102 102 102
94 94 94
85 85 85
78 78 78
73 73 73
70 70 70
65 65 65
60 60 60
56 56 56
57 57 57
70 70 70
79 79 79
82 82 82
76 76 76
64 64 64
58 58 58
46 46 46
31 31 31
19 19 19
18 18 18
23 23 23
25 25 25
26 26 26
26 26 26
26 26 26
28 28 28
30 30 30
37 37 37
65 65 65
72 72 72
73 73 73
75 75 75
74 74 74
80 80 80
77 77 77
54 54 54
104 104 104
126 126 126
160 160 160
165 165 165
162 162 162
148 148 148
126 126 126
118 118 118
108 108 108
107 107 107
129 129 129
148 148 148
159 159 159
170 170 170
174 174 174
193 193 193
204 204 204
207 207 207
203 203 203
196 196 196
193 193 193
199 199 199
201 201 201
201 201 201
195 195 195
188 188 188
182 182 182
176 176 176
168 168 168
159 159 159
150 150 150
139 139 139
125 125 125
113 113 113
101 101 101
90 90 90
71 71 71
51 51 51
36 36 36
44 44 44
83 83 83
105 105 105
118 118 118
122 122 122
121 121 121
116 116 116
113 113 113
111 111 111
107 107 107
106 106 106
105 105 105
103 103 103
101 101 101
99 99 99
98 98 98
95 95 95
93 93 93
91 91 91
89 89 89
89 89 89
91 91 91
97 97 97
105 105 105
108 108 108
107 107 107
102 102 102
97 97 97
92 92 92
88 88 88
85 85 85
78 78 78
69 69 69
61 61 61
60 60 60
69 69 69
77 77 77
79 79 79
76 76 76
65 65 65
57 57 57
43 43 43
29 29 29
20 20 20
17 17 17
18 18 18
19 19 19
22 22 22
24 24 24
26 26 26
26 26 26
27 27 27
29 29 29
52 52 52
50 50 50
52 52 52
67 67 67
71 71 71
72 72 72
66 66 66
74 74 74
40 40 40
108 108 108
156 156 156
158 158 158
158 158 158
152 152 152
135 135 135
135 135 135
131 131 131
122 122 122
138 138 138
153 153 153
142 142 142
162 162 162
186 186 186
195 195 195
196 196 196
186 186 186
174 174 174
171 171 171
177 177 177
187 187 187
192 192 192
192 192 192
189 189 189
184 184 184
178 178 178
170 170 170
161 161 161
152 152 152
141 141 141
128 128 128
114 114 114
98 98 98
80 80 80
59 59 59
40 40 40
31 31 31
28 28 28
30 30 30
44 44 44
76 76 76
101 101 101
111 111 111
113 113 113
113 113 113
112 112 112
110 110 110
107 107 107
106 106 106
104 104 104
102 102 102
102 102 102
100 100 100
100 100 100
96 96 96
94 94 94
92 92 92
89 89 89
87 87 87
86 86 86
87 87 87
91 91 91
93 93 93
95 95 95
96 96 96
96 96 96
95 95 95
94 94 94
92 92 92
89 89 89
83 83 83
79 79 79
76 76 76
76 76 76
78 78 78
78 78 78
75 75 75
66 66 66
56 56 56
38 38 38
28 28 28
23 23 23
20 20 20
19 19 19
18 18 18
18 18 18
19 19 19
20 20 20
24 24 24
27 27 27
29 29 29
40 40 40
55 55 55
54 54 54
94 94 94
97 97 97
103 103 103
113 113 113
13 13 13
56 56 56
139 139 139
155 155 155
157 157 157
156 156 156
153 153 153
147 147 147
144 144 144
141 141 141
139 139 139
118 118 118
112 112 112
161 161 161
180 180 180
188 188 188
179 179 179
180 180 180
173 173 173
149 149 149
148 148 148
159 159 159
175 175 175
189 189 189
187 187 187
180 180 180
172 172 172
166 166 166
158 158 158
149 149 149
138 138 138
125 125 125
111 111 111
95 95 95
72 72 72
53 53 53
41 41 41
36 36 36
31 31 31
29 29 29
29 29 29
36 36 36
52 52 52
78 78 78
94 94 94
100 100 100
105 105 105
107 107 107
107 107 107
106 106 106
106 106 106
105 105 105
102 102 102
100 100 100
99 99 99
97 97 97
95 95 95
93 93 93
92 92 92
90 90 90
89 89 89
89 89 89
89 89 89
89 89 89
89 89 89
89 89 89
88 88 88
86 86 86
84 84 84
84 84 84
84 84 84
85 85 85
85 85 85
81 81 81
80 80 80
81 81 81
82 82 82
82 82 82
76 76 76
67 67 67
56 56 56
35 35 35
19 19 19
17 17 17
15 15 15
15 15 15
15 15 15
16 16 16
16 16 16
18 18 18
20 20 20
21 21 21
23 23 23
26 26 26
83 83 83
122 122 122
140 140 140
144 144 144
145 145 145
142 142 142
12 12 12
87 87 87
142 142 142
162 162 162
155 155 155
157 157 157
163 163 163
163 163 163
146 146 146
116 116 116
105 105 105
121 121 121
142 142 142
150 150 150
153 153 153
157 157 157
175 175 175
171 171 171
160 160 160
163 163 163
169 169 169
164 164 164
180 180 180
182 182 182
175 175 175
162 162 162
154 154 154
150 150 150
143 143 143
132 132 132
118 118 118
102 102 102
84 84 84
70 70 70
60 60 60
52 52 52
47 47 47
42 42 42
41 41 41
38 38 38
40 40 40
43 43 43
50 50 50
61 61 61
73 73 73
85 85 85
98 98 98
102 102 102
104 104 104
104 104 104
105 105 105
103 103 103
101 101 101
100 100 100
97 97 97
94 94 94
93 93 93
90 90 90
90 90 90
89 89 89
88 88 88
89 89 89
89 89 89
89 89 89
90 90 90
88 88 88
86 86 86
84 84 84
80 80 80
79 79 79
77 77 77
75 75 75
72 72 72
73 73 73
79 79 79
83 83 83
83 83 83
82 82 82
79 79 79
71 71 71
56 56 56
31 31 31
23 23 23
16 16 16
14 14 14
14 14 14
15 15 15
17 17 17
17 17 17
19 19 19
20 20 20
21 21 21
21 21 21
23 23 23
72 72 72
135 135 135
138 138 138
141 141 141
141 141 141
141 141 141
65 65 65
109 109 109
163 163 163
164 164 164
167 167 167
161 161 161
146 146 146
138 138 138
132 132 132
131 131 131
146 146 146
132 132 132
120 120 120
134 134 134
141 141 141
154 154 154
154 154 154
154 154 154
178 178 178
182 182 182
152 152 152
160 160 160
171 171 171
163 163 163
153 153 153
144 144 144
138 138 138
131 131 131
123 123 123
108 108 108
90 90 90
77 77 77
71 71 71
69 69 69
65 65 65
61 61 61
59 59 59
55 55 55
52 52 52
50 50 50
52 52 52
54 54 54
56 56 56
57 57 57
61 61 61
65 65 65
79 79 79
93 93 93
99 99 99
101 101 101
101 101 101
102 102 102
101 101 101
100 100 100
97 97 97
94 94 94
91 91 91
88 88 88
87 87 87
87 87 87
87 87 87
87 87 87
88 88 88
87 87 87
86 86 86
83 83 83
81 81 81
79 79 79
76 76 76
74 74 74
72 72 72
71 71 71
69 69 69
66 66 66
65 65 65
71 71 71
78 78 78
81 81 81
79 79 79
74 74 74
59 59 59
32 32 32
18 18 18
13 13 13
12 12 12
12 12 12
13 13 13
13 13 13
15 15 15
17 17 17
18 18 18
19 19 19
20 20 20
22 22 22
28 28 28
127 127 127
139 139 139
143 143 143
146 146 146
147 147 147
123 123 123
151 151 151
163 163 163
160 160 160
153 153 153
141 141 141
140 140 140
144 144 144
147 147 147
142 142 142
125 125 125
125 125 125
135 135 135
126 126 126
121 121 121
129 129 129
141 141 141
177 177 177
183 183 183
149 149 149
142 142 142
158 158 158
149 149 149
146 146 146
139 139 139
133 133 133
126 126 126
116 116 116
103 103 103
88 88 88
79 79 79
82 82 82
85 85 85
83 83 83
79 79 79
75 75 75
74 74 74
71 71 71
70 70 70
66 66 66
67 67 67
68 68 68
69 69 69
64 64 64
63 63 63
61 61 61
61 61 61
76 76 76
88 88 88
95 95 95
98 98 98
99 99 99
99 99 99
98 98 98
96 96 96
92 92 92
88 88 88
85 85 85
83 83 83
83 83 83
85 85 85
87 87 87
88 88 88
88 88 88
87 87 87
83 83 83
78 78 78
74 74 74
70 70 70
67 67 67
66 66 66
66 66 66
67 67 67
67 67 67
66 66 66
66 66 66
68 68 68
72 72 72
78 78 78
79 79 79
71 71 71
49 49 49
34 34 34
27 27 27
23 23 23
22 22 22
22 22 22
24 24 24
24 24 24
26 26 26
27 27 27
29 29 29
30 30 30
31 31 31
35 35 35
98 98 98
144 144 144
146 146 146
148 148 148
152 152 152
68 68 68
114 114 114
156 156 156
160 160 160
154 154 154
148 148 148
152 152 152
142 142 142
135 135 135
134 134 134
134 134 134
138 138 138
113 113 113
108 108 108
114 114 114
127 127 127
144 144 144
171 171 171
152 152 152
142 142 142
149 149 149
140 140 140
138 138 138
137 137 137
130 130 130
123 123 123
113 113 113
103 103 103
88 88 88
78 78 78
93 93 93
115 115 115
125 125 125
126 126 126
101 101 101
95 95 95
94 94 94
92 92 92
89 89 89
87 87 87
85 85 85
84 84 84
83 83 83
78 78 78
74 74 74
67 67 67
59 59 59
56 56 56
72 72 72
84 84 84
90 90 90
93 93 93
95 95 95
96 96 96
94 94 94
91 91 91
88 88 88
84 84 84
83 83 83
82 82 82
85 85 85
87 87 87
89 89 89
89 89 89
87 87 87
82 82 82
78 78 78
73 73 73
69 69 69
65 65 65
62 62 62
59 59 59
59 59 59
59 59 59
59 59 59
61 61 61
64 64 64
68 68 68
72 72 72
76 76 76
75 75 75
62 62 62
49 49 49
41 41 41
35 35 35
31 31 31
28 28 28
27 27 27
25 25 25
23 23 23
24 24 24
24 24 24
25 25 25
26 26 26
28 28 28
43 43 43
171 171 171
174 174 174
165 165 165
161 161 161
79 79 79
123 123 123
159 159 159
162 162 162
164 164 164
158 158 158
141 141 141
135 135 135
136 136 136
145 145 145
142 142 142
112 112 112
106 106 106
107 107 107
116 116 116
125 125 125
150 150 150
146 146 146
143 143 143
148 148 148
149 149 149
136 136 136
135 135 135
128 128 128
122 122 122
115 115 115
107 107 107
94 94 94
78 78 78
86 86 86
139 139 139
162 162 162
169 169 169
161 161 161
127 127 127
118 118 118
118 118 118
114 114 114
112 112 112
108 108 108
105 105 105
103 103 103
100 100 100
101 101 101
90 90 90
77 77 77
65 65 65
56 56 56
57 57 57
73 73 73
84 84 84
88 88 88
93 93 93
93 93 93
92 92 92
89 89 89
87 87 87
85 85 85
84 84 84
85 85 85
86 86 86
87 87 87
89 89 89
88 88 88
86 86 86
83 83 83
78 78 78
75 75 75
71 71 71
67 67 67
62 62 62
58 58 58
54 54 54
51 51 51
51 51 51
50 50 50
55 55 55
60 60 60
64 64 64
67 67 67
64 64 64
46 46 46
31 31 31
23 23 23
17 17 17
14 14 14
12 12 12
10 10 10
10 10 10
11 11 11
12 12 12
14 14 14
14 14 14
15 15 15
15 15 15
19 19 19
106 106 106
161 161 161
162 162 162
161 161 161
56 56 56
118 118 118
162 162 162
168 168 168
161 161 161
153 153 153
144 144 144
146 146 146
156 156 156
151 151 151
130 130 130
116 116 116
109 109 109
116 116 116
123 123 123
144 144 144
147 147 147
143 143 143
149 149 149
159 159 159
150 150 150
140 140 140
131 131 131
124 124 124
117 117 117
110 110 110
101 101 101
89 89 89
80 80 80
110 110 110
165 165 165
175 175 175
175 175 175
164 164 164
144 144 144
136 136 136
135 135 135
136 136 136
134 134 134
130 130 130
127 127 127
124 124 124
128 128 128
136 136 136
107 107 107
89 89 89
73 73 73
61 61 61
53 53 53
66 66 66
77 77 77
85 85 85
89 89 89
91 91 91
91 91 91
89 89 89
87 87 87
86 86 86
85 85 85
84 84 84
85 85 85
88 88 88
88 88 88
86 86 86
83 83 83
80 80 80
77 77 77
74 74 74
72 72 72
68 68 68
62 62 62
57 57 57
52 52 52
50 50 50
50 50 50
50 50 50
54 54 54
59 59 59
63 63 63
65 65 65
61 61 61
39 39 39
26 26 26
19 19 19
13 13 13
10 10 10
9 9 9
9 9 9
10 10 10
10 10 10
10 10 10
11 11 11
12 12 12
15 15 15
17 17 17
21 21 21
30 30 30
140 140 140
158 158 158
159 159 159
87 87 87
137 137 137
164 164 164
168 168 168
162 162 162
159 159 159
158 158 158
161 161 161
156 156 156
142 142 142
131 131 131
117 117 117
116 116 116
125 125 125
140 140 140
151 151 151
149 149 149
157 157 157
163 163 163
165 165 165
154 154 154
140 140 140
132 132 132
123 123 123
115 115 115
106 106 106
98 98 98
91 91 91
89 89 89
124 124 124
161 161 161
171 171 171
172 172 172
166 166 166
156 156 156
151 151 151
152 152 152
154 154 154
153 153 153
152 152 152
151 151 151
149 149 149
166 166 166
157 157 157
126 126 126
103 103 103
82 82 82
65 65 65
57 57 57
64 64 64
73 73 73
80 80 80
85 85 85
88 88 88
89 89 89
88 88 88
87 87 87
88 88 88
88 88 88
88 88 88
89 89 89
88 88 88
88 88 88
85 85 85
83 83 83
81 81 81
77 77 77
74 74 74
70 70 70
68 68 68
63 63 63
58 58 58
54 54 54
52 52 52
52 52 52
54 54 54
58 58 58
61 61 61
62 62 62
60 60 60
49 49 49
36 36 36
25 25 25
17 17 17
12 12 12
10 10 10
10 10 10
9 9 9
9 9 9
9 9 9
11 11 11
11 11 11
11 11 11
13 13 13
14 14 14
17 17 17
21 21 21
85 85 85
155 155 155
158 158 158
99 99 99
131 131 131
161 161 161
166 166 166
167 167 167
169 169 169
167 167 167
163 163 163
149 149 149
140 140 140
128 128 128
124 124 124
131 131 131
139 139 139
153 153 153
153 153 153
160 160 160
165 165 165
169 169 169
173 173 173
161 161 161
148 148 148
138 138 138
126 126 126
115 115 115
108 108 108
101 101 101
95 95 95
97 97 97
129 129 129
152 152 152
162 162 162
163 163 163
163 163 163
160 160 160
161 161 161
166 166 166
170 170 170
173 173 173
174 174 174
174 174 174
175 175 175
200 200 200
168 168 168
139 139 139
113 113 113
88 88 88
70 70 70
63 63 63
68 68 68
74 74 74
80 80 80
87 87 87
89 89 89
90 90 90
91 91 91
93 93 93
92 92 92
93 93 93
92 92 92
91 91 91
89 89 89
88 88 88
85 85 85
83 83 83
81 81 81
78 78 78
76 76 76
72 72 72
67 67 67
62 62 62
58 58 58
54 54 54
54 54 54
53 53 53
55 55 55
59 59 59
61 61 61
60 60 60
52 52 52
30 30 30
18 18 18
14 14 14
11 11 11
10 10 10
9 9 9
8 8 8
8 8 8
8 8 8
8 8 8
9 9 9
10 10 10
10 10 10
11 11 11
12 12 12
16 16 16
21 21 21
23 23 23
134 134 134
162 162 162
66 66 66
118 118 118
161 161 161
177 177 177
181 181 181
176 176 176
171 171 171
157 157 157
151 151 151
145 145 145
137 137 137
134 134 134
134 134 134
145 145 145
151 151 151
158 158 158
164 164 164
169 169 169
178 178 178
180 180 180
172 172 172
161 161 161
147 147 147
132 132 132
119 119 119
110 110 110
104 104 104
101 101 101
103 103 103
131 131 131
145 145 145
153 153 153
157 157 157
159 159 159
161 161 161
163 163 163
173 173 173
181 181 181
188 188 188
191 191 191
190 190 190
202 202 202
222 222 222
178 178 178
145 145 145
119 119 119
95 95 95
72 72 72
69 69 69
72 72 72
76 76 76
81 81 81
89 89 89
93 93 93
95 95 95
97 97 97
98 98 98
96 96 96
98 98 98
97 97 97
94 94 94
90 90 90
84 84 84
81 81 81
77 77 77
75 75 75
74 74 74
72 72 72
69 69 69
65 65 65
62 62 62
60 60 60
57 57 57
56 56 56
56 56 56
58 58 58
58 58 58
57 57 57
47 47 47
32 32 32
18 18 18
10 10 10
8 8 8
7 7 7
7 7 7
6 6 6
7 7 7
7 7 7
5 5 5
5 5 5
6 6 6
7 7 7
7 7 7
8 8 8
10 10 10
14 14 14
18 18 18
22 22 22
67 67 67
160 160 160
68 68 68
115 115 115
166 166 166
184 184 184
183 183 183
180 180 180
169 169 169
160 160 160
157 157 157
144 144 144
137 137 137
133 133 133
137 137 137
142 142 142
145 145 145
156 156 156
157 157 157
162 162 162
176 176 176
179 179 179
179 179 179
170 170 170
157 157 157
139 139 139
126 126 126
116 116 116
109 109 109
105 105 105
107 107 107
130 130 130
140 140 140
146 146 146
151 151 151
154 154 154
156 156 156
159 159 159
174 174 174
186 186 186
199 199 199
201 201 201
199 199 199
206 206 206
216 216 216
171 171 171
145 145 145
122 122 122
96 96 96
74 74 74
71 71 71
74 74 74
78 78 78
86 86 86
93 93 93
97 97 97
100 100 100
101 101 101
101 101 101
101 101 101
100 100 100
98 98 98
95 95 95
90 90 90
85 85 85
80 80 80
75 75 75
73 73 73
70 70 70
69 69 69
67 67 67
64 64 64
60 60 60
59 59 59
59 59 59
60 60 60
60 60 60
60 60 60
60 60 60
52 52 52
29 29 29
10 10 10
7 7 7
6 6 6
5 5 5
5 5 5
5 5 5
5 5 5
5 5 5
5 5 5
5 5 5
6 6 6
5 5 5
6 6 6
6 6 6
7 7 7
9 9 9
12 12 12
16 16 16
19 19 19
21 21 21
121 121 121
73 73 73
117 117 117
158 158 158
177 177 177
184 184 184
180 180 180
172 172 172
171 171 171
161 161 161
151 151 151
142 142 142
137 137 137
137 137 137
122 122 122
130 130 130
134 134 134
133 133 133
144 144 144
166 166 166
177 177 177
182 182 182
178 178 178
167 167 167
151 151 151
136 136 136
125 125 125
114 114 114
109 109 109
111 111 111
129 129 129
136 136 136
139 139 139
144 144 144
146 146 146
148 148 148
155 155 155
171 171 171
187 187 187
205 205 205
200 200 200
197 197 197
200 200 200
194 194 194
160 160 160
138 138 138
120 120 120
92 92 92
75 75 75
73 73 73
77 77 77
84 84 84
91 91 91
97 97 97
100 100 100
103 103 103
104 104 104
104 104 104
102 102 102
99 99 99
96 96 96
92 92 92
87 87 87
80 80 80
74 74 74
70 70 70
68 68 68
66 66 66
66 66 66
65 65 65
65 65 65
63 63 63
59 59 59
61 61 61
63 63 63
65 65 65
65 65 65
61 61 61
45 45 45
22 22 22
9 9 9
6 6 6
5 5 5
4 4 4
4 4 4
4 4 4
4 4 4
4 4 4
4 4 4
4 4 4
4 4 4
4 4 4
4 4 4
5 5 5
6 6 6
7 7 7
8 8 8
11 11 11
16 16 16
22 22 22
37 37 37
78 78 78
99 99 99
141 141 141
170 170 170
181 181 181
181 181 181
183 183 183
181 181 181
168 168 168
155 155 155
143 143 143
136 136 136
129 129 129
122 122 122
125 125 125
118 118 118
110 110 110
134 134 134
156 156 156
173 173 173
183 183 183
183 183 183
176 176 176
163 163 163
146 146 146
133 133 133
121 121 121
112 112 112
112 112 112
127 127 127
132 132 132
136 136 136
138 138 138
138 138 138
138 138 138
149 149 149
165 165 165
183 183 183
196 196 196
189 189 189
188 188 188
185 185 185
172 172 172
150 150 150
132 132 132
115 115 115
88 88 88
76 76 76
78 78 78
83 83 83
90 90 90
98 98 98
103 103 103
104 104 104
106 106 106
106 106 106
105 105 105
101 101 101
97 97 97
93 93 93
87 87 87
83 83 83
77 77 77
71 71 71
66 66 66
63 63 63
63 63 63
63 63 63
64 64 64
65 65 65
65 65 65
63 63 63
62 62 62
64 64 64
67 67 67
68 68 68
63 63 63
40 40 40
22 22 22
14 14 14
6 6 6
5 5 5
4 4 4
4 4 4
4 4 4
4 4 4
4 4 4
4 4 4
4 4 4
4 4 4
5 5 5
5 5 5
4 4 4
4 4 4
6 6 6
8 8 8
10 10 10
12 12 12
16 16 16
20 20 20
51 51 51
79 79 79
131 131 131
162 162 162
175 175 175
185 185 185
186 186 186
179 179 179
167 167 167
151 151 151
140 140 140
134 134 134
123 123 123
117 117 117
108 108 108
101 101 101
105 105 105
130 130 130
146 146 146
164 164 164
177 177 177
184 184 184
183 183 183
176 176 176
160 160 160
144 144 144
131 131 131
118 118 118
117 117 117
126 126 126
129 129 129
132 132 132
133 133 133
133 133 133
133 133 133
142 142 142
156 156 156
170 170 170
180 180 180
180 180 180
177 177 177
172 172 172
158 158 158
141 141 141
126 126 126
108 108 108
87 87 87
82 82 82
86 86 86
90 90 90
96 96 96
102 102 102
107 107 107
108 108 108
108 108 108
106 106 106
104 104 104
98 98 98
92 92 92
87 87 87
81 81 81
76 76 76
71 71 71
64 64 64
61 61 61
60 60 60
60 60 60
60 60 60
63 63 63
65 65 65
66 66 66
68 68 68
66 66 66
65 65 65
65 65 65
66 66 66
58 58 58
37 37 37
26 26 26
23 23 23
13 13 13
6 6 6
4 4 4
4 4 4
4 4 4
4 4 4
4 4 4
3 3 3
3 3 3
3 3 3
3 3 3
4 4 4
4 4 4
4 4 4
5 5 5
6 6 6
9 9 9
10 10 10
13 13 13
17 17 17
43 43 43
78 78 78
124 124 124
152 152 152
173 173 173
182 182 182
181 181 181
179 179 179
166 166 166
153 153 153
140 140 140
138 138 138
120 120 120
108 108 108
104 104 104
108 108 108
116 116 116
121 121 121
132 132 132
145 145 145
164 164 164
182 182 182
186 186 186
184 184 184
173 173 173
160 160 160
147 147 147
134 134 134
130 130 130
130 130 130
129 129 129
130 130 130
131 131 131
130 130 130
130 130 130
137 137 137
146 146 146
156 156 156
165 165 165
168 168 168
165 165 165
160 160 160
147 147 147
130 130 130
118 118 118
104 104 104
88 88 88
87 87 87
91 91 91
96 96 96
102 102 102
106 106 106
108 108 108
110 110 110
108 108 108
106 106 106
102 102 102
95 95 95
87 87 87
80 80 80
75 75 75
70 70 70
65 65 65
59 59 59
57 57 57
57 57 57
58 58 58
62 62 62
64 64 64
68 68 68
70 70 70
69 69 69
69 69 69
66 66 66
64 64 64
58 58 58
42 42 42
27 27 27
26 26 26
24 24 24
20 20 20
13 13 13
7 7 7
5 5 5
5 5 5
4 4 4
3 3 3
3 3 3
4 4 4
4 4 4
4 4 4
4 4 4
4 4 4
4 4 4
6 6 6
7 7 7
8 8 8
11 11 11
13 13 13
16 16 16
49 49 49
81 81 81
124 124 124
155 155 155
166 166 166
174 174 174
182 182 182
182 182 182
164 164 164
153 153 153
152 152 152
138 138 138
123 123 123
117 117 117
122 122 122
121 121 121
114 114 114
115 115 115
123 123 123
130 130 130
154 154 154
178 178 178
186 186 186
187 187 187
182 182 182
175 175 175
165 165 165
154 154 154
144 144 144
134 134 134
129 129 129
128 128 128
127 127 127
126 126 126
126 126 126
132 132 132
138 138 138
144 144 144
152 152 152
156 156 156
155 155 155
148 148 148
135 135 135
122 122 122
112 112 112
102 102 102
92 92 92
94 94 94
96 96 96
102 102 102
105 105 105
109 109 109
112 112 112
111 111 111
109 109 109
105 105 105
99 99 99
87 87 87
79 79 79
71 71 71
68 68 68
64 64 64
61 61 61
58 58 58
55 55 55
56 56 56
59 59 59
64 64 64
69 69 69
71 71 71
73 73 73
73 73 73
71 71 71
67 67 67
61 61 61
50 50 50
29 29 29
13 13 13
12 12 12
16 16 16
19 19 19
16 16 16
14 14 14
9 9 9
8 8 8
6 6 6
5 5 5
4 4 4
4 4 4
4 4 4
4 4 4
4 4 4
4 4 4
4 4 4
6 6 6
6 6 6
7 7 7
9 9 9
11 11 11
13 13 13
41 41 41
68 68 68
117 117 117
148 148 148
156 156 156
164 164 164
168 168 168
164 164 164
163 163 163
159 159 159
156 156 156
143 143 143
143 143 143
147 147 147
142 142 142
131 131 131
124 124 124
126 126 126
127 127 127
130 130 130
147 147 147
168 168 168
180 180 180
184 184 184
183 183 183
179 179 179
177 177 177
170 170 170
156 156 156
141 141 141
130 130 130
126 126 126
124 124 124
123 123 123
125 125 125
128 128 128
130 130 130
135 135 135
142 142 142
147 147 147
147 147 147
140 140 140
128 128 128
116 116 116
106 106 106
100 100 100
99 99 99
100 100 100
103 103 103
106 106 106
109 109 109
112 112 112
112 112 112
109 109 109
105 105 105
102 102 102
93 93 93
79 79 79
69 69 69
63 63 63
60 60 60
58 58 58
57 57 57
57 57 57
58 58 58
59 59 59
60 60 60
64 64 64
67 67 67
71 71 71
73 73 73
73 73 73
71 71 71
66 66 66
57 57 57
41 41 41
21 21 21
10 10 10
9 9 9
6 6 6
8 8 8
11 11 11
12 12 12
13 13 13
11 11 11
9 9 9
9 9 9
7 7 7
5 5 5
6 6 6
6 6 6
6 6 6
5 5 5
6 6 6
6 6 6
8 8 8
9 9 9
9 9 9
11 11 11
13 13 13
59 59 59
74 74 74
129 129 129
145 145 145
146 146 146
148 148 148
152 152 152
159 159 159
160 160 160
159 159 159
149 149 149
153 153 153
168 168 168
165 165 165
157 157 157
147 147 147
143 143 143
132 132 132
126 126 126
131 131 131
140 140 140
152 152 152
163 163 163
175 175 175
178 178 178
179 179 179
177 177 177
173 173 173
163 163 163
149 149 149
134 134 134
126 126 126
122 122 122
121 121 121
121 121 121
124 124 124
127 127 127
129 129 129
134 134 134
139 139 139
140 140 140
133 133 133
123 123 123
112 112 112
105 105 105
103 103 103
104 104 104
106 106 106
108 108 108
110 110 110
112 112 112
113 113 113
111 111 111
109 109 109
104 104 104
99 99 99
89 89 89
75 75 75
64 64 64
60 60 60
57 57 57
55 55 55
55 55 55
57 57 57
61 61 61
63 63 63
65 65 65
68 68 68
69 69 69
72 72 72
72 72 72
72 72 72
70 70 70
63 63 63
51 51 51
32 32 32
17 17 17
10 10 10
7 7 7
5 5 5
5 5 5
5 5 5
6 6 6
9 9 9
10 10 10
10 10 10
11 11 11
10 10 10
8 8 8
7 7 7
7 7 7
6 6 6
5 5 5
5 5 5
6 6 6
6 6 6
7 7 7
9 9 9
10 10 10
12 12 12
51 51 51
100 100 100
129 129 129
137 137 137
141 141 141
143 143 143
147 147 147
149 149 149
155 155 155
138 138 138
127 127 127
148 148 148
159 159 159
151 151 151
144 144 144
143 143 143
136 136 136
126 126 126
127 127 127
129 129 129
130 130 130
135 135 135
142 142 142
152 152 152
161 161 161
169 169 169
174 174 174
173 173 173
166 166 166
153 153 153
136 136 136
126 126 126
120 120 120
118 118 118
119 119 119
121 121 121
123 123 123
128 128 128
131 131 131
135 135 135
133 133 133
127 127 127
117 117 117
109 109 109
107 107 107
106 106 106
108 108 108
109 109 109
111 111 111
113 113 113
113 113 113
113 113 113
109 109 109
104 104 104
99 99 99
91 91 91
81 81 81
70 70 70
62 62 62
58 58 58
56 56 56
55 55 55
56 56 56
58 58 58
63 63 63
67 67 67
69 69 69
71 71 71
74 74 74
72 72 72
70 70 70
67 67 67
65 65 65
59 59 59
46 46 46
29 29 29
13 13 13
10 10 10
8 8 8
6 6 6
5 5 5
5 5 5
4 4 4
5 5 5
5 5 5
6 6 6
8 8 8
9 9 9
10 10 10
10 10 10
10 10 10
9 9 9
9 9 9
8 8 8
8 8 8
8 8 8
9 9 9
9 9 9
11 11 11
15 15 15
65 65 65
101 101 101
130 130 130
140 140 140
143 143 143
142 142 142
139 139 139
134 134 134
119 119 119
105 105 105
110 110 110
129 129 129
138 138 138
139 139 139
140 140 140
136 136 136
130 130 130
114 114 114
102 102 102
99 99 99
99 99 99
102 102 102
110 110 110
124 124 124
137 137 137
155 155 155
164 164 164
168 168 168
165 165 165
153 153 153
135 135 135
124 124 124
117 117 117
115 115 115
116 116 116
117 117 117
121 121 121
126 126 126
129 129 129
129 129 129
126 126 126
120 120 120
112 112 112
108 108 108
108 108 108
108 108 108
109 109 109
109 109 109
111 111 111
112 112 112
111 111 111
108 108 108
103 103 103
97 97 97
88 88 88
79 79 79
69 69 69
63 63 63
57 57 57
56 56 56
55 55 55
56 56 56
59 59 59
63 63 63
66 66 66
71 71 71
73 73 73
72 72 72
72 72 72
70 70 70
65 65 65
61 61 61
57 57 57
52 52 52
43 43 43
31 31 31
16 16 16
7 7 7
7 7 7
5 5 5
4 4 4
4 4 4
4 4 4
4 4 4
4 4 4
4 4 4
6 6 6
6 6 6
7 7 7
9 9 9
11 11 11
12 12 12
11 11 11
10 10 10
11 11 11
10 10 10
11 11 11
13 13 13
16 16 16
18 18 18
71 71 71
97 97 97
138 138 138
147 147 147
145 145 145
141 141 141
134 134 134
121 121 121
105 105 105
98 98 98
102 102 102
119 119 119
131 131 131
130 130 130
123 123 123
116 116 116
100 100 100
82 82 82
75 75 75
72 72 72
74 74 74
79 79 79
94 94 94
108 108 108
119 119 119
130 130 130
146 146 146
156 156 156
156 156 156
146 146 146
132 132 132
121 121 121
117 117 117
116 116 116
115 115 115
115 115 115
118 118 118
122 122 122
122 122 122
122 122 122
119 119 119
114 114 114
111 111 111
109 109 109
109 109 109
109 109 109
108 108 108
108 108 108
108 108 108
108 108 108
104 104 104
100 100 100
94 94 94
85 85 85
75 75 75
66 66 66
60 60 60
57 57 57
55 55 55
56 56 56
57 57 57
57 57 57
60 60 60
63 63 63
66 66 66
70 70 70
72 72 72
71 71 71
70 70 70
66 66 66
62 62 62
54 54 54
46 46 46
43 43 43
35 35 35
31 31 31
21 21 21
8 8 8
6 6 6
4 4 4
4 4 4
4 4 4
3 3 3
4 4 4
4 4 4
4 4 4
4 4 4
4 4 4
5 5 5
5 5 5
6 6 6
6 6 6
8 8 8
11 11 11
11 11 11
14 14 14
16 16 16
20 20 20
21 21 21
21 21 21
77 77 77
123 123 123
149 149 149
152 152 152
150 150 150
146 146 146
138 138 138
124 124 124
103 103 103
98 98 98
108 108 108
117 117 117
120 120 120
114 114 114
110 110 110
100 100 100
80 80 80
71 71 71
67 67 67
66 66 66
55 55 55
66 66 66
74 74 74
82 82 82
90 90 90
102 102 102
117 117 117
136 136 136
138 138 138
133 133 133
128 128 128
121 121 121
116 116 116
114 114 114
113 113 113
113 113 113
115 115 115
118 118 118
119 119 119
117 117 117
114 114 114
111 111 111
110 110 110
108 108 108
108 108 108
107 107 107
104 104 104
103 103 103
101 101 101
98 98 98
94 94 94
87 87 87
81 81 81
75 75 75
66 66 66
58 58 58
52 52 52
51 51 51
52 52 52
56 56 56
57 57 57
57 57 57
58 58 58
61 61 61
63 63 63
66 66 66
66 66 66
65 65 65
64 64 64
60 60 60
54 54 54
50 50 50
37 37 37
32 32 32
30 30 30
25 25 25
22 22 22
11 11 11
7 7 7
5 5 5
4 4 4
3 3 3
3 3 3
3 3 3
3 3 3
2 2 2
3 3 3
3 3 3
3 3 3
4 4 4
3 3 3
4 4 4
5 5 5
7 7 7
10 10 10
14 14 14
15 15 15
19 19 19
21 21 21
22 22 22
93 93 93
136 136 136
158 158 158
160 160 160
158 158 158
152 152 152
141 141 141
126 126 126
109 109 109
108 108 108
112 112 112
113 113 113
113 113 113
113 113 113
108 108 108
86 86 86
74 74 74
70 70 70
66 66 66
51 51 51
48 48 48
49 49 49
52 52 52
64 64 64
70 70 70
81 81 81
99 99 99
111 111 111
113 113 113
114 114 114
119 119 119
118 118 118
115 115 115
113 113 113
111 111 111
111 111 111
113 113 113
114 114 114
115 115 115
114 114 114
112 112 112
111 111 111
112 112 112
111 111 111
109 109 109
106 106 106
101 101 101
94 94 94
89 89 89
84 84 84
77 77 77
72 72 72
65 65 65
63 63 63
57 57 57
53 53 53
49 49 49
49 49 49
53 53 53
56 56 56
59 59 59
59 59 59
59 59 59
60 60 60
60 60 60
60 60 60
59 59 59
56 56 56
52 52 52
49 49 49
47 47 47
41 41 41
37 37 37
27 27 27
26 26 26
25 25 25
22 22 22
13 13 13
7 7 7
5 5 5
4 4 4
3 3 3
3 3 3
3 3 3
3 3 3
3 3 3
3 3 3
3 3 3
3 3 3
3 3 3
4 4 4
4 4 4
4 4 4
5 5 5
6 6 6
8 8 8
13 13 13
16 16 16
18 18 18
20 20 20
117 117 117
156 156 156
162 162 162
164 164 164
161 161 161
153 153 153
145 145 145
131 131 131
119 119 119
116 116 116
111 111 111
108 108 108
112 112 112
108 108 108
91 91 91
81 81 81
75 75 75
67 67 67
49 49 49
39 39 39
37 37 37
39 39 39
46 46 46
53 53 53
59 59 59
70 70 70
82 82 82
89 89 89
89 89 89
99 99 99
112 112 112
116 116 116
114 114 114
112 112 112
110 110 110
109 109 109
110 110 110
110 110 110
111 111 111
111 111 111
111 111 111
112 112 112
113 113 113
112 112 112
109 109 109
101 101 101
93 93 93
85 85 85
78 78 78
71 71 71
62 62 62
59 59 59
54 54 54
54 54 54
52 52 52
51 51 51
46 46 46
46 46 46
52 52 52
55 55 55
58 58 58
57 57 57
56 56 56
56 56 56
54 54 54
53 53 53
51 51 51
48 48 48
45 45 45
41 41 41
38 38 38
34 34 34
29 29 29
23 23 23
22 22 22
23 23 23
19 19 19
12 12 12
7 7 7
5 5 5
4 4 4
4 4 4
4 4 4
4 4 4
4 4 4
3 3 3
2 2 2
3 3 3
3 3 3
3 3 3
3 3 3
3 3 3
4 4 4
4 4 4
4 4 4
7 7 7
10 10 10
14 14 14
16 16 16
17 17 17
133 133 133
160 160 160
163 163 163
165 165 165
162 162 162
155 155 155
149 149 149
139 139 139
131 131 131
123 123 123
114 114 114
112 112 112
108 108 108
96 96 96
91 91 91
83 83 83
71 71 71
55 55 55
46 46 46
44 44 44
45 45 45
47 47 47
48 48 48
50 50 50
55 55 55
67 67 67
71 71 71
73 73 73
78 78 78
88 88 88
100 100 100
112 112 112
114 114 114
110 110 110
109 109 109
108 108 108
107 107 107
107 107 107
106 106 106
106 106 106
106 106 106
108 108 108
110 110 110
108 108 108
102 102 102
92 92 92
82 82 82
73 73 73
67 67 67
60 60 60
53 53 53
50 50 50
47 47 47
47 47 47
47 47 47
47 47 47
46 46 46
46 46 46
49 49 49
51 51 51
52 52 52
51 51 51
50 50 50
49 49 49
46 46 46
45 45 45
44 44 44
43 43 43
42 42 42
39 39 39
36 36 36
33 33 33
27 27 27
19 19 19
18 18 18
22 22 22
19 19 19
15 15 15
11 11 11
7 7 7
5 5 5
4 4 4
4 4 4
4 4 4
4 4 4
3 3 3
3 3 3
3 3 3
3 3 3
3 3 3
3 3 3
3 3 3
3 3 3
4 4 4
4 4 4
6 6 6
8 8 8
12 12 12
13 13 13
14 14 14
144 144 144
161 161 161
163 163 163
165 165 165
162 162 162
158 158 158
152 152 152
147 147 147
141 141 141
131 131 131
118 118 118
108 108 108
101 101 101
94 94 94
82 82 82
72 72 72
62 62 62
57 57 57
57 57 57
60 60 60
59 59 59
54 54 54
53 53 53
53 53 53
60 60 60
61 61 61
63 63 63
65 65 65
70 70 70
72 72 72
81 81 81
102 102 102
106 106 106
105 105 105
105 105 105
104 104 104
102 102 102
101 101 101
102 102 102
103 103 103
106 106 106
107 107 107
105 105 105
100 100 100
91 91 91
79 79 79
71 71 71
65 65 65
60 60 60
56 56 56
51 51 51
47 47 47
45 45 45
45 45 45
46 46 46
45 45 45
44 44 44
44 44 44
44 44 44
46 46 46
46 46 46
44 44 44
41 41 41
40 40 40
38 38 38
39 39 39
38 38 38
39 39 39
38 38 38
35 35 35
32 32 32
28 28 28
24 24 24
18 18 18
13 13 13
17 17 17
19 19 19
16 16 16
13 13 13
10 10 10
7 7 7
5 5 5
5 5 5
4 4 4
4 4 4
4 4 4
4 4 4
4 4 4
4 4 4
4 4 4
4 4 4
4 4 4
4 4 4
6 6 6
6 6 6
9 9 9
12 12 12
15 15 15
16 16 16
17 17 17
152 152 152
163 163 163
163 163 163
166 166 166
164 164 164
159 159 159
153 153 153
153 153 153
147 147 147
136 136 136
120 120 120
107 107 107
95 95 95
86 86 86
83 83 83
76 76 76
72 72 72
72 72 72
73 73 73
74 74 74
69 69 69
62 62 62
61 61 61
61 61 61
56 56 56
52 52 52
51 51 51
54 54 54
58 58 58
62 62 62
72 72 72
81 81 81
84 84 84
89 89 89
92 92 92
94 94 94
91 91 91
93 93 93
94 94 94
96 96 96
99 99 99
97 97 97
92 92 92
82 82 82
73 73 73
66 66 66
60 60 60
56 56 56
52 52 52
49 49 49
46 46 46
43 43 43
43 43 43
43 43 43
43 43 43
41 41 41
41 41 41
40 40 40
40 40 40
41 41 41
40 40 40
38 38 38
35 35 35
33 33 33
35 35 35
35 35 35
36 36 36
36 36 36
36 36 36
35 35 35
31 31 31
27 27 27
21 21 21
17 17 17
13 13 13
11 11 11
19 19 19
17 17 17
15 15 15
11 11 11
9 9 9
7 7 7
5 5 5
5 5 5
5 5 5
4 4 4
4 4 4
4 4 4
4 4 4
4 4 4
3 3 3
4 4 4
4 4 4
4 4 4
5 5 5
7 7 7
11 11 11
12 12 12
15 15 15
17 17 17
158 158 158
165 165 165
164 164 164
167 167 167
166 166 166
163 163 163
162 162 162
159 159 159
150 150 150
133 133 133
120 120 120
102 102 102
92 92 92
88 88 88
84 84 84
80 80 80
76 76 76
78 78 78
79 79 79
76 76 76
73 73 73
70 70 70
67 67 67
56 56 56
44 44 44
41 41 41
42 42 42
46 46 46
51 51 51
59 59 59
63 63 63
65 65 65
63 63 63
68 68 68
73 73 73
72 72 72
69 69 69
72 72 72
74 74 74
76 76 76
76 76 76
75 75 75
70 70 70
61 61 61
55 55 55
50 50 50
48 48 48
46 46 46
45 45 45
44 44 44
43 43 43
41 41 41
41 41 41
41 41 41
41 41 41
39 39 39
37 37 37
35 35 35
35 35 35
35 35 35
37 37 37
38 38 38
37 37 37
36 36 36
34 34 34
33 33 33
33 33 33
34 34 34
34 34 34
31 31 31
27 27 27
22 22 22
18 18 18
14 14 14
11 11 11
11 11 11
16 16 16
18 18 18
17 17 17
14 14 14
12 12 12
9 9 9
5 5 5
4 4 4
4 4 4
3 3 3
3 3 3
4 4 4
3 3 3
3 3 3
3 3 3
3 3 3
4 4 4
4 4 4
5 5 5
7 7 7
11 11 11
13 13 13
15 15 15
18 18 18
158 158 158
164 164 164
163 163 163
167 167 167
170 170 170
169 169 169
166 166 166
161 161 161
144 144 144
130 130 130
116 116 116
98 98 98
91 91 91
85 85 85
79 79 79
76 76 76
76 76 76
78 78 78
78 78 78
77 77 77
71 71 71
65 65 65
55 55 55
49 49 49
43 43 43
39 39 39
37 37 37
38 38 38
42 42 42
47 47 47
51 51 51
50 50 50
49 49 49
51 51 51
51 51 51
47 47 47
46 46 46
46 46 46
46 46 46
48 48 48
49 49 49
50 50 50
47 47 47
45 45 45
41 41 41
39 39 39
39 39 39
39 39 39
39 39 39
38 38 38
39 39 39
38 38 38
36 36 36
36 36 36
36 36 36
34 34 34
33 33 33
30 30 30
30 30 30
31 31 31
32 32 32
35 35 35
36 36 36
36 36 36
35 35 35
34 34 34
33 33 33
32 32 32
32 32 32
30 30 30
27 27 27
21 21 21
17 17 17
12 12 12
11 11 11
10 10 10
13 13 13
20 20 20
17 17 17
15 15 15
12 12 12
10 10 10
6 6 6
5 5 5
3 3 3
3 3 3
3 3 3
3 3 3
3 3 3
3 3 3
3 3 3
4 4 4
4 4 4
4 4 4
5 5 5
7 7 7
10 10 10
12 12 12
13 13 13
14 14 14
156 156 156
161 161 161
164 164 164
171 171 171
174 174 174
173 173 173
169 169 169
159 159 159
138 138 138
122 122 122
109 109 109
99 99 99
93 93 93
91 91 91
87 87 87
88 88 88
91 91 91
89 89 89
82 82 82
77 77 77
71 71 71
64 64 64
59 59 59
55 55 55
50 50 50
43 43 43
39 39 39
37 37 37
39 39 39
40 40 40
41 41 41
39 39 39
41 41 41
42 42 42
38 38 38
37 37 37
38 38 38
38 38 38
37 37 37
37 37 37
39 39 39
39 39 39
40 40 40
38 38 38
36 36 36
35 35 35
36 36 36
36 36 36
37 37 37
35 35 35
34 34 34
33 33 33
31 31 31
31 31 31
32 32 32
30 30 30
29 29 29
28 28 28
29 29 29
30 30 30
30 30 30
34 34 34
36 36 36
36 36 36
36 36 36
34 34 34
33 33 33
32 32 32
31 31 31
29 29 29
26 26 26
22 22 22
18 18 18
15 15 15
13 13 13
11 11 11
13 13 13
23 23 23
22 22 22
18 18 18
16 16 16
11 11 11
7 7 7
5 5 5
3 3 3
3 3 3
3 3 3
2 2 2
2 2 2
2 2 2
3 3 3
3 3 3
4 4 4
4 4 4
5 5 5
7 7 7
9 9 9
12 12 12
13 13 13
15 15 15
156 156 156
162 162 162
169 169 169
175 175 175
175 175 175
173 173 173
165 165 165
152 152 152
141 141 141
129 129 129
122 122 122
117 117 117
115 115 115
111 111 111
106 106 106
103 103 103
95 95 95
82 82 82
76 76 76
72 72 72
67 67 67
63 63 63
62 62 62
62 62 62
58 58 58
50 50 50
43 43 43
41 41 41
40 40 40
41 41 41
40 40 40
40 40 40
39 39 39
37 37 37
31 31 31
29 29 29
33 33 33
35 35 35
34 34 34
33 33 33
32 32 32
33 33 33
34 34 34
32 32 32
33 33 33
34 34 34
34 34 34
33 33 33
33 33 33
31 31 31
30 30 30
30 30 30
30 30 30
29 29 29
30 30 30
31 31 31
31 31 31
31 31 31
30 30 30
31 31 31
31 31 31
32 32 32
32 32 32
34 34 34
36 36 36
35 35 35
34 34 34
33 33 33
33 33 33
29 29 29
26 26 26
22 22 22
19 19 19
15 15 15
13 13 13
11 11 11
12 12 12
19 19 19
20 20 20
18 18 18
17 17 17
13 13 13
9 9 9
5 5 5
5 5 5
4 4 4
3 3 3
3 3 3
3 3 3
3 3 3
3 3 3
3 3 3
5 5 5
4 4 4
4 4 4
6 6 6
9 9 9
13 13 13
15 15 15
16 16 16
