P3
100 200
255
255 255 255
255 255 255
255 255 255
255 255 255
255 255 255
255 255 255
255 255 255
255 255 255
255 255 255
255 255 255
255 255 255
255 255 255
255 255 255
255 255 255
255 255 255
255 255 255
255 255 255
255 255 255
255 255 255
255 255 255
255 255 255
255 255 255
255 255 255
255 255 255
255 255 255
255 255 255
255 255 255
255 255 255
255 255 255
255 255 255
255 255 255
255 255 255
255 255 255
255 255 255
255 255 255
255 255 255
255 255 255
255 255 255
255 255 255
255 255 255
255 255 255
215 215 215
248 248 248
255 255 255
255 255 255
255 255 255
255 255 255
255 255 255
255 255 255
255 255 255
255 255 255
255 255 255
255 255 255
255 255 255
255 255 255
255 255 255
255 255 255
255 255 255
255 255 255
255 255 255
255 255 255
255 255 255
255 255 255
255 255 255
255 255 255
255 255 255
255 255 255
255 255 255
255 255 255
255 255 255
255 255 255
255 255 255
255 255 255
255 255 255
255 255 255
255 255 255
255 255 255
255 255 255
255 255 255
255 255 255
255 255 255
255 255 255
255 255 255
255 255 255
255 255 255
255 255 255
255 255 255
255 255 255
255 255 255
255 255 255
255 255 255
255 255 255
255 255 255
255 255 255
255 255 255
255 255 255
255 255 255
255 255 255
255 255 255
255 255 255
255 255 255
255 255 255
255 255 255
255 255 255
255 255 255
255 255 255
255 255 255
255 255 255
255 255 255
255 255 255
255 255 255
255 255 255
255 255 255
255 255 255
255 255 255
255 255 255
255 255 255
255 255 255
255 255 255
255 255 255
255 255 255
255 255 255
255 255 255
255 255 255
255 255 255
255 255 255
255 255 255
255 255 255
255 255 255
255 255 255
255 255 255
255 255 255
255 255 255
255 255 255
255 255 255
255 255 255
255 255 255
255 255 255
255 255 255
255 255 255
255 255 255
204 204 204
202 202 202
251 251 251
255 255 255
255 255 255
255 255 255
255 255 255
255 255 255
255 255 255
255 255 255
252 252 252
250 250 250
255 255 255
255 255 255
255 255 255
255 255 255
255 255 255
255 255 255
255 255 255
255 255 255
255 255 255
255 255 255
255 255 255
255 255 255
255 255 255
255 255 255
255 255 255
255 255 255
255 255 255
255 255 255
255 255 255
255 255 255
255 255 255
255 255 255
255 255 255
255 255 255
255 255 255
255 255 255
255 255 255
255 255 255
255 255 255
255 255 255
255 255 255
255 255 255
255 255 255
255 255 255
255 255 255
255 255 255
255 255 255
255 255 255
255 255 255
255 255 255
255 255 255
255 255 255
255 255 255
255 255 255
255 255 255
255 255 255
255 255 255
255 255 255
255 255 255
255 255 255
255 255 255
255 255 255
255 255 255
255 255 255
255 255 255
255 255 255
255 255 255
255 255 255
255 255 255
255 255 255
255 255 255
255 255 255
255 255 255
255 255 255
255 255 255
255 255 255
255 255 255
255 255 255
255 255 255
255 255 255
255 255 255
255 255 255
255 255 255
255 255 255
255 255 255
255 255 255
255 255 255
255 255 255
255 255 255
255 255 255
255 255 255
255 255 255
255 255 255
255 255 255
255 255 255
255 255 255
255 255 255
254 254 254
189 189 189
164 164 164
198 198 198
253 253 253
255 255 255
255 255 255
255 255 255
255 255 255
245 245 245
223 223 223
190 190 190
245 245 245
255 255 255
255 255 255
255 255 255
255 255 255
255 255 255
255 255 255
255 255 255
255 255 255
255 255 255
255 255 255
255 255 255
255 255 255
255 255 255
255 255 255
255 255 255
255 255 255
255 255 255
255 255 255
255 255 255
255 255 255
255 255 255
255 255 255
255 255 255
255 255 255
255 255 255
255 255 255
255 255 255
255 255 255
255 255 255
255 255 255
255 255 255
255 255 255
255 255 255
255 255 255
255 255 255
255 255 255
255 255 255
255 255 255
255 255 255
255 255 255
255 255 255
255 255 255
255 255 255
255 255 255
255 255 255
255 255 255
255 255 255
255 255 255
255 255 255
255 255 255
255 255 255
255 255 255
255 255 255
255 255 255
255 255 255
255 255 255
255 255 255
255 255 255
255 255 255
255 255 255
255 255 255
255 255 255
255 255 255
255 255 255
255 255 255
255 255 255
255 255 255
255 255 255
255 255 255
255 255 255
255 255 255
255 255 255
255 255 255
255 255 255
255 255 255
255 255 255
255 255 255
255 255 255
255 255 255
255 255 255
255 255 255
248 248 248
243 243 243
255 255 255
255 255 255
255 255 255
255 255 255
255 255 255
189 189 189
154 154 154
142 142 142
214 214 214
255 255 255
255 255 255
246 246 246
218 218 218
191 191 191
148 148 148
203 203 203
255 255 255
255 255 255
255 255 255
255 255 255
255 255 255
255 255 255
255 255 255
255 255 255
255 255 255
255 255 255
255 255 255
255 255 255
255 255 255
255 255 255
255 255 255
255 255 255
255 255 255
255 255 255
255 255 255
255 255 255
255 255 255
255 255 255
255 255 255
255 255 255
255 255 255
255 255 255
255 255 255
255 255 255
255 255 255
255 255 255
255 255 255
255 255 255
255 255 255
255 255 255
255 255 255
255 255 255
255 255 255
255 255 255
255 255 255
255 255 255
255 255 255
255 255 255
255 255 255
255 255 255
255 255 255
255 255 255
255 255 255
255 255 255
255 255 255
255 255 255
255 255 255
255 255 255
255 255 255
255 255 255
255 255 255
255 255 255
255 255 255
255 255 255
255 255 255
255 255 255
255 255 255
255 255 255
255 255 255
255 255 255
255 255 255
255 255 255
255 255 255
255 255 255
255 255 255
255 255 255
255 255 255
255 255 255
255 255 255
255 255 255
255 255 255
255 255 255
255 255 255
255 255 255
255 255 255
255 255 255
255 255 255
219 219 219
241 241 241
255 255 255
255 255 255
255 255 255
255 255 255
255 255 255
251 251 251
217 217 217
149 149 149
133 133 133
142 142 142
230 230 230
216 216 216
173 173 173
129 129 129
126 126 126
122 122 122
249 249 249
255 255 255
255 255 255
255 255 255
255 255 255
255 255 255
255 255 255
255 255 255
255 255 255
255 255 255
255 255 255
255 255 255
255 255 255
255 255 255
255 255 255
255 255 255
255 255 255
255 255 255
255 255 255
255 255 255
255 255 255
255 255 255
255 255 255
255 255 255
255 255 255
255 255 255
255 255 255
255 255 255
255 255 255
255 255 255
255 255 255
255 255 255
255 255 255
255 255 255
255 255 255
255 255 255
255 255 255
255 255 255
255 255 255
255 255 255
255 255 255
255 255 255
255 255 255
255 255 255
255 255 255
255 255 255
255 255 255
255 255 255
255 255 255
255 255 255
255 255 255
255 255 255
255 255 255
255 255 255
255 255 255
255 255 255
255 255 255
255 255 255
255 255 255
255 255 255
255 255 255
255 255 255
255 255 255
255 255 255
255 255 255
255 255 255
255 255 255
255 255 255
255 255 255
255 255 255
255 255 255
255 255 255
255 255 255
255 255 255
255 255 255
255 255 255
255 255 255
255 255 255
255 255 255
255 255 255
255 255 255
220 220 220
226 226 226
255 255 255
253 253 253
236 236 236
208 208 208
194 194 194
157 157 157
122 122 122
114 114 114
83 83 83
95 95 95
107 107 107
135 135 135
144 144 144
146 146 146
155 155 155
106 106 106
193 193 193
255 255 255
255 255 255
255 255 255
255 255 255
255 255 255
255 255 255
255 255 255
255 255 255
255 255 255
255 255 255
255 255 255
255 255 255
255 255 255
255 255 255
255 255 255
255 255 255
255 255 255
255 255 255
255 255 255
255 255 255
255 255 255
255 255 255
255 255 255
255 255 255
255 255 255
255 255 255
255 255 255
255 255 255
255 255 255
255 255 255
255 255 255
255 255 255
255 255 255
255 255 255
255 255 255
255 255 255
255 255 255
255 255 255
255 255 255
255 255 255
255 255 255
255 255 255
255 255 255
255 255 255
255 255 255
255 255 255
255 255 255
255 255 255
255 255 255
255 255 255
255 255 255
255 255 255
255 255 255
255 255 255
255 255 255
255 255 255
255 255 255
255 255 255
255 255 255
255 255 255
255 255 255
255 255 255
255 255 255
255 255 255
255 255 255
255 255 255
255 255 255
255 255 255
255 255 255
255 255 255
255 255 255
255 255 255
255 255 255
255 255 255
255 255 255
255 255 255
255 255 255
255 255 255
255 255 255
255 255 255
254 254 254
169 169 169
246 246 246
211 211 211
144 144 144
91 91 91
100 100 100
70 70 70
56 56 56
57 57 57
58 58 58
56 56 56
54 54 54
53 53 53
56 56 56
75 75 75
118 118 118
114 114 114
99 99 99
184 184 184
199 199 199
218 218 218
243 243 243
255 255 255
255 255 255
255 255 255
255 255 255
255 255 255
255 255 255
255 255 255
255 255 255
255 255 255
255 255 255
255 255 255
255 255 255
255 255 255
255 255 255
255 255 255
255 255 255
255 255 255
255 255 255
255 255 255
255 255 255
255 255 255
255 255 255
255 255 255
255 255 255
255 255 255
255 255 255
255 255 255
255 255 255
255 255 255
255 255 255
255 255 255
255 255 255
255 255 255
255 255 255
255 255 255
255 255 255
255 255 255
255 255 255
255 255 255
255 255 255
255 255 255
255 255 255
255 255 255
255 255 255
255 255 255
255 255 255
255 255 255
255 255 255
255 255 255
255 255 255
255 255 255
255 255 255
255 255 255
255 255 255
255 255 255
255 255 255
255 255 255
255 255 255
255 255 255
255 255 255
255 255 255
255 255 255
255 255 255
255 255 255
255 255 255
255 255 255
255 255 255
255 255 255
255 255 255
255 255 255
255 255 255
255 255 255
255 255 255
255 255 255
255 255 255
255 255 255
255 255 255
254 254 254
161 161 161
144 144 144
71 71 71
66 66 66
83 83 83
58 58 58
59 59 59
61 61 61
58 58 58
59 59 59
58 58 58
57 57 57
56 56 56
55 55 55
55 55 55
40 40 40
35 35 35
36 36 36
55 55 55
52 52 52
50 50 50
95 95 95
178 178 178
243 243 243
255 255 255
255 255 255
255 255 255
255 255 255
255 255 255
255 255 255
255 255 255
255 255 255
255 255 255
255 255 255
255 255 255
255 255 255
255 255 255
255 255 255
255 255 255
255 255 255
255 255 255
255 255 255
255 255 255
255 255 255
255 255 255
255 255 255
255 255 255
255 255 255
255 255 255
255 255 255
255 255 255
255 255 255
255 255 255
255 255 255
255 255 255
255 255 255
255 255 255
255 255 255
255 255 255
255 255 255
255 255 255
255 255 255
255 255 255
255 255 255
255 255 255
255 255 255
255 255 255
255 255 255
255 255 255
255 255 255
255 255 255
255 255 255
255 255 255
255 255 255
255 255 255
255 255 255
255 255 255
255 255 255
255 255 255
255 255 255
255 255 255
255 255 255
255 255 255
255 255 255
255 255 255
255 255 255
255 255 255
255 255 255
255 255 255
255 255 255
255 255 255
255 255 255
255 255 255
255 255 255
255 255 255
255 255 255
255 255 255
255 255 255
251 251 251
185 185 185
93 93 93
92 92 92
69 69 69
62 62 62
64 64 64
73 73 73
73 73 73
71 71 71
68 68 68
60 60 60
61 61 61
60 60 60
58 58 58
56 56 56
56 56 56
48 48 48
53 53 53
33 33 33
36 36 36
33 33 33
32 32 32
37 37 37
47 47 47
125 125 125
241 241 241
255 255 255
255 255 255
255 255 255
255 255 255
255 255 255
255 255 255
255 255 255
255 255 255
255 255 255
255 255 255
255 255 255
255 255 255
255 255 255
255 255 255
255 255 255
255 255 255
255 255 255
255 255 255
255 255 255
255 255 255
255 255 255
255 255 255
255 255 255
255 255 255
255 255 255
255 255 255
255 255 255
255 255 255
255 255 255
255 255 255
255 255 255
255 255 255
255 255 255
255 255 255
255 255 255
255 255 255
255 255 255
255 255 255
255 255 255
255 255 255
255 255 255
255 255 255
255 255 255
255 255 255
255 255 255
255 255 255
255 255 255
255 255 255
255 255 255
255 255 255
255 255 255
255 255 255
255 255 255
255 255 255
255 255 255
255 255 255
255 255 255
255 255 255
255 255 255
255 255 255
255 255 255
255 255 255
255 255 255
255 255 255
255 255 255
255 255 255
255 255 255
255 255 255
255 255 255
255 255 255
255 255 255
255 255 255
252 252 252
175 175 175
109 109 109
104 104 104
71 71 71
67 67 67
64 64 64
62 62 62
60 60 60
60 60 60
65 65 65
69 69 69
83 83 83
71 71 71
63 63 63
61 61 61
59 59 59
58 58 58
55 55 55
47 47 47
54 54 54
30 30 30
47 47 47
76 76 76
38 38 38
64 64 64
88 88 88
215 215 215
255 255 255
255 255 255
255 255 255
255 255 255
255 255 255
255 255 255
255 255 255
255 255 255
255 255 255
255 255 255
255 255 255
255 255 255
255 255 255
255 255 255
255 255 255
255 255 255
255 255 255
255 255 255
255 255 255
255 255 255
255 255 255
255 255 255
255 255 255
255 255 255
255 255 255
255 255 255
255 255 255
255 255 255
255 255 255
255 255 255
255 255 255
255 255 255
255 255 255
255 255 255
255 255 255
255 255 255
255 255 255
255 255 255
255 255 255
255 255 255
255 255 255
255 255 255
255 255 255
255 255 255
255 255 255
255 255 255
255 255 255
255 255 255
255 255 255
255 255 255
255 255 255
255 255 255
255 255 255
255 255 255
255 255 255
255 255 255
255 255 255
255 255 255
255 255 255
255 255 255
255 255 255
255 255 255
255 255 255
255 255 255
255 255 255
255 255 255
255 255 255
255 255 255
255 255 255
255 255 255
255 255 255
254 254 254
199 199 199
126 126 126
89 89 89
66 66 66
62 62 62
78 78 78
51 51 51
48 48 48
42 42 42
47 47 47
52 52 52
57 57 57
62 62 62
86 86 86
87 87 87
63 63 63
64 64 64
57 57 57
58 58 58
37 37 37
53 53 53
39 39 39
29 29 29
48 48 48
80 80 80
84 84 84
55 55 55
215 215 215
255 255 255
255 255 255
255 255 255
255 255 255
255 255 255
255 255 255
255 255 255
255 255 255
255 255 255
255 255 255
255 255 255
255 255 255
255 255 255
255 255 255
255 255 255
255 255 255
255 255 255
255 255 255
255 255 255
255 255 255
255 255 255
255 255 255
255 255 255
255 255 255
255 255 255
255 255 255
255 255 255
255 255 255
255 255 255
255 255 255
255 255 255
255 255 255
255 255 255
255 255 255
255 255 255
255 255 255
255 255 255
255 255 255
255 255 255
255 255 255
255 255 255
255 255 255
255 255 255
255 255 255
255 255 255
255 255 255
255 255 255
255 255 255
255 255 255
255 255 255
255 255 255
255 255 255
255 255 255
255 255 255
255 255 255
255 255 255
255 255 255
255 255 255
255 255 255
255 255 255
255 255 255
255 255 255
255 255 255
255 255 255
255 255 255
255 255 255
255 255 255
255 255 255
255 255 255
255 255 255
255 255 255
226 226 226
143 143 143
91 91 91
85 85 85
67 67 67
65 65 65
87 87 87
55 55 55
56 56 56
50 50 50
58 58 58
66 66 66
67 67 67
63 63 63
64 64 64
83 83 83
95 95 95
51 51 51
61 61 61
61 61 61
36 36 36
55 55 55
44 44 44
35 35 35
71 71 71
43 43 43
43 43 43
90 90 90
243 243 243
255 255 255
255 255 255
255 255 255
255 255 255
255 255 255
255 255 255
255 255 255
255 255 255
255 255 255
255 255 255
255 255 255
255 255 255
255 255 255
255 255 255
255 255 255
255 255 255
255 255 255
255 255 255
255 255 255
255 255 255
255 255 255
255 255 255
255 255 255
255 255 255
255 255 255
255 255 255
255 255 255
255 255 255
255 255 255
255 255 255
255 255 255
255 255 255
255 255 255
255 255 255
255 255 255
255 255 255
255 255 255
255 255 255
255 255 255
255 255 255
255 255 255
255 255 255
255 255 255
255 255 255
255 255 255
255 255 255
255 255 255
255 255 255
255 255 255
255 255 255
255 255 255
255 255 255
255 255 255
255 255 255
255 255 255
255 255 255
255 255 255
255 255 255
255 255 255
255 255 255
255 255 255
255 255 255
255 255 255
255 255 255
255 255 255
255 255 255
255 255 255
255 255 255
255 255 255
255 255 255
252 252 252
173 173 173
111 111 111
83 83 83
74 74 74
68 68 68
75 75 75
83 83 83
58 58 58
71 71 71
69 69 69
69 69 69
65 65 65
85 85 85
105 105 105
81 81 81
80 80 80
90 90 90
103 103 103
68 68 68
62 62 62
40 40 40
51 51 51
53 53 53
33 33 33
43 43 43
86 86 86
85 85 85
210 210 210
255 255 255
255 255 255
255 255 255
255 255 255
255 255 255
255 255 255
255 255 255
255 255 255
255 255 255
255 255 255
255 255 255
255 255 255
255 255 255
255 255 255
255 255 255
255 255 255
255 255 255
255 255 255
255 255 255
255 255 255
255 255 255
255 255 255
255 255 255
255 255 255
255 255 255
255 255 255
255 255 255
255 255 255
255 255 255
255 255 255
255 255 255
255 255 255
255 255 255
255 255 255
255 255 255
255 255 255
255 255 255
255 255 255
255 255 255
255 255 255
255 255 255
255 255 255
255 255 255
255 255 255
255 255 255
255 255 255
255 255 255
255 255 255
255 255 255
255 255 255
255 255 255
255 255 255
255 255 255
255 255 255
255 255 255
255 255 255
255 255 255
255 255 255
255 255 255
255 255 255
255 255 255
255 255 255
255 255 255
255 255 255
255 255 255
255 255 255
255 255 255
255 255 255
255 255 255
255 255 255
255 255 255
231 231 231
148 148 148
126 126 126
98 98 98
98 98 98
85 85 85
86 86 86
85 85 85
58 58 58
73 73 73
82 82 82
76 76 76
97 97 97
66 66 66
112 112 112
127 127 127
83 83 83
111 111 111
126 126 126
105 105 105
51 51 51
50 50 50
49 49 49
58 58 58
33 33 33
34 34 34
39 39 39
83 83 83
182 182 182
234 234 234
247 247 247
247 247 247
240 240 240
254 254 254
255 255 255
255 255 255
255 255 255
255 255 255
255 255 255
255 255 255
255 255 255
255 255 255
255 255 255
255 255 255
255 255 255
255 255 255
255 255 255
255 255 255
255 255 255
255 255 255
255 255 255
255 255 255
255 255 255
255 255 255
255 255 255
255 255 255
255 255 255
255 255 255
255 255 255
255 255 255
255 255 255
255 255 255
255 255 255
255 255 255
255 255 255
255 255 255
255 255 255
255 255 255
255 255 255
255 255 255
255 255 255
255 255 255
255 255 255
255 255 255
255 255 255
255 255 255
255 255 255
255 255 255
255 255 255
255 255 255
255 255 255
255 255 255
255 255 255
255 255 255
255 255 255
255 255 255
255 255 255
255 255 255
255 255 255
255 255 255
255 255 255
255 255 255
255 255 255
255 255 255
255 255 255
255 255 255
255 255 255
255 255 255
255 255 255
255 255 255
197 197 197
150 150 150
141 141 141
141 141 141
93 93 93
94 94 94
79 79 79
86 86 86
53 53 53
78 78 78
52 52 52
82 82 82
66 66 66
82 82 82
59 59 59
96 96 96
97 97 97
82 82 82
138 138 138
134 134 134
84 84 84
49 49 49
52 52 52
61 61 61
38 38 38
33 33 33
23 23 23
53 53 53
62 62 62
136 136 136
192 192 192
208 208 208
247 247 247
255 255 255
255 255 255
255 255 255
255 255 255
255 255 255
255 255 255
255 255 255
255 255 255
255 255 255
255 255 255
255 255 255
255 255 255
255 255 255
255 255 255
255 255 255
255 255 255
255 255 255
255 255 255
255 255 255
255 255 255
255 255 255
255 255 255
255 255 255
255 255 255
255 255 255
255 255 255
255 255 255
255 255 255
255 255 255
255 255 255
255 255 255
255 255 255
255 255 255
255 255 255
255 255 255
255 255 255
255 255 255
255 255 255
255 255 255
255 255 255
255 255 255
255 255 255
255 255 255
255 255 255
255 255 255
255 255 255
255 255 255
255 255 255
255 255 255
255 255 255
255 255 255
255 255 255
255 255 255
255 255 255
255 255 255
255 255 255
255 255 255
255 255 255
255 255 255
255 255 255
255 255 255
255 255 255
255 255 255
255 255 255
255 255 255
255 255 255
254 254 254
153 153 153
130 130 130
135 135 135
102 102 102
84 84 84
81 81 81
64 64 64
73 73 73
62 62 62
72 72 72
61 61 61
46 46 46
60 60 60
75 75 75
63 63 63
68 68 68
78 78 78
59 59 59
88 88 88
93 93 93
103 103 103
72 72 72
59 59 59
61 61 61
41 41 41
32 32 32
25 25 25
37 37 37
59 59 59
116 116 116
200 200 200
255 255 255
255 255 255
255 255 255
255 255 255
255 255 255
255 255 255
255 255 255
255 255 255
255 255 255
255 255 255
255 255 255
255 255 255
255 255 255
255 255 255
255 255 255
255 255 255
255 255 255
255 255 255
255 255 255
255 255 255
255 255 255
255 255 255
255 255 255
255 255 255
255 255 255
255 255 255
255 255 255
255 255 255
255 255 255
255 255 255
255 255 255
255 255 255
255 255 255
255 255 255
255 255 255
255 255 255
255 255 255
255 255 255
255 255 255
255 255 255
255 255 255
255 255 255
255 255 255
255 255 255
255 255 255
255 255 255
255 255 255
255 255 255
255 255 255
255 255 255
255 255 255
255 255 255
255 255 255
255 255 255
255 255 255
255 255 255
255 255 255
255 255 255
255 255 255
255 255 255
255 255 255
255 255 255
255 255 255
255 255 255
255 255 255
255 255 255
255 255 255
255 255 255
248 248 248
121 121 121
100 100 100
101 101 101
74 74 74
68 68 68
65 65 65
60 60 60
65 65 65
68 68 68
63 63 63
62 62 62
27 27 27
56 56 56
32 32 32
70 70 70
48 48 48
57 57 57
61 61 61
44 44 44
70 70 70
64 64 64
105 105 105
72 72 72
63 63 63
38 38 38
35 35 35
29 29 29
18 18 18
50 50 50
119 119 119
194 194 194
228 228 228
255 255 255
255 255 255
255 255 255
255 255 255
255 255 255
255 255 255
255 255 255
255 255 255
255 255 255
255 255 255
255 255 255
255 255 255
255 255 255
255 255 255
255 255 255
255 255 255
255 255 255
255 255 255
255 255 255
255 255 255
255 255 255
255 255 255
255 255 255
255 255 255
255 255 255
255 255 255
255 255 255
255 255 255
255 255 255
255 255 255
255 255 255
255 255 255
255 255 255
255 255 255
255 255 255
255 255 255
255 255 255
255 255 255
255 255 255
255 255 255
255 255 255
255 255 255
255 255 255
255 255 255
255 255 255
255 255 255
255 255 255
255 255 255
255 255 255
255 255 255
255 255 255
255 255 255
255 255 255
255 255 255
255 255 255
255 255 255
255 255 255
255 255 255
255 255 255
255 255 255
255 255 255
255 255 255
255 255 255
255 255 255
255 255 255
255 255 255
255 255 255
232 232 232
97 97 97
59 59 59
64 64 64
58 58 58
44 44 44
57 57 57
62 62 62
84 84 84
65 65 65
60 60 60
48 48 48
41 41 41
41 41 41
44 44 44
36 36 36
51 51 51
46 46 46
48 48 48
51 51 51
37 37 37
68 68 68
65 65 65
105 105 105
62 62 62
35 35 35
40 40 40
30 30 30
15 15 15
46 46 46
45 45 45
179 179 179
194 194 194
251 251 251
255 255 255
255 255 255
255 255 255
255 255 255
255 255 255
255 255 255
255 255 255
255 255 255
255 255 255
255 255 255
255 255 255
255 255 255
255 255 255
255 255 255
255 255 255
255 255 255
255 255 255
255 255 255
255 255 255
255 255 255
255 255 255
255 255 255
255 255 255
255 255 255
255 255 255
255 255 255
255 255 255
255 255 255
255 255 255
255 255 255
255 255 255
255 255 255
255 255 255
255 255 255
255 255 255
255 255 255
255 255 255
255 255 255
255 255 255
255 255 255
255 255 255
255 255 255
255 255 255
255 255 255
255 255 255
255 255 255
255 255 255
255 255 255
255 255 255
255 255 255
255 255 255
255 255 255
255 255 255
255 255 255
255 255 255
255 255 255
255 255 255
255 255 255
255 255 255
255 255 255
255 255 255
255 255 255
255 255 255
255 255 255
255 255 255
255 255 255
217 217 217
83 83 83
51 51 51
56 56 56
49 49 49
32 32 32
56 56 56
50 50 50
124 124 124
46 46 46
59 59 59
44 44 44
38 38 38
40 40 40
55 55 55
77 77 77
40 40 40
34 34 34
82 82 82
41 41 41
35 35 35
54 54 54
66 66 66
76 76 76
96 96 96
36 36 36
45 45 45
34 34 34
17 17 17
41 41 41
114 114 114
111 111 111
231 231 231
239 239 239
255 255 255
255 255 255
255 255 255
255 255 255
255 255 255
255 255 255
255 255 255
255 255 255
255 255 255
255 255 255
255 255 255
255 255 255
255 255 255
255 255 255
255 255 255
255 255 255
255 255 255
255 255 255
255 255 255
255 255 255
255 255 255
255 255 255
255 255 255
255 255 255
255 255 255
255 255 255
255 255 255
255 255 255
255 255 255
255 255 255
255 255 255
255 255 255
255 255 255
255 255 255
255 255 255
255 255 255
255 255 255
255 255 255
255 255 255
255 255 255
255 255 255
255 255 255
255 255 255
255 255 255
255 255 255
255 255 255
255 255 255
255 255 255
255 255 255
255 255 255
255 255 255
255 255 255
255 255 255
255 255 255
255 255 255
255 255 255
255 255 255
255 255 255
255 255 255
255 255 255
255 255 255
255 255 255
255 255 255
255 255 255
255 255 255
255 255 255
203 203 203
78 78 78
52 52 52
50 50 50
63 63 63
28 28 28
49 49 49
67 67 67
143 143 143
88 88 88
40 40 40
83 83 83
44 44 44
37 37 37
34 34 34
125 125 125
37 37 37
39 39 39
102 102 102
60 60 60
42 42 42
79 79 79
68 68 68
63 63 63
102 102 102
67 67 67
48 48 48
37 37 37
21 21 21
38 38 38
179 179 179
83 83 83
230 230 230
246 246 246
255 255 255
255 255 255
255 255 255
255 255 255
255 255 255
255 255 255
255 255 255
255 255 255
255 255 255
255 255 255
255 255 255
255 255 255
255 255 255
255 255 255
255 255 255
255 255 255
255 255 255
255 255 255
255 255 255
255 255 255
255 255 255
255 255 255
255 255 255
255 255 255
255 255 255
255 255 255
255 255 255
255 255 255
255 255 255
255 255 255
255 255 255
255 255 255
255 255 255
255 255 255
255 255 255
255 255 255
255 255 255
255 255 255
255 255 255
255 255 255
255 255 255
255 255 255
255 255 255
255 255 255
255 255 255
255 255 255
255 255 255
255 255 255
255 255 255
255 255 255
255 255 255
255 255 255
255 255 255
255 255 255
255 255 255
255 255 255
255 255 255
255 255 255
255 255 255
255 255 255
255 255 255
255 255 255
255 255 255
255 255 255
255 255 255
255 255 255
193 193 193
77 77 77
52 52 52
48 48 48
76 76 76
35 35 35
40 40 40
69 69 69
96 96 96
195 195 195
73 73 73
57 57 57
131 131 131
48 48 48
48 48 48
161 161 161
60 60 60
40 40 40
120 120 120
90 90 90
49 49 49
74 74 74
82 82 82
61 61 61
64 64 64
114 114 114
50 50 50
40 40 40
65 65 65
36 36 36
184 184 184
138 138 138
229 229 229
252 252 252
255 255 255
255 255 255
255 255 255
255 255 255
255 255 255
255 255 255
255 255 255
255 255 255
255 255 255
255 255 255
255 255 255
255 255 255
255 255 255
255 255 255
255 255 255
255 255 255
255 255 255
255 255 255
255 255 255
255 255 255
255 255 255
255 255 255
255 255 255
255 255 255
255 255 255
255 255 255
255 255 255
255 255 255
255 255 255
255 255 255
255 255 255
255 255 255
255 255 255
255 255 255
255 255 255
255 255 255
255 255 255
255 255 255
255 255 255
255 255 255
255 255 255
255 255 255
255 255 255
255 255 255
255 255 255
255 255 255
255 255 255
255 255 255
255 255 255
255 255 255
255 255 255
255 255 255
255 255 255
255 255 255
255 255 255
255 255 255
255 255 255
255 255 255
255 255 255
255 255 255
255 255 255
255 255 255
255 255 255
255 255 255
255 255 255
255 255 255
186 186 186
85 85 85
50 50 50
43 43 43
81 81 81
122 122 122
69 69 69
96 96 96
156 156 156
171 171 171
217 217 217
181 181 181
208 208 208
212 212 212
209 209 209
221 221 221
177 177 177
168 168 168
191 191 191
195 195 195
136 136 136
95 95 95
130 130 130
43 43 43
57 57 57
88 88 88
67 67 67
45 45 45
209 209 209
70 70 70
197 197 197
170 170 170
244 244 244
255 255 255
255 255 255
255 255 255
255 255 255
255 255 255
255 255 255
255 255 255
255 255 255
255 255 255
255 255 255
255 255 255
255 255 255
255 255 255
255 255 255
255 255 255
255 255 255
255 255 255
255 255 255
255 255 255
255 255 255
255 255 255
255 255 255
255 255 255
255 255 255
255 255 255
255 255 255
255 255 255
255 255 255
255 255 255
255 255 255
255 255 255
255 255 255
255 255 255
255 255 255
255 255 255
255 255 255
255 255 255
255 255 255
255 255 255
255 255 255
255 255 255
255 255 255
255 255 255
255 255 255
255 255 255
255 255 255
255 255 255
255 255 255
255 255 255
255 255 255
255 255 255
255 255 255
255 255 255
255 255 255
255 255 255
255 255 255
255 255 255
255 255 255
255 255 255
255 255 255
255 255 255
255 255 255
255 255 255
255 255 255
255 255 255
255 255 255
255 255 255
191 191 191
96 96 96
46 46 46
106 106 106
160 160 160
220 220 220
214 214 214
216 216 216
226 226 226
209 209 209
223 223 223
224 224 224
223 223 223
221 221 221
201 201 201
208 208 208
217 217 217
224 224 224
229 229 229
227 227 227
219 219 219
211 211 211
168 168 168
35 35 35
52 52 52
73 73 73
82 82 82
49 49 49
206 206 206
137 137 137
231 231 231
239 239 239
255 255 255
255 255 255
255 255 255
255 255 255
255 255 255
255 255 255
255 255 255
255 255 255
255 255 255
255 255 255
255 255 255
255 255 255
255 255 255
255 255 255
255 255 255
255 255 255
255 255 255
255 255 255
255 255 255
255 255 255
255 255 255
255 255 255
255 255 255
255 255 255
255 255 255
255 255 255
255 255 255
255 255 255
255 255 255
255 255 255
255 255 255
255 255 255
255 255 255
255 255 255
255 255 255
255 255 255
255 255 255
255 255 255
255 255 255
255 255 255
255 255 255
255 255 255
255 255 255
255 255 255
255 255 255
255 255 255
255 255 255
255 255 255
255 255 255
255 255 255
255 255 255
255 255 255
255 255 255
255 255 255
255 255 255
255 255 255
255 255 255
255 255 255
255 255 255
255 255 255
255 255 255
255 255 255
255 255 255
255 255 255
255 255 255
255 255 255
255 255 255
255 255 255
199 199 199
110 110 110
60 60 60
165 165 165
200 200 200
191 191 191
166 166 166
207 207 207
185 185 185
219 219 219
222 222 222
223 223 223
225 225 225
200 200 200
189 189 189
98 98 98
93 93 93
79 79 79
90 90 90
120 120 120
175 175 175
225 225 225
229 229 229
97 97 97
63 63 63
58 58 58
87 87 87
57 57 57
168 168 168
202 202 202
255 255 255
255 255 255
255 255 255
255 255 255
255 255 255
255 255 255
255 255 255
255 255 255
255 255 255
255 255 255
255 255 255
255 255 255
255 255 255
255 255 255
255 255 255
255 255 255
255 255 255
255 255 255
255 255 255
255 255 255
255 255 255
255 255 255
255 255 255
255 255 255
255 255 255
255 255 255
255 255 255
255 255 255
255 255 255
255 255 255
255 255 255
255 255 255
255 255 255
255 255 255
255 255 255
255 255 255
255 255 255
255 255 255
255 255 255
255 255 255
255 255 255
255 255 255
255 255 255
255 255 255
255 255 255
255 255 255
255 255 255
255 255 255
255 255 255
255 255 255
255 255 255
255 255 255
255 255 255
255 255 255
255 255 255
255 255 255
255 255 255
255 255 255
255 255 255
255 255 255
255 255 255
255 255 255
255 255 255
255 255 255
255 255 255
255 255 255
255 255 255
255 255 255
255 255 255
255 255 255
207 207 207
132 132 132
50 50 50
173 173 173
85 85 85
95 95 95
117 117 117
52 52 52
117 117 117
207 207 207
223 223 223
222 222 222
223 223 223
220 220 220
149 149 149
186 186 186
183 183 183
114 114 114
58 58 58
92 92 92
79 79 79
165 165 165
227 227 227
169 169 169
106 106 106
43 43 43
91 91 91
52 52 52
110 110 110
249 249 249
255 255 255
255 255 255
255 255 255
255 255 255
255 255 255
255 255 255
255 255 255
255 255 255
255 255 255
255 255 255
255 255 255
255 255 255
255 255 255
255 255 255
255 255 255
255 255 255
255 255 255
255 255 255
255 255 255
255 255 255
255 255 255
255 255 255
255 255 255
255 255 255
255 255 255
255 255 255
255 255 255
255 255 255
255 255 255
255 255 255
255 255 255
255 255 255
255 255 255
255 255 255
255 255 255
255 255 255
255 255 255
255 255 255
255 255 255
255 255 255
255 255 255
255 255 255
255 255 255
255 255 255
255 255 255
255 255 255
255 255 255
255 255 255
255 255 255
255 255 255
255 255 255
255 255 255
255 255 255
255 255 255
255 255 255
255 255 255
255 255 255
255 255 255
255 255 255
255 255 255
255 255 255
255 255 255
255 255 255
255 255 255
255 255 255
255 255 255
255 255 255
255 255 255
255 255 255
255 255 255
224 224 224
149 149 149
67 67 67
131 131 131
132 132 132
202 202 202
146 146 146
119 119 119
57 57 57
191 191 191
223 223 223
223 223 223
223 223 223
219 219 219
223 223 223
227 227 227
61 61 61
77 77 77
75 75 75
135 135 135
152 152 152
208 208 208
223 223 223
191 191 191
101 101 101
32 32 32
79 79 79
42 42 42
71 71 71
199 199 199
255 255 255
255 255 255
255 255 255
255 255 255
255 255 255
255 255 255
255 255 255
255 255 255
255 255 255
255 255 255
255 255 255
255 255 255
255 255 255
255 255 255
255 255 255
255 255 255
255 255 255
255 255 255
255 255 255
255 255 255
255 255 255
255 255 255
255 255 255
255 255 255
255 255 255
255 255 255
255 255 255
255 255 255
255 255 255
255 255 255
255 255 255
255 255 255
255 255 255
255 255 255
255 255 255
255 255 255
255 255 255
255 255 255
255 255 255
255 255 255
255 255 255
255 255 255
255 255 255
255 255 255
255 255 255
255 255 255
255 255 255
255 255 255
255 255 255
255 255 255
255 255 255
255 255 255
255 255 255
255 255 255
255 255 255
255 255 255
255 255 255
255 255 255
255 255 255
255 255 255
255 255 255
255 255 255
255 255 255
255 255 255
255 255 255
255 255 255
255 255 255
255 255 255
255 255 255
255 255 255
244 244 244
137 137 137
91 91 91
86 86 86
205 205 205
220 220 220
107 107 107
93 93 93
70 70 70
198 198 198
222 222 222
223 223 223
223 223 223
223 223 223
222 222 222
233 233 233
112 112 112
167 167 167
157 157 157
173 173 173
211 211 211
222 222 222
223 223 223
205 205 205
147 147 147
46 46 46
63 63 63
39 39 39
48 48 48
109 109 109
226 226 226
255 255 255
255 255 255
255 255 255
255 255 255
255 255 255
255 255 255
255 255 255
255 255 255
255 255 255
255 255 255
255 255 255
255 255 255
255 255 255
255 255 255
255 255 255
255 255 255
255 255 255
255 255 255
255 255 255
255 255 255
255 255 255
255 255 255
255 255 255
255 255 255
255 255 255
255 255 255
255 255 255
255 255 255
255 255 255
255 255 255
255 255 255
255 255 255
255 255 255
255 255 255
255 255 255
255 255 255
255 255 255
255 255 255
255 255 255
255 255 255
255 255 255
255 255 255
255 255 255
255 255 255
255 255 255
255 255 255
255 255 255
255 255 255
255 255 255
255 255 255
255 255 255
255 255 255
255 255 255
255 255 255
255 255 255
255 255 255
255 255 255
255 255 255
255 255 255
255 255 255
255 255 255
255 255 255
255 255 255
255 255 255
255 255 255
255 255 255
255 255 255
255 255 255
255 255 255
255 255 255
160 160 160
143 143 143
48 48 48
173 173 173
218 218 218
189 189 189
152 152 152
172 172 172
218 218 218
222 222 222
220 220 220
223 223 223
223 223 223
223 223 223
231 231 231
214 214 214
176 176 176
175 175 175
219 219 219
220 220 220
221 221 221
225 225 225
148 148 148
148 148 148
47 47 47
29 29 29
30 30 30
29 29 29
87 87 87
177 177 177
241 241 241
255 255 255
255 255 255
255 255 255
255 255 255
255 255 255
255 255 255
255 255 255
255 255 255
255 255 255
255 255 255
255 255 255
255 255 255
255 255 255
255 255 255
255 255 255
255 255 255
255 255 255
255 255 255
255 255 255
255 255 255
255 255 255
255 255 255
255 255 255
255 255 255
255 255 255
255 255 255
255 255 255
255 255 255
255 255 255
255 255 255
255 255 255
255 255 255
255 255 255
255 255 255
255 255 255
255 255 255
255 255 255
255 255 255
255 255 255
255 255 255
255 255 255
255 255 255
255 255 255
255 255 255
255 255 255
255 255 255
255 255 255
255 255 255
255 255 255
255 255 255
255 255 255
255 255 255
255 255 255
255 255 255
255 255 255
255 255 255
255 255 255
255 255 255
255 255 255
255 255 255
255 255 255
255 255 255
255 255 255
255 255 255
255 255 255
255 255 255
255 255 255
255 255 255
255 255 255
210 210 210
189 189 189
103 103 103
56 56 56
185 185 185
233 233 233
193 193 193
195 195 195
226 226 226
219 219 219
218 218 218
219 219 219
224 224 224
223 223 223
223 223 223
225 225 225
194 194 194
221 221 221
221 221 221
222 222 222
221 221 221
225 225 225
184 184 184
141 141 141
18 18 18
28 28 28
28 28 28
28 28 28
41 41 41
157 157 157
211 211 211
252 252 252
255 255 255
255 255 255
255 255 255
255 255 255
255 255 255
255 255 255
255 255 255
255 255 255
255 255 255
255 255 255
255 255 255
255 255 255
255 255 255
255 255 255
255 255 255
255 255 255
255 255 255
255 255 255
255 255 255
255 255 255
255 255 255
255 255 255
255 255 255
255 255 255
255 255 255
255 255 255
255 255 255
255 255 255
255 255 255
255 255 255
255 255 255
255 255 255
255 255 255
255 255 255
255 255 255
255 255 255
255 255 255
255 255 255
255 255 255
255 255 255
255 255 255
255 255 255
255 255 255
255 255 255
255 255 255
255 255 255
255 255 255
255 255 255
255 255 255
255 255 255
255 255 255
255 255 255
255 255 255
255 255 255
255 255 255
255 255 255
255 255 255
255 255 255
255 255 255
255 255 255
255 255 255
255 255 255
255 255 255
255 255 255
255 255 255
255 255 255
255 255 255
255 255 255
247 247 247
196 196 196
169 169 169
72 72 72
105 105 105
157 157 157
196 196 196
222 222 222
222 222 222
220 220 220
219 219 219
220 220 220
222 222 222
223 223 223
223 223 223
223 223 223
222 222 222
223 223 223
223 223 223
222 222 222
225 225 225
169 169 169
167 167 167
27 27 27
30 30 30
31 31 31
30 30 30
32 32 32
28 28 28
89 89 89
215 215 215
236 236 236
255 255 255
255 255 255
255 255 255
255 255 255
255 255 255
255 255 255
255 255 255
255 255 255
255 255 255
255 255 255
255 255 255
255 255 255
255 255 255
255 255 255
255 255 255
255 255 255
255 255 255
255 255 255
255 255 255
255 255 255
255 255 255
255 255 255
255 255 255
255 255 255
255 255 255
255 255 255
255 255 255
255 255 255
255 255 255
255 255 255
255 255 255
255 255 255
255 255 255
255 255 255
255 255 255
255 255 255
255 255 255
255 255 255
255 255 255
255 255 255
255 255 255
255 255 255
255 255 255
255 255 255
255 255 255
255 255 255
255 255 255
255 255 255
255 255 255
255 255 255
255 255 255
255 255 255
255 255 255
255 255 255
255 255 255
255 255 255
255 255 255
255 255 255
255 255 255
255 255 255
255 255 255
255 255 255
255 255 255
255 255 255
255 255 255
255 255 255
255 255 255
255 255 255
255 255 255
211 211 211
233 233 233
176 176 176
63 63 63
146 146 146
198 198 198
222 222 222
222 222 222
214 214 214
221 221 221
223 223 223
223 223 223
223 223 223
223 223 223
223 223 223
223 223 223
223 223 223
223 223 223
222 222 222
203 203 203
46 46 46
24 24 24
29 29 29
30 30 30
36 36 36
34 34 34
33 33 33
30 30 30
40 40 40
170 170 170
238 238 238
250 250 250
255 255 255
255 255 255
255 255 255
255 255 255
255 255 255
255 255 255
255 255 255
255 255 255
255 255 255
255 255 255
255 255 255
255 255 255
255 255 255
255 255 255
255 255 255
255 255 255
255 255 255
255 255 255
255 255 255
255 255 255
255 255 255
255 255 255
255 255 255
255 255 255
255 255 255
255 255 255
255 255 255
255 255 255
255 255 255
255 255 255
255 255 255
255 255 255
255 255 255
255 255 255
255 255 255
255 255 255
255 255 255
255 255 255
255 255 255
255 255 255
255 255 255
255 255 255
255 255 255
255 255 255
255 255 255
255 255 255
255 255 255
255 255 255
255 255 255
255 255 255
255 255 255
255 255 255
255 255 255
255 255 255
255 255 255
255 255 255
255 255 255
255 255 255
255 255 255
255 255 255
255 255 255
255 255 255
255 255 255
255 255 255
255 255 255
255 255 255
255 255 255
255 255 255
253 253 253
220 220 220
249 249 249
216 216 216
201 201 201
201 201 201
222 222 222
222 222 222
223 223 223
223 223 223
224 224 224
223 223 223
223 223 223
223 223 223
223 223 223
223 223 223
223 223 223
223 223 223
224 224 224
113 113 113
29 29 29
32 32 32
33 33 33
35 35 35
36 36 36
47 47 47
36 36 36
34 34 34
29 29 29
106 106 106
238 238 238
242 242 242
255 255 255
255 255 255
255 255 255
255 255 255
255 255 255
255 255 255
255 255 255
255 255 255
255 255 255
255 255 255
255 255 255
255 255 255
255 255 255
255 255 255
255 255 255
255 255 255
255 255 255
255 255 255
255 255 255
255 255 255
255 255 255
255 255 255
255 255 255
255 255 255
255 255 255
255 255 255
255 255 255
255 255 255
255 255 255
255 255 255
255 255 255
255 255 255
255 255 255
255 255 255
255 255 255
255 255 255
255 255 255
255 255 255
255 255 255
255 255 255
255 255 255
255 255 255
255 255 255
255 255 255
255 255 255
255 255 255
255 255 255
255 255 255
255 255 255
255 255 255
255 255 255
255 255 255
255 255 255
255 255 255
255 255 255
255 255 255
255 255 255
255 255 255
255 255 255
255 255 255
255 255 255
255 255 255
255 255 255
255 255 255
255 255 255
255 255 255
255 255 255
255 255 255
255 255 255
254 254 254
251 251 251
250 250 250
227 227 227
222 222 222
221 221 221
222 222 222
222 222 222
224 224 224
225 225 225
223 223 223
222 222 222
223 223 223
223 223 223
222 222 222
222 222 222
225 225 225
166 166 166
122 122 122
136 136 136
105 105 105
133 133 133
30 30 30
38 38 38
43 43 43
45 45 45
36 36 36
27 27 27
78 78 78
201 201 201
246 246 246
253 253 253
255 255 255
255 255 255
255 255 255
255 255 255
255 255 255
255 255 255
255 255 255
255 255 255
255 255 255
255 255 255
255 255 255
255 255 255
255 255 255
255 255 255
255 255 255
255 255 255
255 255 255
255 255 255
255 255 255
255 255 255
255 255 255
255 255 255
255 255 255
255 255 255
255 255 255
255 255 255
255 255 255
255 255 255
255 255 255
255 255 255
255 255 255
255 255 255
255 255 255
255 255 255
255 255 255
255 255 255
255 255 255
255 255 255
255 255 255
255 255 255
255 255 255
255 255 255
255 255 255
255 255 255
255 255 255
255 255 255
255 255 255
255 255 255
255 255 255
255 255 255
255 255 255
255 255 255
255 255 255
255 255 255
255 255 255
255 255 255
255 255 255
255 255 255
255 255 255
255 255 255
255 255 255
255 255 255
255 255 255
255 255 255
255 255 255
255 255 255
255 255 255
255 255 255
255 255 255
255 255 255
255 255 255
239 239 239
223 223 223
223 223 223
222 222 222
222 222 222
218 218 218
199 199 199
210 210 210
222 222 222
223 223 223
223 223 223
223 223 223
225 225 225
182 182 182
161 161 161
226 226 226
253 253 253
238 238 238
190 190 190
224 224 224
139 139 139
48 48 48
49 49 49
37 37 37
27 27 27
64 64 64
146 146 146
248 248 248
251 251 251
255 255 255
255 255 255
255 255 255
255 255 255
255 255 255
255 255 255
255 255 255
255 255 255
255 255 255
255 255 255
255 255 255
255 255 255
255 255 255
255 255 255
255 255 255
255 255 255
255 255 255
255 255 255
255 255 255
255 255 255
255 255 255
255 255 255
255 255 255
255 255 255
255 255 255
255 255 255
255 255 255
255 255 255
255 255 255
255 255 255
255 255 255
255 255 255
255 255 255
255 255 255
255 255 255
255 255 255
255 255 255
255 255 255
255 255 255
255 255 255
255 255 255
255 255 255
255 255 255
255 255 255
255 255 255
255 255 255
255 255 255
255 255 255
255 255 255
255 255 255
255 255 255
255 255 255
255 255 255
255 255 255
255 255 255
255 255 255
255 255 255
255 255 255
255 255 255
255 255 255
255 255 255
255 255 255
255 255 255
255 255 255
255 255 255
255 255 255
255 255 255
255 255 255
255 255 255
255 255 255
255 255 255
255 255 255
201 201 201
193 193 193
226 226 226
222 222 222
223 223 223
224 224 224
223 223 223
222 222 222
222 222 222
224 224 224
223 223 223
161 161 161
189 189 189
224 224 224
242 242 242
255 255 255
255 255 255
241 241 241
234 234 234
254 254 254
208 208 208
77 77 77
39 39 39
28 28 28
69 69 69
87 87 87
240 240 240
245 245 245
255 255 255
255 255 255
255 255 255
255 255 255
255 255 255
255 255 255
255 255 255
255 255 255
255 255 255
255 255 255
255 255 255
255 255 255
255 255 255
255 255 255
255 255 255
255 255 255
255 255 255
255 255 255
255 255 255
255 255 255
255 255 255
255 255 255
255 255 255
255 255 255
255 255 255
255 255 255
255 255 255
255 255 255
255 255 255
255 255 255
255 255 255
255 255 255
255 255 255
255 255 255
255 255 255
255 255 255
255 255 255
255 255 255
255 255 255
255 255 255
255 255 255
255 255 255
255 255 255
255 255 255
255 255 255
255 255 255
255 255 255
255 255 255
255 255 255
255 255 255
255 255 255
255 255 255
255 255 255
255 255 255
255 255 255
255 255 255
255 255 255
255 255 255
255 255 255
255 255 255
255 255 255
255 255 255
255 255 255
255 255 255
255 255 255
255 255 255
255 255 255
255 255 255
254 254 254
255 255 255
249 249 249
197 197 197
124 124 124
64 64 64
143 143 143
214 214 214
225 225 225
223 223 223
222 222 222
222 222 222
225 225 225
201 201 201
132 132 132
173 173 173
225 225 225
217 217 217
245 245 245
255 255 255
255 255 255
254 254 254
245 245 245
255 255 255
255 255 255
195 195 195
45 45 45
44 44 44
83 83 83
60 60 60
223 223 223
246 246 246
255 255 255
255 255 255
255 255 255
255 255 255
255 255 255
255 255 255
255 255 255
255 255 255
255 255 255
255 255 255
255 255 255
255 255 255
255 255 255
255 255 255
255 255 255
255 255 255
255 255 255
255 255 255
255 255 255
255 255 255
255 255 255
255 255 255
255 255 255
255 255 255
255 255 255
255 255 255
255 255 255
255 255 255
255 255 255
255 255 255
255 255 255
255 255 255
255 255 255
255 255 255
255 255 255
255 255 255
255 255 255
255 255 255
255 255 255
255 255 255
255 255 255
255 255 255
255 255 255
255 255 255
255 255 255
255 255 255
255 255 255
255 255 255
255 255 255
255 255 255
255 255 255
255 255 255
255 255 255
255 255 255
255 255 255
255 255 255
255 255 255
255 255 255
255 255 255
255 255 255
255 255 255
255 255 255
255 255 255
255 255 255
243 243 243
214 214 214
206 206 206
218 218 218
206 206 206
194 194 194
133 133 133
84 84 84
47 47 47
47 47 47
47 47 47
64 64 64
154 154 154
216 216 216
228 228 228
198 198 198
152 152 152
137 137 137
160 160 160
223 223 223
196 196 196
206 206 206
190 190 190
236 236 236
255 255 255
252 252 252
250 250 250
255 255 255
255 255 255
203 203 203
44 44 44
62 62 62
59 59 59
59 59 59
232 232 232
251 251 251
255 255 255
255 255 255
255 255 255
255 255 255
255 255 255
255 255 255
255 255 255
255 255 255
255 255 255
255 255 255
255 255 255
255 255 255
255 255 255
255 255 255
255 255 255
255 255 255
255 255 255
255 255 255
255 255 255
255 255 255
255 255 255
255 255 255
255 255 255
255 255 255
255 255 255
255 255 255
255 255 255
255 255 255
255 255 255
255 255 255
255 255 255
255 255 255
255 255 255
255 255 255
255 255 255
255 255 255
255 255 255
255 255 255
255 255 255
255 255 255
255 255 255
255 255 255
255 255 255
255 255 255
255 255 255
255 255 255
255 255 255
255 255 255
255 255 255
255 255 255
255 255 255
255 255 255
255 255 255
255 255 255
255 255 255
255 255 255
255 255 255
255 255 255
255 255 255
255 255 255
255 255 255
255 255 255
252 252 252
204 204 204
100 100 100
67 67 67
60 60 60
123 123 123
144 144 144
138 138 138
37 37 37
39 39 39
42 42 42
39 39 39
45 45 45
37 37 37
31 31 31
67 67 67
125 125 125
135 135 135
149 149 149
150 150 150
220 220 220
167 167 167
175 175 175
199 199 199
231 231 231
222 222 222
215 215 215
240 240 240
255 255 255
255 255 255
255 255 255
200 200 200
149 149 149
50 50 50
87 87 87
202 202 202
243 243 243
255 255 255
255 255 255
255 255 255
255 255 255
255 255 255
255 255 255
255 255 255
255 255 255
255 255 255
255 255 255
255 255 255
255 255 255
255 255 255
255 255 255
255 255 255
255 255 255
255 255 255
255 255 255
255 255 255
255 255 255
255 255 255
255 255 255
255 255 255
255 255 255
255 255 255
255 255 255
255 255 255
255 255 255
255 255 255
255 255 255
255 255 255
255 255 255
255 255 255
255 255 255
255 255 255
255 255 255
255 255 255
255 255 255
255 255 255
255 255 255
255 255 255
255 255 255
255 255 255
255 255 255
255 255 255
255 255 255
255 255 255
255 255 255
255 255 255
255 255 255
255 255 255
255 255 255
255 255 255
255 255 255
255 255 255
255 255 255
255 255 255
255 255 255
255 255 255
255 255 255
255 255 255
255 255 255
254 254 254
229 229 229
68 68 68
45 45 45
108 108 108
198 198 198
248 248 248
253 253 253
252 252 252
181 181 181
55 55 55
34 34 34
36 36 36
33 33 33
35 35 35
106 106 106
127 127 127
133 133 133
151 151 151
150 150 150
212 212 212
198 198 198
85 85 85
162 162 162
231 231 231
224 224 224
174 174 174
190 190 190
208 208 208
227 227 227
230 230 230
213 213 213
118 118 118
132 132 132
217 217 217
237 237 237
251 251 251
255 255 255
255 255 255
255 255 255
255 255 255
255 255 255
255 255 255
255 255 255
255 255 255
255 255 255
255 255 255
255 255 255
255 255 255
255 255 255
255 255 255
255 255 255
255 255 255
255 255 255
255 255 255
255 255 255
255 255 255
255 255 255
255 255 255
255 255 255
255 255 255
255 255 255
255 255 255
255 255 255
255 255 255
255 255 255
255 255 255
255 255 255
255 255 255
255 255 255
255 255 255
255 255 255
255 255 255
255 255 255
255 255 255
255 255 255
255 255 255
255 255 255
255 255 255
255 255 255
255 255 255
255 255 255
255 255 255
255 255 255
255 255 255
255 255 255
255 255 255
255 255 255
255 255 255
255 255 255
255 255 255
255 255 255
255 255 255
255 255 255
255 255 255
255 255 255
255 255 255
255 255 255
255 255 255
255 255 255
250 250 250
189 189 189
102 102 102
202 202 202
250 250 250
255 255 255
255 255 255
255 255 255
255 255 255
255 255 255
236 236 236
188 188 188
69 69 69
35 35 35
100 100 100
121 121 121
150 150 150
127 127 127
153 153 153
205 205 205
225 225 225
165 165 165
84 84 84
141 141 141
219 219 219
173 173 173
189 189 189
186 186 186
161 161 161
88 88 88
61 61 61
40 40 40
108 108 108
228 228 228
253 253 253
255 255 255
255 255 255
255 255 255
255 255 255
255 255 255
255 255 255
255 255 255
255 255 255
255 255 255
255 255 255
255 255 255
255 255 255
255 255 255
255 255 255
255 255 255
255 255 255
255 255 255
255 255 255
255 255 255
255 255 255
255 255 255
255 255 255
255 255 255
255 255 255
255 255 255
255 255 255
255 255 255
255 255 255
255 255 255
255 255 255
255 255 255
255 255 255
255 255 255
255 255 255
255 255 255
255 255 255
255 255 255
255 255 255
255 255 255
255 255 255
255 255 255
255 255 255
255 255 255
255 255 255
255 255 255
255 255 255
255 255 255
255 255 255
255 255 255
255 255 255
255 255 255
255 255 255
255 255 255
255 255 255
255 255 255
255 255 255
255 255 255
255 255 255
255 255 255
255 255 255
255 255 255
255 255 255
255 255 255
255 255 255
253 253 253
214 214 214
162 162 162
244 244 244
255 255 255
255 255 255
255 255 255
255 255 255
255 255 255
255 255 255
244 244 244
197 197 197
109 109 109
40 40 40
50 50 50
120 120 120
120 120 120
156 156 156
143 143 143
205 205 205
223 223 223
206 206 206
164 164 164
61 61 61
106 106 106
128 128 128
183 183 183
175 175 175
179 179 179
91 91 91
80 80 80
55 55 55
50 50 50
85 85 85
102 102 102
164 164 164
238 238 238
255 255 255
255 255 255
255 255 255
255 255 255
255 255 255
255 255 255
255 255 255
255 255 255
255 255 255
255 255 255
255 255 255
255 255 255
255 255 255
255 255 255
255 255 255
255 255 255
255 255 255
255 255 255
255 255 255
255 255 255
255 255 255
255 255 255
255 255 255
255 255 255
255 255 255
255 255 255
255 255 255
255 255 255
255 255 255
255 255 255
255 255 255
255 255 255
255 255 255
255 255 255
255 255 255
255 255 255
255 255 255
255 255 255
255 255 255
255 255 255
255 255 255
255 255 255
255 255 255
255 255 255
255 255 255
255 255 255
255 255 255
255 255 255
255 255 255
255 255 255
255 255 255
255 255 255
255 255 255
255 255 255
255 255 255
255 255 255
255 255 255
255 255 255
255 255 255
255 255 255
255 255 255
255 255 255
255 255 255
241 241 241
166 166 166
197 197 197
255 255 255
255 255 255
255 255 255
255 255 255
255 255 255
251 251 251
216 216 216
167 167 167
83 83 83
75 75 75
58 58 58
70 70 70
124 124 124
124 124 124
185 185 185
170 170 170
227 227 227
206 206 206
212 212 212
216 216 216
79 79 79
43 43 43
60 60 60
66 66 66
64 64 64
123 123 123
75 75 75
68 68 68
61 61 61
76 76 76
76 76 76
77 77 77
86 86 86
171 171 171
247 247 247
255 255 255
255 255 255
255 255 255
255 255 255
255 255 255
255 255 255
255 255 255
255 255 255
255 255 255
255 255 255
255 255 255
255 255 255
255 255 255
255 255 255
255 255 255
255 255 255
255 255 255
255 255 255
255 255 255
255 255 255
255 255 255
255 255 255
255 255 255
255 255 255
255 255 255
255 255 255
255 255 255
255 255 255
255 255 255
255 255 255
255 255 255
255 255 255
255 255 255
255 255 255
255 255 255
255 255 255
255 255 255
255 255 255
255 255 255
255 255 255
255 255 255
255 255 255
255 255 255
255 255 255
255 255 255
255 255 255
255 255 255
255 255 255
255 255 255
255 255 255
255 255 255
255 255 255
255 255 255
255 255 255
255 255 255
255 255 255
255 255 255
255 255 255
255 255 255
255 255 255
255 255 255
211 211 211
124 124 124
172 172 172
255 255 255
255 255 255
255 255 255
255 255 255
255 255 255
251 251 251
211 211 211
191 191 191
79 79 79
75 75 75
74 74 74
73 73 73
100 100 100
131 131 131
135 135 135
228 228 228
190 190 190
185 185 185
211 211 211
229 229 229
191 191 191
158 158 158
114 114 114
36 36 36
50 50 50
127 127 127
106 106 106
102 102 102
75 75 75
78 78 78
77 77 77
79 79 79
69 69 69
144 144 144
196 196 196
207 207 207
233 233 233
255 255 255
255 255 255
255 255 255
255 255 255
255 255 255
255 255 255
255 255 255
255 255 255
255 255 255
255 255 255
255 255 255
255 255 255
255 255 255
255 255 255
255 255 255
255 255 255
255 255 255
255 255 255
255 255 255
255 255 255
255 255 255
255 255 255
255 255 255
255 255 255
255 255 255
255 255 255
255 255 255
255 255 255
255 255 255
255 255 255
255 255 255
255 255 255
255 255 255
255 255 255
255 255 255
255 255 255
255 255 255
255 255 255
255 255 255
255 255 255
255 255 255
255 255 255
255 255 255
255 255 255
255 255 255
255 255 255
255 255 255
255 255 255
255 255 255
255 255 255
255 255 255
255 255 255
255 255 255
255 255 255
255 255 255
255 255 255
255 255 255
255 255 255
255 255 255
224 224 224
170 170 170
74 74 74
162 162 162
255 255 255
252 252 252
252 252 252
255 255 255
254 254 254
210 210 210
182 182 182
97 97 97
74 74 74
76 76 76
59 59 59
99 99 99
118 118 118
195 195 195
170 170 170
223 223 223
210 210 210
206 206 206
227 227 227
216 216 216
187 187 187
155 155 155
85 85 85
113 113 113
159 159 159
108 108 108
107 107 107
76 76 76
78 78 78
77 77 77
77 77 77
79 79 79
90 90 90
152 152 152
149 149 149
164 164 164
198 198 198
138 138 138
147 147 147
181 181 181
213 213 213
229 229 229
244 244 244
252 252 252
255 255 255
255 255 255
255 255 255
255 255 255
255 255 255
255 255 255
255 255 255
255 255 255
255 255 255
255 255 255
255 255 255
255 255 255
255 255 255
255 255 255
255 255 255
255 255 255
255 255 255
255 255 255
255 255 255
255 255 255
255 255 255
255 255 255
255 255 255
255 255 255
255 255 255
255 255 255
255 255 255
255 255 255
255 255 255
255 255 255
255 255 255
255 255 255
255 255 255
255 255 255
255 255 255
255 255 255
255 255 255
255 255 255
255 255 255
255 255 255
255 255 255
255 255 255
255 255 255
255 255 255
255 255 255
255 255 255
255 255 255
255 255 255
255 255 255
255 255 255
255 255 255
255 255 255
195 195 195
161 161 161
43 43 43
77 77 77
228 228 228
229 229 229
252 252 252
255 255 255
222 222 222
187 187 187
140 140 140
69 69 69
74 74 74
71 71 71
75 75 75
104 104 104
118 118 118
192 192 192
173 173 173
213 213 213
205 205 205
228 228 228
218 218 218
184 184 184
191 191 191
194 194 194
194 194 194
182 182 182
105 105 105
110 110 110
86 86 86
78 78 78
77 77 77
78 78 78
79 79 79
67 67 67
135 135 135
149 149 149
152 152 152
152 152 152
156 156 156
185 185 185
57 57 57
45 45 45
57 57 57
78 78 78
128 128 128
171 171 171
199 199 199
226 226 226
249 249 249
255 255 255
255 255 255
255 255 255
255 255 255
255 255 255
255 255 255
255 255 255
255 255 255
255 255 255
255 255 255
255 255 255
255 255 255
255 255 255
255 255 255
255 255 255
255 255 255
255 255 255
255 255 255
255 255 255
255 255 255
255 255 255
255 255 255
255 255 255
255 255 255
255 255 255
255 255 255
255 255 255
255 255 255
255 255 255
255 255 255
255 255 255
255 255 255
255 255 255
255 255 255
255 255 255
255 255 255
255 255 255
255 255 255
255 255 255
255 255 255
255 255 255
255 255 255
255 255 255
255 255 255
255 255 255
255 255 255
255 255 255
255 255 255
248 248 248
210 210 210
135 135 135
33 33 33
36 36 36
53 53 53
192 192 192
255 255 255
237 237 237
194 194 194
155 155 155
92 92 92
74 74 74
74 74 74
69 69 69
93 93 93
103 103 103
118 118 118
190 190 190
180 180 180
187 187 187
230 230 230
218 218 218
177 177 177
193 193 193
191 191 191
191 191 191
180 180 180
106 106 106
106 106 106
97 97 97
70 70 70
78 78 78
77 77 77
78 78 78
78 78 78
98 98 98
152 152 152
147 147 147
151 151 151
153 153 153
154 154 154
161 161 161
165 165 165
41 41 41
42 42 42
58 58 58
65 65 65
104 104 104
110 110 110
116 116 116
144 144 144
187 187 187
216 216 216
239 239 239
250 250 250
255 255 255
255 255 255
255 255 255
255 255 255
255 255 255
255 255 255
255 255 255
255 255 255
255 255 255
255 255 255
255 255 255
255 255 255
255 255 255
255 255 255
255 255 255
255 255 255
255 255 255
255 255 255
255 255 255
255 255 255
255 255 255
255 255 255
255 255 255
255 255 255
255 255 255
255 255 255
255 255 255
255 255 255
255 255 255
255 255 255
255 255 255
255 255 255
255 255 255
255 255 255
255 255 255
255 255 255
255 255 255
255 255 255
255 255 255
255 255 255
255 255 255
255 255 255
255 255 255
255 255 255
255 255 255
239 239 239
201 201 201
97 97 97
135 135 135
195 195 195
254 254 254
250 250 250
206 206 206
155 155 155
134 134 134
70 70 70
71 71 71
69 69 69
115 115 115
100 100 100
103 103 103
111 111 111
189 189 189
178 178 178
219 219 219
217 217 217
172 172 172
194 194 194
191 191 191
192 192 192
187 187 187
107 107 107
105 105 105
106 106 106
69 69 69
78 78 78
77 77 77
77 77 77
80 80 80
63 63 63
138 138 138
126 126 126
145 145 145
152 152 152
153 153 153
154 154 154
153 153 153
183 183 183
105 105 105
33 33 33
62 62 62
67 67 67
91 91 91
105 105 105
96 96 96
100 100 100
110 110 110
131 131 131
151 151 151
180 180 180
205 205 205
229 229 229
251 251 251
255 255 255
255 255 255
255 255 255
255 255 255
255 255 255
255 255 255
255 255 255
255 255 255
255 255 255
255 255 255
255 255 255
255 255 255
255 255 255
255 255 255
255 255 255
255 255 255
255 255 255
255 255 255
255 255 255
255 255 255
255 255 255
255 255 255
255 255 255
255 255 255
255 255 255
255 255 255
255 255 255
255 255 255
255 255 255
255 255 255
255 255 255
255 255 255
255 255 255
255 255 255
255 255 255
255 255 255
255 255 255
255 255 255
255 255 255
255 255 255
255 255 255
255 255 255
255 255 255
255 255 255
253 253 253
254 254 254
255 255 255
247 247 247
192 192 192
150 150 150
150 150 150
92 92 92
70 70 70
72 72 72
67 67 67
142 142 142
101 101 101
103 103 103
104 104 104
188 188 188
188 188 188
179 179 179
161 161 161
195 195 195
191 191 191
191 191 191
193 193 193
114 114 114
106 106 106
106 106 106
86 86 86
68 68 68
78 78 78
77 77 77
77 77 77
71 71 71
90 90 90
150 150 150
100 100 100
151 151 151
150 150 150
153 153 153
154 154 154
154 154 154
158 158 158
186 186 186
43 43 43
57 57 57
55 55 55
63 63 63
81 81 81
85 85 85
100 100 100
110 110 110
120 120 120
123 123 123
124 124 124
134 134 134
155 155 155
149 149 149
198 198 198
227 227 227
254 254 254
255 255 255
255 255 255
255 255 255
255 255 255
255 255 255
255 255 255
255 255 255
255 255 255
255 255 255
255 255 255
255 255 255
255 255 255
255 255 255
255 255 255
255 255 255
255 255 255
255 255 255
255 255 255
255 255 255
255 255 255
255 255 255
255 255 255
255 255 255
255 255 255
255 255 255
255 255 255
255 255 255
255 255 255
255 255 255
255 255 255
255 255 255
255 255 255
255 255 255
255 255 255
255 255 255
255 255 255
255 255 255
255 255 255
255 255 255
255 255 255
255 255 255
255 255 255
255 255 255
255 255 255
213 213 213
145 145 145
148 148 148
126 126 126
63 63 63
69 69 69
66 66 66
111 111 111
145 145 145
102 102 102
105 105 105
102 102 102
186 186 186
193 193 193
148 148 148
194 194 194
191 191 191
191 191 191
197 197 197
125 125 125
105 105 105
105 105 105
101 101 101
58 58 58
75 75 75
76 76 76
76 76 76
77 77 77
63 63 63
124 124 124
140 140 140
115 115 115
149 149 149
150 150 150
152 152 152
153 153 153
154 154 154
153 153 153
192 192 192
126 126 126
68 68 68
69 69 69
79 79 79
62 62 62
62 62 62
53 53 53
70 70 70
81 81 81
107 107 107
127 127 127
136 136 136
132 132 132
121 121 121
160 160 160
180 180 180
245 245 245
255 255 255
255 255 255
255 255 255
255 255 255
255 255 255
255 255 255
255 255 255
255 255 255
255 255 255
255 255 255
255 255 255
255 255 255
255 255 255
255 255 255
255 255 255
255 255 255
255 255 255
255 255 255
255 255 255
255 255 255
255 255 255
255 255 255
255 255 255
255 255 255
255 255 255
255 255 255
255 255 255
255 255 255
255 255 255
255 255 255
255 255 255
255 255 255
255 255 255
255 255 255
255 255 255
255 255 255
255 255 255
255 255 255
255 255 255
255 255 255
255 255 255
255 255 255
255 255 255
246 246 246
191 191 191
132 132 132
145 145 145
72 72 72
67 67 67
67 67 67
68 68 68
141 141 141
141 141 141
101 101 101
105 105 105
99 99 99
177 177 177
170 170 170
188 188 188
190 190 190
190 190 190
195 195 195
137 137 137
104 104 104
104 104 104
106 106 106
69 69 69
67 67 67
74 74 74
74 74 74
75 75 75
70 70 70
83 83 83
142 142 142
119 119 119
135 135 135
148 148 148
150 150 150
152 152 152
153 153 153
153 153 153
154 154 154
164 164 164
188 188 188
68 68 68
69 69 69
79 79 79
87 87 87
106 106 106
63 63 63
87 87 87
76 76 76
68 68 68
67 67 67
79 79 79
110 110 110
111 111 111
158 158 158
164 164 164
247 247 247
255 255 255
255 255 255
255 255 255
255 255 255
255 255 255
255 255 255
255 255 255
255 255 255
255 255 255
255 255 255
255 255 255
255 255 255
255 255 255
255 255 255
255 255 255
255 255 255
255 255 255
255 255 255
255 255 255
255 255 255
255 255 255
255 255 255
255 255 255
255 255 255
255 255 255
255 255 255
255 255 255
255 255 255
255 255 255
255 255 255
255 255 255
255 255 255
255 255 255
255 255 255
255 255 255
255 255 255
255 255 255
255 255 255
255 255 255
255 255 255
255 255 255
255 255 255
255 255 255
222 222 222
183 183 183
129 129 129
112 112 112
56 56 56
67 67 67
65 65 65
111 111 111
141 141 141
147 147 147
102 102 102
106 106 106
105 105 105
137 137 137
183 183 183
189 189 189
188 188 188
194 194 194
145 145 145
104 104 104
105 105 105
108 108 108
77 77 77
74 74 74
66 66 66
71 71 71
72 72 72
72 72 72
74 74 74
102 102 102
149 149 149
106 106 106
147 147 147
148 148 148
150 150 150
151 151 151
153 153 153
153 153 153
150 150 150
153 153 153
198 198 198
113 113 113
71 71 71
89 89 89
86 86 86
105 105 105
85 85 85
141 141 141
131 131 131
90 90 90
104 104 104
87 87 87
80 80 80
66 66 66
103 103 103
139 139 139
252 252 252
255 255 255
255 255 255
255 255 255
255 255 255
255 255 255
255 255 255
255 255 255
255 255 255
255 255 255
255 255 255
255 255 255
255 255 255
255 255 255
255 255 255
255 255 255
255 255 255
255 255 255
255 255 255
255 255 255
255 255 255
255 255 255
255 255 255
255 255 255
255 255 255
255 255 255
255 255 255
255 255 255
255 255 255
255 255 255
255 255 255
255 255 255
255 255 255
255 255 255
255 255 255
255 255 255
255 255 255
255 255 255
255 255 255
255 255 255
255 255 255
255 255 255
255 255 255
254 254 254
199 199 199
146 146 146
132 132 132
83 83 83
56 56 56
65 65 65
63 63 63
141 141 141
142 142 142
149 149 149
103 103 103
107 107 107
104 104 104
176 176 176
188 188 188
188 188 188
191 191 191
157 157 157
101 101 101
105 105 105
106 106 106
89 89 89
81 81 81
68 68 68
69 69 69
67 67 67
71 71 71
64 64 64
86 86 86
124 124 124
143 143 143
111 111 111
151 151 151
148 148 148
150 150 150
151 151 151
152 152 152
158 158 158
102 102 102
154 154 154
174 174 174
178 178 178
68 68 68
84 84 84
101 101 101
102 102 102
103 103 103
122 122 122
132 132 132
121 121 121
162 162 162
145 145 145
104 104 104
102 102 102
97 97 97
194 194 194
255 255 255
255 255 255
255 255 255
255 255 255
255 255 255
255 255 255
255 255 255
255 255 255
255 255 255
255 255 255
255 255 255
255 255 255
255 255 255
255 255 255
255 255 255
255 255 255
255 255 255
255 255 255
255 255 255
255 255 255
255 255 255
255 255 255
255 255 255
255 255 255
255 255 255
255 255 255
255 255 255
255 255 255
255 255 255
255 255 255
255 255 255
255 255 255
255 255 255
255 255 255
255 255 255
255 255 255
255 255 255
255 255 255
255 255 255
255 255 255
255 255 255
255 255 255
255 255 255
233 233 233
173 173 173
144 144 144
112 112 112
67 67 67
62 62 62
65 65 65
99 99 99
147 147 147
143 143 143
148 148 148
119 119 119
101 101 101
161 161 161
187 187 187
187 187 187
187 187 187
170 170 170
102 102 102
105 105 105
106 106 106
98 98 98
78 78 78
84 84 84
65 65 65
67 67 67
69 69 69
58 58 58
81 81 81
84 84 84
135 135 135
140 140 140
125 125 125
133 133 133
145 145 145
149 149 149
151 151 151
153 153 153
157 157 157
112 112 112
117 117 117
158 158 158
197 197 197
99 99 99
78 78 78
114 114 114
118 118 118
112 112 112
143 143 143
111 111 111
132 132 132
156 156 156
154 154 154
134 134 134
134 134 134
149 149 149
224 224 224
255 255 255
255 255 255
255 255 255
255 255 255
255 255 255
255 255 255
255 255 255
255 255 255
255 255 255
255 255 255
255 255 255
255 255 255
255 255 255
255 255 255
255 255 255
255 255 255
255 255 255
255 255 255
255 255 255
255 255 255
255 255 255
255 255 255
255 255 255
255 255 255
255 255 255
255 255 255
255 255 255
255 255 255
255 255 255
255 255 255
255 255 255
255 255 255
255 255 255
255 255 255
255 255 255
255 255 255
255 255 255
255 255 255
255 255 255
255 255 255
255 255 255
255 255 255
255 255 255
212 212 212
147 147 147
143 143 143
99 99 99
53 53 53
64 64 64
56 56 56
141 141 141
143 143 143
145 145 145
146 146 146
131 131 131
140 140 140
187 187 187
183 183 183
186 186 186
177 177 177
101 101 101
106 106 106
105 105 105
105 105 105
76 76 76
111 111 111
99 99 99
63 63 63
68 68 68
56 56 56
62 62 62
85 85 85
88 88 88
136 136 136
131 131 131
134 134 134
126 126 126
135 135 135
148 148 148
149 149 149
152 152 152
153 153 153
136 136 136
86 86 86
146 146 146
165 165 165
154 154 154
72 72 72
110 110 110
108 108 108
122 122 122
142 142 142
120 120 120
144 144 144
153 153 153
140 140 140
146 146 146
136 136 136
149 149 149
241 241 241
255 255 255
255 255 255
255 255 255
255 255 255
255 255 255
255 255 255
255 255 255
255 255 255
255 255 255
255 255 255
255 255 255
255 255 255
255 255 255
255 255 255
255 255 255
255 255 255
255 255 255
255 255 255
255 255 255
255 255 255
255 255 255
255 255 255
255 255 255
255 255 255
255 255 255
255 255 255
255 255 255
255 255 255
255 255 255
255 255 255
255 255 255
255 255 255
255 255 255
255 255 255
255 255 255
255 255 255
255 255 255
255 255 255
255 255 255
255 255 255
255 255 255
255 255 255
251 251 251
180 180 180
142 142 142
142 142 142
94 94 94
43 43 43
67 67 67
87 87 87
149 149 149
145 145 145
147 147 147
149 149 149
142 142 142
182 182 182
182 182 182
182 182 182
184 184 184
110 110 110
104 104 104
103 103 103
107 107 107
77 77 77
118 118 118
146 146 146
67 67 67
66 66 66
50 50 50
43 43 43
85 85 85
87 87 87
89 89 89
136 136 136
124 124 124
140 140 140
128 128 128
131 131 131
146 146 146
150 150 150
150 150 150
153 153 153
151 151 151
92 92 92
107 107 107
157 157 157
167 167 167
63 63 63
110 110 110
85 85 85
121 121 121
114 114 114
102 102 102
154 154 154
132 132 132
137 137 137
153 153 153
131 131 131
162 162 162
250 250 250
255 255 255
255 255 255
255 255 255
255 255 255
255 255 255
255 255 255
255 255 255
255 255 255
255 255 255
255 255 255
255 255 255
255 255 255
255 255 255
255 255 255
255 255 255
255 255 255
255 255 255
255 255 255
255 255 255
255 255 255
255 255 255
255 255 255
255 255 255
255 255 255
255 255 255
255 255 255
255 255 255
255 255 255
255 255 255
255 255 255
255 255 255
255 255 255
255 255 255
255 255 255
255 255 255
255 255 255
255 255 255
255 255 255
255 255 255
255 255 255
255 255 255
255 255 255
231 231 231
154 154 154
140 140 140
139 139 139
89 89 89
42 42 42
62 62 62
127 127 127
144 144 144
145 145 145
147 147 147
145 145 145
170 170 170
180 180 180
181 181 181
186 186 186
120 120 120
105 105 105
105 105 105
108 108 108
86 86 86
124 124 124
140 140 140
132 132 132
59 59 59
46 46 46
37 37 37
74 74 74
89 89 89
88 88 88
89 89 89
135 135 135
116 116 116
138 138 138
127 127 127
127 127 127
144 144 144
148 148 148
150 150 150
152 152 152
161 161 161
109 109 109
88 88 88
148 148 148
164 164 164
92 92 92
115 115 115
92 92 92
137 137 137
122 122 122
108 108 108
159 159 159
151 151 151
128 128 128
153 153 153
139 139 139
174 174 174
252 252 252
255 255 255
255 255 255
255 255 255
255 255 255
255 255 255
255 255 255
255 255 255
255 255 255
255 255 255
255 255 255
255 255 255
255 255 255
255 255 255
255 255 255
255 255 255
255 255 255
255 255 255
255 255 255
255 255 255
255 255 255
255 255 255
255 255 255
255 255 255
255 255 255
255 255 255
255 255 255
255 255 255
255 255 255
255 255 255
255 255 255
255 255 255
255 255 255
255 255 255
255 255 255
255 255 255
255 255 255
255 255 255
255 255 255
255 255 255
255 255 255
255 255 255
255 255 255
194 194 194
124 124 124
137 137 137
135 135 135
80 80 80
47 47 47
66 66 66
147 147 147
144 144 144
146 146 146
149 149 149
154 154 154
181 181 181
179 179 179
184 184 184
139 139 139
104 104 104
104 104 104
105 105 105
89 89 89
132 132 132
144 144 144
137 137 137
116 116 116
40 40 40
39 39 39
51 51 51
89 89 89
95 95 95
90 90 90
88 88 88
137 137 137
108 108 108
137 137 137
129 129 129
127 127 127
141 141 141
144 144 144
148 148 148
151 151 151
154 154 154
153 153 153
87 87 87
118 118 118
160 160 160
179 179 179
120 120 120
99 99 99
144 144 144
136 136 136
105 105 105
161 161 161
143 143 143
131 131 131
150 150 150
145 145 145
184 184 184
255 255 255
255 255 255
255 255 255
255 255 255
255 255 255
255 255 255
255 255 255
255 255 255
255 255 255
255 255 255
255 255 255
255 255 255
255 255 255
255 255 255
255 255 255
255 255 255
255 255 255
255 255 255
255 255 255
255 255 255
255 255 255
255 255 255
255 255 255
255 255 255
255 255 255
255 255 255
255 255 255
255 255 255
255 255 255
255 255 255
255 255 255
255 255 255
255 255 255
255 255 255
255 255 255
255 255 255
255 255 255
255 255 255
255 255 255
255 255 255
255 255 255
255 255 255
242 242 242
132 132 132
127 127 127
128 128 128
131 131 131
82 82 82
40 40 40
105 105 105
147 147 147
144 144 144
148 148 148
141 141 141
178 178 178
179 179 179
181 181 181
161 161 161
100 100 100
105 105 105
106 106 106
94 94 94
134 134 134
150 150 150
147 147 147
203 203 203
224 224 224
198 198 198
101 101 101
67 67 67
95 95 95
104 104 104
90 90 90
89 89 89
140 140 140
100 100 100
138 138 138
124 124 124
126 126 126
138 138 138
141 141 141
145 145 145
148 148 148
152 152 152
156 156 156
139 139 139
88 88 88
155 155 155
152 152 152
148 148 148
113 113 113
142 142 142
149 149 149
116 116 116
140 140 140
129 129 129
141 141 141
143 143 143
145 145 145
201 201 201
255 255 255
255 255 255
255 255 255
255 255 255
255 255 255
255 255 255
255 255 255
255 255 255
255 255 255
255 255 255
255 255 255
255 255 255
255 255 255
255 255 255
255 255 255
255 255 255
255 255 255
255 255 255
255 255 255
255 255 255
255 255 255
255 255 255
255 255 255
255 255 255
255 255 255
255 255 255
255 255 255
255 255 255
255 255 255
255 255 255
255 255 255
255 255 255
255 255 255
255 255 255
255 255 255
255 255 255
255 255 255
255 255 255
255 255 255
255 255 255
255 255 255
243 243 243
192 192 192
88 88 88
120 120 120
208 208 208
171 171 171
65 65 65
34 34 34
134 134 134
144 144 144
145 145 145
146 146 146
161 161 161
178 178 178
179 179 179
176 176 176
102 102 102
104 104 104
106 106 106
95 95 95
138 138 138
154 154 154
147 147 147
186 186 186
175 175 175
128 128 128
208 208 208
225 225 225
176 176 176
93 93 93
111 111 111
86 86 86
87 87 87
139 139 139
87 87 87
138 138 138
112 112 112
127 127 127
136 136 136
137 137 137
141 141 141
144 144 144
148 148 148
151 151 151
164 164 164
119 119 119
135 135 135
156 156 156
159 159 159
134 134 134
134 134 134
141 141 141
128 128 128
159 159 159
126 126 126
151 151 151
118 118 118
157 157 157
216 216 216
255 255 255
255 255 255
255 255 255
255 255 255
255 255 255
255 255 255
255 255 255
255 255 255
255 255 255
255 255 255
255 255 255
255 255 255
255 255 255
255 255 255
255 255 255
255 255 255
255 255 255
255 255 255
255 255 255
255 255 255
255 255 255
255 255 255
255 255 255
255 255 255
255 255 255
255 255 255
255 255 255
255 255 255
255 255 255
255 255 255
255 255 255
255 255 255
255 255 255
255 255 255
255 255 255
255 255 255
255 255 255
255 255 255
255 255 255
255 255 255
255 255 255
201 201 201
158 158 158
84 84 84
124 124 124
208 208 208
227 227 227
173 173 173
65 65 65
145 145 145
143 143 143
148 148 148
143 143 143
179 179 179
177 177 177
181 181 181
117 117 117
104 104 104
105 105 105
100 100 100
135 135 135
155 155 155
151 151 151
144 144 144
154 154 154
174 174 174
153 153 153
132 132 132
203 203 203
219 219 219
182 182 182
109 109 109
93 93 93
84 84 84
133 133 133
80 80 80
138 138 138
95 95 95
127 127 127
135 135 135
138 138 138
137 137 137
141 141 141
144 144 144
148 148 148
150 150 150
167 167 167
119 119 119
157 157 157
153 153 153
158 158 158
122 122 122
104 104 104
141 141 141
159 159 159
146 146 146
149 149 149
115 115 115
160 160 160
232 232 232
255 255 255
255 255 255
255 255 255
255 255 255
255 255 255
255 255 255
255 255 255
255 255 255
255 255 255
255 255 255
255 255 255
255 255 255
255 255 255
255 255 255
255 255 255
255 255 255
255 255 255
255 255 255
255 255 255
255 255 255
255 255 255
255 255 255
255 255 255
255 255 255
255 255 255
255 255 255
255 255 255
255 255 255
255 255 255
255 255 255
255 255 255
255 255 255
255 255 255
255 255 255
255 255 255
255 255 255
255 255 255
255 255 255
255 255 255
255 255 255
239 239 239
185 185 185
148 148 148
96 96 96
82 82 82
136 136 136
191 191 191
221 221 221
145 145 145
143 143 143
144 144 144
144 144 144
167 167 167
178 178 178
182 182 182
134 134 134
103 103 103
105 105 105
103 103 103
130 130 130
157 157 157
152 152 152
151 151 151
142 142 142
200 200 200
221 221 221
226 226 226
224 224 224
220 220 220
219 219 219
197 197 197
113 113 113
112 112 112
81 81 81
132 132 132
75 75 75
133 133 133
80 80 80
136 136 136
99 99 99
108 108 108
139 139 139
138 138 138
141 141 141
146 146 146
149 149 149
151 151 151
169 169 169
125 125 125
160 160 160
165 165 165
128 128 128
122 122 122
153 153 153
140 140 140
137 137 137
149 149 149
126 126 126
156 156 156
247 247 247
255 255 255
255 255 255
255 255 255
255 255 255
255 255 255
255 255 255
255 255 255
255 255 255
255 255 255
255 255 255
255 255 255
255 255 255
255 255 255
255 255 255
255 255 255
255 255 255
255 255 255
255 255 255
255 255 255
255 255 255
255 255 255
255 255 255
255 255 255
255 255 255
255 255 255
255 255 255
255 255 255
255 255 255
255 255 255
255 255 255
255 255 255
255 255 255
255 255 255
255 255 255
255 255 255
255 255 255
255 255 255
255 255 255
255 255 255
255 255 255
229 229 229
165 165 165
129 129 129
123 123 123
180 180 180
220 220 220
218 218 218
172 172 172
143 143 143
142 142 142
147 147 147
141 141 141
180 180 180
179 179 179
156 156 156
102 102 102
104 104 104
106 106 106
121 121 121
159 159 159
153 153 153
152 152 152
151 151 151
140 140 140
141 141 141
166 166 166
162 162 162
176 176 176
193 193 193
222 222 222
208 208 208
156 156 156
124 124 124
73 73 73
132 132 132
71 71 71
119 119 119
71 71 71
139 139 139
92 92 92
76 76 76
115 115 115
137 137 137
138 138 138
143 143 143
147 147 147
150 150 150
151 151 151
172 172 172
133 133 133
157 157 157
154 154 154
123 123 123
152 152 152
125 125 125
117 117 117
155 155 155
131 131 131
167 167 167
255 255 255
255 255 255
255 255 255
255 255 255
255 255 255
255 255 255
255 255 255
255 255 255
255 255 255
255 255 255
255 255 255
255 255 255
255 255 255
255 255 255
255 255 255
255 255 255
255 255 255
255 255 255
255 255 255
255 255 255
255 255 255
255 255 255
255 255 255
255 255 255
255 255 255
255 255 255
255 255 255
255 255 255
255 255 255
255 255 255
255 255 255
255 255 255
255 255 255
255 255 255
255 255 255
255 255 255
255 255 255
255 255 255
255 255 255
255 255 255
255 255 255
215 215 215
126 126 126
84 84 84
114 114 114
207 207 207
191 191 191
218 218 218
223 223 223
147 147 147
142 142 142
139 139 139
163 163 163
177 177 177
175 175 175
104 104 104
105 105 105
105 105 105
107 107 107
159 159 159
156 156 156
154 154 154
152 152 152
151 151 151
143 143 143
195 195 195
225 225 225
222 222 222
220 220 220
213 213 213
212 212 212
203 203 203
205 205 205
108 108 108
115 115 115
101 101 101
93 93 93
85 85 85
73 73 73
140 140 140
89 89 89
81 81 81
80 80 80
126 126 126
136 136 136
137 137 137
143 143 143
149 149 149
152 152 152
152 152 152
173 173 173
126 126 126
148 148 148
149 149 149
135 135 135
137 137 137
125 125 125
150 150 150
140 140 140
187 187 187
255 255 255
255 255 255
255 255 255
255 255 255
255 255 255
255 255 255
255 255 255
255 255 255
255 255 255
255 255 255
255 255 255
255 255 255
255 255 255
255 255 255
255 255 255
255 255 255
255 255 255
255 255 255
255 255 255
255 255 255
255 255 255
255 255 255
255 255 255
255 255 255
255 255 255
255 255 255
255 255 255
255 255 255
255 255 255
255 255 255
255 255 255
255 255 255
255 255 255
255 255 255
255 255 255
255 255 255
255 255 255
255 255 255
255 255 255
255 255 255
253 253 253
188 188 188
138 138 138
107 107 107
116 116 116
217 217 217
188 188 188
151 151 151
185 185 185
145 145 145
144 144 144
116 116 116
163 163 163
183 183 183
119 119 119
106 106 106
105 105 105
100 100 100
152 152 152
154 154 154
156 156 156
155 155 155
152 152 152
152 152 152
146 146 146
168 168 168
139 139 139
170 170 170
181 181 181
211 211 211
221 221 221
214 214 214
224 224 224
128 128 128
138 138 138
98 98 98
83 83 83
73 73 73
78 78 78
138 138 138
85 85 85
84 84 84
87 87 87
88 88 88
130 130 130
135 135 135
139 139 139
144 144 144
150 150 150
151 151 151
153 153 153
180 180 180
127 127 127
142 142 142
124 124 124
135 135 135
129 129 129
117 117 117
147 147 147
205 205 205
255 255 255
255 255 255
255 255 255
255 255 255
255 255 255
255 255 255
255 255 255
255 255 255
255 255 255
255 255 255
255 255 255
255 255 255
255 255 255
255 255 255
255 255 255
255 255 255
255 255 255
255 255 255
255 255 255
255 255 255
255 255 255
255 255 255
255 255 255
255 255 255
255 255 255
255 255 255
255 255 255
255 255 255
255 255 255
255 255 255
255 255 255
255 255 255
255 255 255
255 255 255
255 255 255
255 255 255
255 255 255
255 255 255
255 255 255
255 255 255
230 230 230
159 159 159
152 152 152
148 148 148
147 147 147
221 221 221
224 224 224
226 226 226
208 208 208
127 127 127
140 140 140
98 98 98
150 150 150
153 153 153
103 103 103
104 104 104
101 101 101
140 140 140
157 157 157
154 154 154
154 154 154
154 154 154
152 152 152
152 152 152
152 152 152
122 122 122
210 210 210
209 209 209
217 217 217
221 221 221
221 221 221
221 221 221
223 223 223
184 184 184
99 99 99
138 138 138
96 96 96
58 58 58
83 83 83
136 136 136
83 83 83
89 89 89
91 91 91
91 91 91
94 94 94
132 132 132
136 136 136
142 142 142
147 147 147
151 151 151
153 153 153
154 154 154
182 182 182
161 161 161
120 120 120
123 123 123
131 131 131
115 115 115
147 147 147
225 225 225
255 255 255
255 255 255
255 255 255
255 255 255
255 255 255
255 255 255
255 255 255
255 255 255
255 255 255
255 255 255
255 255 255
255 255 255
255 255 255
255 255 255
255 255 255
255 255 255
255 255 255
255 255 255
255 255 255
255 255 255
255 255 255
255 255 255
255 255 255
255 255 255
255 255 255
255 255 255
255 255 255
255 255 255
255 255 255
255 255 255
255 255 255
255 255 255
255 255 255
255 255 255
255 255 255
255 255 255
255 255 255
255 255 255
255 255 255
238 238 238
190 190 190
155 155 155
142 142 142
172 172 172
155 155 155
199 199 199
182 182 182
188 188 188
152 152 152
131 131 131
120 120 120
106 106 106
123 123 123
107 107 107
104 104 104
105 105 105
122 122 122
159 159 159
155 155 155
155 155 155
154 154 154
154 154 154
152 152 152
152 152 152
149 149 149
143 143 143
126 126 126
125 125 125
182 182 182
222 222 222
220 220 220
221 221 221
221 221 221
218 218 218
81 81 81
104 104 104
134 134 134
94 94 94
97 97 97
121 121 121
83 83 83
91 91 91
92 92 92
92 92 92
92 92 92
91 91 91
129 129 129
134 134 134
148 148 148
149 149 149
147 147 147
161 161 161
167 167 167
170 170 170
166 166 166
137 137 137
122 122 122
113 113 113
151 151 151
246 246 246
255 255 255
255 255 255
255 255 255
255 255 255
255 255 255
255 255 255
255 255 255
255 255 255
255 255 255
255 255 255
255 255 255
255 255 255
255 255 255
255 255 255
255 255 255
255 255 255
255 255 255
255 255 255
255 255 255
255 255 255
255 255 255
255 255 255
255 255 255
255 255 255
255 255 255
255 255 255
255 255 255
255 255 255
255 255 255
255 255 255
255 255 255
255 255 255
255 255 255
255 255 255
255 255 255
255 255 255
255 255 255
255 255 255
214 214 214
169 169 169
114 114 114
169 169 169
159 159 159
163 163 163
170 170 170
223 223 223
218 218 218
193 193 193
127 127 127
135 135 135
100 100 100
105 105 105
101 101 101
106 106 106
106 106 106
107 107 107
160 160 160
155 155 155
155 155 155
155 155 155
154 154 154
154 154 154
153 153 153
152 152 152
149 149 149
146 146 146
133 133 133
62 62 62
122 122 122
175 175 175
220 220 220
221 221 221
221 221 221
223 223 223
186 186 186
108 108 108
133 133 133
185 185 185
174 174 174
149 149 149
105 105 105
85 85 85
98 98 98
127 127 127
106 106 106
88 88 88
138 138 138
174 174 174
162 162 162
161 161 161
152 152 152
135 135 135
151 151 151
152 152 152
159 159 159
179 179 179
132 132 132
122 122 122
166 166 166
251 251 251
255 255 255
255 255 255
255 255 255
255 255 255
255 255 255
255 255 255
255 255 255
255 255 255
255 255 255
255 255 255
255 255 255
255 255 255
255 255 255
255 255 255
255 255 255
255 255 255
255 255 255
255 255 255
255 255 255
255 255 255
255 255 255
255 255 255
255 255 255
255 255 255
255 255 255
255 255 255
255 255 255
255 255 255
255 255 255
255 255 255
255 255 255
255 255 255
255 255 255
255 255 255
255 255 255
255 255 255
255 255 255
253 253 253
163 163 163
92 92 92
164 164 164
158 158 158
125 125 125
177 177 177
175 175 175
200 200 200
125 125 125
120 120 120
80 80 80
117 117 117
103 103 103
104 104 104
105 105 105
106 106 106
96 96 96
154 154 154
154 154 154
155 155 155
155 155 155
155 155 155
155 155 155
154 154 154
153 153 153
152 152 152
149 149 149
146 146 146
145 145 145
116 116 116
59 59 59
148 148 148
170 170 170
219 219 219
221 221 221
221 221 221
221 221 221
208 208 208
176 176 176
161 161 161
178 178 178
181 181 181
189 189 189
150 150 150
182 182 182
173 173 173
174 174 174
146 146 146
143 143 143
105 105 105
143 143 143
154 154 154
152 152 152
148 148 148
98 98 98
106 106 106
125 125 125
146 146 146
173 173 173
134 134 134
184 184 184
255 255 255
255 255 255
255 255 255
255 255 255
255 255 255
255 255 255
255 255 255
255 255 255
255 255 255
255 255 255
255 255 255
255 255 255
255 255 255
255 255 255
255 255 255
255 255 255
255 255 255
255 255 255
255 255 255
255 255 255
255 255 255
255 255 255
255 255 255
255 255 255
255 255 255
255 255 255
255 255 255
255 255 255
255 255 255
255 255 255
255 255 255
255 255 255
255 255 255
255 255 255
255 255 255
255 255 255
255 255 255
255 255 255
245 245 245
129 129 129
147 147 147
151 151 151
157 157 157
95 95 95
180 180 180
162 162 162
191 191 191
204 204 204
134 134 134
93 93 93
97 97 97
104 104 104
104 104 104
104 104 104
97 97 97
142 142 142
155 155 155
154 154 154
155 155 155
155 155 155
155 155 155
155 155 155
154 154 154
153 153 153
152 152 152
149 149 149
146 146 146
143 143 143
147 147 147
61 61 61
120 120 120
148 148 148
179 179 179
221 221 221
221 221 221
216 216 216
219 219 219
235 235 235
142 142 142
180 180 180
176 176 176
180 180 180
142 142 142
154 154 154
155 155 155
153 153 153
166 166 166
129 129 129
155 155 155
94 94 94
148 148 148
151 151 151
150 150 150
150 150 150
98 98 98
85 85 85
133 133 133
117 117 117
138 138 138
204 204 204
255 255 255
255 255 255
255 255 255
255 255 255
255 255 255
255 255 255
255 255 255
255 255 255
255 255 255
255 255 255
255 255 255
255 255 255
255 255 255
255 255 255
255 255 255
255 255 255
255 255 255
255 255 255
255 255 255
255 255 255
255 255 255
255 255 255
255 255 255
255 255 255
255 255 255
255 255 255
255 255 255
255 255 255
255 255 255
255 255 255
255 255 255
255 255 255
255 255 255
255 255 255
255 255 255
255 255 255
255 255 255
255 255 255
246 246 246
144 144 144
151 151 151
151 151 151
148 148 148
99 99 99
182 182 182
151 151 151
209 209 209
183 183 183
135 135 135
126 126 126
97 97 97
104 104 104
104 104 104
105 105 105
114 114 114
156 156 156
153 153 153
154 154 154
155 155 155
155 155 155
155 155 155
155 155 155
154 154 154
153 153 153
153 153 153
148 148 148
145 145 145
143 143 143
141 141 141
96 96 96
48 48 48
154 154 154
145 145 145
193 193 193
221 221 221
209 209 209
236 236 236
229 229 229
145 145 145
181 181 181
176 176 176
180 180 180
139 139 139
156 156 156
153 153 153
153 153 153
153 153 153
158 158 158
146 146 146
153 153 153
99 99 99
153 153 153
149 149 149
146 146 146
147 147 147
92 92 92
120 120 120
128 128 128
143 143 143
219 219 219
255 255 255
255 255 255
255 255 255
255 255 255
255 255 255
255 255 255
255 255 255
255 255 255
255 255 255
255 255 255
255 255 255
255 255 255
255 255 255
255 255 255
255 255 255
255 255 255
255 255 255
255 255 255
255 255 255
255 255 255
255 255 255
255 255 255
255 255 255
255 255 255
255 255 255
255 255 255
255 255 255
255 255 255
255 255 255
255 255 255
255 255 255
255 255 255
255 255 255
255 255 255
255 255 255
255 255 255
255 255 255
255 255 255
205 205 205
147 147 147
144 144 144
150 150 150
139 139 139
129 129 129
170 170 170
122 122 122
193 193 193
157 157 157
150 150 150
127 127 127
101 101 101
103 103 103
107 107 107
91 91 91
153 153 153
151 151 151
153 153 153
154 154 154
155 155 155
155 155 155
155 155 155
155 155 155
155 155 155
154 154 154
151 151 151
148 148 148
145 145 145
141 141 141
137 137 137
82 82 82
56 56 56
73 73 73
148 148 148
156 156 156
165 165 165
165 165 165
238 238 238
224 224 224
162 162 162
175 175 175
173 173 173
174 174 174
124 124 124
144 144 144
152 152 152
152 152 152
152 152 152
152 152 152
154 154 154
143 143 143
151 151 151
106 106 106
151 151 151
144 144 144
141 141 141
136 136 136
103 103 103
131 131 131
142 142 142
233 233 233
255 255 255
255 255 255
255 255 255
255 255 255
255 255 255
255 255 255
255 255 255
255 255 255
255 255 255
255 255 255
255 255 255
255 255 255
255 255 255
255 255 255
255 255 255
255 255 255
255 255 255
255 255 255
255 255 255
255 255 255
255 255 255
255 255 255
255 255 255
255 255 255
255 255 255
255 255 255
255 255 255
255 255 255
255 255 255
255 255 255
255 255 255
255 255 255
255 255 255
255 255 255
255 255 255
255 255 255
255 255 255
252 252 252
161 161 161
137 137 137
141 141 141
147 147 147
134 134 134
145 145 145
157 157 157
101 101 101
149 149 149
151 151 151
147 147 147
113 113 113
104 104 104
104 104 104
94 94 94
135 135 135
151 151 151
152 152 152
152 152 152
154 154 154
155 155 155
155 155 155
155 155 155
155 155 155
155 155 155
154 154 154
151 151 151
148 148 148
145 145 145
141 141 141
142 142 142
92 92 92
79 79 79
52 52 52
37 37 37
94 94 94
135 135 135
162 162 162
174 174 174
174 174 174
155 155 155
168 168 168
167 167 167
167 167 167
110 110 110
127 127 127
150 150 150
150 150 150
150 150 150
150 150 150
151 151 151
143 143 143
126 126 126
140 140 140
124 124 124
143 143 143
139 139 139
139 139 139
140 140 140
129 129 129
146 146 146
253 253 253
255 255 255
255 255 255
255 255 255
255 255 255
255 255 255
255 255 255
255 255 255
255 255 255
255 255 255
255 255 255
255 255 255
255 255 255
255 255 255
255 255 255
255 255 255
255 255 255
255 255 255
255 255 255
255 255 255
255 255 255
255 255 255
255 255 255
255 255 255
255 255 255
255 255 255
255 255 255
255 255 255
255 255 255
255 255 255
255 255 255
255 255 255
255 255 255
255 255 255
255 255 255
255 255 255
255 255 255
255 255 255
252 252 252
152 152 152
132 132 132
137 137 137
141 141 141
127 127 127
150 150 150
145 145 145
103 103 103
126 126 126
154 154 154
153 153 153
102 102 102
101 101 101
103 103 103
106 106 106
150 150 150
150 150 150
150 150 150
153 153 153
154 154 154
155 155 155
155 155 155
155 155 155
156 156 156
156 156 156
154 154 154
151 151 151
148 148 148
146 146 146
143 143 143
141 141 141
116 116 116
84 84 84
67 67 67
53 53 53
37 37 37
58 58 58
94 94 94
105 105 105
151 151 151
156 156 156
155 155 155
163 163 163
144 144 144
90 90 90
117 117 117
147 147 147
148 148 148
148 148 148
149 149 149
149 149 149
151 151 151
129 129 129
106 106 106
141 141 141
140 140 140
137 137 137
135 135 135
133 133 133
128 128 128
144 144 144
243 243 243
255 255 255
255 255 255
255 255 255
255 255 255
255 255 255
255 255 255
255 255 255
255 255 255
255 255 255
255 255 255
255 255 255
255 255 255
255 255 255
255 255 255
255 255 255
255 255 255
255 255 255
255 255 255
255 255 255
255 255 255
255 255 255
255 255 255
255 255 255
255 255 255
255 255 255
255 255 255
255 255 255
255 255 255
255 255 255
255 255 255
255 255 255
255 255 255
255 255 255
255 255 255
255 255 255
255 255 255
255 255 255
255 255 255
173 173 173
101 101 101
127 127 127
136 136 136
121 121 121
149 149 149
136 136 136
103 103 103
97 97 97
146 146 146
128 128 128
101 101 101
104 104 104
92 92 92
146 146 146
148 148 148
151 151 151
152 152 152
154 154 154
155 155 155
155 155 155
155 155 155
161 161 161
143 143 143
141 141 141
155 155 155
153 153 153
149 149 149
147 147 147
144 144 144
141 141 141
135 135 135
84 84 84
84 84 84
62 62 62
51 51 51
38 38 38
78 78 78
85 85 85
60 60 60
78 78 78
152 152 152
163 163 163
154 154 154
86 86 86
111 111 111
135 135 135
145 145 145
146 146 146
146 146 146
147 147 147
147 147 147
148 148 148
111 111 111
100 100 100
137 137 137
135 135 135
136 136 136
109 109 109
124 124 124
132 132 132
232 232 232
255 255 255
255 255 255
255 255 255
255 255 255
255 255 255
255 255 255
255 255 255
255 255 255
255 255 255
255 255 255
255 255 255
255 255 255
255 255 255
255 255 255
255 255 255
255 255 255
255 255 255
255 255 255
255 255 255
255 255 255
255 255 255
255 255 255
255 255 255
255 255 255
255 255 255
255 255 255
255 255 255
255 255 255
255 255 255
255 255 255
255 255 255
255 255 255
255 255 255
255 255 255
255 255 255
255 255 255
255 255 255
255 255 255
221 221 221
97 97 97
83 83 83
113 113 113
116 116 116
140 140 140
133 133 133
105 105 105
105 105 105
73 73 73
71 71 71
105 105 105
97 97 97
126 126 126
147 147 147
148 148 148
151 151 151
152 152 152
154 154 154
156 156 156
159 159 159
153 153 153
119 119 119
137 137 137
159 159 159
155 155 155
155 155 155
150 150 150
147 147 147
144 144 144
141 141 141
140 140 140
96 96 96
85 85 85
75 75 75
64 64 64
47 47 47
57 57 57
83 83 83
101 101 101
64 64 64
126 126 126
120 120 120
106 106 106
88 88 88
112 112 112
127 127 127
142 142 142
142 142 142
143 143 143
143 143 143
143 143 143
141 141 141
143 143 143
100 100 100
94 94 94
130 130 130
135 135 135
101 101 101
80 80 80
114 114 114
247 247 247
255 255 255
255 255 255
255 255 255
255 255 255
255 255 255
255 255 255
255 255 255
255 255 255
255 255 255
255 255 255
255 255 255
255 255 255
255 255 255
255 255 255
255 255 255
255 255 255
255 255 255
255 255 255
255 255 255
255 255 255
255 255 255
255 255 255
255 255 255
255 255 255
255 255 255
255 255 255
255 255 255
255 255 255
255 255 255
255 255 255
255 255 255
255 255 255
255 255 255
255 255 255
255 255 255
255 255 255
255 255 255
255 255 255
251 251 251
130 130 130
87 87 87
77 77 77
100 100 100
135 135 135
124 124 124
112 112 112
105 105 105
98 98 98
61 61 61
106 106 106
102 102 102
150 150 150
146 146 146
148 148 148
152 152 152
156 156 156
149 149 149
131 131 131
107 107 107
114 114 114
155 155 155
159 159 159
155 155 155
155 155 155
155 155 155
151 151 151
148 148 148
145 145 145
141 141 141
139 139 139
119 119 119
86 86 86
84 84 84
68 68 68
67 67 67
45 45 45
73 73 73
102 102 102
91 91 91
100 100 100
114 114 114
116 116 116
94 94 94
110 110 110
121 121 121
138 138 138
138 138 138
138 138 138
139 139 139
139 139 139
138 138 138
136 136 136
140 140 140
102 102 102
86 86 86
103 103 103
122 122 122
82 82 82
172 172 172
255 255 255
255 255 255
255 255 255
255 255 255
255 255 255
255 255 255
255 255 255
255 255 255
255 255 255
255 255 255
255 255 255
255 255 255
255 255 255
255 255 255
255 255 255
255 255 255
255 255 255
255 255 255
255 255 255
255 255 255
255 255 255
255 255 255
255 255 255
255 255 255
255 255 255
255 255 255
255 255 255
255 255 255
255 255 255
255 255 255
255 255 255
255 255 255
255 255 255
255 255 255
255 255 255
255 255 255
255 255 255
255 255 255
255 255 255
255 255 255
179 179 179
92 92 92
82 82 82
94 94 94
123 123 123
127 127 127
107 107 107
110 110 110
112 112 112
80 80 80
98 98 98
134 134 134
146 146 146
149 149 149
148 148 148
129 129 129
103 103 103
91 91 91
98 98 98
143 143 143
159 159 159
156 156 156
155 155 155
155 155 155
155 155 155
155 155 155
152 152 152
148 148 148
146 146 146
142 142 142
139 139 139
136 136 136
89 89 89
84 84 84
84 84 84
58 58 58
64 64 64
50 50 50
81 81 81
108 108 108
98 98 98
112 112 112
103 103 103
98 98 98
106 106 106
117 117 117
135 135 135
136 136 136
137 137 137
136 136 136
136 136 136
136 136 136
134 134 134
131 131 131
141 141 141
128 128 128
125 125 125
127 127 127
87 87 87
225 225 225
255 255 255
255 255 255
255 255 255
255 255 255
255 255 255
255 255 255
255 255 255
255 255 255
255 255 255
255 255 255
255 255 255
255 255 255
255 255 255
255 255 255
255 255 255
255 255 255
255 255 255
255 255 255
255 255 255
255 255 255
255 255 255
255 255 255
255 255 255
255 255 255
255 255 255
255 255 255
255 255 255
255 255 255
255 255 255
255 255 255
255 255 255
255 255 255
255 255 255
255 255 255
255 255 255
255 255 255
255 255 255
255 255 255
255 255 255
255 255 255
213 213 213
98 98 98
86 86 86
88 88 88
98 98 98
132 132 132
108 108 108
116 116 116
117 117 117
79 79 79
92 92 92
151 151 151
132 132 132
107 107 107
90 90 90
92 92 92
93 93 93
129 129 129
156 156 156
155 155 155
155 155 155
155 155 155
155 155 155
155 155 155
155 155 155
155 155 155
152 152 152
150 150 150
147 147 147
143 143 143
139 139 139
137 137 137
115 115 115
84 84 84
83 83 83
81 81 81
47 47 47
38 38 38
54 54 54
106 106 106
99 99 99
114 114 114
108 108 108
106 106 106
90 90 90
118 118 118
132 132 132
123 123 123
109 109 109
136 136 136
134 134 134
132 132 132
131 131 131
130 130 130
129 129 129
129 129 129
125 125 125
125 125 125
130 130 130
250 250 250
255 255 255
255 255 255
255 255 255
255 255 255
255 255 255
255 255 255
255 255 255
255 255 255
255 255 255
255 255 255
255 255 255
255 255 255
255 255 255
255 255 255
255 255 255
255 255 255
255 255 255
255 255 255
255 255 255
255 255 255
255 255 255
255 255 255
255 255 255
255 255 255
255 255 255
255 255 255
255 255 255
255 255 255
255 255 255
255 255 255
255 255 255
255 255 255
255 255 255
255 255 255
255 255 255
255 255 255
255 255 255
255 255 255
255 255 255
255 255 255
240 240 240
98 98 98
90 90 90
83 83 83
76 76 76
91 91 91
97 97 97
124 124 124
121 121 121
73 73 73
83 83 83
92 92 92
86 86 86
94 94 94
92 92 92
117 117 117
155 155 155
154 154 154
154 154 154
154 154 154
154 154 154
154 154 154
154 154 154
155 155 155
155 155 155
154 154 154
153 153 153
150 150 150
147 147 147
143 143 143
140 140 140
135 135 135
135 135 135
94 94 94
84 84 84
82 82 82
83 83 83
56 56 56
36 36 36
66 66 66
108 108 108
124 124 124
115 115 115
113 113 113
98 98 98
124 124 124
133 133 133
87 87 87
79 79 79
132 132 132
131 131 131
130 130 130
130 130 130
129 129 129
128 128 128
127 127 127
124 124 124
123 123 123
182 182 182
255 255 255
255 255 255
255 255 255
255 255 255
255 255 255
255 255 255
255 255 255
255 255 255
255 255 255
255 255 255
255 255 255
255 255 255
255 255 255
255 255 255
255 255 255
255 255 255
255 255 255
255 255 255
255 255 255
255 255 255
255 255 255
255 255 255
255 255 255
255 255 255
255 255 255
255 255 255
255 255 255
255 255 255
255 255 255
255 255 255
255 255 255
255 255 255
255 255 255
255 255 255
255 255 255
255 255 255
255 255 255
255 255 255
255 255 255
255 255 255
255 255 255
252 252 252
140 140 140
94 94 94
86 86 86
79 79 79
76 76 76
73 73 73
113 113 113
115 115 115
67 67 67
82 82 82
90 90 90
89 89 89
108 108 108
145 145 145
154 154 154
152 152 152
153 153 153
153 153 153
154 154 154
154 154 154
154 154 154
154 154 154
154 154 154
154 154 154
153 153 153
153 153 153
149 149 149
147 147 147
143 143 143
141 141 141
136 136 136
134 134 134
129 129 129
85 85 85
82 82 82
82 82 82
83 83 83
68 68 68
31 31 31
87 87 87
127 127 127
118 118 118
117 117 117
111 111 111
127 127 127
119 119 119
80 80 80
77 77 77
121 121 121
130 130 130
129 129 129
129 129 129
128 128 128
128 128 128
124 124 124
121 121 121
124 124 124
213 213 213
255 255 255
255 255 255
255 255 255
255 255 255
255 255 255
255 255 255
255 255 255
255 255 255
255 255 255
255 255 255
255 255 255
255 255 255
255 255 255
255 255 255
255 255 255
255 255 255
255 255 255
255 255 255
255 255 255
255 255 255
255 255 255
255 255 255
255 255 255
255 255 255
255 255 255
255 255 255
255 255 255
255 255 255
255 255 255
255 255 255
255 255 255
255 255 255
255 255 255
255 255 255
255 255 255
255 255 255
255 255 255
255 255 255
255 255 255
255 255 255
255 255 255
255 255 255
198 198 198
101 101 101
91 91 91
81 81 81
79 79 79
75 75 75
81 81 81
75 75 75
57 57 57
99 99 99
103 103 103
136 136 136
151 151 151
149 149 149
152 152 152
152 152 152
153 153 153
153 153 153
153 153 153
154 154 154
154 154 154
154 154 154
154 154 154
153 153 153
153 153 153
152 152 152
149 149 149
147 147 147
144 144 144
141 141 141
137 137 137
134 134 134
132 132 132
124 124 124
84 84 84
82 82 82
82 82 82
65 65 65
72 72 72
75 75 75
98 98 98
135 135 135
125 125 125
108 108 108
126 126 126
93 93 93
83 83 83
79 79 79
108 108 108
131 131 131
129 129 129
128 128 128
128 128 128
125 125 125
121 121 121
120 120 120
132 132 132
235 235 235
255 255 255
255 255 255
255 255 255
255 255 255
255 255 255
255 255 255
255 255 255
255 255 255
255 255 255
255 255 255
255 255 255
255 255 255
255 255 255
255 255 255
255 255 255
255 255 255
255 255 255
255 255 255
255 255 255
255 255 255
255 255 255
255 255 255
255 255 255
255 255 255
255 255 255
255 255 255
255 255 255
255 255 255
255 255 255
255 255 255
255 255 255
255 255 255
255 255 255
255 255 255
255 255 255
255 255 255
255 255 255
255 255 255
255 255 255
255 255 255
255 255 255
255 255 255
250 250 250
161 161 161
98 98 98
83 83 83
77 77 77
95 95 95
62 62 62
50 50 50
107 107 107
104 104 104
151 151 151
146 146 146
147 147 147
149 149 149
151 151 151
151 151 151
152 152 152
153 153 153
153 153 153
154 154 154
154 154 154
154 154 154
154 154 154
153 153 153
152 152 152
152 152 152
149 149 149
147 147 147
144 144 144
141 141 141
137 137 137
134 134 134
132 132 132
129 129 129
121 121 121
87 87 87
76 76 76
74 74 74
80 80 80
76 76 76
101 101 101
106 106 106
89 89 89
114 114 114
117 117 117
87 87 87
84 84 84
81 81 81
93 93 93
134 134 134
127 127 127
128 128 128
126 126 126
122 122 122
123 123 123
113 113 113
144 144 144
253 253 253
255 255 255
255 255 255
255 255 255
255 255 255
255 255 255
255 255 255
255 255 255
255 255 255
255 255 255
255 255 255
255 255 255
255 255 255
255 255 255
255 255 255
255 255 255
255 255 255
255 255 255
255 255 255
255 255 255
255 255 255
255 255 255
255 255 255
255 255 255
255 255 255
255 255 255
255 255 255
255 255 255
255 255 255
255 255 255
255 255 255
255 255 255
255 255 255
255 255 255
255 255 255
255 255 255
255 255 255
255 255 255
255 255 255
255 255 255
255 255 255
255 255 255
255 255 255
255 255 255
249 249 249
166 166 166
93 93 93
76 76 76
58 58 58
70 70 70
80 80 80
101 101 101
134 134 134
121 121 121
147 147 147
147 147 147
148 148 148
151 151 151
151 151 151
152 152 152
153 153 153
153 153 153
153 153 153
154 154 154
154 154 154
153 153 153
153 153 153
152 152 152
152 152 152
149 149 149
146 146 146
143 143 143
141 141 141
137 137 137
135 135 135
133 133 133
129 129 129
125 125 125
85 85 85
86 86 86
80 80 80
79 79 79
78 78 78
76 76 76
67 67 67
93 93 93
122 122 122
90 90 90
88 88 88
84 84 84
83 83 83
82 82 82
131 131 131
127 127 127
125 125 125
124 124 124
120 120 120
97 97 97
103 103 103
236 236 236
255 255 255
255 255 255
255 255 255
255 255 255
255 255 255
255 255 255
255 255 255
255 255 255
255 255 255
255 255 255
255 255 255
255 255 255
255 255 255
255 255 255
255 255 255
255 255 255
255 255 255
255 255 255
255 255 255
255 255 255
255 255 255
255 255 255
255 255 255
255 255 255
255 255 255
255 255 255
255 255 255
255 255 255
255 255 255
255 255 255
255 255 255
255 255 255
255 255 255
255 255 255
255 255 255
255 255 255
255 255 255
255 255 255
255 255 255
255 255 255
255 255 255
255 255 255
255 255 255
255 255 255
255 255 255
251 251 251
191 191 191
100 100 100
79 79 79
91 91 91
68 68 68
94 94 94
142 142 142
127 127 127
135 135 135
148 148 148
149 149 149
151 151 151
151 151 151
152 152 152
153 153 153
153 153 153
153 153 153
153 153 153
153 153 153
153 153 153
153 153 153
150 150 150
150 150 150
148 148 148
146 146 146
144 144 144
141 141 141
137 137 137
134 134 134
132 132 132
132 132 132
96 96 96
123 123 123
91 91 91
91 91 91
80 80 80
72 72 72
81 81 81
80 80 80
71 71 71
83 83 83
91 91 91
89 89 89
85 85 85
85 85 85
80 80 80
113 113 113
129 129 129
121 121 121
99 99 99
88 88 88
104 104 104
192 192 192
255 255 255
255 255 255
255 255 255
255 255 255
255 255 255
255 255 255
255 255 255
255 255 255
255 255 255
255 255 255
255 255 255
255 255 255
255 255 255
255 255 255
255 255 255
255 255 255
255 255 255
255 255 255
255 255 255
255 255 255
255 255 255
255 255 255
255 255 255
255 255 255
255 255 255
255 255 255
255 255 255
255 255 255
255 255 255
255 255 255
255 255 255
255 255 255
255 255 255
255 255 255
255 255 255
255 255 255
255 255 255
255 255 255
255 255 255
255 255 255
255 255 255
255 255 255
255 255 255
255 255 255
255 255 255
255 255 255
255 255 255
255 255 255
234 234 234
123 123 123
94 94 94
83 83 83
92 92 92
128 128 128
144 144 144
126 126 126
145 145 145
148 148 148
151 151 151
151 151 151
152 152 152
153 153 153
153 153 153
153 153 153
153 153 153
153 153 153
153 153 153
153 153 153
150 150 150
150 150 150
147 147 147
146 146 146
144 144 144
142 142 142
138 138 138
135 135 135
133 133 133
114 114 114
127 127 127
107 107 107
99 99 99
115 115 115
82 82 82
68 68 68
82 82 82
80 80 80
72 72 72
65 65 65
77 77 77
90 90 90
86 86 86
86 86 86
82 82 82
80 80 80
81 81 81
83 83 83
122 122 122
141 141 141
145 145 145
216 216 216
255 255 255
255 255 255
255 255 255
255 255 255
255 255 255
255 255 255
255 255 255
255 255 255
255 255 255
255 255 255
255 255 255
255 255 255
255 255 255
255 255 255
255 255 255
255 255 255
255 255 255
255 255 255
255 255 255
255 255 255
255 255 255
255 255 255
255 255 255
255 255 255
255 255 255
255 255 255
255 255 255
255 255 255
255 255 255
255 255 255
255 255 255
255 255 255
255 255 255
255 255 255
255 255 255
255 255 255
255 255 255
255 255 255
255 255 255
255 255 255
255 255 255
255 255 255
255 255 255
255 255 255
255 255 255
255 255 255
255 255 255
255 255 255
218 218 218
111 111 111
120 120 120
97 97 97
103 103 103
108 108 108
143 143 143
146 146 146
125 125 125
151 151 151
150 150 150
151 151 151
152 152 152
153 153 153
153 153 153
153 153 153
153 153 153
153 153 153
153 153 153
153 153 153
150 150 150
149 149 149
147 147 147
146 146 146
144 144 144
142 142 142
138 138 138
137 137 137
118 118 118
129 129 129
124 124 124
83 83 83
118 118 118
119 119 119
87 87 87
63 63 63
82 82 82
80 80 80
71 71 71
68 68 68
74 74 74
73 73 73
84 84 84
82 82 82
80 80 80
85 85 85
101 101 101
145 145 145
138 138 138
141 141 141
161 161 161
246 246 246
255 255 255
255 255 255
255 255 255
255 255 255
255 255 255
255 255 255
255 255 255
255 255 255
255 255 255
255 255 255
255 255 255
255 255 255
255 255 255
255 255 255
255 255 255
255 255 255
255 255 255
255 255 255
255 255 255
255 255 255
255 255 255
255 255 255
255 255 255
255 255 255
255 255 255
255 255 255
255 255 255
255 255 255
255 255 255
255 255 255
255 255 255
255 255 255
255 255 255
255 255 255
255 255 255
255 255 255
255 255 255
255 255 255
255 255 255
255 255 255
255 255 255
255 255 255
255 255 255
255 255 255
255 255 255
255 255 255
255 255 255
253 253 253
168 168 168
112 112 112
160 160 160
92 92 92
116 116 116
99 99 99
138 138 138
144 144 144
146 146 146
121 121 121
153 153 153
151 151 151
151 151 151
152 152 152
153 153 153
153 153 153
153 153 153
153 153 153
153 153 153
153 153 153
150 150 150
149 149 149
147 147 147
146 146 146
145 145 145
143 143 143
141 141 141
120 120 120
134 134 134
132 132 132
101 101 101
100 100 100
124 124 124
120 120 120
95 95 95
66 66 66
83 83 83
79 79 79
73 73 73
69 69 69
66 66 66
79 79 79
132 132 132
123 123 123
111 111 111
165 165 165
104 104 104
166 166 166
123 123 123
147 147 147
196 196 196
255 255 255
255 255 255
255 255 255
255 255 255
255 255 255
255 255 255
255 255 255
255 255 255
255 255 255
255 255 255
255 255 255
255 255 255
255 255 255
255 255 255
255 255 255
255 255 255
255 255 255
255 255 255
255 255 255
255 255 255
255 255 255
255 255 255
255 255 255
255 255 255
255 255 255
255 255 255
255 255 255
255 255 255
255 255 255
255 255 255
255 255 255
255 255 255
255 255 255
255 255 255
255 255 255
255 255 255
255 255 255
255 255 255
255 255 255
255 255 255
255 255 255
255 255 255
255 255 255
255 255 255
255 255 255
255 255 255
255 255 255
255 255 255
231 231 231
124 124 124
138 138 138
176 176 176
97 97 97
123 123 123
109 109 109
121 121 121
143 143 143
144 144 144
149 149 149
106 106 106
142 142 142
155 155 155
152 152 152
151 151 151
153 153 153
153 153 153
153 153 153
153 153 153
152 152 152
150 150 150
150 150 150
148 148 148
146 146 146
144 144 144
143 143 143
124 124 124
135 135 135
133 133 133
122 122 122
87 87 87
123 123 123
124 124 124
123 123 123
97 97 97
67 67 67
85 85 85
81 81 81
75 75 75
68 68 68
63 63 63
64 64 64
127 127 127
89 89 89
145 145 145
145 145 145
125 125 125
151 151 151
144 144 144
145 145 145
234 234 234
255 255 255
255 255 255
255 255 255
255 255 255
255 255 255
255 255 255
255 255 255
255 255 255
255 255 255
255 255 255
255 255 255
255 255 255
255 255 255
255 255 255
255 255 255
255 255 255
255 255 255
255 255 255
255 255 255
255 255 255
255 255 255
255 255 255
255 255 255
255 255 255
255 255 255
255 255 255
255 255 255
255 255 255
255 255 255
255 255 255
255 255 255
255 255 255
255 255 255
255 255 255
255 255 255
255 255 255
255 255 255
255 255 255
255 255 255
255 255 255
255 255 255
255 255 255
255 255 255
255 255 255
255 255 255
255 255 255
255 255 255
255 255 255
198 198 198
129 129 129
193 193 193
152 152 152
110 110 110
126 126 126
118 118 118
95 95 95
145 145 145
144 144 144
146 146 146
150 150 150
91 91 91
113 113 113
149 149 149
155 155 155
153 153 153
153 153 153
153 153 153
152 152 152
152 152 152
150 150 150
150 150 150
148 148 148
145 145 145
145 145 145
127 127 127
139 139 139
134 134 134
134 134 134
94 94 94
105 105 105
129 129 129
125 125 125
128 128 128
83 83 83
65 65 65
87 87 87
84 84 84
84 84 84
62 62 62
66 66 66
67 67 67
71 71 71
81 81 81
132 132 132
113 113 113
160 160 160
129 129 129
133 133 133
172 172 172
253 253 253
255 255 255
255 255 255
255 255 255
255 255 255
255 255 255
255 255 255
255 255 255
255 255 255
255 255 255
255 255 255
255 255 255
255 255 255
255 255 255
255 255 255
255 255 255
255 255 255
255 255 255
255 255 255
255 255 255
255 255 255
255 255 255
255 255 255
255 255 255
255 255 255
255 255 255
255 255 255
255 255 255
255 255 255
255 255 255
255 255 255
255 255 255
255 255 255
255 255 255
255 255 255
255 255 255
255 255 255
255 255 255
255 255 255
255 255 255
255 255 255
255 255 255
255 255 255
255 255 255
255 255 255
255 255 255
255 255 255
255 255 255
255 255 255
239 239 239
135 135 135
233 233 233
218 218 218
181 181 181
126 126 126
121 121 121
95 95 95
133 133 133
143 143 143
146 146 146
148 148 148
148 148 148
88 88 88
91 91 91
112 112 112
130 130 130
143 143 143
150 150 150
154 154 154
151 151 151
150 150 150
150 150 150
150 150 150
143 143 143
136 136 136
143 143 143
139 139 139
138 138 138
113 113 113
92 92 92
127 127 127
127 127 127
126 126 126
128 128 128
73 73 73
79 79 79
93 93 93
86 86 86
85 85 85
97 97 97
56 56 56
61 61 61
67 67 67
72 72 72
113 113 113
109 109 109
158 158 158
115 115 115
101 101 101
219 219 219
255 255 255
255 255 255
255 255 255
255 255 255
255 255 255
255 255 255
255 255 255
255 255 255
255 255 255
255 255 255
255 255 255
255 255 255
255 255 255
255 255 255
255 255 255
255 255 255
255 255 255
255 255 255
255 255 255
255 255 255
255 255 255
255 255 255
255 255 255
255 255 255
255 255 255
255 255 255
255 255 255
255 255 255
255 255 255
255 255 255
255 255 255
255 255 255
255 255 255
255 255 255
255 255 255
255 255 255
255 255 255
255 255 255
255 255 255
255 255 255
255 255 255
255 255 255
255 255 255
255 255 255
255 255 255
255 255 255
255 255 255
255 255 255
255 255 255
255 255 255
210 210 210
251 251 251
255 255 255
157 157 157
125 125 125
106 106 106
115 115 115
109 109 109
144 144 144
144 144 144
148 148 148
149 149 149
142 142 142
101 101 101
89 89 89
88 88 88
85 85 85
96 96 96
107 107 107
145 145 145
152 152 152
149 149 149
136 136 136
137 137 137
143 143 143
141 141 141
139 139 139
129 129 129
92 92 92
112 112 112
132 132 132
127 127 127
127 127 127
129 129 129
74 74 74
75 75 75
122 122 122
86 86 86
86 86 86
116 116 116
93 93 93
62 62 62
63 63 63
67 67 67
58 58 58
71 71 71
65 65 65
74 74 74
153 153 153
254 254 254
255 255 255
255 255 255
255 255 255
255 255 255
255 255 255
255 255 255
255 255 255
255 255 255
255 255 255
255 255 255
255 255 255
255 255 255
255 255 255
255 255 255
255 255 255
255 255 255
255 255 255
255 255 255
255 255 255
255 255 255
255 255 255
255 255 255
255 255 255
255 255 255
255 255 255
255 255 255
255 255 255
255 255 255
255 255 255
255 255 255
255 255 255
255 255 255
255 255 255
255 255 255
255 255 255
255 255 255
255 255 255
255 255 255
255 255 255
255 255 255
255 255 255
255 255 255
255 255 255
255 255 255
255 255 255
255 255 255
255 255 255
255 255 255
255 255 255
255 255 255
255 255 255
255 255 255
250 250 250
138 138 138
124 124 124
96 96 96
129 129 129
90 90 90
139 139 139
143 143 143
146 146 146
148 148 148
150 150 150
154 154 154
152 152 152
152 152 152
153 153 153
153 153 153
159 159 159
149 149 149
129 129 129
138 138 138
148 148 148
146 146 146
143 143 143
139 139 139
140 140 140
96 96 96
98 98 98
133 133 133
130 130 130
129 129 129
129 129 129
131 131 131
78 78 78
60 60 60
128 128 128
119 119 119
107 107 107
116 116 116
117 117 117
66 66 66
55 55 55
49 49 49
57 57 57
61 61 61
65 65 65
136 136 136
243 243 243
255 255 255
255 255 255
255 255 255
255 255 255
255 255 255
255 255 255
255 255 255
255 255 255
255 255 255
255 255 255
255 255 255
255 255 255
255 255 255
255 255 255
255 255 255
255 255 255
255 255 255
255 255 255
255 255 255
255 255 255
255 255 255
255 255 255
255 255 255
255 255 255
255 255 255
255 255 255
255 255 255
255 255 255
255 255 255
255 255 255
255 255 255
255 255 255
255 255 255
255 255 255
255 255 255
255 255 255
255 255 255
255 255 255
255 255 255
255 255 255
255 255 255
255 255 255
255 255 255
255 255 255
255 255 255
255 255 255
255 255 255
255 255 255
255 255 255
255 255 255
255 255 255
255 255 255
255 255 255
241 241 241
137 137 137
124 124 124
94 94 94
133 133 133
97 97 97
122 122 122
144 144 144
144 144 144
146 146 146
150 150 150
151 151 151
153 153 153
153 153 153
143 143 143
127 127 127
109 109 109
128 128 128
151 151 151
149 149 149
148 148 148
144 144 144
142 142 142
141 141 141
110 110 110
95 95 95
130 130 130
130 130 130
130 130 130
129 129 129
128 128 128
131 131 131
81 81 81
47 47 47
123 123 123
124 124 124
122 122 122
119 119 119
117 117 117
105 105 105
91 91 91
110 110 110
141 141 141
174 174 174
204 204 204
250 250 250
255 255 255
255 255 255
255 255 255
255 255 255
255 255 255
255 255 255
255 255 255
255 255 255
255 255 255
255 255 255
255 255 255
255 255 255
255 255 255
255 255 255
255 255 255
255 255 255
255 255 255
255 255 255
255 255 255
255 255 255
255 255 255
255 255 255
255 255 255
255 255 255
255 255 255
255 255 255
255 255 255
255 255 255
255 255 255
255 255 255
255 255 255
255 255 255
255 255 255
255 255 255
255 255 255
255 255 255
255 255 255
255 255 255
255 255 255
255 255 255
255 255 255
255 255 255
255 255 255
255 255 255
255 255 255
255 255 255
255 255 255
255 255 255
255 255 255
255 255 255
255 255 255
255 255 255
255 255 255
255 255 255
253 253 253
208 208 208
141 141 141
100 100 100
129 129 129
119 119 119
98 98 98
143 143 143
142 142 142
145 145 145
130 130 130
106 106 106
111 111 111
105 105 105
122 122 122
141 141 141
154 154 154
151 151 151
148 148 148
148 148 148
145 145 145
142 142 142
141 141 141
128 128 128
93 93 93
131 131 131
134 134 134
131 131 131
130 130 130
130 130 130
129 129 129
133 133 133
86 86 86
53 53 53
94 94 94
132 132 132
124 124 124
123 123 123
123 123 123
191 191 191
244 244 244
250 250 250
255 255 255
255 255 255
255 255 255
255 255 255
255 255 255
255 255 255
255 255 255
255 255 255
255 255 255
255 255 255
255 255 255
255 255 255
255 255 255
255 255 255
255 255 255
255 255 255
255 255 255
255 255 255
255 255 255
255 255 255
255 255 255
255 255 255
255 255 255
255 255 255
255 255 255
255 255 255
255 255 255
255 255 255
255 255 255
255 255 255
255 255 255
255 255 255
255 255 255
255 255 255
255 255 255
255 255 255
255 255 255
255 255 255
255 255 255
255 255 255
255 255 255
255 255 255
255 255 255
255 255 255
255 255 255
255 255 255
255 255 255
255 255 255
255 255 255
255 255 255
255 255 255
255 255 255
255 255 255
255 255 255
255 255 255
255 255 255
255 255 255
255 255 255
255 255 255
255 255 255
153 153 153
42 42 42
122 122 122
131 131 131
119 119 119
135 135 135
141 141 141
142 142 142
146 146 146
149 149 149
154 154 154
154 154 154
151 151 151
151 151 151
149 149 149
150 150 150
149 149 149
147 147 147
144 144 144
142 142 142
136 136 136
97 97 97
132 132 132
135 135 135
133 133 133
130 130 130
130 130 130
130 130 130
129 129 129
134 134 134
90 90 90
57 57 57
57 57 57
134 134 134
128 128 128
125 125 125
137 137 137
232 232 232
255 255 255
255 255 255
255 255 255
255 255 255
255 255 255
255 255 255
255 255 255
255 255 255
255 255 255
255 255 255
255 255 255
255 255 255
255 255 255
255 255 255
255 255 255
255 255 255
255 255 255
255 255 255
255 255 255
255 255 255
255 255 255
255 255 255
255 255 255
255 255 255
255 255 255
255 255 255
255 255 255
255 255 255
255 255 255
255 255 255
255 255 255
255 255 255
255 255 255
255 255 255
255 255 255
255 255 255
255 255 255
255 255 255
255 255 255
255 255 255
255 255 255
255 255 255
255 255 255
255 255 255
255 255 255
255 255 255
255 255 255
255 255 255
255 255 255
255 255 255
255 255 255
255 255 255
255 255 255
255 255 255
255 255 255
255 255 255
255 255 255
255 255 255
255 255 255
255 255 255
255 255 255
252 252 252
130 130 130
37 37 37
109 109 109
128 128 128
133 133 133
137 137 137
140 140 140
141 141 141
143 143 143
147 147 147
147 147 147
148 148 148
148 148 148
149 149 149
149 149 149
149 149 149
147 147 147
145 145 145
142 142 142
141 141 141
122 122 122
137 137 137
135 135 135
134 134 134
133 133 133
130 130 130
130 130 130
129 129 129
129 129 129
134 134 134
92 92 92
56 56 56
55 55 55
110 110 110
130 130 130
133 133 133
192 192 192
255 255 255
255 255 255
255 255 255
255 255 255
255 255 255
255 255 255
255 255 255
255 255 255
255 255 255
255 255 255
255 255 255
255 255 255
255 255 255
255 255 255
255 255 255
255 255 255
255 255 255
255 255 255
255 255 255
255 255 255
255 255 255
255 255 255
255 255 255
255 255 255
255 255 255
255 255 255
255 255 255
255 255 255
255 255 255
255 255 255
255 255 255
255 255 255
255 255 255
255 255 255
255 255 255
255 255 255
255 255 255
255 255 255
255 255 255
255 255 255
255 255 255
255 255 255
255 255 255
255 255 255
255 255 255
255 255 255
255 255 255
255 255 255
255 255 255
255 255 255
255 255 255
255 255 255
255 255 255
255 255 255
255 255 255
255 255 255
255 255 255
255 255 255
255 255 255
255 255 255
255 255 255
255 255 255
250 250 250
101 101 101
47 47 47
99 99 99
132 132 132
128 128 128
134 134 134
137 137 137
140 140 140
142 142 142
145 145 145
146 146 146
148 148 148
148 148 148
149 149 149
148 148 148
148 148 148
147 147 147
144 144 144
142 142 142
139 139 139
138 138 138
135 135 135
134 134 134
134 134 134
133 133 133
130 130 130
130 130 130
129 129 129
129 129 129
134 134 134
92 92 92
58 58 58
58 58 58
72 72 72
135 135 135
125 125 125
215 215 215
255 255 255
255 255 255
255 255 255
255 255 255
255 255 255
255 255 255
255 255 255
255 255 255
255 255 255
255 255 255
255 255 255
255 255 255
255 255 255
255 255 255
255 255 255
255 255 255
255 255 255
255 255 255
255 255 255
255 255 255
255 255 255
255 255 255
255 255 255
255 255 255
255 255 255
255 255 255
255 255 255
255 255 255
255 255 255
255 255 255
255 255 255
255 255 255
255 255 255
255 255 255
255 255 255
255 255 255
255 255 255
255 255 255
255 255 255
255 255 255
255 255 255
255 255 255
255 255 255
255 255 255
255 255 255
255 255 255
255 255 255
255 255 255
255 255 255
255 255 255
255 255 255
255 255 255
255 255 255
255 255 255
255 255 255
255 255 255
255 255 255
255 255 255
255 255 255
255 255 255
255 255 255
255 255 255
241 241 241
52 52 52
49 49 49
50 50 50
93 93 93
128 128 128
137 137 137
134 134 134
136 136 136
140 140 140
143 143 143
144 144 144
147 147 147
148 148 148
148 148 148
148 148 148
147 147 147
145 145 145
143 143 143
141 141 141
138 138 138
136 136 136
135 135 135
134 134 134
134 134 134
133 133 133
131 131 131
130 130 130
129 129 129
128 128 128
133 133 133
100 100 100
80 80 80
77 77 77
78 78 78
124 124 124
86 86 86
145 145 145
255 255 255
255 255 255
255 255 255
255 255 255
255 255 255
255 255 255
255 255 255
255 255 255
255 255 255
255 255 255
255 255 255
255 255 255
255 255 255
255 255 255
255 255 255
255 255 255
255 255 255
255 255 255
255 255 255
255 255 255
255 255 255
255 255 255
255 255 255
255 255 255
255 255 255
255 255 255
255 255 255
255 255 255
255 255 255
255 255 255
255 255 255
255 255 255
255 255 255
255 255 255
255 255 255
255 255 255
255 255 255
255 255 255
255 255 255
255 255 255
255 255 255
255 255 255
255 255 255
255 255 255
255 255 255
255 255 255
255 255 255
255 255 255
255 255 255
255 255 255
255 255 255
255 255 255
255 255 255
255 255 255
255 255 255
255 255 255
255 255 255
255 255 255
255 255 255
255 255 255
255 255 255
255 255 255
227 227 227
50 50 50
48 48 48
48 48 48
41 41 41
38 38 38
90 90 90
129 129 129
141 141 141
139 139 139
141 141 141
143 143 143
145 145 145
146 146 146
147 147 147
147 147 147
145 145 145
143 143 143
141 141 141
140 140 140
139 139 139
135 135 135
135 135 135
135 135 135
133 133 133
137 137 137
135 135 135
128 128 128
122 122 122
120 120 120
122 122 122
93 93 93
86 86 86
87 87 87
87 87 87
75 75 75
88 88 88
82 82 82
225 225 225
255 255 255
255 255 255
255 255 255
255 255 255
255 255 255
255 255 255
255 255 255
255 255 255
255 255 255
255 255 255
255 255 255
255 255 255
255 255 255
255 255 255
255 255 255
255 255 255
255 255 255
255 255 255
255 255 255
255 255 255
255 255 255
255 255 255
255 255 255
255 255 255
255 255 255
255 255 255
255 255 255
255 255 255
255 255 255
255 255 255
255 255 255
255 255 255
255 255 255
255 255 255
255 255 255
255 255 255
255 255 255
255 255 255
255 255 255
255 255 255
255 255 255
255 255 255
255 255 255
255 255 255
255 255 255
255 255 255
255 255 255
255 255 255
255 255 255
255 255 255
255 255 255
255 255 255
255 255 255
255 255 255
255 255 255
255 255 255
255 255 255
255 255 255
255 255 255
255 255 255
255 255 255
206 206 206
51 51 51
49 49 49
49 49 49
49 49 49
49 49 49
47 47 47
42 42 42
79 79 79
122 122 122
146 146 146
146 146 146
142 142 142
144 144 144
145 145 145
145 145 145
144 144 144
143 143 143
140 140 140
140 140 140
136 136 136
135 135 135
138 138 138
144 144 144
130 130 130
103 103 103
66 66 66
50 50 50
51 51 51
51 51 51
68 68 68
88 88 88
86 86 86
86 86 86
86 86 86
86 86 86
86 86 86
81 81 81
153 153 153
254 254 254
255 255 255
255 255 255
255 255 255
255 255 255
255 255 255
255 255 255
255 255 255
255 255 255
255 255 255
255 255 255
255 255 255
255 255 255
255 255 255
255 255 255
255 255 255
255 255 255
255 255 255
255 255 255
255 255 255
255 255 255
255 255 255
255 255 255
255 255 255
255 255 255
255 255 255
255 255 255
255 255 255
255 255 255
255 255 255
255 255 255
255 255 255
255 255 255
255 255 255
255 255 255
255 255 255
255 255 255
255 255 255
255 255 255
255 255 255
255 255 255
255 255 255
255 255 255
255 255 255
255 255 255
255 255 255
255 255 255
255 255 255
255 255 255
255 255 255
255 255 255
255 255 255
255 255 255
255 255 255
255 255 255
255 255 255
255 255 255
255 255 255
255 255 255
255 255 255
255 255 255
182 182 182
52 52 52
49 49 49
50 50 50
49 49 49
49 49 49
49 49 49
49 49 49
48 48 48
43 43 43
48 48 48
97 97 97
131 131 131
144 144 144
147 147 147
147 147 147
147 147 147
147 147 147
143 143 143
144 144 144
138 138 138
125 125 125
98 98 98
61 61 61
47 47 47
53 53 53
46 46 46
57 57 57
56 56 56
60 60 60
72 72 72
88 88 88
86 86 86
87 87 87
86 86 86
86 86 86
86 86 86
87 87 87
66 66 66
228 228 228
255 255 255
255 255 255
255 255 255
255 255 255
255 255 255
255 255 255
255 255 255
255 255 255
255 255 255
255 255 255
255 255 255
255 255 255
255 255 255
255 255 255
255 255 255
255 255 255
255 255 255
255 255 255
255 255 255
255 255 255
255 255 255
255 255 255
255 255 255
255 255 255
255 255 255
255 255 255
255 255 255
255 255 255
255 255 255
255 255 255
255 255 255
255 255 255
255 255 255
255 255 255
255 255 255
255 255 255
255 255 255
255 255 255
255 255 255
255 255 255
255 255 255
255 255 255
255 255 255
255 255 255
255 255 255
255 255 255
255 255 255
255 255 255
255 255 255
255 255 255
255 255 255
255 255 255
255 255 255
255 255 255
255 255 255
255 255 255
255 255 255
255 255 255
255 255 255
255 255 255
157 157 157
52 52 52
50 50 50
50 50 50
51 51 51
51 51 51
51 51 51
50 50 50
50 50 50
49 49 49
50 50 50
48 48 48
40 40 40
46 46 46
61 61 61
76 76 76
86 86 86
88 88 88
78 78 78
65 65 65
49 49 49
48 48 48
53 53 53
56 56 56
56 56 56
56 56 56
52 52 52
66 66 66
85 85 85
88 88 88
89 89 89
87 87 87
87 87 87
87 87 87
87 87 87
87 87 87
86 86 86
88 88 88
66 66 66
138 138 138
254 254 254
255 255 255
255 255 255
255 255 255
255 255 255
255 255 255
255 255 255
255 255 255
255 255 255
255 255 255
255 255 255
255 255 255
255 255 255
255 255 255
255 255 255
255 255 255
255 255 255
255 255 255
255 255 255
255 255 255
255 255 255
255 255 255
255 255 255
255 255 255
255 255 255
255 255 255
255 255 255
255 255 255
255 255 255
255 255 255
255 255 255
255 255 255
255 255 255
255 255 255
255 255 255
255 255 255
255 255 255
255 255 255
255 255 255
255 255 255
255 255 255
255 255 255
255 255 255
255 255 255
255 255 255
255 255 255
255 255 255
255 255 255
255 255 255
255 255 255
255 255 255
255 255 255
255 255 255
255 255 255
255 255 255
255 255 255
255 255 255
255 255 255
255 255 255
255 255 255
128 128 128
51 51 51
51 51 51
58 58 58
52 52 52
53 53 53
53 53 53
53 53 53
53 53 53
52 52 52
53 53 53
53 53 53
52 52 52
52 52 52
51 51 51
51 51 51
53 53 53
52 52 52
52 52 52
54 54 54
51 51 51
55 55 55
55 55 55
56 56 56
58 58 58
61 61 61
55 55 55
87 87 87
89 89 89
89 89 89
89 89 89
88 88 88
88 88 88
88 88 88
88 88 88
87 87 87
87 87 87
87 87 87
74 74 74
63 63 63
215 215 215
255 255 255
255 255 255
255 255 255
255 255 255
255 255 255
255 255 255
255 255 255
255 255 255
255 255 255
255 255 255
255 255 255
255 255 255
255 255 255
255 255 255
255 255 255
255 255 255
255 255 255
255 255 255
255 255 255
255 255 255
255 255 255
255 255 255
255 255 255
255 255 255
255 255 255
255 255 255
255 255 255
255 255 255
255 255 255
255 255 255
255 255 255
255 255 255
255 255 255
255 255 255
255 255 255
255 255 255
255 255 255
255 255 255
255 255 255
255 255 255
255 255 255
255 255 255
255 255 255
255 255 255
255 255 255
255 255 255
255 255 255
255 255 255
255 255 255
255 255 255
255 255 255
255 255 255
255 255 255
255 255 255
255 255 255
255 255 255
255 255 255
255 255 255
252 252 252
98 98 98
52 52 52
53 53 53
66 66 66
53 53 53
53 53 53
54 54 54
54 54 54
54 54 54
54 54 54
54 54 54
54 54 54
54 54 54
53 53 53
53 53 53
54 54 54
53 53 53
60 60 60
56 56 56
54 54 54
80 80 80
86 86 86
83 83 83
83 83 83
87 87 87
87 87 87
58 58 58
91 91 91
89 89 89
89 89 89
89 89 89
88 88 88
88 88 88
88 88 88
88 88 88
88 88 88
87 87 87
88 88 88
80 80 80
52 52 52
122 122 122
249 249 249
255 255 255
255 255 255
255 255 255
255 255 255
255 255 255
255 255 255
255 255 255
255 255 255
255 255 255
255 255 255
255 255 255
255 255 255
255 255 255
255 255 255
255 255 255
255 255 255
255 255 255
255 255 255
255 255 255
255 255 255
255 255 255
255 255 255
255 255 255
255 255 255
255 255 255
255 255 255
255 255 255
255 255 255
255 255 255
255 255 255
255 255 255
255 255 255
255 255 255
255 255 255
255 255 255
255 255 255
255 255 255
255 255 255
255 255 255
255 255 255
255 255 255
255 255 255
255 255 255
255 255 255
255 255 255
255 255 255
255 255 255
255 255 255
255 255 255
255 255 255
255 255 255
255 255 255
255 255 255
255 255 255
255 255 255
255 255 255
255 255 255
240 240 240
81 81 81
53 53 53
55 55 55
77 77 77
53 53 53
55 55 55
55 55 55
55 55 55
55 55 55
55 55 55
55 55 55
55 55 55
55 55 55
53 53 53
56 56 56
67 67 67
82 82 82
86 86 86
57 57 57
54 54 54
93 93 93
92 92 92
92 92 92
93 93 93
93 93 93
87 87 87
60 60 60
92 92 92
91 91 91
90 90 90
89 89 89
89 89 89
89 89 89
89 89 89
89 89 89
89 89 89
87 87 87
87 87 87
85 85 85
54 54 54
55 55 55
198 198 198
255 255 255
255 255 255
255 255 255
255 255 255
255 255 255
255 255 255
255 255 255
255 255 255
255 255 255
255 255 255
255 255 255
255 255 255
255 255 255
255 255 255
255 255 255
255 255 255
255 255 255
255 255 255
255 255 255
255 255 255
255 255 255
255 255 255
255 255 255
255 255 255
255 255 255
255 255 255
255 255 255
255 255 255
255 255 255
255 255 255
255 255 255
255 255 255
255 255 255
255 255 255
255 255 255
255 255 255
255 255 255
255 255 255
255 255 255
255 255 255
255 255 255
255 255 255
255 255 255
255 255 255
255 255 255
255 255 255
255 255 255
255 255 255
255 255 255
255 255 255
255 255 255
255 255 255
255 255 255
255 255 255
255 255 255
255 255 255
255 255 255
226 226 226
66 66 66
54 54 54
55 55 55
84 84 84
56 56 56
62 62 62
66 66 66
56 56 56
57 57 57
56 56 56
54 54 54
56 56 56
62 62 62
76 76 76
86 86 86
90 90 90
91 91 91
69 69 69
59 59 59
70 70 70
94 94 94
93 93 93
94 94 94
93 93 93
93 93 93
91 91 91
57 57 57
91 91 91
92 92 92
91 91 91
91 91 91
90 90 90
90 90 90
90 90 90
90 90 90
90 90 90
89 89 89
88 88 88
88 88 88
59 59 59
54 54 54
88 88 88
239 239 239
255 255 255
255 255 255
255 255 255
255 255 255
255 255 255
255 255 255
255 255 255
255 255 255
255 255 255
255 255 255
255 255 255
255 255 255
255 255 255
255 255 255
255 255 255
255 255 255
255 255 255
255 255 255
255 255 255
255 255 255
255 255 255
255 255 255
255 255 255
255 255 255
255 255 255
255 255 255
255 255 255
255 255 255
255 255 255
255 255 255
255 255 255
255 255 255
255 255 255
255 255 255
255 255 255
255 255 255
255 255 255
255 255 255
255 255 255
255 255 255
255 255 255
255 255 255
255 255 255
255 255 255
255 255 255
255 255 255
255 255 255
255 255 255
255 255 255
255 255 255
255 255 255
255 255 255
255 255 255
255 255 255
255 255 255
255 255 255
205 205 205
53 53 53
54 54 54
56 56 56
85 85 85
63 63 63
59 59 59
88 88 88
81 81 81
74 74 74
75 75 75
80 80 80
86 86 86
90 90 90
88 88 88
88 88 88
89 89 89
88 88 88
59 59 59
59 59 59
83 83 83
94 94 94
94 94 94
94 94 94
94 94 94
93 93 93
91 91 91
58 58 58
90 90 90
92 92 92
92 92 92
91 91 91
90 90 90
90 90 90
90 90 90
90 90 90
90 90 90
89 89 89
89 89 89
88 88 88
65 65 65
55 55 55
56 56 56
166 166 166
254 254 254
255 255 255
255 255 255
255 255 255
255 255 255
255 255 255
255 255 255
255 255 255
255 255 255
255 255 255
255 255 255
255 255 255
255 255 255
255 255 255
255 255 255
255 255 255
255 255 255
255 255 255
255 255 255
255 255 255
255 255 255
255 255 255
255 255 255
255 255 255
255 255 255
255 255 255
255 255 255
255 255 255
255 255 255
255 255 255
255 255 255
255 255 255
255 255 255
255 255 255
255 255 255
255 255 255
255 255 255
255 255 255
255 255 255
255 255 255
255 255 255
255 255 255
255 255 255
255 255 255
255 255 255
255 255 255
255 255 255
255 255 255
255 255 255
255 255 255
255 255 255
255 255 255
255 255 255
255 255 255
255 255 255
255 255 255
188 188 188
53 53 53
54 54 54
56 56 56
85 85 85
73 73 73
55 55 55
83 83 83
86 86 86
88 88 88
88 88 88
87 87 87
87 87 87
89 89 89
89 89 89
90 90 90
89 89 89
79 79 79
58 58 58
59 59 59
90 90 90
95 95 95
95 95 95
95 95 95
94 94 94
94 94 94
92 92 92
61 61 61
89 89 89
93 93 93
93 93 93
92 92 92
92 92 92
90 90 90
90 90 90
90 90 90
90 90 90
89 89 89
89 89 89
89 89 89
71 71 71
56 56 56
55 55 55
67 67 67
223 223 223
255 255 255
255 255 255
255 255 255
255 255 255
255 255 255
255 255 255
255 255 255
255 255 255
255 255 255
255 255 255
255 255 255
255 255 255
255 255 255
255 255 255
255 255 255
255 255 255
255 255 255
255 255 255
255 255 255
255 255 255
255 255 255
255 255 255
255 255 255
255 255 255
255 255 255
255 255 255
255 255 255
255 255 255
255 255 255
255 255 255
255 255 255
255 255 255
255 255 255
255 255 255
255 255 255
255 255 255
255 255 255
255 255 255
255 255 255
255 255 255
255 255 255
255 255 255
255 255 255
255 255 255
255 255 255
255 255 255
255 255 255
255 255 255
255 255 255
255 255 255
255 255 255
255 255 255
255 255 255
255 255 255
255 255 255
164 164 164
54 54 54
54 54 54
57 57 57
84 84 84
81 81 81
51 51 51
80 80 80
87 87 87
87 87 87
88 88 88
88 88 88
89 89 89
90 90 90
90 90 90
90 90 90
92 92 92
65 65 65
60 60 60
62 62 62
96 96 96
95 95 95
95 95 95
95 95 95
95 95 95
95 95 95
95 95 95
62 62 62
86 86 86
93 93 93
93 93 93
93 93 93
92 92 92
91 91 91
91 91 91
91 91 91
91 91 91
90 90 90
89 89 89
89 89 89
78 78 78
55 55 55
55 55 55
53 53 53
143 143 143
251 251 251
255 255 255
255 255 255
255 255 255
255 255 255
255 255 255
255 255 255
255 255 255
255 255 255
255 255 255
255 255 255
255 255 255
255 255 255
255 255 255
255 255 255
255 255 255
255 255 255
255 255 255
255 255 255
255 255 255
255 255 255
255 255 255
255 255 255
255 255 255
255 255 255
255 255 255
255 255 255
255 255 255
255 255 255
255 255 255
255 255 255
255 255 255
255 255 255
255 255 255
255 255 255
255 255 255
255 255 255
255 255 255
255 255 255
255 255 255
255 255 255
255 255 255
255 255 255
255 255 255
255 255 255
255 255 255
255 255 255
255 255 255
255 255 255
255 255 255
255 255 255
255 255 255
255 255 255
255 255 255
252 252 252
132 132 132
54 54 54
54 54 54
57 57 57
84 84 84
85 85 85
56 56 56
70 70 70
88 88 88
86 86 86
88 88 88
89 89 89
90 90 90
90 90 90
90 90 90
91 91 91
87 87 87
59 59 59
60 60 60
69 69 69
98 98 98
96 96 96
96 96 96
96 96 96
96 96 96
96 96 96
97 97 97
65 65 65
85 85 85
94 94 94
93 93 93
93 93 93
92 92 92
92 92 92
92 92 92
92 92 92
92 92 92
90 90 90
90 90 90
89 89 89
84 84 84
57 57 57
57 57 57
53 53 53
90 90 90
209 209 209
255 255 255
255 255 255
255 255 255
255 255 255
255 255 255
255 255 255
255 255 255
255 255 255
255 255 255
255 255 255
255 255 255
255 255 255
255 255 255
255 255 255
255 255 255
255 255 255
255 255 255
255 255 255
255 255 255
255 255 255
255 255 255
255 255 255
255 255 255
255 255 255
255 255 255
255 255 255
255 255 255
255 255 255
255 255 255
255 255 255
255 255 255
255 255 255
255 255 255
255 255 255
255 255 255
255 255 255
255 255 255
255 255 255
255 255 255
255 255 255
255 255 255
255 255 255
255 255 255
255 255 255
255 255 255
255 255 255
255 255 255
255 255 255
255 255 255
255 255 255
255 255 255
255 255 255
255 255 255
248 248 248
89 89 89
53 53 53
54 54 54
57 57 57
84 84 84
86 86 86
69 69 69
59 59 59
89 89 89
87 87 87
90 90 90
91 91 91
91 91 91
91 91 91
91 91 91
92 92 92
74 74 74
59 59 59
61 61 61
80 80 80
97 97 97
97 97 97
97 97 97
97 97 97
96 96 96
96 96 96
97 97 97
66 66 66
86 86 86
94 94 94
94 94 94
94 94 94
93 93 93
93 93 93
93 93 93
92 92 92
92 92 92
90 90 90
90 90 90
89 89 89
87 87 87
58 58 58
57 57 57
61 61 61
61 61 61
149 149 149
242 242 242
255 255 255
255 255 255
255 255 255
255 255 255
255 255 255
255 255 255
255 255 255
255 255 255
255 255 255
255 255 255
255 255 255
255 255 255
255 255 255
255 255 255
255 255 255
255 255 255
255 255 255
255 255 255
255 255 255
255 255 255
255 255 255
255 255 255
255 255 255
255 255 255
255 255 255
255 255 255
255 255 255
255 255 255
255 255 255
255 255 255
255 255 255
255 255 255
255 255 255
255 255 255
255 255 255
255 255 255
255 255 255
255 255 255
255 255 255
255 255 255
255 255 255
255 255 255
255 255 255
255 255 255
255 255 255
255 255 255
255 255 255
255 255 255
255 255 255
255 255 255
255 255 255
255 255 255
235 235 235
52 52 52
53 53 53
54 54 54
57 57 57
84 84 84
85 85 85
79 79 79
48 48 48
87 87 87
89 89 89
90 90 90
91 91 91
91 91 91
91 91 91
92 92 92
92 92 92
60 60 60
59 59 59
58 58 58
91 91 91
96 96 96
97 97 97
97 97 97
97 97 97
97 97 97
96 96 96
99 99 99
70 70 70
85 85 85
95 95 95
94 94 94
94 94 94
94 94 94
93 93 93
93 93 93
93 93 93
92 92 92
91 91 91
90 90 90
89 89 89
89 89 89
60 60 60
58 58 58
70 70 70
59 59 59
123 123 123
182 182 182
255 255 255
255 255 255
255 255 255
255 255 255
255 255 255
255 255 255
255 255 255
255 255 255
255 255 255
255 255 255
255 255 255
255 255 255
255 255 255
255 255 255
255 255 255
255 255 255
255 255 255
255 255 255
255 255 255
255 255 255
255 255 255
255 255 255
255 255 255
255 255 255
255 255 255
255 255 255
255 255 255
255 255 255
255 255 255
255 255 255
255 255 255
255 255 255
255 255 255
255 255 255
255 255 255
255 255 255
255 255 255
255 255 255
255 255 255
255 255 255
255 255 255
255 255 255
255 255 255
255 255 255
255 255 255
255 255 255
255 255 255
255 255 255
255 255 255
255 255 255
255 255 255
255 255 255
214 214 214
55 55 55
53 53 53
54 54 54
56 56 56
84 84 84
85 85 85
85 85 85
50 50 50
80 80 80
89 89 89
91 91 91
92 92 92
92 92 92
91 91 91
93 93 93
81 81 81
55 55 55
58 58 58
59 59 59
96 96 96
96 96 96
97 97 97
97 97 97
97 97 97
97 97 97
97 97 97
99 99 99
74 74 74
84 84 84
96 96 96
95 95 95
95 95 95
94 94 94
94 94 94
94 94 94
93 93 93
93 93 93
92 92 92
92 92 92
91 91 91
90 90 90
63 63 63
60 60 60
68 68 68
76 76 76
102 102 102
140 140 140
227 227 227
255 255 255
255 255 255
255 255 255
255 255 255
255 255 255
255 255 255
255 255 255
255 255 255
255 255 255
255 255 255
255 255 255
255 255 255
255 255 255
255 255 255
255 255 255
255 255 255
255 255 255
255 255 255
255 255 255
255 255 255
255 255 255
255 255 255
255 255 255
255 255 255
255 255 255
255 255 255
255 255 255
255 255 255
255 255 255
255 255 255
255 255 255
255 255 255
255 255 255
255 255 255
255 255 255
255 255 255
255 255 255
255 255 255
255 255 255
255 255 255
255 255 255
255 255 255
255 255 255
255 255 255
255 255 255
255 255 255
255 255 255
255 255 255
255 255 255
255 255 255
255 255 255
191 191 191
54 54 54
53 53 53
53 53 53
55 55 55
83 83 83
85 85 85
88 88 88
65 65 65
68 68 68
91 91 91
91 91 91
92 92 92
92 92 92
92 92 92
93 93 93
60 60 60
56 56 56
57 57 57
65 65 65
99 99 99
97 97 97
97 97 97
97 97 97
98 98 98
98 98 98
98 98 98
99 99 99
78 78 78
82 82 82
97 97 97
97 97 97
97 97 97
95 95 95
95 95 95
95 95 95
94 94 94
94 94 94
92 92 92
92 92 92
91 91 91
92 92 92
66 66 66
60 60 60
65 65 65
87 87 87
82 82 82
131 131 131
165 165 165
251 251 251
255 255 255
255 255 255
255 255 255
255 255 255
255 255 255
255 255 255
255 255 255
255 255 255
255 255 255
255 255 255
255 255 255
255 255 255
255 255 255
255 255 255
255 255 255
255 255 255
255 255 255
255 255 255
255 255 255
255 255 255
255 255 255
255 255 255
255 255 255
255 255 255
255 255 255
255 255 255
255 255 255
255 255 255
255 255 255
255 255 255
255 255 255
255 255 255
255 255 255
255 255 255
255 255 255
255 255 255
255 255 255
255 255 255
255 255 255
255 255 255
255 255 255
255 255 255
255 255 255
255 255 255
255 255 255
255 255 255
255 255 255
255 255 255
255 255 255
255 255 255
164 164 164
53 53 53
53 53 53
53 53 53
53 53 53
84 84 84
85 85 85
87 87 87
81 81 81
52 52 52
92 92 92
91 91 91
91 91 91
92 92 92
93 93 93
81 81 81
53 53 53
55 55 55
56 56 56
78 78 78
97 97 97
97 97 97
97 97 97
97 97 97
98 98 98
98 98 98
98 98 98
99 99 99
84 84 84
80 80 80
97 97 97
97 97 97
97 97 97
96 96 96
96 96 96
96 96 96
95 95 95
94 94 94
93 93 93
92 92 92
91 91 91
92 92 92
69 69 69
61 61 61
65 65 65
89 89 89
70 70 70
129 129 129
134 134 134
210 210 210
255 255 255
255 255 255
255 255 255
255 255 255
255 255 255
255 255 255
255 255 255
255 255 255
255 255 255
255 255 255
255 255 255
255 255 255
255 255 255
255 255 255
255 255 255
255 255 255
255 255 255
255 255 255
255 255 255
255 255 255
255 255 255
255 255 255
255 255 255
255 255 255
255 255 255
255 255 255
255 255 255
255 255 255
255 255 255
255 255 255
255 255 255
255 255 255
255 255 255
255 255 255
255 255 255
255 255 255
255 255 255
255 255 255
255 255 255
255 255 255
255 255 255
255 255 255
255 255 255
255 255 255
255 255 255
255 255 255
255 255 255
255 255 255
255 255 255
255 255 255
133 133 133
53 53 53
53 53 53
53 53 53
53 53 53
83 83 83
85 85 85
86 86 86
90 90 90
49 49 49
88 88 88
90 90 90
91 91 91
91 91 91
93 93 93
59 59 59
54 54 54
55 55 55
51 51 51
88 88 88
97 97 97
97 97 97
97 97 97
98 98 98
99 99 99
98 98 98
98 98 98
98 98 98
87 87 87
79 79 79
97 97 97
97 97 97
97 97 97
97 97 97
97 97 97
97 97 97
96 96 96
95 95 95
94 94 94
92 92 92
92 92 92
91 91 91
71 71 71
62 62 62
65 65 65
88 88 88
75 75 75
120 120 120
129 129 129
143 143 143
243 243 243
255 255 255
255 255 255
255 255 255
255 255 255
255 255 255
255 255 255
255 255 255
255 255 255
255 255 255
255 255 255
255 255 255
255 255 255
255 255 255
255 255 255
255 255 255
255 255 255
255 255 255
255 255 255
255 255 255
255 255 255
255 255 255
255 255 255
255 255 255
255 255 255
255 255 255
255 255 255
255 255 255
255 255 255
255 255 255
255 255 255
255 255 255
255 255 255
255 255 255
255 255 255
255 255 255
255 255 255
255 255 255
255 255 255
255 255 255
255 255 255
255 255 255
255 255 255
255 255 255
255 255 255
255 255 255
255 255 255
255 255 255
255 255 255
251 251 251
98 98 98
53 53 53
53 53 53
53 53 53
52 52 52
83 83 83
85 85 85
87 87 87
90 90 90
65 65 65
79 79 79
90 90 90
91 91 91
93 93 93
74 74 74
53 53 53
55 55 55
56 56 56
52 52 52
96 96 96
97 97 97
97 97 97
98 98 98
98 98 98
99 99 99
99 99 99
99 99 99
99 99 99
90 90 90
74 74 74
98 98 98
97 97 97
98 98 98
98 98 98
98 98 98
97 97 97
96 96 96
95 95 95
94 94 94
93 93 93
93 93 93
92 92 92
74 74 74
62 62 62
65 65 65
88 88 88
83 83 83
104 104 104
130 130 130
102 102 102
185 185 185
255 255 255
255 255 255
255 255 255
255 255 255
255 255 255
255 255 255
255 255 255
255 255 255
255 255 255
255 255 255
255 255 255
255 255 255
255 255 255
255 255 255
255 255 255
255 255 255
255 255 255
255 255 255
255 255 255
255 255 255
255 255 255
255 255 255
255 255 255
255 255 255
255 255 255
255 255 255
255 255 255
255 255 255
255 255 255
255 255 255
255 255 255
255 255 255
255 255 255
255 255 255
255 255 255
255 255 255
255 255 255
255 255 255
255 255 255
255 255 255
255 255 255
255 255 255
255 255 255
255 255 255
255 255 255
255 255 255
255 255 255
255 255 255
240 240 240
81 81 81
52 52 52
53 53 53
53 53 53
52 52 52
83 83 83
86 86 86
87 87 87
89 89 89
85 85 85
56 56 56
91 91 91
92 92 92
83 83 83
54 54 54
55 55 55
55 55 55
57 57 57
60 60 60
98 98 98
97 97 97
97 97 97
98 98 98
98 98 98
99 99 99
99 99 99
100 100 100
100 100 100
95 95 95
71 71 71
100 100 100
99 99 99
98 98 98
98 98 98
98 98 98
97 97 97
97 97 97
95 95 95
94 94 94
93 93 93
93 93 93
93 93 93
78 78 78
62 62 62
65 65 65
88 88 88
87 87 87
86 86 86
130 130 130
106 106 106
103 103 103
235 235 235
255 255 255
255 255 255
255 255 255
255 255 255
255 255 255
255 255 255
255 255 255
255 255 255
255 255 255
255 255 255
255 255 255
255 255 255
255 255 255
255 255 255
255 255 255
255 255 255
255 255 255
255 255 255
255 255 255
255 255 255
255 255 255
255 255 255
255 255 255
255 255 255
255 255 255
255 255 255
255 255 255
255 255 255
255 255 255
255 255 255
255 255 255
255 255 255
255 255 255
255 255 255
255 255 255
255 255 255
255 255 255
255 255 255
255 255 255
255 255 255
255 255 255
255 255 255
255 255 255
255 255 255
255 255 255
255 255 255
255 255 255
227 227 227
65 65 65
52 52 52
53 53 53
53 53 53
51 51 51
80 80 80
86 86 86
87 87 87
87 87 87
91 91 91
54 54 54
65 65 65
80 80 80
55 55 55
56 56 56
57 57 57
58 58 58
51 51 51
79 79 79
97 97 97
97 97 97
97 97 97
99 99 99
99 99 99
99 99 99
99 99 99
100 100 100
101 101 101
97 97 97
73 73 73
102 102 102
100 100 100
99 99 99
99 99 99
99 99 99
98 98 98
97 97 97
96 96 96
95 95 95
94 94 94
93 93 93
93 93 93
79 79 79
62 62 62
66 66 66
89 89 89
87 87 87
80 80 80
126 126 126
114 114 114
84 84 84
161 161 161
255 255 255
255 255 255
255 255 255
255 255 255
255 255 255
255 255 255
255 255 255
255 255 255
255 255 255
255 255 255
255 255 255
255 255 255
255 255 255
255 255 255
255 255 255
255 255 255
255 255 255
255 255 255
255 255 255
255 255 255
255 255 255
255 255 255
255 255 255
255 255 255
255 255 255
255 255 255
255 255 255
255 255 255
255 255 255
255 255 255
255 255 255
255 255 255
255 255 255
255 255 255
255 255 255
255 255 255
255 255 255
255 255 255
255 255 255
255 255 255
255 255 255
255 255 255
255 255 255
255 255 255
255 255 255
255 255 255
255 255 255
209 209 209
53 53 53
53 53 53
53 53 53
53 53 53
52 52 52
80 80 80
86 86 86
87 87 87
88 88 88
90 90 90
77 77 77
54 54 54
55 55 55
57 57 57
58 58 58
58 58 58
59 59 59
47 47 47
96 96 96
97 97 97
97 97 97
93 93 93
95 95 95
100 100 100
99 99 99
99 99 99
100 100 100
101 101 101
102 102 102
74 74 74
103 103 103
101 101 101
99 99 99
99 99 99
99 99 99
98 98 98
97 97 97
97 97 97
95 95 95
94 94 94
94 94 94
93 93 93
80 80 80
63 63 63
66 66 66
88 88 88
87 87 87
82 82 82
115 115 115
120 120 120
82 82 82
99 99 99
222 222 222
255 255 255
255 255 255
255 255 255
255 255 255
255 255 255
255 255 255
255 255 255
255 255 255
255 255 255
255 255 255
255 255 255
255 255 255
255 255 255
255 255 255
255 255 255
255 255 255
255 255 255
255 255 255
255 255 255
255 255 255
255 255 255
255 255 255
255 255 255
255 255 255
255 255 255
255 255 255
255 255 255
255 255 255
255 255 255
255 255 255
255 255 255
255 255 255
255 255 255
255 255 255
255 255 255
255 255 255
255 255 255
255 255 255
255 255 255
255 255 255
255 255 255
255 255 255
255 255 255
255 255 255
255 255 255
255 255 255
191 191 191
53 53 53
52 52 52
53 53 53
53 53 53
52 52 52
77 77 77
86 86 86
88 88 88
89 89 89
90 90 90
90 90 90
55 55 55
58 58 58
58 58 58
59 59 59
60 60 60
60 60 60
60 60 60
99 99 99
97 97 97
99 99 99
93 93 93
88 88 88
100 100 100
100 100 100
100 100 100
101 101 101
102 102 102
103 103 103
76 76 76
104 104 104
101 101 101
99 99 99
99 99 99
99 99 99
99 99 99
98 98 98
97 97 97
97 97 97
95 95 95
94 94 94
94 94 94
80 80 80
63 63 63
69 69 69
89 89 89
87 87 87
87 87 87
101 101 101
125 125 125
85 85 85
84 84 84
145 145 145
251 251 251
255 255 255
255 255 255
255 255 255
255 255 255
255 255 255
255 255 255
255 255 255
255 255 255
255 255 255
255 255 255
255 255 255
255 255 255
255 255 255
255 255 255
255 255 255
255 255 255
255 255 255
255 255 255
255 255 255
255 255 255
255 255 255
255 255 255
255 255 255
255 255 255
255 255 255
255 255 255
255 255 255
255 255 255
255 255 255
255 255 255
255 255 255
255 255 255
255 255 255
255 255 255
255 255 255
255 255 255
255 255 255
255 255 255
255 255 255
255 255 255
255 255 255
255 255 255
255 255 255
255 255 255
255 255 255
166 166 166
53 53 53
55 55 55
52 52 52
53 53 53
51 51 51
75 75 75
86 86 86
88 88 88
90 90 90
90 90 90
90 90 90
67 67 67
59 59 59
60 60 60
61 61 61
61 61 61
57 57 57
78 78 78
96 96 96
98 98 98
99 99 99
94 94 94
82 82 82
100 100 100
100 100 100
101 101 101
101 101 101
102 102 102
104 104 104
79 79 79
104 104 104
101 101 101
100 100 100
99 99 99
99 99 99
99 99 99
98 98 98
98 98 98
98 98 98
97 97 97
95 95 95
95 95 95
82 82 82
62 62 62
71 71 71
88 88 88
88 88 88
88 88 88
87 87 87
128 128 128
88 88 88
85 85 85
91 91 91
209 209 209
255 255 255
255 255 255
255 255 255
255 255 255
255 255 255
255 255 255
255 255 255
255 255 255
255 255 255
255 255 255
255 255 255
255 255 255
255 255 255
255 255 255
255 255 255
255 255 255
255 255 255
255 255 255
255 255 255
255 255 255
255 255 255
255 255 255
255 255 255
255 255 255
255 255 255
255 255 255
255 255 255
255 255 255
255 255 255
255 255 255
255 255 255
255 255 255
255 255 255
255 255 255
255 255 255
255 255 255
255 255 255
255 255 255
255 255 255
255 255 255
255 255 255
255 255 255
255 255 255
255 255 255
252 252 252
133 133 133
51 51 51
58 58 58
52 52 52
53 53 53
52 52 52
72 72 72
87 87 87
88 88 88
90 90 90
90 90 90
90 90 90
80 80 80
59 59 59
61 61 61
62 62 62
62 62 62
52 52 52
91 91 91
96 96 96
98 98 98
98 98 98
95 95 95
74 74 74
101 101 101
100 100 100
101 101 101
101 101 101
102 102 102
103 103 103
84 84 84
104 104 104
101 101 101
100 100 100
101 101 101
99 99 99
99 99 99
99 99 99
98 98 98
98 98 98
98 98 98
96 96 96
95 95 95
82 82 82
62 62 62
73 73 73
91 91 91
88 88 88
88 88 88
81 81 81
122 122 122
95 95 95
85 85 85
83 83 83
131 131 131
246 246 246
255 255 255
255 255 255
255 255 255
255 255 255
255 255 255
255 255 255
255 255 255
255 255 255
255 255 255
255 255 255
255 255 255
255 255 255
255 255 255
255 255 255
255 255 255
255 255 255
255 255 255
255 255 255
255 255 255
255 255 255
255 255 255
255 255 255
255 255 255
255 255 255
255 255 255
255 255 255
255 255 255
255 255 255
255 255 255
255 255 255
255 255 255
255 255 255
255 255 255
255 255 255
255 255 255
255 255 255
255 255 255
255 255 255
255 255 255
255 255 255
255 255 255
255 255 255
255 255 255
251 251 251
106 106 106
50 50 50
61 61 61
52 52 52
53 53 53
52 52 52
69 69 69
83 83 83
81 81 81
89 89 89
90 90 90
90 90 90
90 90 90
57 57 57
62 62 62
62 62 62
64 64 64
54 54 54
96 96 96
97 97 97
97 97 97
98 98 98
96 96 96
69 69 69
101 101 101
100 100 100
101 101 101
101 101 101
101 101 101
102 102 102
96 96 96
102 102 102
102 102 102
102 102 102
101 101 101
101 101 101
99 99 99
99 99 99
99 99 99
98 98 98
98 98 98
97 97 97
95 95 95
83 83 83
63 63 63
75 75 75
92 92 92
89 89 89
89 89 89
86 86 86
106 106 106
104 104 104
85 85 85
85 85 85
90 90 90
199 199 199
255 255 255
255 255 255
255 255 255
255 255 255
255 255 255
255 255 255
255 255 255
255 255 255
255 255 255
255 255 255
255 255 255
255 255 255
255 255 255
255 255 255
255 255 255
255 255 255
255 255 255
255 255 255
255 255 255
255 255 255
255 255 255
255 255 255
255 255 255
255 255 255
255 255 255
255 255 255
255 255 255
255 255 255
255 255 255
255 255 255
255 255 255
255 255 255
255 255 255
255 255 255
255 255 255
255 255 255
255 255 255
255 255 255
255 255 255
255 255 255
255 255 255
255 255 255
255 255 255
245 245 245
64 64 64
50 50 50
65 65 65
53 53 53
53 53 53
52 52 52
65 65 65
81 81 81
70 70 70
89 89 89
89 89 89
90 90 90
92 92 92
68 68 68
62 62 62
62 62 62
50 50 50
74 74 74
96 96 96
96 96 96
97 97 97
97 97 97
97 97 97
65 65 65
101 101 101
101 101 101
102 102 102
102 102 102
102 102 102
102 102 102
100 100 100
102 102 102
103 103 103
102 102 102
102 102 102
102 102 102
101 101 101
99 99 99
99 99 99
99 99 99
98 98 98
97 97 97
96 96 96
84 84 84
62 62 62
79 79 79
93 93 93
91 91 91
90 90 90
90 90 90
85 85 85
114 114 114
85 85 85
85 85 85
84 84 84
129 129 129
243 243 243
255 255 255
255 255 255
255 255 255
255 255 255
255 255 255
255 255 255
255 255 255
255 255 255
255 255 255
255 255 255
255 255 255
255 255 255
255 255 255
255 255 255
255 255 255
255 255 255
255 255 255
255 255 255
255 255 255
255 255 255
255 255 255
255 255 255
255 255 255
255 255 255
255 255 255
255 255 255
255 255 255
255 255 255
255 255 255
255 255 255
255 255 255
255 255 255
255 255 255
255 255 255
255 255 255
255 255 255
255 255 255
255 255 255
255 255 255
255 255 255
255 255 255
255 255 255
232 232 232
53 53 53
50 50 50
66 66 66
54 54 54
53 53 53
53 53 53
60 60 60
82 82 82
57 57 57
89 89 89
89 89 89
90 90 90
92 92 92
75 75 75
59 59 59
53 53 53
36 36 36
91 91 91
96 96 96
96 96 96
97 97 97
97 97 97
98 98 98
62 62 62
101 101 101
101 101 101
102 102 102
102 102 102
102 102 102
102 102 102
103 103 103
102 102 102
102 102 102
102 102 102
102 102 102
102 102 102
102 102 102
100 100 100
99 99 99
99 99 99
98 98 98
97 97 97
97 97 97
86 86 86
63 63 63
82 82 82
95 95 95
92 92 92
91 91 91
90 90 90
78 78 78
111 111 111
86 86 86
86 86 86
85 85 85
94 94 94
191 191 191
255 255 255
255 255 255
255 255 255
255 255 255
255 255 255
255 255 255
255 255 255
255 255 255
255 255 255
255 255 255
255 255 255
255 255 255
255 255 255
255 255 255
255 255 255
255 255 255
255 255 255
255 255 255
255 255 255
255 255 255
255 255 255
255 255 255
255 255 255
255 255 255
255 255 255
255 255 255
255 255 255
255 255 255
255 255 255
255 255 255
255 255 255
255 255 255
255 255 255
255 255 255
255 255 255
255 255 255
255 255 255
255 255 255
255 255 255
255 255 255
255 255 255
255 255 255
217 217 217
54 54 54
51 51 51
69 69 69
58 58 58
53 53 53
53 53 53
57 57 57
84 84 84
51 51 51
84 84 84
89 89 89
90 90 90
91 91 91
93 93 93
61 61 61
33 33 33
55 55 55
96 96 96
96 96 96
96 96 96
97 97 97
97 97 97
99 99 99
60 60 60
99 99 99
101 101 101
101 101 101
102 102 102
102 102 102
102 102 102
103 103 103
102 102 102
103 103 103
104 104 104
103 103 103
103 103 103
102 102 102
101 101 101
99 99 99
99 99 99
99 99 99
97 97 97
97 97 97
87 87 87
61 61 61
87 87 87
94 94 94
92 92 92
92 92 92
90 90 90
84 84 84
102 102 102
87 87 87
86 86 86
85 85 85
83 83 83
129 129 129
237 237 237
255 255 255
255 255 255
255 255 255
255 255 255
255 255 255
255 255 255
255 255 255
255 255 255
255 255 255
255 255 255
255 255 255
255 255 255
255 255 255
255 255 255
255 255 255
255 255 255
255 255 255
255 255 255
255 255 255
255 255 255
255 255 255
255 255 255
255 255 255
255 255 255
255 255 255
255 255 255
255 255 255
255 255 255
255 255 255
255 255 255
255 255 255
255 255 255
255 255 255
255 255 255
255 255 255
255 255 255
255 255 255
255 255 255
255 255 255
255 255 255
255 255 255
199 199 199
54 54 54
51 51 51
69 69 69
59 59 59
54 54 54
54 54 54
54 54 54
85 85 85
54 54 54
69 69 69
91 91 91
90 90 90
90 90 90
91 91 91
89 89 89
66 66 66
79 79 79
95 95 95
95 95 95
95 95 95
96 96 96
98 98 98
101 101 101
62 62 62
96 96 96
101 101 101
101 101 101
102 102 102
102 102 102
103 103 103
104 104 104
104 104 104
104 104 104
104 104 104
103 103 103
103 103 103
102 102 102
101 101 101
100 100 100
99 99 99
99 99 99
98 98 98
97 97 97
88 88 88
63 63 63
91 91 91
93 93 93
93 93 93
92 92 92
91 91 91
91 91 91
87 87 87
90 90 90
87 87 87
86 86 86
85 85 85
101 101 101
186 186 186
254 254 254
255 255 255
255 255 255
255 255 255
255 255 255
255 255 255
255 255 255
255 255 255
255 255 255
255 255 255
255 255 255
255 255 255
255 255 255
255 255 255
255 255 255
255 255 255
255 255 255
255 255 255
255 255 255
255 255 255
255 255 255
255 255 255
255 255 255
255 255 255
255 255 255
255 255 255
255 255 255
255 255 255
255 255 255
255 255 255
255 255 255
255 255 255
255 255 255
255 255 255
255 255 255
255 255 255
255 255 255
255 255 255
255 255 255
255 255 255
255 255 255
179 179 179
53 53 53
52 52 52
70 70 70
64 64 64
54 54 54
54 54 54
54 54 54
86 86 86
56 56 56
57 57 57
89 89 89
91 91 91
90 90 90
90 90 90
93 93 93
78 78 78
91 91 91
94 94 94
95 95 95
94 94 94
105 105 105
98 98 98
101 101 101
66 66 66
95 95 95
101 101 101
101 101 101
102 102 102
102 102 102
104 104 104
104 104 104
104 104 104
104 104 104
103 103 103
103 103 103
103 103 103
102 102 102
102 102 102
100 100 100
100 100 100
99 99 99
98 98 98
98 98 98
89 89 89
64 64 64
95 95 95
93 93 93
93 93 93
93 93 93
92 92 92
92 92 92
78 78 78
94 94 94
87 87 87
86 86 86
86 86 86
85 85 85
134 134 134
237 237 237
255 255 255
255 255 255
255 255 255
255 255 255
255 255 255
255 255 255
255 255 255
255 255 255
255 255 255
255 255 255
255 255 255
255 255 255
255 255 255
255 255 255
255 255 255
255 255 255
255 255 255
255 255 255
255 255 255
255 255 255
255 255 255
255 255 255
255 255 255
255 255 255
255 255 255
255 255 255
255 255 255
255 255 255
255 255 255
255 255 255
255 255 255
255 255 255
255 255 255
255 255 255
255 255 255
255 255 255
255 255 255
255 255 255
255 255 255
255 255 255
155 155 155
54 54 54
52 52 52
68 68 68
71 71 71
54 54 54
55 55 55
52 52 52
82 82 82
61 61 61
53 53 53
79 79 79
90 90 90
90 90 90
90 90 90
92 92 92
68 68 68
95 95 95
94 94 94
95 95 95
95 95 95
114 114 114
97 97 97
100 100 100
69 69 69
91 91 91
101 101 101
101 101 101
102 102 102
103 103 103
104 104 104
104 104 104
104 104 104
104 104 104
104 104 104
103 103 103
103 103 103
102 102 102
102 102 102
101 101 101
100 100 100
100 100 100
99 99 99
99 99 99
89 89 89
68 68 68
97 97 97
95 95 95
93 93 93
93 93 93
92 92 92
92 92 92
76 76 76
90 90 90
87 87 87
86 86 86
86 86 86
84 84 84
113 113 113
182 182 182
255 255 255
255 255 255
255 255 255
255 255 255
255 255 255
255 255 255
255 255 255
255 255 255
255 255 255
255 255 255
255 255 255
255 255 255
255 255 255
255 255 255
255 255 255
255 255 255
255 255 255
255 255 255
255 255 255
255 255 255
255 255 255
255 255 255
255 255 255
255 255 255
255 255 255
255 255 255
255 255 255
255 255 255
255 255 255
255 255 255
255 255 255
255 255 255
255 255 255
255 255 255
255 255 255
255 255 255
255 255 255
255 255 255
255 255 255
255 255 255
133 133 133
53 53 53
52 52 52
64 64 64
74 74 74
54 54 54
55 55 55
53 53 53
79 79 79
70 70 70
54 54 54
61 61 61
91 91 91
90 90 90
91 91 91
82 82 82
81 81 81
94 94 94
94 94 94
95 95 95
92 92 92
119 119 119
96 96 96
100 100 100
78 78 78
88 88 88
101 101 101
101 101 101
102 102 102
103 103 103
104 104 104
104 104 104
104 104 104
104 104 104
104 104 104
103 103 103
102 102 102
102 102 102
102 102 102
102 102 102
101 101 101
100 100 100
99 99 99
99 99 99
90 90 90
77 77 77
98 98 98
95 95 95
94 94 94
93 93 93
92 92 92
91 91 91
83 83 83
78 78 78
88 88 88
87 87 87
86 86 86
85 85 85
91 91 91
140 140 140
235 235 235
255 255 255
255 255 255
255 255 255
255 255 255
255 255 255
255 255 255
255 255 255
255 255 255
255 255 255
255 255 255
255 255 255
255 255 255
255 255 255
255 255 255
255 255 255
255 255 255
255 255 255
255 255 255
255 255 255
255 255 255
255 255 255
255 255 255
255 255 255
255 255 255
255 255 255
255 255 255
255 255 255
255 255 255
255 255 255
255 255 255
255 255 255
255 255 255
255 255 255
255 255 255
255 255 255
255 255 255
255 255 255
255 255 255
253 253 253
103 103 103
54 54 54
52 52 52
63 63 63
78 78 78
54 54 54
55 55 55
55 55 55
74 74 74
76 76 76
55 55 55
55 55 55
84 84 84
91 91 91
92 92 92
66 66 66
93 93 93
94 94 94
95 95 95
94 94 94
94 94 94
116 116 116
97 97 97
98 98 98
84 84 84
81 81 81
102 102 102
102 102 102
102 102 102
103 103 103
104 104 104
104 104 104
105 105 105
105 105 105
105 105 105
103 103 103
103 103 103
102 102 102
102 102 102
102 102 102
101 101 101
101 101 101
100 100 100
98 98 98
91 91 91
85 85 85
97 97 97
95 95 95
95 95 95
93 93 93
93 93 93
91 91 91
90 90 90
64 64 64
90 90 90
87 87 87
86 86 86
86 86 86
83 83 83
120 120 120
184 184 184
254 254 254
255 255 255
255 255 255
255 255 255
255 255 255
255 255 255
255 255 255
255 255 255
255 255 255
255 255 255
255 255 255
255 255 255
255 255 255
255 255 255
255 255 255
255 255 255
255 255 255
255 255 255
255 255 255
255 255 255
255 255 255
255 255 255
255 255 255
255 255 255
255 255 255
255 255 255
255 255 255
255 255 255
255 255 255
255 255 255
255 255 255
255 255 255
255 255 255
255 255 255
255 255 255
255 255 255
255 255 255
255 255 255
246 246 246
93 93 93
54 54 54
52 52 52
61 61 61
80 80 80
54 54 54
55 55 55
55 55 55
67 67 67
83 83 83
54 54 54
56 56 56
61 61 61
92 92 92
81 81 81
68 68 68
94 94 94
94 94 94
95 95 95
94 94 94
100 100 100
112 112 112
98 98 98
98 98 98
89 89 89
77 77 77
102 102 102
102 102 102
102 102 102
103 103 103
104 104 104
104 104 104
106 106 106
106 106 106
106 106 106
104 104 104
104 104 104
103 103 103
102 102 102
102 102 102
101 101 101
101 101 101
100 100 100
98 98 98
98 98 98
98 98 98
96 96 96
95 95 95
95 95 95
94 94 94
93 93 93
92 92 92
93 93 93
61 61 61
86 86 86
87 87 87
86 86 86
86 86 86
85 85 85
99 99 99
135 135 135
238 238 238
255 255 255
255 255 255
255 255 255
255 255 255
255 255 255
255 255 255
255 255 255
255 255 255
255 255 255
255 255 255
255 255 255
255 255 255
255 255 255
255 255 255
255 255 255
255 255 255
255 255 255
255 255 255
255 255 255
255 255 255
255 255 255
255 255 255
255 255 255
255 255 255
255 255 255
255 255 255
255 255 255
255 255 255
255 255 255
255 255 255
255 255 255
255 255 255
255 255 255
255 255 255
255 255 255
255 255 255
255 255 255
238 238 238
81 81 81
55 55 55
54 54 54
60 60 60
82 82 82
55 55 55
57 57 57
56 56 56
61 61 61
87 87 87
58 58 58
57 57 57
56 56 56
62 62 62
54 54 54
83 83 83
93 93 93
94 94 94
94 94 94
96 96 96
103 103 103
108 108 108
97 97 97
98 98 98
94 94 94
71 71 71
103 103 103
102 102 102
102 102 102
103 103 103
104 104 104
105 105 105
106 106 106
106 106 106
106 106 106
105 105 105
104 104 104
104 104 104
103 103 103
102 102 102
102 102 102
101 101 101
100 100 100
99 99 99
99 99 99
99 99 99
96 96 96
96 96 96
95 95 95
95 95 95
94 94 94
92 92 92
93 93 93
68 68 68
77 77 77
88 88 88
86 86 86
86 86 86
86 86 86
87 87 87
127 127 127
185 185 185
255 255 255
255 255 255
255 255 255
255 255 255
255 255 255
255 255 255
255 255 255
255 255 255
255 255 255
255 255 255
255 255 255
255 255 255
255 255 255
255 255 255
255 255 255
255 255 255
255 255 255
255 255 255
255 255 255
255 255 255
255 255 255
255 255 255
255 255 255
255 255 255
255 255 255
255 255 255
255 255 255
255 255 255
255 255 255
255 255 255
255 255 255
255 255 255
255 255 255
255 255 255
255 255 255
255 255 255
255 255 255
232 232 232
74 74 74
55 55 55
55 55 55
58 58 58
83 83 83
56 56 56
57 57 57
56 56 56
57 57 57
88 88 88
66 66 66
56 56 56
57 57 57
56 56 56
58 58 58
93 93 93
93 93 93
93 93 93
94 94 94
93 93 93
113 113 113
98 98 98
98 98 98
98 98 98
98 98 98
65 65 65
102 102 102
102 102 102
102 102 102
103 103 103
106 106 106
106 106 106
106 106 106
106 106 106
106 106 106
106 106 106
106 106 106
104 104 104
103 103 103
103 103 103
102 102 102
102 102 102
101 101 101
100 100 100
100 100 100
97 97 97
97 97 97
97 97 97
95 95 95
95 95 95
94 94 94
93 93 93
92 92 92
79 79 79
64 64 64
90 90 90
87 87 87
87 87 87
86 86 86
86 86 86
112 112 112
138 138 138
237 237 237
255 255 255
255 255 255
255 255 255
255 255 255
255 255 255
255 255 255
255 255 255
255 255 255
255 255 255
255 255 255
255 255 255
255 255 255
255 255 255
255 255 255
255 255 255
255 255 255
255 255 255
255 255 255
255 255 255
255 255 255
255 255 255
255 255 255
255 255 255
255 255 255
255 255 255
255 255 255
255 255 255
255 255 255
255 255 255
255 255 255
255 255 255
255 255 255
255 255 255
255 255 255
255 255 255
255 255 255
227 227 227
65 65 65
68 68 68
54 54 54
54 54 54
84 84 84
57 57 57
57 57 57
57 57 57
55 55 55
84 84 84
80 80 80
56 56 56
57 57 57
56 56 56
72 72 72
95 95 95
93 93 93
94 94 94
94 94 94
90 90 90
118 118 118
95 95 95
97 97 97
98 98 98
99 99 99
65 65 65
101 101 101
101 101 101
102 102 102
103 103 103
106 106 106
106 106 106
106 106 106
106 106 106
106 106 106
106 106 106
106 106 106
104 104 104
103 103 103
103 103 103
102 102 102
102 102 102
101 101 101
100 100 100
100 100 100
98 98 98
97 97 97
97 97 97
96 96 96
95 95 95
94 94 94
93 93 93
92 92 92
85 85 85
54 54 54
88 88 88
87 87 87
87 87 87
86 86 86
85 85 85
95 95 95
130 130 130
195 195 195
255 255 255
255 255 255
255 255 255
255 255 255
255 255 255
255 255 255
255 255 255
255 255 255
255 255 255
255 255 255
255 255 255
255 255 255
255 255 255
255 255 255
255 255 255
255 255 255
255 255 255
255 255 255
255 255 255
255 255 255
255 255 255
255 255 255
255 255 255
255 255 255
255 255 255
255 255 255
255 255 255
255 255 255
255 255 255
255 255 255
255 255 255
255 255 255
255 255 255
255 255 255
255 255 255
255 255 255
215 215 215
56 56 56
78 78 78
56 56 56
53 53 53
83 83 83
61 61 61
58 58 58
58 58 58
56 56 56
77 77 77
88 88 88
57 57 57
56 56 56
53 53 53
86 86 86
94 94 94
94 94 94
94 94 94
94 94 94
90 90 90
120 120 120
95 95 95
98 98 98
98 98 98
99 99 99
67 67 67
98 98 98
101 101 101
102 102 102
103 103 103
106 106 106
106 106 106
106 106 106
106 106 106
106 106 106
106 106 106
106 106 106
105 105 105
103 103 103
103 103 103
102 102 102
102 102 102
101 101 101
100 100 100
100 100 100
98 98 98
97 97 97
97 97 97
96 96 96
95 95 95
94 94 94
93 93 93
93 93 93
90 90 90
53 53 53
80 80 80
87 87 87
87 87 87
86 86 86
86 86 86
85 85 85
121 121 121
141 141 141
247 247 247
255 255 255
255 255 255
255 255 255
255 255 255
255 255 255
255 255 255
255 255 255
255 255 255
255 255 255
255 255 255
255 255 255
255 255 255
255 255 255
255 255 255
255 255 255
255 255 255
255 255 255
255 255 255
255 255 255
255 255 255
255 255 255
255 255 255
255 255 255
255 255 255
255 255 255
255 255 255
255 255 255
255 255 255
255 255 255
255 255 255
255 255 255
255 255 255
255 255 255
255 255 255
255 255 255
205 205 205
56 56 56
81 81 81
59 59 59
49 49 49
83 83 83
65 65 65
58 58 58
58 58 58
57 57 57
68 68 68
89 89 89
73 73 73
55 55 55
66 66 66
94 94 94
94 94 94
95 95 95
95 95 95
95 95 95
93 93 93
119 119 119
95 95 95
97 97 97
98 98 98
100 100 100
73 73 73
96 96 96
102 102 102
103 103 103
103 103 103
105 105 105
106 106 106
106 106 106
106 106 106
106 106 106
106 106 106
106 106 106
106 106 106
104 104 104
103 103 103
102 102 102
102 102 102
102 102 102
101 101 101
101 101 101
99 99 99
98 98 98
98 98 98
96 96 96
95 95 95
94 94 94
93 93 93
93 93 93
94 94 94
57 57 57
67 67 67
90 90 90
87 87 87
86 86 86
86 86 86
85 85 85
108 108 108
133 133 133
206 206 206
255 255 255
255 255 255
255 255 255
255 255 255
255 255 255
255 255 255
255 255 255
255 255 255
255 255 255
255 255 255
255 255 255
255 255 255
255 255 255
255 255 255
255 255 255
255 255 255
255 255 255
255 255 255
255 255 255
255 255 255
255 255 255
255 255 255
255 255 255
255 255 255
255 255 255
255 255 255
255 255 255
255 255 255
255 255 255
255 255 255
255 255 255
255 255 255
255 255 255
255 255 255
255 255 255
195 195 195
58 58 58
82 82 82
60 60 60
50 50 50
81 81 81
70 70 70
57 57 57
58 58 58
57 57 57
58 58 58
89 89 89
79 79 79
73 73 73
89 89 89
93 93 93
93 93 93
95 95 95
95 95 95
96 96 96
105 105 105
108 108 108
96 96 96
97 97 97
98 98 98
99 99 99
81 81 81
91 91 91
102 102 102
103 103 103
104 104 104
105 105 105
106 106 106
96 96 96
99 99 99
106 106 106
106 106 106
106 106 106
106 106 106
104 104 104
103 103 103
103 103 103
102 102 102
102 102 102
101 101 101
101 101 101
99 99 99
98 98 98
98 98 98
96 96 96
95 95 95
95 95 95
94 94 94
93 93 93
94 94 94
64 64 64
56 56 56
89 89 89
87 87 87
87 87 87
86 86 86
86 86 86
92 92 92
127 127 127
157 157 157
252 252 252
255 255 255
255 255 255
255 255 255
255 255 255
255 255 255
255 255 255
255 255 255
255 255 255
255 255 255
255 255 255
255 255 255
255 255 255
255 255 255
255 255 255
255 255 255
255 255 255
255 255 255
255 255 255
255 255 255
255 255 255
255 255 255
255 255 255
255 255 255
255 255 255
255 255 255
255 255 255
255 255 255
255 255 255
255 255 255
255 255 255
255 255 255
255 255 255
255 255 255
255 255 255
180 180 180
60 60 60
84 84 84
62 62 62
51 51 51
79 79 79
74 74 74
58 58 58
58 58 58
57 57 57
55 55 55
80 80 80
90 90 90
90 90 90
92 92 92
93 93 93
93 93 93
95 95 95
95 95 95
94 94 94
106 106 106
99 99 99
96 96 96
97 97 97
98 98 98
98 98 98
88 88 88
83 83 83
102 102 102
103 103 103
104 104 104
106 106 106
106 106 106
101 101 101
77 77 77
108 108 108
106 106 106
106 106 106
106 106 106
104 104 104
104 104 104
103 103 103
103 103 103
102 102 102
102 102 102
101 101 101
100 100 100
99 99 99
98 98 98
96 96 96
95 95 95
95 95 95
94 94 94
93 93 93
92 92 92
71 71 71
54 54 54
82 82 82
90 90 90
86 86 86
86 86 86
87 87 87
85 85 85
120 120 120
133 133 133
224 224 224
255 255 255
255 255 255
255 255 255
255 255 255
255 255 255
255 255 255
255 255 255
255 255 255
255 255 255
255 255 255
255 255 255
255 255 255
255 255 255
255 255 255
255 255 255
255 255 255
255 255 255
255 255 255
255 255 255
255 255 255
255 255 255
255 255 255
255 255 255
255 255 255
255 255 255
255 255 255
255 255 255
255 255 255
255 255 255
255 255 255
255 255 255
255 255 255
255 255 255
255 255 255
172 172 172
63 63 63
85 85 85
66 66 66
50 50 50
77 77 77
79 79 79
56 56 56
57 57 57
57 57 57
57 57 57
63 63 63
91 91 91
90 90 90
91 91 91
92 92 92
93 93 93
95 95 95
95 95 95
92 92 92
108 108 108
95 95 95
97 97 97
98 98 98
99 99 99
100 100 100
95 95 95
77 77 77
104 104 104
103 103 103
105 105 105
106 106 106
106 106 106
105 105 105
63 63 63
104 104 104
106 106 106
106 106 106
106 106 106
106 106 106
105 105 105
104 104 104
104 104 104
103 103 103
102 102 102
101 101 101
100 100 100
99 99 99
98 98 98
97 97 97
96 96 96
95 95 95
94 94 94
93 93 93
93 93 93
77 77 77
55 55 55
73 73 73
90 90 90
87 87 87
86 86 86
86 86 86
86 86 86
109 109 109
128 128 128
182 182 182
254 254 254
255 255 255
255 255 255
255 255 255
255 255 255
255 255 255
255 255 255
255 255 255
255 255 255
255 255 255
255 255 255
255 255 255
255 255 255
255 255 255
255 255 255
255 255 255
255 255 255
255 255 255
255 255 255
255 255 255
255 255 255
255 255 255
255 255 255
255 255 255
255 255 255
255 255 255
255 255 255
255 255 255
255 255 255
255 255 255
255 255 255
255 255 255
255 255 255
254 254 254
153 153 153
63 63 63
84 84 84
72 72 72
50 50 50
72 72 72
84 84 84
56 56 56
57 57 57
57 57 57
56 56 56
54 54 54
87 87 87
90 90 90
91 91 91
92 92 92
94 94 94
95 95 95
97 97 97
74 74 74
112 112 112
96 96 96
97 97 97
98 98 98
98 98 98
100 100 100
100 100 100
71 71 71
104 104 104
103 103 103
105 105 105
106 106 106
106 106 106
108 108 108
72 72 72
88 88 88
108 108 108
106 106 106
106 106 106
106 106 106
106 106 106
104 104 104
104 104 104
103 103 103
102 102 102
101 101 101
100 100 100
99 99 99
99 99 99
97 97 97
97 97 97
96 96 96
94 94 94
94 94 94
93 93 93
81 81 81
54 54 54
62 62 62
90 90 90
87 87 87
86 86 86
86 86 86
85 85 85
95 95 95
127 127 127
136 136 136
246 246 246
255 255 255
255 255 255
255 255 255
255 255 255
255 255 255
255 255 255
255 255 255
255 255 255
255 255 255
255 255 255
255 255 255
255 255 255
255 255 255
255 255 255
255 255 255
255 255 255
255 255 255
255 255 255
255 255 255
255 255 255
255 255 255
255 255 255
255 255 255
255 255 255
255 255 255
255 255 255
255 255 255
255 255 255
255 255 255
255 255 255
255 255 255
255 255 255
252 252 252
127 127 127
66 66 66
83 83 83
77 77 77
52 52 52
67 67 67
85 85 85
58 58 58
57 57 57
57 57 57
55 55 55
53 53 53
69 69 69
93 93 93
91 91 91
92 92 92
93 93 93
95 95 95
94 94 94
55 55 55
113 113 113
96 96 96
97 97 97
98 98 98
98 98 98
100 100 100
103 103 103
68 68 68
104 104 104
103 103 103
105 105 105
106 106 106
106 106 106
106 106 106
83 83 83
69 69 69
109 109 109
106 106 106
106 106 106
106 106 106
106 106 106
104 104 104
104 104 104
103 103 103
102 102 102
101 101 101
100 100 100
100 100 100
100 100 100
98 98 98
98 98 98
97 97 97
95 95 95
94 94 94
93 93 93
88 88 88
54 54 54
55 55 55
87 87 87
87 87 87
86 86 86
85 85 85
85 85 85
85 85 85
123 123 123
132 132 132
208 208 208
255 255 255
255 255 255
255 255 255
255 255 255
255 255 255
255 255 255
255 255 255
255 255 255
255 255 255
255 255 255
255 255 255
255 255 255
255 255 255
255 255 255
255 255 255
255 255 255
255 255 255
255 255 255
255 255 255
255 255 255
255 255 255
255 255 255
255 255 255
255 255 255
255 255 255
255 255 255
255 255 255
255 255 255
255 255 255
255 255 255
255 255 255
255 255 255
251 251 251
104 104 104
70 70 70
83 83 83
80 80 80
55 55 55
62 62 62
88 88 88
64 64 64
57 57 57
55 55 55
53 53 53
53 53 53
51 51 51
89 89 89
91 91 91
92 92 92
92 92 92
95 95 95
74 74 74
63 63 63
111 111 111
95 95 95
97 97 97
98 98 98
98 98 98
100 100 100
104 104 104
73 73 73
104 104 104
104 104 104
105 105 105
106 106 106
106 106 106
106 106 106
94 94 94
58 58 58
100 100 100
106 106 106
106 106 106
105 105 105
105 105 105
104 104 104
104 104 104
103 103 103
103 103 103
102 102 102
100 100 100
100 100 100
100 100 100
98 98 98
98 98 98
97 97 97
95 95 95
94 94 94
93 93 93
91 91 91
54 54 54
54 54 54
79 79 79
88 88 88
87 87 87
85 85 85
85 85 85
83 83 83
113 113 113
126 126 126
165 165 165
255 255 255
255 255 255
255 255 255
255 255 255
255 255 255
255 255 255
255 255 255
255 255 255
255 255 255
255 255 255
255 255 255
255 255 255
255 255 255
255 255 255
255 255 255
255 255 255
255 255 255
255 255 255
255 255 255
255 255 255
255 255 255
255 255 255
255 255 255
255 255 255
255 255 255
255 255 255
255 255 255
255 255 255
255 255 255
255 255 255
255 255 255
255 255 255
250 250 250
95 95 95
71 71 71
82 82 82
83 83 83
56 56 56
59 59 59
87 87 87
72 72 72
55 55 55
55 55 55
53 53 53
53 53 53
50 50 50
65 65 65
93 93 93
91 91 91
92 92 92
90 90 90
49 49 49
76 76 76
109 109 109
96 96 96
96 96 96
97 97 97
98 98 98
100 100 100
103 103 103
76 76 76
102 102 102
104 104 104
105 105 105
106 106 106
106 106 106
106 106 106
103 103 103
59 59 59
84 84 84
109 109 109
106 106 106
105 105 105
104 104 104
104 104 104
104 104 104
103 103 103
103 103 103
102 102 102
101 101 101
101 101 101
101 101 101
100 100 100
98 98 98
97 97 97
96 96 96
94 94 94
93 93 93
93 93 93
56 56 56
55 55 55
71 71 71
89 89 89
87 87 87
86 86 86
85 85 85
85 85 85
99 99 99
128 128 128
138 138 138
237 237 237
255 255 255
255 255 255
255 255 255
255 255 255
255 255 255
255 255 255
255 255 255
255 255 255
255 255 255
255 255 255
255 255 255
255 255 255
255 255 255
255 255 255
255 255 255
255 255 255
255 255 255
255 255 255
255 255 255
255 255 255
255 255 255
255 255 255
255 255 255
255 255 255
255 255 255
255 255 255
255 255 255
255 255 255
255 255 255
255 255 255
255 255 255
250 250 250
92 92 92
72 72 72
82 82 82
84 84 84
59 59 59
55 55 55
85 85 85
81 81 81
54 54 54
55 55 55
53 53 53
53 53 53
50 50 50
49 49 49
81 81 81
93 93 93
92 92 92
54 54 54
48 48 48
89 89 89
103 103 103
96 96 96
96 96 96
97 97 97
98 98 98
100 100 100
102 102 102
76 76 76
97 97 97
104 104 104
105 105 105
106 106 106
106 106 106
106 106 106
109 109 109
66 66 66
64 64 64
108 108 108
106 106 106
105 105 105
104 104 104
104 104 104
104 104 104
103 103 103
103 103 103
102 102 102
101 101 101
101 101 101
101 101 101
99 99 99
99 99 99
98 98 98
97 97 97
95 95 95
94 94 94
94 94 94
57 57 57
55 55 55
62 62 62
89 89 89
87 87 87
86 86 86
85 85 85
85 85 85
89 89 89
126 126 126
128 128 128
208 208 208
255 255 255
255 255 255
255 255 255
255 255 255
255 255 255
255 255 255
255 255 255
255 255 255
255 255 255
255 255 255
255 255 255
255 255 255
255 255 255
255 255 255
255 255 255
255 255 255
255 255 255
255 255 255
255 255 255
255 255 255
255 255 255
255 255 255
255 255 255
255 255 255
255 255 255
255 255 255
255 255 255
255 255 255
255 255 255
255 255 255
255 255 255
250 250 250
92 92 92
72 72 72
83 83 83
86 86 86
64 64 64
51 51 51
86 86 86
85 85 85
56 56 56
55 55 55
53 53 53
53 53 53
51 51 51
50 50 50
50 50 50
70 70 70
56 56 56
48 48 48
47 47 47
97 97 97
96 96 96
96 96 96
96 96 96
97 97 97
98 98 98
100 100 100
101 101 101
76 76 76
92 92 92
105 105 105
106 106 106
106 106 106
106 106 106
106 106 106
108 108 108
79 79 79
59 59 59
97 97 97
106 106 106
105 105 105
105 105 105
104 104 104
104 104 104
103 103 103
103 103 103
102 102 102
101 101 101
101 101 101
101 101 101
99 99 99
99 99 99
98 98 98
97 97 97
95 95 95
94 94 94
95 95 95
62 62 62
56 56 56
55 55 55
87 87 87
87 87 87
86 86 86
85 85 85
85 85 85
85 85 85
120 120 120
127 127 127
169 169 169
253 253 253
255 255 255
255 255 255
255 255 255
255 255 255
255 255 255
255 255 255
255 255 255
255 255 255
255 255 255
255 255 255
255 255 255
255 255 255
255 255 255
255 255 255
255 255 255
255 255 255
255 255 255
255 255 255
255 255 255
255 255 255
255 255 255
255 255 255
255 255 255
255 255 255
255 255 255
255 255 255
255 255 255
255 255 255
255 255 255
255 255 255
250 250 250
93 93 93
69 69 69
84 84 84
85 85 85
64 64 64
49 49 49
85 85 85
88 88 88
59 59 59
56 56 56
53 53 53
53 53 53
52 52 52
51 51 51
49 49 49
49 49 49
49 49 49
49 49 49
44 44 44
108 108 108
93 93 93
95 95 95
96 96 96
97 97 97
97 97 97
100 100 100
102 102 102
77 77 77
83 83 83
104 104 104
106 106 106
106 106 106
106 106 106
107 107 107
106 106 106
94 94 94
59 59 59
80 80 80
108 108 108
106 106 106
106 106 106
105 105 105
104 104 104
103 103 103
103 103 103
103 103 103
101 101 101
101 101 101
101 101 101
100 100 100
99 99 99
98 98 98
97 97 97
96 96 96
94 94 94
95 95 95
64 64 64
57 57 57
54 54 54
82 82 82
87 87 87
86 86 86
86 86 86
86 86 86
85 85 85
111 111 111
127 127 127
132 132 132
242 242 242
255 255 255
255 255 255
255 255 255
255 255 255
255 255 255
255 255 255
255 255 255
255 255 255
255 255 255
255 255 255
255 255 255
255 255 255
255 255 255
255 255 255
255 255 255
255 255 255
255 255 255
255 255 255
255 255 255
255 255 255
255 255 255
255 255 255
255 255 255
255 255 255
255 255 255
255 255 255
255 255 255
255 255 255
255 255 255
255 255 255
250 250 250
94 94 94
66 66 66
85 85 85
85 85 85
67 67 67
51 51 51
82 82 82
87 87 87
67 67 67
55 55 55
53 53 53
53 53 53
52 52 52
52 52 52
50 50 50
49 49 49
49 49 49
49 49 49
46 46 46
109 109 109
93 93 93
95 95 95
96 96 96
97 97 97
97 97 97
98 98 98
102 102 102
76 76 76
71 71 71
107 107 107
106 106 106
106 106 106
106 106 106
107 107 107
105 105 105
103 103 103
58 58 58
65 65 65
107 107 107
106 106 106
106 106 106
106 106 106
105 105 105
104 104 104
103 103 103
103 103 103
101 101 101
101 101 101
101 101 101
100 100 100
99 99 99
98 98 98
97 97 97
96 96 96
94 94 94
94 94 94
73 73 73
56 56 56
55 55 55
76 76 76
88 88 88
86 86 86
86 86 86
86 86 86
86 86 86
102 102 102
127 127 127
133 133 133
209 209 209
255 255 255
255 255 255
255 255 255
255 255 255
255 255 255
255 255 255
255 255 255
255 255 255
255 255 255
255 255 255
255 255 255
255 255 255
255 255 255
255 255 255
255 255 255
255 255 255
255 255 255
255 255 255
255 255 255
255 255 255
255 255 255
255 255 255
255 255 255
255 255 255
255 255 255
255 255 255
255 255 255
255 255 255
255 255 255
255 255 255
251 251 251
101 101 101
61 61 61
85 85 85
85 85 85
70 70 70
53 53 53
78 78 78
87 87 87
75 75 75
55 55 55
53 53 53
53 53 53
52 52 52
52 52 52
50 50 50
50 50 50
49 49 49
50 50 50
49 49 49
110 110 110
94 94 94
96 96 96
96 96 96
97 97 97
97 97 97
98 98 98
102 102 102
72 72 72
60 60 60
108 108 108
106 106 106
106 106 106
106 106 106
106 106 106
106 106 106
108 108 108
68 68 68
58 58 58
99 99 99
107 107 107
106 106 106
106 106 106
105 105 105
104 104 104
104 104 104
103 103 103
101 101 101
101 101 101
101 101 101
100 100 100
99 99 99
98 98 98
97 97 97
96 96 96
94 94 94
93 93 93
74 74 74
55 55 55
56 56 56
68 68 68
88 88 88
86 86 86
86 86 86
86 86 86
85 85 85
91 91 91
127 127 127
127 127 127
169 169 169
255 255 255
255 255 255
255 255 255
255 255 255
255 255 255
255 255 255
255 255 255
255 255 255
255 255 255
255 255 255
255 255 255
255 255 255
255 255 255
255 255 255
255 255 255
255 255 255
255 255 255
255 255 255
255 255 255
255 255 255
255 255 255
255 255 255
255 255 255
255 255 255
255 255 255
255 255 255
255 255 255
255 255 255
255 255 255
255 255 255
251 251 251
113 113 113
56 56 56
84 84 84
85 85 85
71 71 71
54 54 54
72 72 72
87 87 87
83 83 83
53 53 53
54 54 54
53 53 53
52 52 52
52 52 52
51 51 51
50 50 50
50 50 50
50 50 50
60 60 60
108 108 108
95 95 95
96 96 96
96 96 96
97 97 97
97 97 97
98 98 98
102 102 102
71 71 71
51 51 51
105 105 105
106 106 106
106 106 106
106 106 106
106 106 106
106 106 106
108 108 108
82 82 82
59 59 59
86 86 86
108 108 108
106 106 106
106 106 106
105 105 105
104 104 104
104 104 104
103 103 103
102 102 102
102 102 102
102 102 102
100 100 100
99 99 99
98 98 98
97 97 97
96 96 96
94 94 94
94 94 94
83 83 83
54 54 54
56 56 56
60 60 60
89 89 89
87 87 87
86 86 86
85 85 85
85 85 85
85 85 85
123 123 123
126 126 126
142 142 142
240 240 240
255 255 255
255 255 255
255 255 255
255 255 255
255 255 255
255 255 255
255 255 255
255 255 255
255 255 255
255 255 255
255 255 255
255 255 255
255 255 255
255 255 255
255 255 255
255 255 255
255 255 255
255 255 255
255 255 255
255 255 255
255 255 255
255 255 255
255 255 255
255 255 255
255 255 255
255 255 255
255 255 255
255 255 255
255 255 255
252 252 252
125 125 125
53 53 53
83 83 83
85 85 85
72 72 72
56 56 56
67 67 67
87 87 87
88 88 88
57 57 57
55 55 55
54 54 54
53 53 53
52 52 52
51 51 51
51 51 51
51 51 51
50 50 50
72 72 72
106 106 106
96 96 96
96 96 96
96 96 96
96 96 96
97 97 97
98 98 98
102 102 102
70 70 70
46 46 46
102 102 102
106 106 106
106 106 106
106 106 106
107 107 107
106 106 106
107 107 107
98 98 98
57 57 57
69 69 69
109 109 109
106 106 106
106 106 106
105 105 105
104 104 104
104 104 104
103 103 103
102 102 102
102 102 102
102 102 102
100 100 100
99 99 99
98 98 98
97 97 97
96 96 96
94 94 94
93 93 93
85 85 85
54 54 54
56 56 56
55 55 55
87 87 87
87 87 87
85 85 85
85 85 85
85 85 85
83 83 83
117 117 117
125 125 125
129 129 129
215 215 215
255 255 255
255 255 255
255 255 255
255 255 255
255 255 255
255 255 255
255 255 255
255 255 255
255 255 255
255 255 255
255 255 255
255 255 255
255 255 255
255 255 255
255 255 255
255 255 255
255 255 255
255 255 255
255 255 255
255 255 255
255 255 255
255 255 255
255 255 255
255 255 255
255 255 255
255 255 255
255 255 255
255 255 255
255 255 255
252 252 252
130 130 130
53 53 53
77 77 77
85 85 85
72 72 72
56 56 56
62 62 62
88 88 88
89 89 89
66 66 66
55 55 55
54 54 54
53 53 53
52 52 52
51 51 51
51 51 51
51 51 51
50 50 50
85 85 85
99 99 99
95 95 95
96 96 96
96 96 96
96 96 96
96 96 96
98 98 98
102 102 102
67 67 67
48 48 48
90 90 90
106 106 106
106 106 106
106 106 106
107 107 107
107 107 107
107 107 107
108 108 108
62 62 62
59 59 59
104 104 104
106 106 106
106 106 106
105 105 105
104 104 104
104 104 104
103 103 103
102 102 102
102 102 102
102 102 102
100 100 100
99 99 99
98 98 98
97 97 97
96 96 96
94 94 94
93 93 93
86 86 86
54 54 54
56 56 56
53 53 53
83 83 83
86 86 86
85 85 85
85 85 85
85 85 85
83 83 83
107 107 107
125 125 125
127 127 127
183 183 183
255 255 255
255 255 255
255 255 255
255 255 255
255 255 255
255 255 255
255 255 255
255 255 255
255 255 255
255 255 255
255 255 255
255 255 255
255 255 255
255 255 255
255 255 255
255 255 255
255 255 255
255 255 255
255 255 255
255 255 255
255 255 255
255 255 255
255 255 255
255 255 255
255 255 255
255 255 255
255 255 255
255 255 255
255 255 255
253 253 253
137 137 137
54 54 54
69 69 69
86 86 86
72 72 72
54 54 54
60 60 60
89 89 89
86 86 86
75 75 75
53 53 53
53 53 53
53 53 53
52 52 52
51 51 51
51 51 51
51 51 51
49 49 49
93 93 93
95 95 95
94 94 94
94 94 94
95 95 95
95 95 95
95 95 95
96 96 96
101 101 101
65 65 65
52 52 52
79 79 79
107 107 107
106 106 106
106 106 106
107 107 107
107 107 107
107 107 107
110 110 110
78 78 78
58 58 58
91 91 91
107 107 107
106 106 106
105 105 105
104 104 104
104 104 104
103 103 103
103 103 103
102 102 102
102 102 102
101 101 101
99 99 99
98 98 98
97 97 97
97 97 97
94 94 94
93 93 93
89 89 89
55 55 55
56 56 56
54 54 54
77 77 77
87 87 87
86 86 86
85 85 85
85 85 85
84 84 84
97 97 97
126 126 126
125 125 125
145 145 145
251 251 251
255 255 255
255 255 255
255 255 255
255 255 255
255 255 255
255 255 255
255 255 255
255 255 255
255 255 255
255 255 255
255 255 255
255 255 255
255 255 255
255 255 255
255 255 255
255 255 255
255 255 255
255 255 255
255 255 255
255 255 255
255 255 255
255 255 255
255 255 255
255 255 255
255 255 255
255 255 255
255 255 255
255 255 255
254 254 254
146 146 146
55 55 55
59 59 59
86 86 86
73 73 73
53 53 53
79 79 79
85 85 85
86 86 86
84 84 84
53 53 53
53 53 53
53 53 53
52 52 52
51 51 51
51 51 51
51 51 51
50 50 50
100 100 100
95 95 95
94 94 94
94 94 94
95 95 95
95 95 95
95 95 95
96 96 96
100 100 100
63 63 63
52 52 52
67 67 67
107 107 107
105 105 105
106 106 106
107 107 107
107 107 107
107 107 107
108 108 108
95 95 95
58 58 58
77 77 77
108 108 108
106 106 106
106 106 106
104 104 104
104 104 104
103 103 103
103 103 103
103 103 103
102 102 102
101 101 101
99 99 99
98 98 98
97 97 97
97 97 97
94 94 94
94 94 94
90 90 90
54 54 54
57 57 57
55 55 55
69 69 69
88 88 88
85 85 85
85 85 85
85 85 85
84 84 84
89 89 89
123 123 123
124 124 124
129 129 129
226 226 226
255 255 255
255 255 255
255 255 255
255 255 255
255 255 255
255 255 255
255 255 255
255 255 255
255 255 255
255 255 255
255 255 255
255 255 255
255 255 255
255 255 255
255 255 255
255 255 255
255 255 255
255 255 255
255 255 255
255 255 255
255 255 255
255 255 255
255 255 255
255 255 255
255 255 255
255 255 255
255 255 255
255 255 255
255 255 255
166 166 166
55 55 55
54 54 54
82 82 82
72 72 72
55 55 55
89 89 89
72 72 72
87 87 87
88 88 88
55 55 55
53 53 53
53 53 53
52 52 52
51 51 51
51 51 51
51 51 51
50 50 50
103 103 103
96 96 96
95 95 95
95 95 95
94 94 94
95 95 95
95 95 95
96 96 96
99 99 99
61 61 61
53 53 53
54 54 54
107 107 107
106 106 106
107 107 107
108 108 108
105 105 105
106 106 106
108 108 108
102 102 102
58 58 58
64 64 64
107 107 107
106 106 106
106 106 106
104 104 104
104 104 104
103 103 103
103 103 103
103 103 103
102 102 102
102 102 102
100 100 100
98 98 98
98 98 98
97 97 97
94 94 94
93 93 93
89 89 89
53 53 53
56 56 56
55 55 55
62 62 62
88 88 88
85 85 85
85 85 85
85 85 85
84 84 84
84 84 84
121 121 121
124 124 124
129 129 129
193 193 193
255 255 255
255 255 255
255 255 255
255 255 255
255 255 255
255 255 255
255 255 255
255 255 255
255 255 255
255 255 255
255 255 255
255 255 255
255 255 255
255 255 255
255 255 255
255 255 255
255 255 255
255 255 255
255 255 255
255 255 255
255 255 255
255 255 255
255 255 255
255 255 255
255 255 255
255 255 255
255 255 255
255 255 255
255 255 255
185 185 185
56 56 56
54 54 54
74 74 74
71 71 71
55 55 55
99 99 99
56 56 56
88 88 88
90 90 90
62 62 62
53 53 53
53 53 53
52 52 52
51 51 51
51 51 51
51 51 51
49 49 49
106 106 106
98 98 98
95 95 95
95 95 95
94 94 94
94 94 94
95 95 95
96 96 96
99 99 99
58 58 58
52 52 52
48 48 48
102 102 102
106 106 106
106 106 106
121 121 121
106 106 106
106 106 106
107 107 107
107 107 107
65 65 65
57 57 57
99 99 99
106 106 106
106 106 106
105 105 105
104 104 104
104 104 104
102 102 102
102 102 102
102 102 102
102 102 102
100 100 100
99 99 99
98 98 98
96 96 96
94 94 94
94 94 94
91 91 91
53 53 53
56 56 56
56 56 56
59 59 59
88 88 88
86 86 86
85 85 85
85 85 85
84 84 84
83 83 83
117 117 117
123 123 123
124 124 124
160 160 160
255 255 255
255 255 255
255 255 255
255 255 255
255 255 255
255 255 255
255 255 255
255 255 255
255 255 255
255 255 255
255 255 255
255 255 255
255 255 255
255 255 255
255 255 255
255 255 255
255 255 255
255 255 255
255 255 255
255 255 255
255 255 255
255 255 255
255 255 255
255 255 255
255 255 255
255 255 255
255 255 255
255 255 255
255 255 255
206 206 206
56 56 56
55 55 55
61 61 61
72 72 72
55 55 55
103 103 103
54 54 54
80 80 80
88 88 88
71 71 71
52 52 52
52 52 52
51 51 51
51 51 51
51 51 51
51 51 51
53 53 53
109 109 109
98 98 98
96 96 96
94 94 94
94 94 94
94 94 94
95 95 95
96 96 96
99 99 99
58 58 58
52 52 52
46 46 46
94 94 94
104 104 104
105 105 105
127 127 127
105 105 105
106 106 106
106 106 106
109 109 109
82 82 82
58 58 58
87 87 87
107 107 107
106 106 106
105 105 105
104 104 104
104 104 104
102 102 102
102 102 102
101 101 101
102 102 102
100 100 100
99 99 99
98 98 98
97 97 97
94 94 94
94 94 94
92 92 92
55 55 55
57 57 57
56 56 56
57 57 57
87 87 87
86 86 86
85 85 85
84 84 84
84 84 84
83 83 83
111 111 111
123 123 123
124 124 124
139 139 139
239 239 239
255 255 255
255 255 255
255 255 255
255 255 255
255 255 255
255 255 255
255 255 255
255 255 255
255 255 255
255 255 255
255 255 255
255 255 255
255 255 255
255 255 255
255 255 255
255 255 255
255 255 255
255 255 255
255 255 255
255 255 255
255 255 255
255 255 255
255 255 255
255 255 255
255 255 255
255 255 255
255 255 255
255 255 255
226 226 226
66 66 66
56 56 56
55 55 55
61 61 61
57 57 57
108 108 108
61 61 61
62 62 62
89 89 89
78 78 78
52 52 52
52 52 52
51 51 51
51 51 51
51 51 51
51 51 51
58 58 58
111 111 111
98 98 98
97 97 97
95 95 95
94 94 94
94 94 94
93 93 93
96 96 96
98 98 98
57 57 57
51 51 51
48 48 48
87 87 87
105 105 105
103 103 103
130 130 130
106 106 106
106 106 106
106 106 106
107 107 107
101 101 101
56 56 56
67 67 67
109 109 109
106 106 106
105 105 105
104 104 104
104 104 104
102 102 102
102 102 102
101 101 101
102 102 102
100 100 100
99 99 99
98 98 98
97 97 97
95 95 95
93 93 93
93 93 93
56 56 56
57 57 57
57 57 57
55 55 55
84 84 84
86 86 86
85 85 85
84 84 84
84 84 84
83 83 83
104 104 104
123 123 123
123 123 123
129 129 129
219 219 219
255 255 255
255 255 255
255 255 255
255 255 255
255 255 255
255 255 255
255 255 255
255 255 255
255 255 255
255 255 255
255 255 255
255 255 255
255 255 255
255 255 255
255 255 255
255 255 255
255 255 255
255 255 255
255 255 255
255 255 255
255 255 255
255 255 255
255 255 255
255 255 255
255 255 255
255 255 255
255 255 255
255 255 255
234 234 234
76 76 76
57 57 57
57 57 57
57 57 57
59 59 59
112 112 112
71 71 71
53 53 53
76 76 76
85 85 85
51 51 51
52 52 52
51 51 51
51 51 51
51 51 51
51 51 51
62 62 62
109 109 109
99 99 99
98 98 98
96 96 96
94 94 94
94 94 94
93 93 93
96 96 96
97 97 97
56 56 56
52 52 52
49 49 49
73 73 73
106 106 106
104 104 104
131 131 131
109 109 109
106 106 106
106 106 106
107 107 107
109 109 109
63 63 63
59 59 59
101 101 101
105 105 105
105 105 105
104 104 104
104 104 104
103 103 103
103 103 103
102 102 102
102 102 102
100 100 100
99 99 99
98 98 98
96 96 96
95 95 95
93 93 93
94 94 94
56 56 56
58 58 58
57 57 57
55 55 55
80 80 80
86 86 86
85 85 85
84 84 84
84 84 84
83 83 83
97 97 97
124 124 124
124 124 124
127 127 127
185 185 185
255 255 255
255 255 255
255 255 255
255 255 255
255 255 255
255 255 255
255 255 255
255 255 255
255 255 255
255 255 255
255 255 255
255 255 255
255 255 255
255 255 255
255 255 255
255 255 255
255 255 255
255 255 255
255 255 255
255 255 255
255 255 255
255 255 255
255 255 255
255 255 255
255 255 255
255 255 255
255 255 255
255 255 255
251 251 251
102 102 102
58 58 58
58 58 58
58 58 58
62 62 62
116 116 116
80 80 80
54 54 54
57 57 57
85 85 85
54 54 54
52 52 52
51 51 51
51 51 51
51 51 51
51 51 51
72 72 72
111 111 111
100 100 100
99 99 99
97 97 97
96 96 96
94 94 94
94 94 94
95 95 95
96 96 96
57 57 57
53 53 53
51 51 51
59 59 59
106 106 106
104 104 104
128 128 128
118 118 118
106 106 106
106 106 106
106 106 106
108 108 108
84 84 84
58 58 58
88 88 88
106 106 106
104 104 104
104 104 104
104 104 104
103 103 103
103 103 103
102 102 102
102 102 102
101 101 101
100 100 100
98 98 98
96 96 96
95 95 95
93 93 93
94 94 94
57 57 57
57 57 57
57 57 57
55 55 55
77 77 77
86 86 86
85 85 85
84 84 84
84 84 84
84 84 84
90 90 90
124 124 124
124 124 124
124 124 124
152 152 152
252 252 252
255 255 255
255 255 255
255 255 255
255 255 255
255 255 255
255 255 255
255 255 255
255 255 255
255 255 255
255 255 255
255 255 255
255 255 255
255 255 255
255 255 255
255 255 255
255 255 255
255 255 255
255 255 255
255 255 255
255 255 255
255 255 255
255 255 255
255 255 255
255 255 255
255 255 255
255 255 255
255 255 255
255 255 255
157 157 157
61 61 61
59 59 59
59 59 59
66 66 66
119 119 119
83 83 83
56 56 56
55 55 55
70 70 70
56 56 56
53 53 53
51 51 51
51 51 51
51 51 51
51 51 51
80 80 80
112 112 112
99 99 99
99 99 99
98 98 98
96 96 96
95 95 95
93 93 93
95 95 95
96 96 96
58 58 58
52 52 52
51 51 51
46 46 46
104 104 104
104 104 104
122 122 122
127 127 127
105 105 105
106 106 106
106 106 106
107 107 107
101 101 101
58 58 58
72 72 72
107 107 107
104 104 104
104 104 104
104 104 104
103 103 103
103 103 103
103 103 103
102 102 102
101 101 101
100 100 100
98 98 98
96 96 96
95 95 95
94 94 94
95 95 95
58 58 58
57 57 57
57 57 57
56 56 56
75 75 75
86 86 86
85 85 85
85 85 85
84 84 84
84 84 84
85 85 85
122 122 122
123 123 123
125 125 125
128 128 128
239 239 239
255 255 255
255 255 255
255 255 255
255 255 255
255 255 255
255 255 255
255 255 255
255 255 255
255 255 255
255 255 255
255 255 255
255 255 255
255 255 255
255 255 255
255 255 255
255 255 255
255 255 255
255 255 255
255 255 255
255 255 255
255 255 255
255 255 255
255 255 255
255 255 255
255 255 255
255 255 255
255 255 255
255 255 255
208 208 208
61 61 61
60 60 60
59 59 59
67 67 67
121 121 121
86 86 86
61 61 61
56 56 56
56 56 56
55 55 55
53 53 53
52 52 52
51 51 51
51 51 51
50 50 50
92 92 92
108 108 108
99 99 99
99 99 99
98 98 98
96 96 96
95 95 95
94 94 94
94 94 94
95 95 95
57 57 57
52 52 52
51 51 51
44 44 44
98 98 98
105 105 105
115 115 115
135 135 135
104 104 104
106 106 106
106 106 106
106 106 106
108 108 108
65 65 65
59 59 59
102 102 102
105 105 105
104 104 104
103 103 103
103 103 103
103 103 103
103 103 103
102 102 102
101 101 101
100 100 100
98 98 98
96 96 96
96 96 96
94 94 94
95 95 95
57 57 57
57 57 57
57 57 57
56 56 56
71 71 71
86 86 86
86 86 86
85 85 85
84 84 84
84 84 84
83 83 83
121 121 121
124 124 124
125 125 125
132 132 132
208 208 208
255 255 255
255 255 255
255 255 255
255 255 255
255 255 255
255 255 255
255 255 255
255 255 255
255 255 255
255 255 255
255 255 255
255 255 255
255 255 255
255 255 255
255 255 255
255 255 255
255 255 255
255 255 255
255 255 255
255 255 255
255 255 255
255 255 255
255 255 255
255 255 255
255 255 255
255 255 255
255 255 255
255 255 255
245 245 245
84 84 84
61 61 61
61 61 61
67 67 67
123 123 123
85 85 85
68 68 68
56 56 56
56 56 56
54 54 54
53 53 53
53 53 53
52 52 52
52 52 52
50 50 50
100 100 100
105 105 105
99 99 99
99 99 99
99 99 99
97 97 97
95 95 95
94 94 94
94 94 94
96 96 96
58 58 58
53 53 53
51 51 51
46 46 46
85 85 85
106 106 106
109 109 109
140 140 140
106 106 106
106 106 106
106 106 106
106 106 106
109 109 109
84 84 84
56 56 56
90 90 90
106 106 106
104 104 104
104 104 104
103 103 103
102 102 102
102 102 102
102 102 102
101 101 101
100 100 100
98 98 98
97 97 97
96 96 96
94 94 94
95 95 95
57 57 57
57 57 57
57 57 57
56 56 56
68 68 68
87 87 87
85 85 85
85 85 85
84 84 84
84 84 84
82 82 82
117 117 117
124 124 124
125 125 125
127 127 127
175 175 175
255 255 255
255 255 255
255 255 255
255 255 255
255 255 255
255 255 255
255 255 255
255 255 255
255 255 255
255 255 255
255 255 255
255 255 255
255 255 255
255 255 255
255 255 255
255 255 255
255 255 255
255 255 255
255 255 255
255 255 255
255 255 255
255 255 255
255 255 255
255 255 255
255 255 255
255 255 255
255 255 255
255 255 255
254 254 254
157 157 157
63 63 63
62 62 62
67 67 67
125 125 125
84 84 84
75 75 75
56 56 56
56 56 56
54 54 54
54 54 54
54 54 54
52 52 52
52 52 52
48 48 48
115 115 115
103 103 103
99 99 99
99 99 99
99 99 99
97 97 97
95 95 95
95 95 95
94 94 94
96 96 96
59 59 59
53 53 53
51 51 51
49 49 49
72 72 72
106 106 106
105 105 105
141 141 141
114 114 114
106 106 106
106 106 106
106 106 106
107 107 107
103 103 103
57 57 57
71 71 71
107 107 107
104 104 104
104 104 104
103 103 103
103 103 103
102 102 102
102 102 102
101 101 101
100 100 100
98 98 98
97 97 97
96 96 96
94 94 94
93 93 93
55 55 55
57 57 57
57 57 57
57 57 57
66 66 66
87 87 87
85 85 85
85 85 85
84 84 84
84 84 84
82 82 82
112 112 112
125 125 125
125 125 125
125 125 125
147 147 147
249 249 249
255 255 255
255 255 255
255 255 255
255 255 255
255 255 255
255 255 255
255 255 255
255 255 255
255 255 255
255 255 255
255 255 255
255 255 255
255 255 255
255 255 255
255 255 255
255 255 255
255 255 255
255 255 255
255 255 255
255 255 255
255 255 255
255 255 255
255 255 255
255 255 255
255 255 255
255 255 255
255 255 255
255 255 255
217 217 217
68 68 68
62 62 62
66 66 66
125 125 125
83 83 83
84 84 84
57 57 57
56 56 56
55 55 55
54 54 54
54 54 54
53 53 53
52 52 52
45 45 45
125 125 125
102 102 102
99 99 99
99 99 99
99 99 99
97 97 97
96 96 96
95 95 95
94 94 94
97 97 97
59 59 59
53 53 53
51 51 51
51 51 51
54 54 54
106 106 106
104 104 104
137 137 137
126 126 126
105 105 105
106 106 106
106 106 106
106 106 106
109 109 109
73 73 73
58 58 58
102 102 102
105 105 105
104 104 104
103 103 103
103 103 103
102 102 102
102 102 102
101 101 101
100 100 100
98 98 98
97 97 97
96 96 96
94 94 94
91 91 91
55 55 55
57 57 57
56 56 56
56 56 56
65 65 65
88 88 88
85 85 85
84 84 84
84 84 84
84 84 84
83 83 83
105 105 105
125 125 125
125 125 125
125 125 125
134 134 134
232 232 232
255 255 255
255 255 255
255 255 255
255 255 255
255 255 255
255 255 255
255 255 255
255 255 255
255 255 255
255 255 255
255 255 255
255 255 255
255 255 255
255 255 255
255 255 255
255 255 255
255 255 255
255 255 255
255 255 255
255 255 255
255 255 255
255 255 255
255 255 255
255 255 255
255 255 255
255 255 255
255 255 255
255 255 255
253 253 253
116 116 116
64 64 64
66 66 66
125 125 125
84 84 84
87 87 87
61 61 61
57 57 57
56 56 56
54 54 54
54 54 54
53 53 53
52 52 52
47 47 47
132 132 132
101 101 101
99 99 99
99 99 99
99 99 99
98 98 98
96 96 96
96 96 96
95 95 95
98 98 98
61 61 61
53 53 53
51 51 51
51 51 51
45 45 45
102 102 102
104 104 104
130 130 130
135 135 135
104 104 104
106 106 106
106 106 106
106 106 106
106 106 106
94 94 94
57 57 57
89 89 89
106 106 106
105 105 105
103 103 103
103 103 103
102 102 102
102 102 102
101 101 101
100 100 100
98 98 98
97 97 97
96 96 96
94 94 94
89 89 89
54 54 54
56 56 56
56 56 56
56 56 56
61 61 61
87 87 87
85 85 85
85 85 85
84 84 84
84 84 84
84 84 84
100 100 100
127 127 127
125 125 125
125 125 125
129 129 129
215 215 215
255 255 255
255 255 255
255 255 255
255 255 255
255 255 255
255 255 255
255 255 255
255 255 255
255 255 255
255 255 255
255 255 255
255 255 255
255 255 255
255 255 255
255 255 255
255 255 255
255 255 255
255 255 255
255 255 255
255 255 255
255 255 255
255 255 255
255 255 255
255 255 255
255 255 255
255 255 255
255 255 255
255 255 255
255 255 255
197 197 197
58 58 58
63 63 63
125 125 125
84 84 84
87 87 87
69 69 69
58 58 58
57 57 57
55 55 55
54 54 54
53 53 53
52 52 52
49 49 49
134 134 134
102 102 102
101 101 101
99 99 99
99 99 99
98 98 98
97 97 97
97 97 97
96 96 96
98 98 98
64 64 64
54 54 54
51 51 51
51 51 51
42 42 42
90 90 90
105 105 105
121 121 121
143 143 143
106 106 106
105 105 105
106 106 106
106 106 106
106 106 106
107 107 107
63 63 63
72 72 72
105 105 105
104 104 104
103 103 103
103 103 103
103 103 103
102 102 102
101 101 101
100 100 100
98 98 98
97 97 97
96 96 96
93 93 93
89 89 89
54 54 54
57 57 57
57 57 57
57 57 57
61 61 61
87 87 87
85 85 85
85 85 85
84 84 84
84 84 84
84 84 84
95 95 95
126 126 126
125 125 125
125 125 125
129 129 129
190 190 190
255 255 255
255 255 255
255 255 255
255 255 255
255 255 255
255 255 255
255 255 255
255 255 255
255 255 255
255 255 255
255 255 255
255 255 255
255 255 255
255 255 255
255 255 255
255 255 255
255 255 255
255 255 255
255 255 255
255 255 255
255 255 255
255 255 255
255 255 255
255 255 255
255 255 255
255 255 255
255 255 255
255 255 255
255 255 255
248 248 248
97 97 97
45 45 45
126 126 126
85 85 85
87 87 87
79 79 79
56 56 56
57 57 57
56 56 56
54 54 54
54 54 54
53 53 53
55 55 55
140 140 140
103 103 103
101 101 101
100 100 100
99 99 99
98 98 98
97 97 97
97 97 97
96 96 96
97 97 97
65 65 65
53 53 53
51 51 51
51 51 51
47 47 47
70 70 70
107 107 107
109 109 109
147 147 147
116 116 116
104 104 104
106 106 106
106 106 106
106 106 106
109 109 109
83 83 83
59 59 59
102 102 102
105 105 105
103 103 103
103 103 103
103 103 103
102 102 102
101 101 101
100 100 100
99 99 99
98 98 98
96 96 96
93 93 93
88 88 88
54 54 54
57 57 57
58 58 58
58 58 58
62 62 62
87 87 87
85 85 85
85 85 85
84 84 84
84 84 84
84 84 84
91 91 91
125 125 125
125 125 125
125 125 125
127 127 127
163 163 163
254 254 254
255 255 255
255 255 255
255 255 255
255 255 255
255 255 255
255 255 255
255 255 255
255 255 255
255 255 255
255 255 255
255 255 255
255 255 255
255 255 255
255 255 255
255 255 255
255 255 255
255 255 255
255 255 255
255 255 255
255 255 255
255 255 255
255 255 255
255 255 255
255 255 255
255 255 255
255 255 255
255 255 255
255 255 255
255 255 255
190 190 190
40 40 40
128 128 128
86 86 86
86 86 86
85 85 85
58 58 58
58 58 58
56 56 56
55 55 55
54 54 54
53 53 53
61 61 61
143 143 143
103 103 103
101 101 101
100 100 100
100 100 100
98 98 98
97 97 97
97 97 97
96 96 96
97 97 97
69 69 69
54 54 54
52 52 52
51 51 51
49 49 49
48 48 48
105 105 105
104 104 104
143 143 143
127 127 127
103 103 103
106 106 106
106 106 106
106 106 106
106 106 106
103 103 103
56 56 56
90 90 90
104 104 104
103 103 103
103 103 103
103 103 103
101 101 101
101 101 101
100 100 100
99 99 99
98 98 98
96 96 96
93 93 93
86 86 86
54 54 54
59 59 59
59 59 59
59 59 59
65 65 65
87 87 87
85 85 85
85 85 85
84 84 84
84 84 84
84 84 84
88 88 88
125 125 125
124 124 124
125 125 125
126 126 126
142 142 142
252 252 252
255 255 255
255 255 255
255 255 255
255 255 255
255 255 255
255 255 255
255 255 255
255 255 255
255 255 255
255 255 255
255 255 255
255 255 255
255 255 255
255 255 255
255 255 255
255 255 255
255 255 255
255 255 255
255 255 255
255 255 255
255 255 255
255 255 255
255 255 255
255 255 255
255 255 255
255 255 255
255 255 255
255 255 255
255 255 255
245 245 245
88 88 88
127 127 127
87 87 87
87 87 87
87 87 87
65 65 65
57 57 57
56 56 56
55 55 55
54 54 54
54 54 54
69 69 69
143 143 143
102 102 102
101 101 101
100 100 100
100 100 100
98 98 98
97 97 97
97 97 97
96 96 96
97 97 97
73 73 73
53 53 53
53 53 53
51 51 51
51 51 51
38 38 38
97 97 97
102 102 102
138 138 138
138 138 138
104 104 104
105 105 105
106 106 106
106 106 106
106 106 106
108 108 108
76 76 76
71 71 71
107 107 107
103 103 103
103 103 103
103 103 103
101 101 101
101 101 101
100 100 100
99 99 99
98 98 98
95 95 95
93 93 93
84 84 84
55 55 55
59 59 59
59 59 59
59 59 59
67 67 67
86 86 86
85 85 85
85 85 85
84 84 84
84 84 84
84 84 84
86 86 86
123 123 123
124 124 124
125 125 125
125 125 125
126 126 126
245 245 245
255 255 255
255 255 255
255 255 255
255 255 255
255 255 255
255 255 255
255 255 255
255 255 255
255 255 255
255 255 255
255 255 255
255 255 255
255 255 255
255 255 255
255 255 255
255 255 255
255 255 255
255 255 255
255 255 255
255 255 255
255 255 255
255 255 255
255 255 255
255 255 255
255 255 255
255 255 255
255 255 255
255 255 255
255 255 255
255 255 255
193 193 193
127 127 127
91 91 91
86 86 86
87 87 87
74 74 74
57 57 57
56 56 56
55 55 55
54 54 54
53 53 53
86 86 86
141 141 141
102 102 102
101 101 101
100 100 100
100 100 100
98 98 98
97 97 97
97 97 97
96 96 96
97 97 97
78 78 78
53 53 53
53 53 53
52 52 52
50 50 50
41 41 41
79 79 79
104 104 104
129 129 129
145 145 145
109 109 109
105 105 105
106 106 106
106 106 106
106 106 106
107 107 107
97 97 97
58 58 58
103 103 103
103 103 103
103 103 103
103 103 103
101 101 101
101 101 101
100 100 100
99 99 99
97 97 97
94 94 94
93 93 93
82 82 82
57 57 57
59 59 59
59 59 59
60 60 60
70 70 70
85 85 85
85 85 85
85 85 85
85 85 85
84 84 84
84 84 84
84 84 84
123 123 123
124 124 124
125 125 125
125 125 125
128 128 128
231 231 231
255 255 255
255 255 255
255 255 255
255 255 255
255 255 255
255 255 255
255 255 255
255 255 255
255 255 255
255 255 255
255 255 255
255 255 255
255 255 255
255 255 255
255 255 255
255 255 255
255 255 255
255 255 255
255 255 255
255 255 255
255 255 255
255 255 255
255 255 255
255 255 255
255 255 255
255 255 255
255 255 255
255 255 255
255 255 255
255 255 255
247 247 247
143 143 143
93 93 93
85 85 85
87 87 87
83 83 83
57 57 57
57 57 57
56 56 56
54 54 54
53 53 53
97 97 97
140 140 140
103 103 103
101 101 101
100 100 100
100 100 100
99 99 99
97 97 97
97 97 97
97 97 97
96 96 96
81 81 81
54 54 54
54 54 54
53 53 53
51 51 51
45 45 45
60 60 60
106 106 106
120 120 120
146 146 146
123 123 123
104 104 104
105 105 105
106 106 106
106 106 106
106 106 106
107 107 107
67 67 67
90 90 90
105 105 105
103 103 103
103 103 103
101 101 101
101 101 101
100 100 100
98 98 98
96 96 96
95 95 95
93 93 93
75 75 75
59 59 59
61 61 61
61 61 61
61 61 61
73 73 73
85 85 85
85 85 85
85 85 85
85 85 85
84 84 84
84 84 84
83 83 83
120 120 120
123 123 123
124 124 124
124 124 124
131 131 131
220 220 220
255 255 255
255 255 255
255 255 255
255 255 255
255 255 255
255 255 255
255 255 255
255 255 255
255 255 255
255 255 255
255 255 255
255 255 255
255 255 255
255 255 255
255 255 255
255 255 255
255 255 255
255 255 255
255 255 255
255 255 255
255 255 255
255 255 255
255 255 255
255 255 255
255 255 255
255 255 255
255 255 255
255 255 255
255 255 255
255 255 255
251 251 251
157 157 157
97 97 97
85 85 85
87 87 87
88 88 88
62 62 62
57 57 57
56 56 56
55 55 55
52 52 52
109 109 109
140 140 140
104 104 104
101 101 101
100 100 100
100 100 100
99 99 99
98 98 98
98 98 98
97 97 97
97 97 97
86 86 86
54 54 54
55 55 55
53 53 53
51 51 51
50 50 50
43 43 43
102 102 102
113 113 113
143 143 143
134 134 134
104 104 104
105 105 105
106 106 106
106 106 106
106 106 106
107 107 107
94 94 94
71 71 71
105 105 105
104 104 104
103 103 103
102 102 102
101 101 101
99 99 99
98 98 98
96 96 96
94 94 94
94 94 94
69 69 69
61 61 61
61 61 61
62 62 62
62 62 62
79 79 79
85 85 85
85 85 85
85 85 85
85 85 85
84 84 84
84 84 84
83 83 83
119 119 119
123 123 123
124 124 124
124 124 124
134 134 134
213 213 213
255 255 255
255 255 255
255 255 255
255 255 255
255 255 255
255 255 255
255 255 255
255 255 255
255 255 255
255 255 255
255 255 255
255 255 255
255 255 255
255 255 255
255 255 255
255 255 255
255 255 255
255 255 255
255 255 255
255 255 255
255 255 255
255 255 255
255 255 255
255 255 255
255 255 255
255 255 255
255 255 255
255 255 255
255 255 255
255 255 255
252 252 252
167 167 167
103 103 103
85 85 85
87 87 87
88 88 88
74 74 74
56 56 56
57 57 57
55 55 55
53 53 53
116 116 116
141 141 141
106 106 106
101 101 101
100 100 100
100 100 100
98 98 98
98 98 98
98 98 98
97 97 97
97 97 97
88 88 88
55 55 55
56 56 56
53 53 53
52 52 52
51 51 51
37 37 37
92 92 92
105 105 105
141 141 141
140 140 140
106 106 106
105 105 105
106 106 106
107 107 107
107 107 107
106 106 106
108 108 108
62 62 62
102 102 102
105 105 105
103 103 103
102 102 102
101 101 101
99 99 99
98 98 98
95 95 95
94 94 94
95 95 95
64 64 64
63 63 63
62 62 62
63 63 63
62 62 62
85 85 85
85 85 85
85 85 85
85 85 85
85 85 85
84 84 84
84 84 84
83 83 83
119 119 119
124 124 124
125 125 125
126 126 126
134 134 134
209 209 209
255 255 255
255 255 255
255 255 255
255 255 255
255 255 255
255 255 255
255 255 255
255 255 255
255 255 255
255 255 255
255 255 255
255 255 255
255 255 255
255 255 255
255 255 255
255 255 255
255 255 255
255 255 255
255 255 255
255 255 255
255 255 255
255 255 255
255 255 255
255 255 255
255 255 255
255 255 255
255 255 255
255 255 255
255 255 255
255 255 255
254 254 254
173 173 173
111 111 111
86 86 86
87 87 87
86 86 86
84 84 84
56 56 56
56 56 56
57 57 57
53 53 53
122 122 122
140 140 140
109 109 109
102 102 102
101 101 101
100 100 100
98 98 98
98 98 98
98 98 98
97 97 97
97 97 97
91 91 91
57 57 57
56 56 56
54 54 54
52 52 52
51 51 51
42 42 42
74 74 74
104 104 104
137 137 137
142 142 142
113 113 113
106 106 106
106 106 106
107 107 107
107 107 107
107 107 107
106 106 106
87 87 87
87 87 87
105 105 105
103 103 103
102 102 102
101 101 101
99 99 99
98 98 98
95 95 95
94 94 94
93 93 93
62 62 62
63 63 63
63 63 63
62 62 62
71 71 71
87 87 87
85 85 85
85 85 85
85 85 85
85 85 85
84 84 84
84 84 84
87 87 87
143 143 143
177 177 177
187 187 187
174 174 174
174 174 174
237 237 237
255 255 255
255 255 255
255 255 255
255 255 255
255 255 255
255 255 255
255 255 255
255 255 255
255 255 255
255 255 255
255 255 255
255 255 255
255 255 255
255 255 255
255 255 255
255 255 255
255 255 255
255 255 255
255 255 255
255 255 255
255 255 255
255 255 255
255 255 255
255 255 255
255 255 255
255 255 255
255 255 255
255 255 255
255 255 255
255 255 255
255 255 255
185 185 185
117 117 117
84 84 84
86 86 86
86 86 86
87 87 87
62 62 62
56 56 56
57 57 57
53 53 53
127 127 127
139 139 139
110 110 110
102 102 102
102 102 102
101 101 101
99 99 99
98 98 98
98 98 98
96 96 96
96 96 96
95 95 95
59 59 59
59 59 59
56 56 56
54 54 54
52 52 52
47 47 47
51 51 51
103 103 103
131 131 131
143 143 143
124 124 124
105 105 105
106 106 106
107 107 107
107 107 107
107 107 107
105 105 105
103 103 103
68 68 68
106 106 106
103 103 103
102 102 102
101 101 101
98 98 98
98 98 98
95 95 95
94 94 94
92 92 92
62 62 62
63 63 63
63 63 63
62 62 62
85 85 85
86 86 86
85 85 85
85 85 85
85 85 85
85 85 85
85 85 85
121 121 121
211 211 211
249 249 249
255 255 255
255 255 255
255 255 255
254 254 254
255 255 255
255 255 255
255 255 255
255 255 255
255 255 255
255 255 255
255 255 255
255 255 255
255 255 255
255 255 255
255 255 255
255 255 255
255 255 255
255 255 255
255 255 255
255 255 255
255 255 255
255 255 255
255 255 255
255 255 255
255 255 255
255 255 255
255 255 255
255 255 255
255 255 255
255 255 255
255 255 255
255 255 255
255 255 255
255 255 255
255 255 255
255 255 255
197 197 197
125 125 125
83 83 83
86 86 86
86 86 86
87 87 87
74 74 74
57 57 57
56 56 56
56 56 56
134 134 134
138 138 138
112 112 112
103 103 103
102 102 102
101 101 101
100 100 100
99 99 99
98 98 98
98 98 98
98 98 98
97 97 97
61 61 61
60 60 60
57 57 57
55 55 55
53 53 53
50 50 50
37 37 37
98 98 98
122 122 122
142 142 142
136 136 136
103 103 103
106 106 106
107 107 107
107 107 107
107 107 107
106 106 106
108 108 108
78 78 78
96 96 96
103 103 103
102 102 102
100 100 100
98 98 98
98 98 98
95 95 95
94 94 94
87 87 87
61 61 61
63 63 63
63 63 63
77 77 77
87 87 87
85 85 85
85 85 85
85 85 85
85 85 85
88 88 88
169 169 169
242 242 242
255 255 255
255 255 255
255 255 255
255 255 255
255 255 255
255 255 255
255 255 255
255 255 255
255 255 255
255 255 255
255 255 255
255 255 255
255 255 255
255 255 255
255 255 255
255 255 255
255 255 255
255 255 255
255 255 255
255 255 255
255 255 255
255 255 255
255 255 255
255 255 255
255 255 255
255 255 255
255 255 255
255 255 255
255 255 255
255 255 255
255 255 255
255 255 255
255 255 255
255 255 255
255 255 255
255 255 255
255 255 255
255 255 255
206 206 206
130 130 130
85 85 85
87 87 87
86 86 86
87 87 87
85 85 85
58 58 58
56 56 56
60 60 60
136 136 136
137 137 137
114 114 114
104 104 104
103 103 103
101 101 101
100 100 100
99 99 99
98 98 98
98 98 98
98 98 98
99 99 99
65 65 65
60 60 60
58 58 58
55 55 55
53 53 53
51 51 51
36 36 36
84 84 84
112 112 112
143 143 143
142 142 142
107 107 107
106 106 106
107 107 107
107 107 107
107 107 107
106 106 106
106 106 106
103 103 103
81 81 81
103 103 103
101 101 101
100 100 100
98 98 98
96 96 96
94 94 94
94 94 94
84 84 84
62 62 62
63 63 63
70 70 70
88 88 88
86 86 86
86 86 86
85 85 85
85 85 85
108 108 108
206 206 206
253 253 253
255 255 255
255 255 255
255 255 255
255 255 255
255 255 255
255 255 255
255 255 255
255 255 255
255 255 255
255 255 255
255 255 255
255 255 255
255 255 255
255 255 255
255 255 255
255 255 255
255 255 255
255 255 255
255 255 255
255 255 255
255 255 255
255 255 255
255 255 255
255 255 255
255 255 255
255 255 255
255 255 255
255 255 255
255 255 255
255 255 255
255 255 255
255 255 255
255 255 255
255 255 255
255 255 255
255 255 255
255 255 255
255 255 255
255 255 255
220 220 220
137 137 137
87 87 87
86 86 86
86 86 86
86 86 86
88 88 88
70 70 70
53 53 53
67 67 67
139 139 139
137 137 137
115 115 115
104 104 104
102 102 102
101 101 101
100 100 100
99 99 99
99 99 99
98 98 98
98 98 98
98 98 98
70 70 70
62 62 62
60 60 60
56 56 56
53 53 53
52 52 52
40 40 40
65 65 65
106 106 106
142 142 142
143 143 143
118 118 118
106 106 106
107 107 107
107 107 107
106 106 106
105 105 105
105 105 105
107 107 107
79 79 79
103 103 103
101 101 101
99 99 99
98 98 98
96 96 96
94 94 94
94 94 94
78 78 78
63 63 63
67 67 67
87 87 87
86 86 86
86 86 86
86 86 86
87 87 87
141 141 141
231 231 231
255 255 255
255 255 255
255 255 255
255 255 255
255 255 255
255 255 255
255 255 255
255 255 255
255 255 255
255 255 255
255 255 255
255 255 255
255 255 255
255 255 255
255 255 255
255 255 255
255 255 255
255 255 255
255 255 255
255 255 255
255 255 255
255 255 255
255 255 255
255 255 255
255 255 255
255 255 255
255 255 255
255 255 255
255 255 255
255 255 255
255 255 255
255 255 255
255 255 255
255 255 255
255 255 255
255 255 255
255 255 255
255 255 255
255 255 255
255 255 255
255 255 255
236 236 236
148 148 148
97 97 97
86 86 86
88 88 88
89 89 89
107 107 107
84 84 84
94 94 94
97 97 97
137 137 137
138 138 138
117 117 117
104 104 104
103 103 103
103 103 103
101 101 101
100 100 100
99 99 99
98 98 98
98 98 98
99 99 99
75 75 75
63 63 63
61 61 61
56 56 56
54 54 54
53 53 53
60 60 60
60 60 60
100 100 100
135 135 135
142 142 142
129 129 129
105 105 105
106 106 106
106 106 106
106 106 106
105 105 105
105 105 105
104 104 104
95 95 95
91 91 91
101 101 101
99 99 99
97 97 97
96 96 96
94 94 94
95 95 95
72 72 72
65 65 65
88 88 88
88 88 88
87 87 87
86 86 86
100 100 100
183 183 183
248 248 248
255 255 255
255 255 255
255 255 255
255 255 255
255 255 255
255 255 255
255 255 255
255 255 255
255 255 255
255 255 255
255 255 255
255 255 255
255 255 255
255 255 255
255 255 255
255 255 255
255 255 255
255 255 255
255 255 255
255 255 255
255 255 255
255 255 255
255 255 255
255 255 255
255 255 255
255 255 255
255 255 255
255 255 255
255 255 255
255 255 255
255 255 255
255 255 255
255 255 255
255 255 255
255 255 255
255 255 255
255 255 255
255 255 255
255 255 255
255 255 255
255 255 255
255 255 255
255 255 255
219 219 219
164 164 164
135 135 135
153 153 153
199 199 199
224 224 224
123 123 123
107 107 107
103 103 103
139 139 139
138 138 138
120 120 120
104 104 104
103 103 103
103 103 103
101 101 101
101 101 101
99 99 99
98 98 98
98 98 98
98 98 98
82 82 82
63 63 63
61 61 61
58 58 58
101 101 101
192 192 192
227 227 227
197 197 197
92 92 92
122 122 122
143 143 143
138 138 138
105 105 105
106 106 106
106 106 106
106 106 106
105 105 105
105 105 105
104 104 104
105 105 105
76 76 76
104 104 104
98 98 98
97 97 97
95 95 95
94 94 94
94 94 94
71 71 71
89 89 89
89 89 89
89 89 89
89 89 89
146 146 146
227 227 227
255 255 255
255 255 255
255 255 255
255 255 255
255 255 255
255 255 255
255 255 255
255 255 255
255 255 255
255 255 255
255 255 255
255 255 255
255 255 255
255 255 255
255 255 255
255 255 255
255 255 255
255 255 255
255 255 255
255 255 255
255 255 255
255 255 255
255 255 255
255 255 255
255 255 255
255 255 255
255 255 255
255 255 255
255 255 255
255 255 255
255 255 255
255 255 255
255 255 255
255 255 255
255 255 255
255 255 255
255 255 255
255 255 255
255 255 255
255 255 255
255 255 255
255 255 255
255 255 255
255 255 255
255 255 255
255 255 255
254 254 254
252 252 252
253 253 253
255 255 255
201 201 201
117 117 117
113 113 113
107 107 107
140 140 140
138 138 138
123 123 123
104 104 104
104 104 104
103 103 103
103 103 103
102 102 102
101 101 101
99 99 99
98 98 98
99 99 99
92 92 92
64 64 64
69 69 69
155 155 155
243 243 243
255 255 255
255 255 255
239 239 239
96 96 96
114 114 114
143 143 143
143 143 143
110 110 110
105 105 105
106 106 106
106 106 106
105 105 105
106 106 106
105 105 105
104 104 104
91 91 91
95 95 95
98 98 98
97 97 97
95 95 95
94 94 94
94 94 94
94 94 94
91 91 91
92 92 92
123 123 123
201 201 201
251 251 251
255 255 255
255 255 255
255 255 255
255 255 255
255 255 255
255 255 255
255 255 255
255 255 255
255 255 255
255 255 255
255 255 255
255 255 255
255 255 255
255 255 255
255 255 255
255 255 255
255 255 255
255 255 255
255 255 255
255 255 255
255 255 255
255 255 255
255 255 255
255 255 255
255 255 255
255 255 255
255 255 255
255 255 255
255 255 255
255 255 255
255 255 255
255 255 255
255 255 255
255 255 255
255 255 255
255 255 255
255 255 255
255 255 255
255 255 255
255 255 255
255 255 255
255 255 255
255 255 255
255 255 255
255 255 255
255 255 255
255 255 255
255 255 255
255 255 255
255 255 255
243 243 243
139 139 139
120 120 120
118 118 118
108 108 108
141 141 141
137 137 137
127 127 127
104 104 104
104 104 104
104 104 104
103 103 103
103 103 103
102 102 102
100 100 100
98 98 98
99 99 99
101 101 101
97 97 97
200 200 200
253 253 253
255 255 255
255 255 255
255 255 255
254 254 254
134 134 134
105 105 105
140 140 140
143 143 143
123 123 123
105 105 105
106 106 106
105 105 105
105 105 105
105 105 105
104 104 104
102 102 102
101 101 101
100 100 100
98 98 98
96 96 96
94 94 94
96 96 96
98 98 98
94 94 94
130 130 130
193 193 193
245 245 245
255 255 255
255 255 255
255 255 255
255 255 255
255 255 255
255 255 255
255 255 255
255 255 255
255 255 255
255 255 255
255 255 255
255 255 255
255 255 255
255 255 255
255 255 255
255 255 255
255 255 255
255 255 255
255 255 255
255 255 255
255 255 255
255 255 255
255 255 255
255 255 255
255 255 255
255 255 255
255 255 255
255 255 255
255 255 255
255 255 255
255 255 255
255 255 255
255 255 255
255 255 255
255 255 255
255 255 255
255 255 255
255 255 255
255 255 255
255 255 255
255 255 255
255 255 255
255 255 255
255 255 255
255 255 255
255 255 255
255 255 255
255 255 255
255 255 255
255 255 255
255 255 255
255 255 255
181 181 181
127 127 127
124 124 124
124 124 124
107 107 107
141 141 141
137 137 137
131 131 131
104 104 104
105 105 105
104 104 104
104 104 104
103 103 103
102 102 102
100 100 100
100 100 100
105 105 105
159 159 159
238 238 238
255 255 255
255 255 255
255 255 255
255 255 255
255 255 255
255 255 255
184 184 184
92 92 92
131 131 131
141 141 141
138 138 138
103 103 103
106 106 106
105 105 105
105 105 105
105 105 105
104 104 104
103 103 103
114 114 114
150 150 150
147 147 147
143 143 143
153 153 153
176 176 176
204 204 204
232 232 232
251 251 251
255 255 255
255 255 255
255 255 255
255 255 255
255 255 255
255 255 255
255 255 255
255 255 255
255 255 255
255 255 255
255 255 255
255 255 255
255 255 255
255 255 255
255 255 255
255 255 255
255 255 255
255 255 255
255 255 255
255 255 255
255 255 255
255 255 255
255 255 255
255 255 255
255 255 255
255 255 255
255 255 255
255 255 255
255 255 255
255 255 255
255 255 255
255 255 255
255 255 255
255 255 255
255 255 255
255 255 255
255 255 255
255 255 255
255 255 255
255 255 255
255 255 255
255 255 255
255 255 255
255 255 255
255 255 255
255 255 255
255 255 255
255 255 255
255 255 255
255 255 255
255 255 255
255 255 255
255 255 255
217 217 217
135 135 135
127 127 127
124 124 124
126 126 126
109 109 109
146 146 146
138 138 138
135 135 135
105 105 105
104 104 104
104 104 104
104 104 104
104 104 104
103 103 103
106 106 106
142 142 142
216 216 216
253 253 253
255 255 255
255 255 255
255 255 255
255 255 255
255 255 255
255 255 255
255 255 255
228 228 228
76 76 76
120 120 120
143 143 143
144 144 144
116 116 116
105 105 105
106 106 106
105 105 105
105 105 105
104 104 104
112 112 112
224 224 224
255 255 255
255 255 255
255 255 255
255 255 255
255 255 255
255 255 255
255 255 255
255 255 255
255 255 255
255 255 255
255 255 255
255 255 255
255 255 255
255 255 255
255 255 255
255 255 255
255 255 255
255 255 255
255 255 255
255 255 255
255 255 255
255 255 255
255 255 255
255 255 255
255 255 255
255 255 255
255 255 255
255 255 255
255 255 255
255 255 255
255 255 255
255 255 255
255 255 255
255 255 255
255 255 255
255 255 255
255 255 255
255 255 255
255 255 255
255 255 255
255 255 255
255 255 255
255 255 255
255 255 255
255 255 255
255 255 255
255 255 255
255 255 255
255 255 255
255 255 255
255 255 255
255 255 255
255 255 255
255 255 255
255 255 255
255 255 255
255 255 255
255 255 255
255 255 255
255 255 255
232 232 232
147 147 147
133 133 133
173 173 173
197 197 197
151 151 151
97 97 97
103 103 103
131 131 131
141 141 141
112 112 112
107 107 107
109 109 109
118 118 118
130 130 130
166 166 166
212 212 212
250 250 250
255 255 255
255 255 255
255 255 255
255 255 255
255 255 255
255 255 255
255 255 255
255 255 255
255 255 255
253 253 253
140 140 140
118 118 118
147 147 147
149 149 149
143 143 143
111 111 111
101 101 101
96 96 96
95 95 95
96 96 96
99 99 99
223 223 223
255 255 255
255 255 255
255 255 255
255 255 255
255 255 255
255 255 255
255 255 255
255 255 255
255 255 255
255 255 255
255 255 255
255 255 255
255 255 255
255 255 255
255 255 255
255 255 255
255 255 255
255 255 255
255 255 255
255 255 255
255 255 255
255 255 255
255 255 255
255 255 255
255 255 255
255 255 255
255 255 255
255 255 255
255 255 255
255 255 255
255 255 255
255 255 255
255 255 255
255 255 255
255 255 255
255 255 255
255 255 255
255 255 255
255 255 255
255 255 255
255 255 255
255 255 255
255 255 255
255 255 255
255 255 255
255 255 255
255 255 255
255 255 255
255 255 255
255 255 255
255 255 255
255 255 255
255 255 255
255 255 255
255 255 255
255 255 255
255 255 255
255 255 255
254 254 254
227 227 227
152 152 152
163 163 163
200 200 200
204 204 204
205 205 205
146 146 146
43 43 43
40 40 40
38 38 38
55 55 55
128 128 128
217 217 217
227 227 227
236 236 236
248 248 248
255 255 255
255 255 255
255 255 255
255 255 255
255 255 255
255 255 255
255 255 255
255 255 255
255 255 255
255 255 255
255 255 255
255 255 255
255 255 255
251 251 251
232 232 232
229 229 229
232 232 232
233 233 233
204 204 204
79 79 79
109 109 109
113 113 113
116 116 116
118 118 118
144 144 144
255 255 255
255 255 255
255 255 255
255 255 255
255 255 255
255 255 255
255 255 255
255 255 255
255 255 255
255 255 255
255 255 255
255 255 255
255 255 255
255 255 255
255 255 255
255 255 255
255 255 255
255 255 255
255 255 255
255 255 255
255 255 255
255 255 255
255 255 255
255 255 255
255 255 255
255 255 255
255 255 255
255 255 255
255 255 255
255 255 255
255 255 255
255 255 255
255 255 255
255 255 255
255 255 255
255 255 255
255 255 255
255 255 255
255 255 255
255 255 255
255 255 255
255 255 255
255 255 255
255 255 255
255 255 255
255 255 255
255 255 255
255 255 255
255 255 255
255 255 255
255 255 255
255 255 255
255 255 255
255 255 255
255 255 255
255 255 255
255 255 255
252 252 252
201 201 201
201 201 201
203 203 203
204 204 204
203 203 203
204 204 204
138 138 138
55 55 55
56 56 56
37 37 37
32 32 32
43 43 43
194 194 194
255 255 255
255 255 255
255 255 255
255 255 255
255 255 255
255 255 255
255 255 255
255 255 255
255 255 255
255 255 255
255 255 255
255 255 255
255 255 255
255 255 255
255 255 255
255 255 255
255 255 255
255 255 255
255 255 255
255 255 255
255 255 255
255 255 255
250 250 250
94 94 94
119 119 119
122 122 122
122 122 122
151 151 151
177 177 177
216 216 216
255 255 255
255 255 255
255 255 255
255 255 255
255 255 255
255 255 255
255 255 255
255 255 255
255 255 255
255 255 255
255 255 255
255 255 255
255 255 255
255 255 255
255 255 255
255 255 255
255 255 255
255 255 255
255 255 255
255 255 255
255 255 255
255 255 255
255 255 255
255 255 255
255 255 255
255 255 255
255 255 255
255 255 255
255 255 255
255 255 255
255 255 255
255 255 255
255 255 255
255 255 255
255 255 255
255 255 255
255 255 255
255 255 255
255 255 255
255 255 255
255 255 255
255 255 255
255 255 255
255 255 255
255 255 255
255 255 255
255 255 255
255 255 255
255 255 255
255 255 255
255 255 255
255 255 255
255 255 255
255 255 255
255 255 255
243 243 243
155 155 155
143 143 143
202 202 202
209 209 209
206 206 206
180 180 180
103 103 103
55 55 55
51 51 51
45 45 45
71 71 71
144 144 144
208 208 208
251 251 251
255 255 255
255 255 255
255 255 255
255 255 255
255 255 255
255 255 255
255 255 255
255 255 255
255 255 255
255 255 255
255 255 255
255 255 255
255 255 255
255 255 255
255 255 255
255 255 255
255 255 255
255 255 255
255 255 255
255 255 255
255 255 255
255 255 255
254 254 254
151 151 151
115 115 115
127 127 127
146 146 146
203 203 203
200 200 200
157 157 157
250 250 250
255 255 255
255 255 255
255 255 255
255 255 255
255 255 255
255 255 255
255 255 255
255 255 255
255 255 255
255 255 255
255 255 255
255 255 255
255 255 255
255 255 255
255 255 255
255 255 255
255 255 255
255 255 255
255 255 255
255 255 255
255 255 255
255 255 255
255 255 255
255 255 255
255 255 255
255 255 255
255 255 255
255 255 255
255 255 255
255 255 255
255 255 255
255 255 255
255 255 255
255 255 255
255 255 255
255 255 255
255 255 255
255 255 255
255 255 255
255 255 255
255 255 255
255 255 255
255 255 255
255 255 255
255 255 255
255 255 255
255 255 255
255 255 255
255 255 255
255 255 255
255 255 255
255 255 255
255 255 255
235 235 235
121 121 121
76 76 76
71 71 71
85 85 85
104 104 104
87 87 87
57 57 57
58 58 58
47 47 47
107 107 107
201 201 201
243 243 243
254 254 254
255 255 255
255 255 255
255 255 255
255 255 255
255 255 255
255 255 255
255 255 255
255 255 255
255 255 255
255 255 255
255 255 255
255 255 255
255 255 255
255 255 255
255 255 255
255 255 255
255 255 255
255 255 255
255 255 255
255 255 255
255 255 255
255 255 255
255 255 255
255 255 255
255 255 255
191 191 191
99 99 99
136 136 136
201 201 201
200 200 200
199 199 199
177 177 177
196 196 196
255 255 255
255 255 255
255 255 255
255 255 255
255 255 255
255 255 255
255 255 255
255 255 255
255 255 255
255 255 255
255 255 255
255 255 255
255 255 255
255 255 255
255 255 255
255 255 255
255 255 255
255 255 255
255 255 255
255 255 255
255 255 255
255 255 255
255 255 255
255 255 255
255 255 255
255 255 255
255 255 255
255 255 255
255 255 255
255 255 255
255 255 255
255 255 255
255 255 255
255 255 255
255 255 255
255 255 255
255 255 255
255 255 255
255 255 255
255 255 255
255 255 255
255 255 255
255 255 255
255 255 255
255 255 255
255 255 255
255 255 255
255 255 255
255 255 255
255 255 255
255 255 255
255 255 255
251 251 251
137 137 137
78 78 78
77 77 77
76 76 76
75 75 75
70 70 70
63 63 63
55 55 55
41 41 41
170 170 170
245 245 245
255 255 255
255 255 255
255 255 255
255 255 255
255 255 255
255 255 255
255 255 255
255 255 255
255 255 255
255 255 255
255 255 255
255 255 255
255 255 255
255 255 255
255 255 255
255 255 255
255 255 255
255 255 255
255 255 255
255 255 255
255 255 255
255 255 255
255 255 255
255 255 255
255 255 255
255 255 255
255 255 255
255 255 255
220 220 220
72 72 72
196 196 196
202 202 202
203 203 203
201 201 201
198 198 198
101 101 101
240 240 240
255 255 255
255 255 255
255 255 255
255 255 255
255 255 255
255 255 255
255 255 255
255 255 255
255 255 255
255 255 255
255 255 255
255 255 255
255 255 255
255 255 255
255 255 255
255 255 255
255 255 255
255 255 255
255 255 255
255 255 255
255 255 255
255 255 255
255 255 255
255 255 255
255 255 255
255 255 255
255 255 255
255 255 255
255 255 255
255 255 255
255 255 255
255 255 255
255 255 255
255 255 255
255 255 255
255 255 255
255 255 255
255 255 255
255 255 255
255 255 255
255 255 255
255 255 255
255 255 255
255 255 255
255 255 255
255 255 255
255 255 255
255 255 255
255 255 255
255 255 255
255 255 255
220 220 220
78 78 78
78 78 78
77 77 77
75 75 75
71 71 71
64 64 64
53 53 53
77 77 77
207 207 207
254 254 254
255 255 255
255 255 255
255 255 255
255 255 255
255 255 255
255 255 255
255 255 255
255 255 255
255 255 255
255 255 255
255 255 255
255 255 255
255 255 255
255 255 255
255 255 255
255 255 255
255 255 255
255 255 255
255 255 255
255 255 255
255 255 255
255 255 255
255 255 255
255 255 255
255 255 255
255 255 255
255 255 255
255 255 255
255 255 255
237 237 237
84 84 84
198 198 198
202 202 202
203 203 203
202 202 202
203 203 203
90 90 90
173 173 173
255 255 255
255 255 255
255 255 255
255 255 255
255 255 255
255 255 255
255 255 255
255 255 255
255 255 255
255 255 255
255 255 255
255 255 255
255 255 255
255 255 255
255 255 255
255 255 255
255 255 255
255 255 255
255 255 255
255 255 255
255 255 255
255 255 255
255 255 255
255 255 255
255 255 255
255 255 255
255 255 255
255 255 255
255 255 255
255 255 255
255 255 255
255 255 255
255 255 255
255 255 255
255 255 255
255 255 255
255 255 255
255 255 255
255 255 255
255 255 255
255 255 255
255 255 255
255 255 255
255 255 255
255 255 255
255 255 255
255 255 255
255 255 255
255 255 255
255 255 255
255 255 255
177 177 177
70 70 70
73 73 73
70 70 70
67 67 67
60 60 60
51 51 51
111 111 111
226 226 226
255 255 255
255 255 255
255 255 255
255 255 255
255 255 255
255 255 255
255 255 255
255 255 255
255 255 255
255 255 255
255 255 255
255 255 255
255 255 255
255 255 255
255 255 255
255 255 255
255 255 255
255 255 255
255 255 255
255 255 255
255 255 255
255 255 255
255 255 255
255 255 255
255 255 255
255 255 255
255 255 255
255 255 255
255 255 255
255 255 255
255 255 255
254 254 254
124 124 124
109 109 109
191 191 191
202 202 202
193 193 193
141 141 141
63 63 63
87 87 87
242 242 242
255 255 255
255 255 255
255 255 255
255 255 255
255 255 255
255 255 255
255 255 255
255 255 255
255 255 255
255 255 255
255 255 255
255 255 255
255 255 255
255 255 255
255 255 255
255 255 255
255 255 255
255 255 255
255 255 255
255 255 255
255 255 255
255 255 255
255 255 255
255 255 255
255 255 255
255 255 255
255 255 255
255 255 255
255 255 255
255 255 255
255 255 255
255 255 255
255 255 255
255 255 255
255 255 255
255 255 255
255 255 255
255 255 255
255 255 255
255 255 255
255 255 255
255 255 255
255 255 255
255 255 255
255 255 255
255 255 255
255 255 255
255 255 255
255 255 255
255 255 255
228 228 228
120 120 120
69 69 69
64 64 64
66 66 66
111 111 111
181 181 181
246 246 246
255 255 255
255 255 255
255 255 255
255 255 255
255 255 255
255 255 255
255 255 255
255 255 255
255 255 255
255 255 255
255 255 255
255 255 255
255 255 255
255 255 255
255 255 255
255 255 255
255 255 255
255 255 255
255 255 255
255 255 255
255 255 255
255 255 255
255 255 255
255 255 255
255 255 255
255 255 255
255 255 255
255 255 255
255 255 255
255 255 255
255 255 255
255 255 255
255 255 255
187 187 187
62 62 62
64 64 64
75 75 75
67 67 67
70 70 70
70 70 70
67 67 67
186 186 186
255 255 255
255 255 255
255 255 255
255 255 255
255 255 255
255 255 255
255 255 255
255 255 255
255 255 255
255 255 255
255 255 255
255 255 255
255 255 255
255 255 255
255 255 255
255 255 255
255 255 255
255 255 255
255 255 255
255 255 255
255 255 255
255 255 255
255 255 255
255 255 255
255 255 255
255 255 255
255 255 255
255 255 255
255 255 255
255 255 255
255 255 255
255 255 255
255 255 255
255 255 255
255 255 255
255 255 255
255 255 255
255 255 255
255 255 255
255 255 255
255 255 255
255 255 255
255 255 255
255 255 255
255 255 255
255 255 255
255 255 255
255 255 255
255 255 255
255 255 255
255 255 255
246 246 246
221 221 221
216 216 216
230 230 230
246 246 246
255 255 255
255 255 255
255 255 255
255 255 255
255 255 255
255 255 255
255 255 255
255 255 255
255 255 255
255 255 255
255 255 255
255 255 255
255 255 255
255 255 255
255 255 255
255 255 255
255 255 255
255 255 255
255 255 255
255 255 255
255 255 255
255 255 255
255 255 255
255 255 255
255 255 255
255 255 255
255 255 255
255 255 255
255 255 255
255 255 255
255 255 255
255 255 255
255 255 255
255 255 255
255 255 255
229 229 229
56 56 56
67 67 67
72 72 72
78 78 78
77 77 77
74 74 74
68 68 68
125 125 125
255 255 255
255 255 255
255 255 255
255 255 255
255 255 255
255 255 255
255 255 255
255 255 255
255 255 255
255 255 255
255 255 255
255 255 255
255 255 255
255 255 255
255 255 255
255 255 255
255 255 255
255 255 255
255 255 255
255 255 255
255 255 255
255 255 255
255 255 255
255 255 255
255 255 255
255 255 255
255 255 255
255 255 255
255 255 255
255 255 255
255 255 255
255 255 255
255 255 255
255 255 255
255 255 255
255 255 255
255 255 255
255 255 255
255 255 255
255 255 255
255 255 255
255 255 255
255 255 255
255 255 255
255 255 255
255 255 255
255 255 255
255 255 255
255 255 255
255 255 255
255 255 255
255 255 255
255 255 255
255 255 255
255 255 255
255 255 255
255 255 255
255 255 255
255 255 255
255 255 255
255 255 255
255 255 255
255 255 255
255 255 255
255 255 255
255 255 255
255 255 255
255 255 255
255 255 255
255 255 255
255 255 255
255 255 255
255 255 255
255 255 255
255 255 255
255 255 255
255 255 255
255 255 255
255 255 255
255 255 255
255 255 255
255 255 255
255 255 255
255 255 255
255 255 255
255 255 255
255 255 255
255 255 255
255 255 255
255 255 255
255 255 255
252 252 252
129 129 129
58 58 58
73 73 73
78 78 78
79 79 79
76 76 76
70 70 70
115 115 115
255 255 255
255 255 255
255 255 255
255 255 255
255 255 255
255 255 255
255 255 255
255 255 255
255 255 255
255 255 255
255 255 255
255 255 255
255 255 255
255 255 255
255 255 255
255 255 255
255 255 255
255 255 255
255 255 255
255 255 255
255 255 255
255 255 255
255 255 255
255 255 255
255 255 255
255 255 255
255 255 255
255 255 255
255 255 255
255 255 255
255 255 255
255 255 255
255 255 255
255 255 255
255 255 255
255 255 255
255 255 255
255 255 255
255 255 255
255 255 255
255 255 255
255 255 255
255 255 255
255 255 255
255 255 255
255 255 255
255 255 255
255 255 255
255 255 255
255 255 255
255 255 255
255 255 255
255 255 255
255 255 255
255 255 255
255 255 255
255 255 255
255 255 255
255 255 255
255 255 255
255 255 255
255 255 255
255 255 255
255 255 255
255 255 255
255 255 255
255 255 255
255 255 255
255 255 255
255 255 255
255 255 255
255 255 255
255 255 255
255 255 255
255 255 255
255 255 255
255 255 255
255 255 255
255 255 255
255 255 255
255 255 255
255 255 255
255 255 255
255 255 255
255 255 255
255 255 255
255 255 255
255 255 255
255 255 255
255 255 255
255 255 255
255 255 255
240 240 240
121 121 121
48 48 48
68 68 68
74 74 74
73 73 73
64 64 64
124 124 124
255 255 255
255 255 255
255 255 255
255 255 255
255 255 255
255 255 255
255 255 255
255 255 255
255 255 255
255 255 255
255 255 255
255 255 255
255 255 255
255 255 255
255 255 255
255 255 255
255 255 255
255 255 255
255 255 255
255 255 255
255 255 255
255 255 255
255 255 255
255 255 255
255 255 255
255 255 255
255 255 255
255 255 255
255 255 255
255 255 255
255 255 255
255 255 255
255 255 255
255 255 255
255 255 255
255 255 255
255 255 255
255 255 255
255 255 255
255 255 255
255 255 255
255 255 255
255 255 255
255 255 255
255 255 255
255 255 255
255 255 255
255 255 255
255 255 255
255 255 255
255 255 255
255 255 255
255 255 255
255 255 255
255 255 255
255 255 255
255 255 255
255 255 255
255 255 255
255 255 255
255 255 255
255 255 255
255 255 255
255 255 255
255 255 255
255 255 255
255 255 255
255 255 255
255 255 255
255 255 255
255 255 255
255 255 255
255 255 255
255 255 255
255 255 255
255 255 255
255 255 255
255 255 255
255 255 255
255 255 255
255 255 255
255 255 255
255 255 255
255 255 255
255 255 255
255 255 255
255 255 255
255 255 255
255 255 255
255 255 255
255 255 255
255 255 255
255 255 255
247 247 247
178 178 178
92 92 92
63 63 63
60 60 60
84 84 84
211 211 211
255 255 255
255 255 255
255 255 255
255 255 255
255 255 255
255 255 255
255 255 255
255 255 255
255 255 255
255 255 255
255 255 255
255 255 255
255 255 255
255 255 255
255 255 255
255 255 255
255 255 255
255 255 255
255 255 255
255 255 255
255 255 255
255 255 255
255 255 255
255 255 255
255 255 255
255 255 255
255 255 255
255 255 255
255 255 255
255 255 255
255 255 255
255 255 255
255 255 255
255 255 255
255 255 255
255 255 255
255 255 255
255 255 255
255 255 255
255 255 255
255 255 255
255 255 255
255 255 255
255 255 255
255 255 255
255 255 255
255 255 255
255 255 255
255 255 255
255 255 255
255 255 255
255 255 255
255 255 255
255 255 255
255 255 255
255 255 255
255 255 255
255 255 255
255 255 255
255 255 255
255 255 255
255 255 255
255 255 255
255 255 255
255 255 255
255 255 255
255 255 255
255 255 255
255 255 255
255 255 255
255 255 255
255 255 255
255 255 255
255 255 255
255 255 255
255 255 255
255 255 255
255 255 255
255 255 255
255 255 255
255 255 255
255 255 255
255 255 255
255 255 255
255 255 255
255 255 255
255 255 255
255 255 255
255 255 255
255 255 255
255 255 255
255 255 255
255 255 255
255 255 255
255 255 255
237 237 237
200 200 200
188 188 188
223 223 223
254 254 254
255 255 255
255 255 255
255 255 255
255 255 255
255 255 255
255 255 255
255 255 255
255 255 255
255 255 255
255 255 255
255 255 255
255 255 255
255 255 255
255 255 255
255 255 255
255 255 255
255 255 255
255 255 255
255 255 255
255 255 255
255 255 255
255 255 255
255 255 255
255 255 255
255 255 255
255 255 255
255 255 255
255 255 255
255 255 255
