P3
169 300
255
233 233 233
231 231 231
233 233 233
236 236 236
235 235 235
234 234 234
233 233 233
234 234 234
234 234 234
233 233 233
232 232 232
233 233 233
233 233 233
232 232 232
231 231 231
230 230 230
205 205 205
148 148 148
124 124 124
117 117 117
111 111 111
107 107 107
103 103 103
99 99 99
96 96 96
90 90 90
87 87 87
87 87 87
86 86 86
85 85 85
83 83 83
83 83 83
83 83 83
83 83 83
83 83 83
81 81 81
81 81 81
82 82 82
63 63 63
58 58 58
58 58 58
57 57 57
59 59 59
63 63 63
63 63 63
66 66 66
69 69 69
72 72 72
75 75 75
80 80 80
87 87 87
103 103 103
178 178 178
230 230 230
233 233 233
237 237 237
238 238 238
239 239 239
239 239 239
238 238 238
240 240 240
241 241 241
240 240 240
239 239 239
239 239 239
239 239 239
237 237 237
236 236 236
237 237 237
238 238 238
237 237 237
237 237 237
237 237 237
239 239 239
238 238 238
236 236 236
235 235 235
235 235 235
234 234 234
234 234 234
234 234 234
235 235 235
234 234 234
235 235 235
237 237 237
238 238 238
239 239 239
240 240 240
237 237 237
233 233 233
235 235 235
238 238 238
238 238 238
238 238 238
236 236 236
234 234 234
236 236 236
238 238 238
239 239 239
236 236 236
236 236 236
236 236 236
237 237 237
237 237 237
238 238 238
240 240 240
241 241 241
241 241 241
239 239 239
239 239 239
239 239 239
238 238 238
238 238 238
238 238 238
237 237 237
234 234 234
209 209 209
165 165 165
151 151 151
145 145 145
143 143 143
137 137 137
129 129 129
130 130 130
127 127 127
122 122 122
120 120 120
125 125 125
121 121 121
117 117 117
113 113 113
113 113 113
113 113 113
111 111 111
109 109 109
105 105 105
107 107 107
113 113 113
116 116 116
108 108 108
109 109 109
111 111 111
109 109 109
63 63 63
39 39 39
40 40 40
40 40 40
41 41 41
41 41 41
39 39 39
40 40 40
39 39 39
42 42 42
41 41 41
40 40 40
40 40 40
44 44 44
43 43 43
26 26 26
25 25 25
25 25 25
26 26 26
26 26 26
26 26 26
26 26 26
26 26 26
26 26 26
26 26 26
26 26 26
232 232 232
231 231 231
231 231 231
233 233 233
233 233 233
232 232 232
232 232 232
232 232 232
232 232 232
230 230 230
229 229 229
226 226 226
225 225 225
224 224 224
224 224 224
227 227 227
207 207 207
149 149 149
122 122 122
117 117 117
113 113 113
107 107 107
102 102 102
99 99 99
95 95 95
90 90 90
87 87 87
87 87 87
86 86 86
84 84 84
83 83 83
83 83 83
83 83 83
83 83 83
83 83 83
79 79 79
79 79 79
81 81 81
62 62 62
58 58 58
58 58 58
57 57 57
59 59 59
63 63 63
63 63 63
66 66 66
69 69 69
73 73 73
75 75 75
81 81 81
89 89 89
104 104 104
177 177 177
231 231 231
233 233 233
235 235 235
237 237 237
237 237 237
238 238 238
238 238 238
239 239 239
239 239 239
239 239 239
239 239 239
239 239 239
239 239 239
234 234 234
234 234 234
234 234 234
236 236 236
235 235 235
235 235 235
235 235 235
236 236 236
236 236 236
234 234 234
232 232 232
234 234 234
234 234 234
233 233 233
233 233 233
233 233 233
233 233 233
232 232 232
234 234 234
235 235 235
237 237 237
238 238 238
236 236 236
235 235 235
235 235 235
237 237 237
238 238 238
238 238 238
236 236 236
234 234 234
235 235 235
238 238 238
239 239 239
237 237 237
237 237 237
237 237 237
238 238 238
236 236 236
238 238 238
239 239 239
239 239 239
238 238 238
237 237 237
236 236 236
238 238 238
238 238 238
238 238 238
237 237 237
234 234 234
230 230 230
193 193 193
157 157 157
149 149 149
145 145 145
142 142 142
136 136 136
129 129 129
128 128 128
123 123 123
118 118 118
115 115 115
118 118 118
114 114 114
114 114 114
116 116 116
114 114 114
112 112 112
110 110 110
107 107 107
108 108 108
110 110 110
113 113 113
115 115 115
108 108 108
108 108 108
114 114 114
99 99 99
47 47 47
40 40 40
41 41 41
40 40 40
42 42 42
42 42 42
40 40 40
40 40 40
39 39 39
42 42 42
41 41 41
39 39 39
41 41 41
46 46 46
35 35 35
24 24 24
25 25 25
25 25 25
26 26 26
26 26 26
26 26 26
26 26 26
26 26 26
26 26 26
26 26 26
26 26 26
230 230 230
231 231 231
231 231 231
230 230 230
230 230 230
231 231 231
231 231 231
233 233 233
233 233 233
232 232 232
229 229 229
226 226 226
224 224 224
222 222 222
223 223 223
227 227 227
209 209 209
151 151 151
123 123 123
116 116 116
111 111 111
107 107 107
101 101 101
99 99 99
95 95 95
89 89 89
88 88 88
87 87 87
85 85 85
84 84 84
83 83 83
83 83 83
82 82 82
82 82 82
82 82 82
81 81 81
80 80 80
80 80 80
63 63 63
58 58 58
57 57 57
58 58 58
60 60 60
62 62 62
63 63 63
67 67 67
70 70 70
74 74 74
76 76 76
80 80 80
91 91 91
105 105 105
176 176 176
230 230 230
232 232 232
232 232 232
232 232 232
235 235 235
236 236 236
236 236 236
235 235 235
235 235 235
234 234 234
234 234 234
234 234 234
234 234 234
232 232 232
232 232 232
231 231 231
232 232 232
233 233 233
233 233 233
233 233 233
233 233 233
233 233 233
232 232 232
230 230 230
230 230 230
231 231 231
230 230 230
230 230 230
232 232 232
232 232 232
232 232 232
232 232 232
233 233 233
233 233 233
234 234 234
233 233 233
231 231 231
233 233 233
235 235 235
238 238 238
237 237 237
235 235 235
233 233 233
236 236 236
237 237 237
237 237 237
237 237 237
237 237 237
238 238 238
238 238 238
238 238 238
238 238 238
239 239 239
240 240 240
238 238 238
236 236 236
236 236 236
238 238 238
239 239 239
238 238 238
237 237 237
233 233 233
221 221 221
178 178 178
153 153 153
146 146 146
144 144 144
139 139 139
132 132 132
125 125 125
120 120 120
116 116 116
112 112 112
112 112 112
112 112 112
113 113 113
117 117 117
119 119 119
115 115 115
112 112 112
113 113 113
112 112 112
113 113 113
111 111 111
112 112 112
112 112 112
109 109 109
109 109 109
116 116 116
88 88 88
42 42 42
42 42 42
42 42 42
41 41 41
43 43 43
41 41 41
40 40 40
40 40 40
39 39 39
40 40 40
41 41 41
41 41 41
43 43 43
46 46 46
28 28 28
23 23 23
22 22 22
24 24 24
25 25 25
26 26 26
26 26 26
26 26 26
26 26 26
26 26 26
26 26 26
26 26 26
229 229 229
230 230 230
229 229 229
230 230 230
231 231 231
231 231 231
231 231 231
233 233 233
233 233 233
233 233 233
231 231 231
230 230 230
229 229 229
229 229 229
229 229 229
229 229 229
212 212 212
152 152 152
123 123 123
116 116 116
111 111 111
107 107 107
101 101 101
97 97 97
95 95 95
91 91 91
88 88 88
87 87 87
85 85 85
84 84 84
84 84 84
83 83 83
82 82 82
82 82 82
82 82 82
79 79 79
79 79 79
81 81 81
65 65 65
58 58 58
58 58 58
60 60 60
61 61 61
62 62 62
64 64 64
67 67 67
69 69 69
72 72 72
76 76 76
82 82 82
91 91 91
105 105 105
174 174 174
229 229 229
232 232 232
232 232 232
232 232 232
234 234 234
235 235 235
234 234 234
233 233 233
232 232 232
230 230 230
230 230 230
230 230 230
230 230 230
231 231 231
232 232 232
232 232 232
231 231 231
230 230 230
230 230 230
231 231 231
231 231 231
231 231 231
230 230 230
229 229 229
227 227 227
228 228 228
226 226 226
227 227 227
230 230 230
229 229 229
228 228 228
228 228 228
230 230 230
230 230 230
231 231 231
232 232 232
230 230 230
232 232 232
234 234 234
236 236 236
236 236 236
234 234 234
234 234 234
233 233 233
234 234 234
233 233 233
234 234 234
235 235 235
235 235 235
235 235 235
236 236 236
236 236 236
236 236 236
237 237 237
238 238 238
236 236 236
236 236 236
238 238 238
239 239 239
238 238 238
237 237 237
234 234 234
207 207 207
164 164 164
150 150 150
145 145 145
141 141 141
135 135 135
129 129 129
125 125 125
117 117 117
114 114 114
113 113 113
112 112 112
111 111 111
116 116 116
119 119 119
114 114 114
111 111 111
112 112 112
112 112 112
112 112 112
113 113 113
111 111 111
112 112 112
113 113 113
110 110 110
111 111 111
111 111 111
71 71 71
42 42 42
43 43 43
44 44 44
43 43 43
42 42 42
41 41 41
40 40 40
40 40 40
39 39 39
40 40 40
41 41 41
41 41 41
44 44 44
43 43 43
26 26 26
24 24 24
24 24 24
24 24 24
25 25 25
26 26 26
26 26 26
26 26 26
26 26 26
26 26 26
26 26 26
26 26 26
225 225 225
226 226 226
229 229 229
230 230 230
232 232 232
231 231 231
231 231 231
230 230 230
231 231 231
233 233 233
230 230 230
230 230 230
231 231 231
230 230 230
230 230 230
231 231 231
214 214 214
154 154 154
124 124 124
116 116 116
111 111 111
106 106 106
100 100 100
97 97 97
95 95 95
92 92 92
89 89 89
88 88 88
85 85 85
83 83 83
84 84 84
82 82 82
82 82 82
82 82 82
82 82 82
80 80 80
78 78 78
82 82 82
65 65 65
57 57 57
59 59 59
59 59 59
59 59 59
58 58 58
64 64 64
67 67 67
69 69 69
71 71 71
76 76 76
83 83 83
89 89 89
102 102 102
171 171 171
226 226 226
230 230 230
230 230 230
231 231 231
234 234 234
234 234 234
233 233 233
233 233 233
232 232 232
230 230 230
229 229 229
228 228 228
228 228 228
231 231 231
231 231 231
232 232 232
231 231 231
227 227 227
227 227 227
228 228 228
228 228 228
227 227 227
227 227 227
227 227 227
222 222 222
206 206 206
186 186 186
170 170 170
172 172 172
183 183 183
192 192 192
206 206 206
220 220 220
229 229 229
230 230 230
230 230 230
230 230 230
231 231 231
232 232 232
233 233 233
235 235 235
234 234 234
233 233 233
233 233 233
232 232 232
232 232 232
231 231 231
231 231 231
233 233 233
234 234 234
234 234 234
234 234 234
233 233 233
233 233 233
236 236 236
234 234 234
234 234 234
235 235 235
236 236 236
235 235 235
233 233 233
225 225 225
191 191 191
157 157 157
150 150 150
144 144 144
139 139 139
136 136 136
131 131 131
128 128 128
124 124 124
119 119 119
117 117 117
115 115 115
115 115 115
118 118 118
117 117 117
115 115 115
113 113 113
113 113 113
112 112 112
109 109 109
110 110 110
110 110 110
110 110 110
112 112 112
112 112 112
112 112 112
104 104 104
58 58 58
39 39 39
44 44 44
45 45 45
43 43 43
42 42 42
41 41 41
40 40 40
39 39 39
39 39 39
41 41 41
41 41 41
40 40 40
44 44 44
39 39 39
24 24 24
24 24 24
26 26 26
25 25 25
24 24 24
25 25 25
26 26 26
26 26 26
26 26 26
26 26 26
26 26 26
26 26 26
223 223 223
225 225 225
229 229 229
230 230 230
231 231 231
229 229 229
229 229 229
229 229 229
230 230 230
231 231 231
229 229 229
225 225 225
225 225 225
225 225 225
225 225 225
227 227 227
213 213 213
155 155 155
124 124 124
116 116 116
110 110 110
106 106 106
99 99 99
97 97 97
95 95 95
91 91 91
90 90 90
88 88 88
85 85 85
83 83 83
83 83 83
82 82 82
82 82 82
82 82 82
82 82 82
81 81 81
79 79 79
82 82 82
66 66 66
57 57 57
58 58 58
57 57 57
57 57 57
60 60 60
63 63 63
66 66 66
69 69 69
70 70 70
72 72 72
81 81 81
89 89 89
101 101 101
169 169 169
225 225 225
229 229 229
229 229 229
230 230 230
232 232 232
232 232 232
232 232 232
232 232 232
232 232 232
231 231 231
230 230 230
228 228 228
227 227 227
229 229 229
230 230 230
230 230 230
230 230 230
229 229 229
227 227 227
226 226 226
226 226 226
225 225 225
220 220 220
192 192 192
156 156 156
149 149 149
148 148 148
145 145 145
143 143 143
141 141 141
144 144 144
145 145 145
145 145 145
161 161 161
193 193 193
222 222 222
232 232 232
233 233 233
233 233 233
233 233 233
233 233 233
233 233 233
233 233 233
233 233 233
233 233 233
233 233 233
232 232 232
231 231 231
233 233 233
233 233 233
233 233 233
233 233 233
233 233 233
232 232 232
233 233 233
232 232 232
232 232 232
232 232 232
232 232 232
232 232 232
229 229 229
214 214 214
175 175 175
152 152 152
149 149 149
142 142 142
136 136 136
137 137 137
134 134 134
130 130 130
127 127 127
123 123 123
121 121 121
120 120 120
116 116 116
118 118 118
118 118 118
116 116 116
115 115 115
114 114 114
114 114 114
113 113 113
115 115 115
110 110 110
109 109 109
112 112 112
112 112 112
116 116 116
92 92 92
44 44 44
41 41 41
46 46 46
40 40 40
40 40 40
41 41 41
41 41 41
40 40 40
40 40 40
40 40 40
42 42 42
41 41 41
39 39 39
45 45 45
34 34 34
24 24 24
24 24 24
26 26 26
25 25 25
25 25 25
25 25 25
26 26 26
26 26 26
26 26 26
26 26 26
26 26 26
26 26 26
225 225 225
227 227 227
229 229 229
229 229 229
227 227 227
225 225 225
224 224 224
226 226 226
226 226 226
225 225 225
224 224 224
224 224 224
224 224 224
222 222 222
222 222 222
221 221 221
210 210 210
157 157 157
124 124 124
115 115 115
110 110 110
107 107 107
100 100 100
97 97 97
95 95 95
90 90 90
89 89 89
88 88 88
85 85 85
83 83 83
82 82 82
81 81 81
80 80 80
82 82 82
82 82 82
82 82 82
81 81 81
83 83 83
67 67 67
56 56 56
60 60 60
61 61 61
58 58 58
60 60 60
63 63 63
65 65 65
68 68 68
69 69 69
74 74 74
81 81 81
89 89 89
99 99 99
169 169 169
224 224 224
228 228 228
228 228 228
228 228 228
228 228 228
227 227 227
227 227 227
227 227 227
228 228 228
230 230 230
230 230 230
228 228 228
226 226 226
227 227 227
227 227 227
225 225 225
226 226 226
224 224 224
224 224 224
224 224 224
222 222 222
194 194 194
151 151 151
145 145 145
145 145 145
130 130 130
112 112 112
100 100 100
97 97 97
95 95 95
101 101 101
114 114 114
133 133 133
140 140 140
143 143 143
145 145 145
176 176 176
218 218 218
229 229 229
229 229 229
228 228 228
228 228 228
231 231 231
232 232 232
232 232 232
232 232 232
233 233 233
233 233 233
233 233 233
232 232 232
233 233 233
233 233 233
233 233 233
232 232 232
231 231 231
231 231 231
230 230 230
230 230 230
230 230 230
229 229 229
226 226 226
201 201 201
164 164 164
151 151 151
147 147 147
139 139 139
136 136 136
137 137 137
135 135 135
130 130 130
126 126 126
123 123 123
122 122 122
117 117 117
114 114 114
114 114 114
113 113 113
111 111 111
113 113 113
116 116 116
115 115 115
112 112 112
112 112 112
110 110 110
110 110 110
113 113 113
113 113 113
108 108 108
71 71 71
40 40 40
42 42 42
45 45 45
43 43 43
41 41 41
42 42 42
43 43 43
41 41 41
41 41 41
41 41 41
39 39 39
39 39 39
39 39 39
45 45 45
28 28 28
24 24 24
25 25 25
25 25 25
26 26 26
26 26 26
26 26 26
26 26 26
26 26 26
26 26 26
26 26 26
26 26 26
26 26 26
226 226 226
226 226 226
226 226 226
227 227 227
226 226 226
226 226 226
226 226 226
226 226 226
224 224 224
220 220 220
220 220 220
222 222 222
223 223 223
223 223 223
221 221 221
218 218 218
208 208 208
159 159 159
125 125 125
115 115 115
111 111 111
106 106 106
101 101 101
99 99 99
95 95 95
89 89 89
90 90 90
88 88 88
87 87 87
84 84 84
83 83 83
83 83 83
82 82 82
82 82 82
83 83 83
83 83 83
82 82 82
84 84 84
68 68 68
56 56 56
59 59 59
57 57 57
59 59 59
61 61 61
63 63 63
66 66 66
69 69 69
69 69 69
74 74 74
79 79 79
89 89 89
100 100 100
169 169 169
224 224 224
226 226 226
227 227 227
226 226 226
224 224 224
224 224 224
224 224 224
224 224 224
225 225 225
226 226 226
226 226 226
227 227 227
226 226 226
226 226 226
226 226 226
225 225 225
225 225 225
223 223 223
224 224 224
219 219 219
165 165 165
144 144 144
141 141 141
126 126 126
101 101 101
91 91 91
90 90 90
87 87 87
88 88 88
88 88 88
86 86 86
87 87 87
84 84 84
88 88 88
101 101 101
115 115 115
133 133 133
143 143 143
165 165 165
206 206 206
225 225 225
225 225 225
228 228 228
229 229 229
228 228 228
230 230 230
231 231 231
232 232 232
231 231 231
231 231 231
231 231 231
232 232 232
233 233 233
232 232 232
230 230 230
230 230 230
230 230 230
228 228 228
227 227 227
227 227 227
222 222 222
190 190 190
157 157 157
150 150 150
147 147 147
138 138 138
136 136 136
136 136 136
133 133 133
129 129 129
125 125 125
122 122 122
120 120 120
116 116 116
116 116 116
116 116 116
113 113 113
112 112 112
111 111 111
113 113 113
110 110 110
111 111 111
111 111 111
109 109 109
110 110 110
113 113 113
113 113 113
100 100 100
51 51 51
39 39 39
39 39 39
40 40 40
43 43 43
47 47 47
46 46 46
46 46 46
43 43 43
42 42 42
40 40 40
41 41 41
40 40 40
42 42 42
44 44 44
26 26 26
24 24 24
25 25 25
25 25 25
26 26 26
26 26 26
26 26 26
26 26 26
26 26 26
26 26 26
26 26 26
26 26 26
26 26 26
226 226 226
226 226 226
226 226 226
226 226 226
225 225 225
226 226 226
226 226 226
225 225 225
223 223 223
217 217 217
216 216 216
217 217 217
218 218 218
221 221 221
220 220 220
217 217 217
207 207 207
159 159 159
125 125 125
115 115 115
112 112 112
107 107 107
101 101 101
99 99 99
95 95 95
90 90 90
91 91 91
89 89 89
86 86 86
84 84 84
84 84 84
83 83 83
82 82 82
82 82 82
83 83 83
83 83 83
83 83 83
84 84 84
68 68 68
57 57 57
60 60 60
61 61 61
58 58 58
58 58 58
63 63 63
66 66 66
68 68 68
71 71 71
74 74 74
79 79 79
87 87 87
99 99 99
167 167 167
222 222 222
226 226 226
226 226 226
225 225 225
225 225 225
224 224 224
225 225 225
225 225 225
225 225 225
225 225 225
225 225 225
226 226 226
226 226 226
226 226 226
225 225 225
223 223 223
223 223 223
220 220 220
214 214 214
153 153 153
146 146 146
135 135 135
104 104 104
88 88 88
87 87 87
84 84 84
82 82 82
81 81 81
82 82 82
82 82 82
80 80 80
80 80 80
82 82 82
78 78 78
79 79 79
86 86 86
92 92 92
105 105 105
134 134 134
140 140 140
166 166 166
217 217 217
226 226 226
224 224 224
224 224 224
226 226 226
229 229 229
230 230 230
230 230 230
229 229 229
229 229 229
230 230 230
231 231 231
232 232 232
230 230 230
230 230 230
229 229 229
227 227 227
225 225 225
224 224 224
214 214 214
176 176 176
154 154 154
148 148 148
146 146 146
138 138 138
136 136 136
131 131 131
130 130 130
126 126 126
124 124 124
121 121 121
120 120 120
118 118 118
116 116 116
115 115 115
113 113 113
111 111 111
113 113 113
110 110 110
108 108 108
110 110 110
110 110 110
108 108 108
111 111 111
114 114 114
115 115 115
84 84 84
41 41 41
39 39 39
40 40 40
41 41 41
42 42 42
45 45 45
46 46 46
45 45 45
42 42 42
42 42 42
40 40 40
40 40 40
40 40 40
46 46 46
39 39 39
23 23 23
24 24 24
25 25 25
25 25 25
26 26 26
26 26 26
26 26 26
26 26 26
26 26 26
26 26 26
26 26 26
26 26 26
26 26 26
225 225 225
225 225 225
224 224 224
224 224 224
224 224 224
222 222 222
220 220 220
220 220 220
218 218 218
214 214 214
213 213 213
214 214 214
215 215 215
216 216 216
216 216 216
215 215 215
209 209 209
160 160 160
123 123 123
114 114 114
110 110 110
106 106 106
99 99 99
99 99 99
94 94 94
90 90 90
91 91 91
89 89 89
86 86 86
84 84 84
84 84 84
82 82 82
81 81 81
83 83 83
83 83 83
83 83 83
82 82 82
83 83 83
67 67 67
57 57 57
60 60 60
59 59 59
58 58 58
59 59 59
63 63 63
66 66 66
68 68 68
70 70 70
74 74 74
78 78 78
85 85 85
96 96 96
165 165 165
223 223 223
227 227 227
226 226 226
226 226 226
226 226 226
226 226 226
225 225 225
226 226 226
226 226 226
226 226 226
227 227 227
226 226 226
226 226 226
224 224 224
221 221 221
218 218 218
220 220 220
207 207 207
144 144 144
143 143 143
123 123 123
89 89 89
83 83 83
83 83 83
82 82 82
79 79 79
78 78 78
78 78 78
79 79 79
78 78 78
78 78 78
78 78 78
79 79 79
79 79 79
76 76 76
75 75 75
86 86 86
87 87 87
91 91 91
115 115 115
138 138 138
149 149 149
210 210 210
223 223 223
221 221 221
225 225 225
228 228 228
228 228 228
228 228 228
229 229 229
228 228 228
229 229 229
231 231 231
230 230 230
229 229 229
227 227 227
227 227 227
226 226 226
223 223 223
220 220 220
204 204 204
166 166 166
153 153 153
146 146 146
143 143 143
137 137 137
136 136 136
130 130 130
127 127 127
125 125 125
124 124 124
121 121 121
120 120 120
121 121 121
119 119 119
118 118 118
115 115 115
113 113 113
116 116 116
108 108 108
106 106 106
107 107 107
108 108 108
109 109 109
114 114 114
112 112 112
110 110 110
68 68 68
39 39 39
40 40 40
41 41 41
41 41 41
41 41 41
44 44 44
41 41 41
40 40 40
40 40 40
41 41 41
39 39 39
40 40 40
43 43 43
48 48 48
32 32 32
22 22 22
25 25 25
25 25 25
25 25 25
26 26 26
26 26 26
26 26 26
26 26 26
26 26 26
25 25 25
25 25 25
26 26 26
26 26 26
222 222 222
222 222 222
222 222 222
221 221 221
218 218 218
219 219 219
217 217 217
216 216 216
212 212 212
211 211 211
211 211 211
213 213 213
214 214 214
214 214 214
214 214 214
212 212 212
209 209 209
165 165 165
122 122 122
112 112 112
109 109 109
106 106 106
101 101 101
98 98 98
95 95 95
91 91 91
91 91 91
89 89 89
86 86 86
84 84 84
83 83 83
82 82 82
82 82 82
83 83 83
83 83 83
83 83 83
82 82 82
84 84 84
70 70 70
58 58 58
60 60 60
60 60 60
57 57 57
62 62 62
65 65 65
67 67 67
68 68 68
69 69 69
73 73 73
79 79 79
85 85 85
94 94 94
163 163 163
221 221 221
227 227 227
225 225 225
225 225 225
225 225 225
225 225 225
225 225 225
225 225 225
225 225 225
226 226 226
226 226 226
225 225 225
224 224 224
223 223 223
219 219 219
217 217 217
207 207 207
141 141 141
142 142 142
110 110 110
79 79 79
75 75 75
75 75 75
71 71 71
69 69 69
73 73 73
73 73 73
74 74 74
78 78 78
76 76 76
75 75 75
74 74 74
75 75 75
75 75 75
76 76 76
73 73 73
77 77 77
81 81 81
85 85 85
88 88 88
99 99 99
129 129 129
147 147 147
211 211 211
219 219 219
223 223 223
226 226 226
226 226 226
226 226 226
228 228 228
229 229 229
230 230 230
230 230 230
231 231 231
228 228 228
226 226 226
225 225 225
225 225 225
224 224 224
219 219 219
190 190 190
160 160 160
153 153 153
145 145 145
142 142 142
136 136 136
135 135 135
129 129 129
125 125 125
123 123 123
122 122 122
119 119 119
117 117 117
117 117 117
120 120 120
121 121 121
121 121 121
118 118 118
116 116 116
112 112 112
110 110 110
108 108 108
112 112 112
112 112 112
112 112 112
110 110 110
104 104 104
54 54 54
40 40 40
40 40 40
40 40 40
40 40 40
40 40 40
40 40 40
40 40 40
41 41 41
42 42 42
43 43 43
39 39 39
41 41 41
43 43 43
45 45 45
24 24 24
23 23 23
26 26 26
25 25 25
25 25 25
26 26 26
26 26 26
26 26 26
26 26 26
26 26 26
25 25 25
25 25 25
26 26 26
26 26 26
221 221 221
220 220 220
220 220 220
218 218 218
216 216 216
217 217 217
216 216 216
215 215 215
211 211 211
209 209 209
208 208 208
210 210 210
211 211 211
213 213 213
213 213 213
212 212 212
209 209 209
165 165 165
120 120 120
111 111 111
110 110 110
102 102 102
99 99 99
98 98 98
93 93 93
91 91 91
90 90 90
87 87 87
84 84 84
83 83 83
82 82 82
83 83 83
83 83 83
83 83 83
83 83 83
83 83 83
83 83 83
82 82 82
70 70 70
57 57 57
60 60 60
59 59 59
57 57 57
61 61 61
64 64 64
64 64 64
68 68 68
69 69 69
72 72 72
79 79 79
86 86 86
95 95 95
157 157 157
218 218 218
223 223 223
223 223 223
223 223 223
224 224 224
223 223 223
223 223 223
222 222 222
221 221 221
222 222 222
223 223 223
222 222 222
222 222 222
223 223 223
217 217 217
211 211 211
148 148 148
142 142 142
112 112 112
76 76 76
80 80 80
80 80 80
77 77 77
76 76 76
73 73 73
66 66 66
66 66 66
73 73 73
77 77 77
75 75 75
73 73 73
72 72 72
73 73 73
75 75 75
74 74 74
72 72 72
69 69 69
78 78 78
79 79 79
81 81 81
86 86 86
85 85 85
118 118 118
154 154 154
216 216 216
219 219 219
223 223 223
223 223 223
223 223 223
227 227 227
230 230 230
231 231 231
229 229 229
227 227 227
224 224 224
223 223 223
224 224 224
224 224 224
221 221 221
212 212 212
178 178 178
156 156 156
151 151 151
146 146 146
142 142 142
135 135 135
134 134 134
128 128 128
123 123 123
121 121 121
122 122 122
115 115 115
113 113 113
111 111 111
116 116 116
121 121 121
118 118 118
113 113 113
113 113 113
116 116 116
114 114 114
108 108 108
111 111 111
110 110 110
110 110 110
112 112 112
92 92 92
44 44 44
39 39 39
40 40 40
40 40 40
39 39 39
40 40 40
41 41 41
40 40 40
40 40 40
43 43 43
42 42 42
40 40 40
41 41 41
44 44 44
41 41 41
24 24 24
23 23 23
25 25 25
25 25 25
26 26 26
26 26 26
25 25 25
24 24 24
25 25 25
26 26 26
25 25 25
25 25 25
24 24 24
26 26 26
219 219 219
217 217 217
217 217 217
216 216 216
215 215 215
215 215 215
213 213 213
212 212 212
212 212 212
209 209 209
208 208 208
208 208 208
209 209 209
211 211 211
211 211 211
209 209 209
205 205 205
163 163 163
120 120 120
110 110 110
108 108 108
104 104 104
100 100 100
98 98 98
95 95 95
92 92 92
90 90 90
87 87 87
84 84 84
83 83 83
83 83 83
83 83 83
83 83 83
83 83 83
83 83 83
83 83 83
82 82 82
81 81 81
71 71 71
56 56 56
59 59 59
59 59 59
58 58 58
61 61 61
62 62 62
65 65 65
68 68 68
69 69 69
71 71 71
78 78 78
85 85 85
95 95 95
153 153 153
213 213 213
221 221 221
222 222 222
222 222 222
221 221 221
221 221 221
222 222 222
221 221 221
219 219 219
218 218 218
218 218 218
217 217 217
216 216 216
217 217 217
216 216 216
166 166 166
140 140 140
117 117 117
80 80 80
78 78 78
78 78 78
76 76 76
74 74 74
73 73 73
72 72 72
73 73 73
68 68 68
66 66 66
74 74 74
73 73 73
72 72 72
74 74 74
73 73 73
72 72 72
70 70 70
72 72 72
66 66 66
73 73 73
74 74 74
77 77 77
79 79 79
77 77 77
87 87 87
103 103 103
170 170 170
218 218 218
219 219 219
220 220 220
221 221 221
224 224 224
227 227 227
227 227 227
226 226 226
222 222 222
218 218 218
216 216 216
219 219 219
221 221 221
218 218 218
200 200 200
166 166 166
152 152 152
150 150 150
144 144 144
142 142 142
135 135 135
133 133 133
129 129 129
124 124 124
123 123 123
120 120 120
114 114 114
111 111 111
112 112 112
115 115 115
118 118 118
115 115 115
110 110 110
110 110 110
114 114 114
114 114 114
111 111 111
111 111 111
111 111 111
109 109 109
111 111 111
75 75 75
39 39 39
40 40 40
42 42 42
42 42 42
41 41 41
41 41 41
42 42 42
40 40 40
40 40 40
42 42 42
42 42 42
40 40 40
39 39 39
46 46 46
38 38 38
23 23 23
25 25 25
24 24 24
25 25 25
26 26 26
26 26 26
25 25 25
25 25 25
25 25 25
26 26 26
25 25 25
25 25 25
23 23 23
24 24 24
216 216 216
215 215 215
214 214 214
213 213 213
213 213 213
213 213 213
211 211 211
209 209 209
209 209 209
208 208 208
207 207 207
207 207 207
210 210 210
210 210 210
210 210 210
208 208 208
205 205 205
164 164 164
119 119 119
110 110 110
107 107 107
105 105 105
100 100 100
96 96 96
92 92 92
90 90 90
88 88 88
87 87 87
83 83 83
83 83 83
82 82 82
83 83 83
83 83 83
83 83 83
83 83 83
82 82 82
81 81 81
82 82 82
71 71 71
56 56 56
60 60 60
59 59 59
59 59 59
62 62 62
63 63 63
66 66 66
68 68 68
70 70 70
70 70 70
77 77 77
85 85 85
96 96 96
152 152 152
212 212 212
219 219 219
220 220 220
220 220 220
219 219 219
220 220 220
219 219 219
218 218 218
218 218 218
216 216 216
214 214 214
214 214 214
212 212 212
212 212 212
188 188 188
133 133 133
133 133 133
90 90 90
70 70 70
74 74 74
73 73 73
72 72 72
71 71 71
71 71 71
71 71 71
69 69 69
69 69 69
60 60 60
66 66 66
76 76 76
84 84 84
75 75 75
67 67 67
69 69 69
67 67 67
62 62 62
52 52 52
53 53 53
56 56 56
56 56 56
59 59 59
63 63 63
77 77 77
94 94 94
107 107 107
203 203 203
218 218 218
221 221 221
222 222 222
222 222 222
222 222 222
223 223 223
221 221 221
218 218 218
216 216 216
215 215 215
218 218 218
218 218 218
214 214 214
190 190 190
161 161 161
150 150 150
149 149 149
144 144 144
138 138 138
134 134 134
130 130 130
129 129 129
126 126 126
124 124 124
122 122 122
118 118 118
116 116 116
115 115 115
117 117 117
116 116 116
115 115 115
113 113 113
114 114 114
115 115 115
117 117 117
116 116 116
111 111 111
111 111 111
110 110 110
105 105 105
59 59 59
38 38 38
40 40 40
41 41 41
40 40 40
41 41 41
42 42 42
41 41 41
40 40 40
41 41 41
40 40 40
40 40 40
40 40 40
41 41 41
43 43 43
30 30 30
24 24 24
26 26 26
24 24 24
25 25 25
26 26 26
26 26 26
26 26 26
26 26 26
26 26 26
26 26 26
25 25 25
25 25 25
24 24 24
24 24 24
213 213 213
213 213 213
212 212 212
212 212 212
212 212 212
212 212 212
210 210 210
209 209 209
210 210 210
210 210 210
211 211 211
211 211 211
210 210 210
210 210 210
211 211 211
210 210 210
208 208 208
167 167 167
119 119 119
110 110 110
107 107 107
104 104 104
100 100 100
96 96 96
88 88 88
86 86 86
87 87 87
87 87 87
84 84 84
83 83 83
82 82 82
83 83 83
83 83 83
83 83 83
83 83 83
82 82 82
81 81 81
83 83 83
70 70 70
56 56 56
61 61 61
60 60 60
61 61 61
63 63 63
65 65 65
66 66 66
68 68 68
70 70 70
70 70 70
76 76 76
85 85 85
93 93 93
148 148 148
209 209 209
217 217 217
216 216 216
216 216 216
214 214 214
215 215 215
214 214 214
211 211 211
199 199 199
187 187 187
173 173 173
161 161 161
151 151 151
138 138 138
116 116 116
109 109 109
101 101 101
84 84 84
66 66 66
65 65 65
63 63 63
63 63 63
65 65 65
70 70 70
69 69 69
70 70 70
66 66 66
121 121 121
152 152 152
146 146 146
140 140 140
112 112 112
77 77 77
58 58 58
50 50 50
46 46 46
43 43 43
45 45 45
47 47 47
50 50 50
53 53 53
53 53 53
60 60 60
79 79 79
99 99 99
152 152 152
219 219 219
222 222 222
222 222 222
221 221 221
220 220 220
220 220 220
219 219 219
218 218 218
219 219 219
221 221 221
219 219 219
216 216 216
208 208 208
177 177 177
156 156 156
149 149 149
147 147 147
144 144 144
138 138 138
134 134 134
129 129 129
127 127 127
125 125 125
123 123 123
121 121 121
121 121 121
115 115 115
116 116 116
114 114 114
115 115 115
116 116 116
114 114 114
112 112 112
117 117 117
119 119 119
116 116 116
112 112 112
112 112 112
113 113 113
96 96 96
47 47 47
38 38 38
41 41 41
40 40 40
40 40 40
40 40 40
41 41 41
40 40 40
42 42 42
42 42 42
41 41 41
40 40 40
40 40 40
41 41 41
39 39 39
25 25 25
25 25 25
26 26 26
25 25 25
25 25 25
26 26 26
26 26 26
26 26 26
25 25 25
25 25 25
26 26 26
26 26 26
26 26 26
25 25 25
25 25 25
210 210 210
210 210 210
209 209 209
209 209 209
210 210 210
208 208 208
207 207 207
210 210 210
210 210 210
210 210 210
213 213 213
212 212 212
209 209 209
206 206 206
207 207 207
207 207 207
207 207 207
169 169 169
120 120 120
110 110 110
108 108 108
104 104 104
100 100 100
95 95 95
89 89 89
86 86 86
87 87 87
86 86 86
84 84 84
83 83 83
80 80 80
83 83 83
83 83 83
83 83 83
83 83 83
82 82 82
81 81 81
84 84 84
72 72 72
56 56 56
60 60 60
61 61 61
61 61 61
62 62 62
64 64 64
66 66 66
67 67 67
69 69 69
68 68 68
75 75 75
84 84 84
93 93 93
147 147 147
207 207 207
210 210 210
213 213 213
212 212 212
202 202 202
180 180 180
157 157 157
136 136 136
134 134 134
135 135 135
136 136 136
127 127 127
119 119 119
106 106 106
97 97 97
87 87 87
79 79 79
76 76 76
73 73 73
71 71 71
70 70 70
67 67 67
65 65 65
61 61 61
58 58 58
60 60 60
61 61 61
106 106 106
154 154 154
131 131 131
114 114 114
102 102 102
138 138 138
50 50 50
45 45 45
42 42 42
42 42 42
46 46 46
46 46 46
47 47 47
49 49 49
49 49 49
56 56 56
63 63 63
89 89 89
109 109 109
211 211 211
219 219 219
220 220 220
219 219 219
218 218 218
218 218 218
218 218 218
218 218 218
219 219 219
219 219 219
217 217 217
216 216 216
200 200 200
167 167 167
155 155 155
149 149 149
145 145 145
138 138 138
136 136 136
134 134 134
131 131 131
125 125 125
122 122 122
121 121 121
122 122 122
120 120 120
114 114 114
113 113 113
113 113 113
115 115 115
118 118 118
113 113 113
109 109 109
115 115 115
115 115 115
112 112 112
109 109 109
111 111 111
113 113 113
83 83 83
42 42 42
41 41 41
40 40 40
41 41 41
40 40 40
40 40 40
41 41 41
41 41 41
41 41 41
41 41 41
41 41 41
41 41 41
40 40 40
41 41 41
34 34 34
24 24 24
25 25 25
26 26 26
26 26 26
26 26 26
26 26 26
26 26 26
25 25 25
24 24 24
25 25 25
26 26 26
26 26 26
25 25 25
26 26 26
26 26 26
208 208 208
206 206 206
205 205 205
206 206 206
206 206 206
205 205 205
206 206 206
211 211 211
211 211 211
212 212 212
213 213 213
210 210 210
204 204 204
203 203 203
203 203 203
203 203 203
204 204 204
170 170 170
119 119 119
109 109 109
105 105 105
102 102 102
99 99 99
95 95 95
92 92 92
89 89 89
89 89 89
87 87 87
85 85 85
83 83 83
81 81 81
82 82 82
83 83 83
82 82 82
83 83 83
81 81 81
82 82 82
84 84 84
73 73 73
57 57 57
60 60 60
61 61 61
59 59 59
62 62 62
63 63 63
66 66 66
67 67 67
69 69 69
68 68 68
74 74 74
83 83 83
91 91 91
144 144 144
204 204 204
209 209 209
200 200 200
161 161 161
131 131 131
135 135 135
138 138 138
130 130 130
115 115 115
98 98 98
87 87 87
81 81 81
81 81 81
79 79 79
76 76 76
77 77 77
75 75 75
71 71 71
69 69 69
68 68 68
67 67 67
67 67 67
66 66 66
67 67 67
66 66 66
66 66 66
67 67 67
62 62 62
75 75 75
107 107 107
92 92 92
105 105 105
97 97 97
75 75 75
70 70 70
53 53 53
39 39 39
42 42 42
45 45 45
45 45 45
44 44 44
46 46 46
55 55 55
59 59 59
72 72 72
98 98 98
195 195 195
219 219 219
220 220 220
219 219 219
219 219 219
218 218 218
217 217 217
217 217 217
218 218 218
216 216 216
217 217 217
214 214 214
189 189 189
161 161 161
153 153 153
148 148 148
143 143 143
137 137 137
136 136 136
135 135 135
130 130 130
125 125 125
121 121 121
120 120 120
121 121 121
116 116 116
114 114 114
114 114 114
113 113 113
114 114 114
116 116 116
114 114 114
109 109 109
110 110 110
109 109 109
106 106 106
104 104 104
106 106 106
108 108 108
62 62 62
41 41 41
41 41 41
41 41 41
41 41 41
40 40 40
41 41 41
40 40 40
39 39 39
41 41 41
41 41 41
41 41 41
41 41 41
39 39 39
41 41 41
30 30 30
22 22 22
25 25 25
26 26 26
25 25 25
26 26 26
26 26 26
26 26 26
26 26 26
25 25 25
26 26 26
26 26 26
26 26 26
26 26 26
26 26 26
26 26 26
207 207 207
207 207 207
207 207 207
206 206 206
204 204 204
206 206 206
209 209 209
212 212 212
213 213 213
213 213 213
211 211 211
206 206 206
200 200 200
197 197 197
196 196 196
197 197 197
200 200 200
168 168 168
118 118 118
107 107 107
105 105 105
101 101 101
98 98 98
94 94 94
92 92 92
88 88 88
89 89 89
88 88 88
89 89 89
85 85 85
82 82 82
81 81 81
82 82 82
82 82 82
83 83 83
82 82 82
81 81 81
87 87 87
78 78 78
59 59 59
60 60 60
61 61 61
59 59 59
61 61 61
62 62 62
63 63 63
68 68 68
71 71 71
71 71 71
77 77 77
85 85 85
90 90 90
133 133 133
179 179 179
159 159 159
118 118 118
132 132 132
130 130 130
124 124 124
117 117 117
84 84 84
80 80 80
81 81 81
79 79 79
78 78 78
77 77 77
75 75 75
74 74 74
72 72 72
69 69 69
66 66 66
66 66 66
66 66 66
67 67 67
66 66 66
66 66 66
67 67 67
67 67 67
65 65 65
65 65 65
66 66 66
62 62 62
73 73 73
83 83 83
82 82 82
83 83 83
62 62 62
80 80 80
51 51 51
65 65 65
40 40 40
42 42 42
41 41 41
42 42 42
47 47 47
53 53 53
56 56 56
65 65 65
92 92 92
183 183 183
214 214 214
215 215 215
216 216 216
217 217 217
216 216 216
216 216 216
217 217 217
218 218 218
217 217 217
216 216 216
210 210 210
177 177 177
155 155 155
149 149 149
148 148 148
142 142 142
138 138 138
135 135 135
134 134 134
133 133 133
127 127 127
122 122 122
120 120 120
116 116 116
111 111 111
115 115 115
112 112 112
111 111 111
113 113 113
116 116 116
116 116 116
113 113 113
109 109 109
108 108 108
102 102 102
102 102 102
108 108 108
101 101 101
49 49 49
43 43 43
45 45 45
44 44 44
40 40 40
39 39 39
40 40 40
41 41 41
40 40 40
41 41 41
41 41 41
41 41 41
41 41 41
40 40 40
39 39 39
26 26 26
22 22 22
24 24 24
25 25 25
25 25 25
26 26 26
26 26 26
26 26 26
26 26 26
25 25 25
26 26 26
26 26 26
26 26 26
26 26 26
26 26 26
26 26 26
208 208 208
211 211 211
211 211 211
210 210 210
207 207 207
209 209 209
210 210 210
212 212 212
214 214 214
212 212 212
210 210 210
205 205 205
201 201 201
197 197 197
196 196 196
195 195 195
196 196 196
167 167 167
118 118 118
106 106 106
103 103 103
101 101 101
97 97 97
93 93 93
91 91 91
89 89 89
89 89 89
88 88 88
88 88 88
85 85 85
80 80 80
81 81 81
82 82 82
82 82 82
83 83 83
83 83 83
81 81 81
87 87 87
81 81 81
59 59 59
60 60 60
61 61 61
58 58 58
62 62 62
64 64 64
67 67 67
70 70 70
72 72 72
72 72 72
78 78 78
91 91 91
106 106 106
116 116 116
121 121 121
127 127 127
127 127 127
127 127 127
120 120 120
110 110 110
108 108 108
105 105 105
100 100 100
94 94 94
88 88 88
80 80 80
73 73 73
68 68 68
59 59 59
52 52 52
50 50 50
49 49 49
49 49 49
54 54 54
59 59 59
64 64 64
64 64 64
66 66 66
66 66 66
65 65 65
65 65 65
65 65 65
64 64 64
63 63 63
60 60 60
60 60 60
58 58 58
59 59 59
57 57 57
64 64 64
68 68 68
58 58 58
77 77 77
47 47 47
45 45 45
48 48 48
50 50 50
53 53 53
62 62 62
85 85 85
184 184 184
212 212 212
213 213 213
212 212 212
213 213 213
211 211 211
212 212 212
213 213 213
216 216 216
215 215 215
217 217 217
202 202 202
168 168 168
155 155 155
151 151 151
147 147 147
141 141 141
135 135 135
133 133 133
132 132 132
130 130 130
125 125 125
121 121 121
119 119 119
118 118 118
114 114 114
115 115 115
115 115 115
117 117 117
118 118 118
119 119 119
119 119 119
118 118 118
114 114 114
109 109 109
102 102 102
105 105 105
115 115 115
85 85 85
43 43 43
42 42 42
44 44 44
43 43 43
41 41 41
42 42 42
41 41 41
41 41 41
41 41 41
41 41 41
41 41 41
40 40 40
40 40 40
41 41 41
36 36 36
23 23 23
23 23 23
24 24 24
25 25 25
26 26 26
26 26 26
26 26 26
26 26 26
26 26 26
26 26 26
26 26 26
26 26 26
26 26 26
26 26 26
26 26 26
26 26 26
182 182 182
188 188 188
194 194 194
200 200 200
204 204 204
206 206 206
206 206 206
209 209 209
211 211 211
207 207 207
205 205 205
203 203 203
200 200 200
201 201 201
201 201 201
199 199 199
196 196 196
168 168 168
117 117 117
107 107 107
102 102 102
100 100 100
96 96 96
93 93 93
91 91 91
89 89 89
88 88 88
86 86 86
86 86 86
85 85 85
83 83 83
80 80 80
81 81 81
81 81 81
81 81 81
80 80 80
81 81 81
88 88 88
83 83 83
58 58 58
59 59 59
60 60 60
59 59 59
63 63 63
66 66 66
67 67 67
77 77 77
95 95 95
109 109 109
119 119 119
120 120 120
118 118 118
115 115 115
113 113 113
109 109 109
109 109 109
108 108 108
109 109 109
111 111 111
112 112 112
115 115 115
117 117 117
118 118 118
117 117 117
117 117 117
114 114 114
111 111 111
101 101 101
89 89 89
71 71 71
52 52 52
43 43 43
43 43 43
42 42 42
45 45 45
54 54 54
62 62 62
63 63 63
63 63 63
63 63 63
62 62 62
61 61 61
61 61 61
61 61 61
63 63 63
63 63 63
61 61 61
63 63 63
61 61 61
55 55 55
63 63 63
59 59 59
65 65 65
45 45 45
46 46 46
48 48 48
53 53 53
61 61 61
87 87 87
195 195 195
213 213 213
214 214 214
211 211 211
207 207 207
206 206 206
206 206 206
210 210 210
212 212 212
213 213 213
212 212 212
190 190 190
162 162 162
153 153 153
150 150 150
147 147 147
142 142 142
137 137 137
133 133 133
131 131 131
127 127 127
125 125 125
122 122 122
120 120 120
118 118 118
118 118 118
117 117 117
117 117 117
119 119 119
119 119 119
117 117 117
116 116 116
118 118 118
117 117 117
112 112 112
109 109 109
113 113 113
113 113 113
65 65 65
41 41 41
43 43 43
43 43 43
42 42 42
40 40 40
41 41 41
40 40 40
41 41 41
41 41 41
41 41 41
41 41 41
40 40 40
41 41 41
39 39 39
30 30 30
23 23 23
24 24 24
24 24 24
26 26 26
26 26 26
26 26 26
26 26 26
26 26 26
26 26 26
26 26 26
26 26 26
26 26 26
26 26 26
26 26 26
26 26 26
26 26 26
146 146 146
148 148 148
152 152 152
157 157 157
161 161 161
167 167 167
172 172 172
178 178 178
184 184 184
187 187 187
191 191 191
193 193 193
196 196 196
200 200 200
203 203 203
200 200 200
198 198 198
171 171 171
115 115 115
106 106 106
101 101 101
100 100 100
96 96 96
93 93 93
90 90 90
92 92 92
90 90 90
88 88 88
87 87 87
86 86 86
82 82 82
81 81 81
82 82 82
80 80 80
81 81 81
82 82 82
83 83 83
89 89 89
85 85 85
59 59 59
59 59 59
61 61 61
61 61 61
64 64 64
86 86 86
109 109 109
116 116 116
109 109 109
99 99 99
88 88 88
78 78 78
73 73 73
72 72 72
71 71 71
71 71 71
72 72 72
70 70 70
70 70 70
70 70 70
70 70 70
71 71 71
71 71 71
72 72 72
76 76 76
82 82 82
91 91 91
96 96 96
104 104 104
111 111 111
112 112 112
110 110 110
97 97 97
75 75 75
49 49 49
41 41 41
42 42 42
45 45 45
57 57 57
62 62 62
62 62 62
62 62 62
62 62 62
63 63 63
63 63 63
62 62 62
61 61 61
63 63 63
62 62 62
62 62 62
60 60 60
56 56 56
54 54 54
63 63 63
46 46 46
44 44 44
47 47 47
51 51 51
61 61 61
108 108 108
206 206 206
210 210 210
212 212 212
210 210 210
207 207 207
207 207 207
209 209 209
210 210 210
211 211 211
209 209 209
205 205 205
180 180 180
158 158 158
150 150 150
148 148 148
147 147 147
143 143 143
137 137 137
134 134 134
130 130 130
125 125 125
127 127 127
127 127 127
124 124 124
117 117 117
117 117 117
119 119 119
120 120 120
119 119 119
117 117 117
114 114 114
113 113 113
117 117 117
114 114 114
112 112 112
110 110 110
118 118 118
105 105 105
50 50 50
42 42 42
44 44 44
43 43 43
42 42 42
40 40 40
41 41 41
42 42 42
41 41 41
40 40 40
40 40 40
39 39 39
40 40 40
42 42 42
39 39 39
27 27 27
23 23 23
23 23 23
24 24 24
25 25 25
25 25 25
26 26 26
26 26 26
26 26 26
26 26 26
26 26 26
26 26 26
26 26 26
25 25 25
25 25 25
25 25 25
24 24 24
142 142 142
142 142 142
143 143 143
143 143 143
140 140 140
139 139 139
139 139 139
139 139 139
140 140 140
142 142 142
146 146 146
152 152 152
159 159 159
166 166 166
174 174 174
178 178 178
184 184 184
163 163 163
115 115 115
104 104 104
101 101 101
100 100 100
97 97 97
94 94 94
92 92 92
91 91 91
89 89 89
88 88 88
87 87 87
85 85 85
83 83 83
82 82 82
83 83 83
81 81 81
84 84 84
82 82 82
83 83 83
92 92 92
89 89 89
60 60 60
59 59 59
61 61 61
85 85 85
110 110 110
113 113 113
99 99 99
81 81 81
68 68 68
68 68 68
69 69 69
70 70 70
70 70 70
69 69 69
69 69 69
69 69 69
71 71 71
68 68 68
68 68 68
68 68 68
68 68 68
68 68 68
69 69 69
67 67 67
66 66 66
65 65 65
65 65 65
62 62 62
64 64 64
68 68 68
78 78 78
91 91 91
106 106 106
109 109 109
103 103 103
84 84 84
49 49 49
41 41 41
42 42 42
52 52 52
61 61 61
61 61 61
62 62 62
62 62 62
62 62 62
62 62 62
61 61 61
63 63 63
63 63 63
62 62 62
61 61 61
60 60 60
61 61 61
57 57 57
42 42 42
43 43 43
47 47 47
51 51 51
61 61 61
166 166 166
203 203 203
205 205 205
208 208 208
210 210 210
210 210 210
209 209 209
208 208 208
206 206 206
206 206 206
203 203 203
196 196 196
170 170 170
155 155 155
150 150 150
147 147 147
143 143 143
140 140 140
134 134 134
133 133 133
129 129 129
125 125 125
127 127 127
129 129 129
125 125 125
121 121 121
121 121 121
124 124 124
124 124 124
118 118 118
117 117 117
116 116 116
114 114 114
116 116 116
113 113 113
111 111 111
110 110 110
119 119 119
89 89 89
41 41 41
41 41 41
43 43 43
44 44 44
43 43 43
42 42 42
43 43 43
43 43 43
41 41 41
40 40 40
41 41 41
39 39 39
39 39 39
42 42 42
35 35 35
22 22 22
23 23 23
23 23 23
23 23 23
23 23 23
23 23 23
26 26 26
26 26 26
26 26 26
26 26 26
26 26 26
26 26 26
26 26 26
25 25 25
25 25 25
24 24 24
24 24 24
121 121 121
126 126 126
129 129 129
133 133 133
134 134 134
136 136 136
136 136 136
134 134 134
132 132 132
129 129 129
128 128 128
125 125 125
122 122 122
120 120 120
119 119 119
121 121 121
127 127 127
127 127 127
113 113 113
103 103 103
101 101 101
98 98 98
98 98 98
92 92 92
92 92 92
89 89 89
89 89 89
87 87 87
84 84 84
85 85 85
83 83 83
80 80 80
81 81 81
81 81 81
84 84 84
85 85 85
85 85 85
92 92 92
90 90 90
61 61 61
80 80 80
108 108 108
111 111 111
92 92 92
71 71 71
67 67 67
67 67 67
67 67 67
67 67 67
69 69 69
70 70 70
69 69 69
69 69 69
69 69 69
68 68 68
68 68 68
68 68 68
69 69 69
67 67 67
65 65 65
65 65 65
66 66 66
66 66 66
64 64 64
62 62 62
62 62 62
63 63 63
62 62 62
60 60 60
60 60 60
62 62 62
65 65 65
78 78 78
93 93 93
100 100 100
99 99 99
71 71 71
42 42 42
40 40 40
49 49 49
58 58 58
61 61 61
62 62 62
61 61 61
59 59 59
60 60 60
60 60 60
60 60 60
60 60 60
62 62 62
61 61 61
62 62 62
61 61 61
59 59 59
45 45 45
46 46 46
50 50 50
84 84 84
163 163 163
175 175 175
202 202 202
209 209 209
207 207 207
209 209 209
207 207 207
205 205 205
204 204 204
201 201 201
200 200 200
190 190 190
162 162 162
155 155 155
149 149 149
145 145 145
139 139 139
136 136 136
133 133 133
132 132 132
130 130 130
128 128 128
127 127 127
126 126 126
122 122 122
121 121 121
120 120 120
120 120 120
121 121 121
118 118 118
116 116 116
117 117 117
117 117 117
116 116 116
113 113 113
113 113 113
113 113 113
115 115 115
68 68 68
38 38 38
39 39 39
42 42 42
43 43 43
42 42 42
42 42 42
42 42 42
42 42 42
42 42 42
40 40 40
42 42 42
40 40 40
40 40 40
42 42 42
32 32 32
24 24 24
25 25 25
24 24 24
22 22 22
23 23 23
23 23 23
25 25 25
25 25 25
24 24 24
24 24 24
25 25 25
26 26 26
26 26 26
26 26 26
26 26 26
24 24 24
24 24 24
90 90 90
93 93 93
96 96 96
99 99 99
101 101 101
106 106 106
110 110 110
114 114 114
119 119 119
120 120 120
119 119 119
120 120 120
120 120 120
118 118 118
113 113 113
111 111 111
110 110 110
117 117 117
112 112 112
102 102 102
102 102 102
100 100 100
98 98 98
92 92 92
91 91 91
89 89 89
88 88 88
86 86 86
84 84 84
85 85 85
83 83 83
80 80 80
83 83 83
84 84 84
86 86 86
85 85 85
84 84 84
89 89 89
83 83 83
104 104 104
118 118 118
110 110 110
76 76 76
67 67 67
66 66 66
67 67 67
66 66 66
66 66 66
67 67 67
68 68 68
68 68 68
67 67 67
66 66 66
66 66 66
66 66 66
66 66 66
66 66 66
66 66 66
65 65 65
65 65 65
64 64 64
63 63 63
64 64 64
63 63 63
63 63 63
63 63 63
63 63 63
62 62 62
61 61 61
61 61 61
61 61 61
61 61 61
61 61 61
59 59 59
60 60 60
67 67 67
74 74 74
57 57 57
40 40 40
40 40 40
48 48 48
59 59 59
59 59 59
60 60 60
60 60 60
60 60 60
59 59 59
59 59 59
57 57 57
59 59 59
60 60 60
60 60 60
60 60 60
59 59 59
61 61 61
62 62 62
103 103 103
116 116 116
122 122 122
127 127 127
132 132 132
170 170 170
203 203 203
209 209 209
207 207 207
207 207 207
206 206 206
206 206 206
204 204 204
180 180 180
158 158 158
152 152 152
148 148 148
141 141 141
136 136 136
131 131 131
130 130 130
129 129 129
131 131 131
126 126 126
125 125 125
122 122 122
118 118 118
118 118 118
116 116 116
116 116 116
117 117 117
119 119 119
118 118 118
116 116 116
115 115 115
112 112 112
110 110 110
111 111 111
114 114 114
103 103 103
49 49 49
37 37 37
37 37 37
38 38 38
41 41 41
42 42 42
42 42 42
42 42 42
42 42 42
41 41 41
42 42 42
41 41 41
40 40 40
41 41 41
42 42 42
27 27 27
24 24 24
25 25 25
24 24 24
22 22 22
24 24 24
25 25 25
25 25 25
25 25 25
24 24 24
23 23 23
24 24 24
25 25 25
26 26 26
25 25 25
24 24 24
23 23 23
24 24 24
88 88 88
87 87 87
88 88 88
88 88 88
87 87 87
86 86 86
85 85 85
85 85 85
88 88 88
89 89 89
90 90 90
92 92 92
96 96 96
98 98 98
102 102 102
102 102 102
105 105 105
115 115 115
110 110 110
102 102 102
100 100 100
98 98 98
95 95 95
91 91 91
89 89 89
88 88 88
88 88 88
83 83 83
83 83 83
83 83 83
82 82 82
81 81 81
83 83 83
81 81 81
85 85 85
85 85 85
84 84 84
84 84 84
111 111 111
118 118 118
117 117 117
76 76 76
63 63 63
64 64 64
65 65 65
64 64 64
65 65 65
64 64 64
65 65 65
66 66 66
66 66 66
64 64 64
63 63 63
63 63 63
63 63 63
65 65 65
63 63 63
63 63 63
64 64 64
64 64 64
64 64 64
62 62 62
61 61 61
62 62 62
62 62 62
62 62 62
61 61 61
62 62 62
60 60 60
60 60 60
60 60 60
61 61 61
61 61 61
61 61 61
60 60 60
60 60 60
58 58 58
58 58 58
56 56 56
42 42 42
37 37 37
50 50 50
60 60 60
59 59 59
58 58 58
59 59 59
59 59 59
58 58 58
57 57 57
57 57 57
59 59 59
59 59 59
60 60 60
58 58 58
60 60 60
63 63 63
69 69 69
74 74 74
76 76 76
81 81 81
95 95 95
116 116 116
129 129 129
174 174 174
202 202 202
205 205 205
204 204 204
205 205 205
199 199 199
171 171 171
156 156 156
151 151 151
146 146 146
138 138 138
133 133 133
130 130 130
129 129 129
129 129 129
127 127 127
125 125 125
124 124 124
122 122 122
120 120 120
118 118 118
115 115 115
113 113 113
115 115 115
116 116 116
116 116 116
113 113 113
110 110 110
109 109 109
110 110 110
112 112 112
115 115 115
87 87 87
42 42 42
43 43 43
38 38 38
37 37 37
41 41 41
42 42 42
41 41 41
41 41 41
41 41 41
39 39 39
40 40 40
41 41 41
40 40 40
43 43 43
39 39 39
23 23 23
25 25 25
23 23 23
23 23 23
23 23 23
25 25 25
25 25 25
25 25 25
25 25 25
26 26 26
25 25 25
24 24 24
25 25 25
24 24 24
24 24 24
24 24 24
22 22 22
22 22 22
88 88 88
87 87 87
88 88 88
87 87 87
88 88 88
86 86 86
85 85 85
83 83 83
82 82 82
79 79 79
76 76 76
75 75 75
73 73 73
72 72 72
72 72 72
71 71 71
75 75 75
101 101 101
108 108 108
100 100 100
97 97 97
96 96 96
91 91 91
90 90 90
88 88 88
87 87 87
87 87 87
84 84 84
83 83 83
83 83 83
81 81 81
81 81 81
79 79 79
77 77 77
77 77 77
76 76 76
85 85 85
116 116 116
116 116 116
116 116 116
111 111 111
153 153 153
156 156 156
133 133 133
64 64 64
64 64 64
64 64 64
63 63 63
63 63 63
62 62 62
62 62 62
62 62 62
60 60 60
60 60 60
60 60 60
62 62 62
62 62 62
62 62 62
62 62 62
62 62 62
62 62 62
61 61 61
61 61 61
61 61 61
61 61 61
61 61 61
61 61 61
62 62 62
62 62 62
61 61 61
61 61 61
61 61 61
60 60 60
60 60 60
59 59 59
59 59 59
59 59 59
57 57 57
57 57 57
57 57 57
47 47 47
40 40 40
51 51 51
58 58 58
58 58 58
58 58 58
58 58 58
58 58 58
57 57 57
57 57 57
57 57 57
58 58 58
59 59 59
60 60 60
58 58 58
59 59 59
62 62 62
63 63 63
65 65 65
67 67 67
70 70 70
76 76 76
96 96 96
124 124 124
139 139 139
189 189 189
198 198 198
194 194 194
186 186 186
164 164 164
154 154 154
150 150 150
145 145 145
137 137 137
134 134 134
131 131 131
130 130 130
129 129 129
125 125 125
123 123 123
123 123 123
122 122 122
121 121 121
119 119 119
116 116 116
111 111 111
112 112 112
112 112 112
114 114 114
110 110 110
104 104 104
108 108 108
112 112 112
114 114 114
114 114 114
67 67 67
39 39 39
41 41 41
41 41 41
41 41 41
43 43 43
42 42 42
41 41 41
42 42 42
41 41 41
40 40 40
41 41 41
40 40 40
41 41 41
46 46 46
33 33 33
23 23 23
23 23 23
24 24 24
25 25 25
23 23 23
24 24 24
25 25 25
25 25 25
25 25 25
25 25 25
25 25 25
25 25 25
24 24 24
23 23 23
23 23 23
22 22 22
22 22 22
22 22 22
89 89 89
87 87 87
86 86 86
85 85 85
85 85 85
84 84 84
85 85 85
83 83 83
80 80 80
79 79 79
77 77 77
73 73 73
72 72 72
71 71 71
68 68 68
66 66 66
65 65 65
93 93 93
107 107 107
100 100 100
98 98 98
94 94 94
90 90 90
90 90 90
87 87 87
87 87 87
83 83 83
71 71 71
65 65 65
63 63 63
61 61 61
62 62 62
63 63 63
61 61 61
60 60 60
57 57 57
65 65 65
81 81 81
106 106 106
107 107 107
162 162 162
162 162 162
161 161 161
157 157 157
78 78 78
60 60 60
62 62 62
61 61 61
62 62 62
61 61 61
62 62 62
61 61 61
60 60 60
60 60 60
61 61 61
62 62 62
61 61 61
62 62 62
62 62 62
61 61 61
60 60 60
60 60 60
61 61 61
61 61 61
61 61 61
60 60 60
60 60 60
61 61 61
61 61 61
60 60 60
59 59 59
59 59 59
59 59 59
59 59 59
58 58 58
58 58 58
58 58 58
57 57 57
57 57 57
56 56 56
56 56 56
51 51 51
43 43 43
51 51 51
58 58 58
57 57 57
58 58 58
58 58 58
58 58 58
58 58 58
57 57 57
57 57 57
57 57 57
58 58 58
58 58 58
56 56 56
55 55 55
54 54 54
57 57 57
60 60 60
66 66 66
69 69 69
72 72 72
86 86 86
121 121 121
126 126 126
182 182 182
195 195 195
174 174 174
157 157 157
153 153 153
150 150 150
142 142 142
135 135 135
134 134 134
133 133 133
132 132 132
129 129 129
124 124 124
123 123 123
123 123 123
123 123 123
122 122 122
119 119 119
118 118 118
117 117 117
114 114 114
115 115 115
113 113 113
108 108 108
105 105 105
110 110 110
114 114 114
116 116 116
105 105 105
49 49 49
39 39 39
40 40 40
39 39 39
40 40 40
41 41 41
42 42 42
43 43 43
44 44 44
41 41 41
40 40 40
39 39 39
38 38 38
41 41 41
42 42 42
26 26 26
23 23 23
22 22 22
22 22 22
24 24 24
22 22 22
24 24 24
25 25 25
25 25 25
25 25 25
24 24 24
25 25 25
25 25 25
26 26 26
25 25 25
24 24 24
23 23 23
23 23 23
23 23 23
93 93 93
94 94 94
92 92 92
88 88 88
90 90 90
90 90 90
86 86 86
84 84 84
82 82 82
79 79 79
78 78 78
77 77 77
75 75 75
74 74 74
69 69 69
66 66 66
64 64 64
89 89 89
107 107 107
100 100 100
98 98 98
94 94 94
90 90 90
85 85 85
79 79 79
83 83 83
76 76 76
66 66 66
66 66 66
65 65 65
57 57 57
54 54 54
56 56 56
59 59 59
63 63 63
63 63 63
65 65 65
64 64 64
60 60 60
129 129 129
161 161 161
160 160 160
134 134 134
122 122 122
139 139 139
71 71 71
55 55 55
61 61 61
62 62 62
62 62 62
63 63 63
61 61 61
60 60 60
61 61 61
62 62 62
61 61 61
61 61 61
61 61 61
61 61 61
60 60 60
60 60 60
58 58 58
59 59 59
60 60 60
59 59 59
59 59 59
59 59 59
60 60 60
59 59 59
58 58 58
58 58 58
58 58 58
59 59 59
59 59 59
58 58 58
59 59 59
58 58 58
57 57 57
57 57 57
57 57 57
56 56 56
54 54 54
54 54 54
50 50 50
54 54 54
58 58 58
58 58 58
58 58 58
58 58 58
58 58 58
57 57 57
57 57 57
58 58 58
58 58 58
58 58 58
58 58 58
59 59 59
59 59 59
57 57 57
58 58 58
54 54 54
61 61 61
67 67 67
70 70 70
82 82 82
119 119 119
120 120 120
170 170 170
163 163 163
153 153 153
151 151 151
147 147 147
141 141 141
135 135 135
133 133 133
134 134 134
131 131 131
127 127 127
122 122 122
123 123 123
124 124 124
123 123 123
122 122 122
119 119 119
118 118 118
119 119 119
119 119 119
116 116 116
112 112 112
109 109 109
109 109 109
110 110 110
114 114 114
120 120 120
92 92 92
40 40 40
41 41 41
42 42 42
42 42 42
42 42 42
42 42 42
44 44 44
44 44 44
44 44 44
42 42 42
38 38 38
37 37 37
38 38 38
43 43 43
40 40 40
25 25 25
25 25 25
25 25 25
24 24 24
23 23 23
23 23 23
24 24 24
24 24 24
24 24 24
25 25 25
23 23 23
24 24 24
25 25 25
24 24 24
23 23 23
22 22 22
22 22 22
23 23 23
23 23 23
84 84 84
85 85 85
88 88 88
89 89 89
90 90 90
91 91 91
89 89 89
87 87 87
84 84 84
83 83 83
82 82 82
83 83 83
79 79 79
74 74 74
71 71 71
68 68 68
66 66 66
88 88 88
108 108 108
100 100 100
96 96 96
94 94 94
84 84 84
99 99 99
101 101 101
74 74 74
67 67 67
67 67 67
66 66 66
65 65 65
63 63 63
63 63 63
62 62 62
56 56 56
53 53 53
56 56 56
60 60 60
61 61 61
62 62 62
120 120 120
133 133 133
156 156 156
119 119 119
125 125 125
135 135 135
75 75 75
70 70 70
58 58 58
62 62 62
61 61 61
59 59 59
59 59 59
60 60 60
60 60 60
60 60 60
60 60 60
61 61 61
61 61 61
61 61 61
59 59 59
59 59 59
59 59 59
59 59 59
59 59 59
59 59 59
60 60 60
59 59 59
58 58 58
56 56 56
56 56 56
58 58 58
58 58 58
58 58 58
58 58 58
58 58 58
58 58 58
57 57 57
57 57 57
57 57 57
56 56 56
56 56 56
56 56 56
55 55 55
55 55 55
57 57 57
56 56 56
57 57 57
57 57 57
57 57 57
57 57 57
57 57 57
57 57 57
57 57 57
57 57 57
57 57 57
58 58 58
58 58 58
59 59 59
57 57 57
60 60 60
62 62 62
76 76 76
72 72 72
69 69 69
71 71 71
79 79 79
117 117 117
118 118 118
151 151 151
150 150 150
149 149 149
145 145 145
144 144 144
140 140 140
136 136 136
132 132 132
128 128 128
124 124 124
122 122 122
122 122 122
121 121 121
120 120 120
120 120 120
117 117 117
116 116 116
118 118 118
120 120 120
117 117 117
113 113 113
110 110 110
110 110 110
111 111 111
115 115 115
118 118 118
71 71 71
40 40 40
42 42 42
42 42 42
42 42 42
42 42 42
40 40 40
43 43 43
44 44 44
44 44 44
42 42 42
41 41 41
37 37 37
39 39 39
43 43 43
34 34 34
23 23 23
25 25 25
25 25 25
24 24 24
24 24 24
24 24 24
24 24 24
23 23 23
24 24 24
25 25 25
24 24 24
25 25 25
24 24 24
23 23 23
24 24 24
22 22 22
23 23 23
22 22 22
20 20 20
79 79 79
76 76 76
75 75 75
76 76 76
76 76 76
78 78 78
79 79 79
81 81 81
81 81 81
82 82 82
86 86 86
86 86 86
83 83 83
84 84 84
81 81 81
76 76 76
72 72 72
90 90 90
110 110 110
101 101 101
95 95 95
88 88 88
112 112 112
93 93 93
66 66 66
66 66 66
66 66 66
65 65 65
64 64 64
63 63 63
62 62 62
63 63 63
62 62 62
58 58 58
49 49 49
38 38 38
39 39 39
44 44 44
45 45 45
62 62 62
110 110 110
146 146 146
140 140 140
97 97 97
116 116 116
69 69 69
80 80 80
54 54 54
61 61 61
61 61 61
60 60 60
60 60 60
60 60 60
59 59 59
58 58 58
59 59 59
59 59 59
59 59 59
59 59 59
59 59 59
59 59 59
58 58 58
57 57 57
57 57 57
59 59 59
60 60 60
58 58 58
57 57 57
57 57 57
55 55 55
57 57 57
56 56 56
56 56 56
57 57 57
56 56 56
56 56 56
55 55 55
55 55 55
55 55 55
55 55 55
55 55 55
55 55 55
55 55 55
55 55 55
56 56 56
55 55 55
55 55 55
56 56 56
57 57 57
55 55 55
53 53 53
49 49 49
57 57 57
56 56 56
58 58 58
58 58 58
58 58 58
58 58 58
59 59 59
59 59 59
60 60 60
65 65 65
100 100 100
84 84 84
70 70 70
73 73 73
80 80 80
120 120 120
121 121 121
151 151 151
145 145 145
145 145 145
144 144 144
138 138 138
133 133 133
128 128 128
124 124 124
122 122 122
122 122 122
122 122 122
120 120 120
120 120 120
120 120 120
117 117 117
116 116 116
116 116 116
119 119 119
116 116 116
115 115 115
111 111 111
111 111 111
114 114 114
119 119 119
111 111 111
52 52 52
40 40 40
42 42 42
43 43 43
43 43 43
42 42 42
40 40 40
43 43 43
44 44 44
43 43 43
42 42 42
41 41 41
40 40 40
38 38 38
40 40 40
27 27 27
24 24 24
25 25 25
24 24 24
25 25 25
24 24 24
24 24 24
24 24 24
24 24 24
24 24 24
25 25 25
25 25 25
25 25 25
24 24 24
23 23 23
23 23 23
22 22 22
23 23 23
22 22 22
21 21 21
86 86 86
83 83 83
81 81 81
81 81 81
78 78 78
75 75 75
73 73 73
72 72 72
72 72 72
71 71 71
72 72 72
73 73 73
71 71 71
75 75 75
74 74 74
74 74 74
73 73 73
92 92 92
109 109 109
99 99 99
90 90 90
114 114 114
86 86 86
67 67 67
66 66 66
65 65 65
64 64 64
64 64 64
63 63 63
63 63 63
63 63 63
62 62 62
54 54 54
43 43 43
41 41 41
40 40 40
39 39 39
39 39 39
41 41 41
50 50 50
70 70 70
107 107 107
123 123 123
71 71 71
68 68 68
72 72 72
67 67 67
54 54 54
59 59 59
59 59 59
59 59 59
59 59 59
59 59 59
59 59 59
58 58 58
57 57 57
57 57 57
57 57 57
57 57 57
56 56 56
57 57 57
57 57 57
57 57 57
57 57 57
57 57 57
57 57 57
57 57 57
58 58 58
61 61 61
50 50 50
54 54 54
55 55 55
55 55 55
54 54 54
54 54 54
55 55 55
55 55 55
55 55 55
54 54 54
54 54 54
54 54 54
54 54 54
53 53 53
55 55 55
56 56 56
55 55 55
55 55 55
53 53 53
54 54 54
55 55 55
54 54 54
48 48 48
51 51 51
55 55 55
55 55 55
56 56 56
56 56 56
56 56 56
57 57 57
57 57 57
58 58 58
60 60 60
75 75 75
112 112 112
86 86 86
67 67 67
70 70 70
87 87 87
113 113 113
131 131 131
146 146 146
142 142 142
140 140 140
135 135 135
131 131 131
127 127 127
123 123 123
120 120 120
121 121 121
120 120 120
118 118 118
119 119 119
118 118 118
119 119 119
120 120 120
117 117 117
115 115 115
114 114 114
114 114 114
113 113 113
113 113 113
115 115 115
123 123 123
90 90 90
43 43 43
42 42 42
42 42 42
43 43 43
43 43 43
43 43 43
41 41 41
43 43 43
43 43 43
42 42 42
42 42 42
39 39 39
39 39 39
40 40 40
37 37 37
23 23 23
24 24 24
24 24 24
26 26 26
24 24 24
25 25 25
25 25 25
24 24 24
23 23 23
24 24 24
24 24 24
25 25 25
24 24 24
23 23 23
23 23 23
22 22 22
22 22 22
23 23 23
23 23 23
23 23 23
114 114 114
104 104 104
97 97 97
92 92 92
89 89 89
87 87 87
83 83 83
78 78 78
76 76 76
76 76 76
73 73 73
71 71 71
68 68 68
65 65 65
64 64 64
62 62 62
61 61 61
84 84 84
110 110 110
93 93 93
114 114 114
83 83 83
66 66 66
66 66 66
65 65 65
63 63 63
63 63 63
61 61 61
62 62 62
61 61 61
60 60 60
51 51 51
41 41 41
42 42 42
42 42 42
41 41 41
42 42 42
41 41 41
58 58 58
133 133 133
141 141 141
74 74 74
71 71 71
72 72 72
66 66 66
70 70 70
50 50 50
55 55 55
58 58 58
58 58 58
58 58 58
57 57 57
58 58 58
58 58 58
57 57 57
57 57 57
57 57 57
57 57 57
57 57 57
57 57 57
58 58 58
58 58 58
59 59 59
57 57 57
72 72 72
90 90 90
101 101 101
101 101 101
79 79 79
56 56 56
55 55 55
54 54 54
55 55 55
55 55 55
55 55 55
55 55 55
55 55 55
55 55 55
55 55 55
56 56 56
56 56 56
55 55 55
54 54 54
54 54 54
54 54 54
53 53 53
52 52 52
53 53 53
51 51 51
53 53 53
54 54 54
54 54 54
45 45 45
53 53 53
53 53 53
54 54 54
55 55 55
56 56 56
56 56 56
56 56 56
57 57 57
59 59 59
61 61 61
91 91 91
113 113 113
81 81 81
71 71 71
69 69 69
98 98 98
111 111 111
141 141 141
139 139 139
136 136 136
133 133 133
127 127 127
124 124 124
121 121 121
117 117 117
116 116 116
117 117 117
116 116 116
116 116 116
113 113 113
116 116 116
121 121 121
117 117 117
114 114 114
111 111 111
114 114 114
114 114 114
116 116 116
117 117 117
122 122 122
67 67 67
39 39 39
43 43 43
42 42 42
43 43 43
43 43 43
43 43 43
40 40 40
40 40 40
41 41 41
42 42 42
41 41 41
39 39 39
39 39 39
42 42 42
35 35 35
23 23 23
22 22 22
24 24 24
26 26 26
26 26 26
26 26 26
26 26 26
23 23 23
23 23 23
23 23 23
23 23 23
24 24 24
24 24 24
22 22 22
23 23 23
22 22 22
22 22 22
22 22 22
23 23 23
23 23 23
168 168 168
161 161 161
152 152 152
142 142 142
132 132 132
123 123 123
114 114 114
104 104 104
95 95 95
88 88 88
83 83 83
79 79 79
74 74 74
71 71 71
69 69 69
65 65 65
62 62 62
85 85 85
97 97 97
116 116 116
85 85 85
67 67 67
67 67 67
61 61 61
62 62 62
69 69 69
77 77 77
81 81 81
80 80 80
74 74 74
44 44 44
37 37 37
35 35 35
36 36 36
38 38 38
40 40 40
42 42 42
42 42 42
101 101 101
124 124 124
139 139 139
86 86 86
70 70 70
68 68 68
56 56 56
54 54 54
58 58 58
57 57 57
57 57 57
57 57 57
57 57 57
56 56 56
57 57 57
55 55 55
56 56 56
58 58 58
58 58 58
58 58 58
58 58 58
57 57 57
57 57 57
56 56 56
86 86 86
103 103 103
109 109 109
107 107 107
91 91 91
62 62 62
55 55 55
54 54 54
55 55 55
54 54 54
54 54 54
54 54 54
54 54 54
55 55 55
54 54 54
54 54 54
53 53 53
53 53 53
53 53 53
53 53 53
52 52 52
52 52 52
53 53 53
54 54 54
53 53 53
52 52 52
46 46 46
51 51 51
53 53 53
55 55 55
50 50 50
49 49 49
54 54 54
55 55 55
55 55 55
55 55 55
54 54 54
56 56 56
56 56 56
57 57 57
59 59 59
69 69 69
112 112 112
114 114 114
76 76 76
70 70 70
71 71 71
111 111 111
112 112 112
138 138 138
136 136 136
133 133 133
128 128 128
124 124 124
121 121 121
118 118 118
116 116 116
115 115 115
115 115 115
115 115 115
110 110 110
115 115 115
118 118 118
118 118 118
114 114 114
112 112 112
113 113 113
114 114 114
115 115 115
120 120 120
105 105 105
48 48 48
40 40 40
42 42 42
42 42 42
43 43 43
43 43 43
44 44 44
42 42 42
42 42 42
43 43 43
43 43 43
42 42 42
41 41 41
40 40 40
42 42 42
28 28 28
23 23 23
22 22 22
22 22 22
27 27 27
24 24 24
24 24 24
27 27 27
24 24 24
25 25 25
23 23 23
22 22 22
24 24 24
24 24 24
23 23 23
23 23 23
22 22 22
22 22 22
22 22 22
23 23 23
23 23 23
170 170 170
174 174 174
175 175 175
175 175 175
175 175 175
170 170 170
165 165 165
160 160 160
154 154 154
144 144 144
135 135 135
120 120 120
106 106 106
96 96 96
87 87 87
79 79 79
70 70 70
78 78 78
114 114 114
92 92 92
65 65 65
63 63 63
78 78 78
97 97 97
108 108 108
104 104 104
87 87 87
68 68 68
58 58 58
45 45 45
40 40 40
39 39 39
38 38 38
39 39 39
38 38 38
38 38 38
40 40 40
41 41 41
86 86 86
122 122 122
115 115 115
101 101 101
75 75 75
64 64 64
50 50 50
56 56 56
56 56 56
56 56 56
57 57 57
57 57 57
58 58 58
57 57 57
56 56 56
55 55 55
55 55 55
57 57 57
57 57 57
58 58 58
57 57 57
55 55 55
68 68 68
102 102 102
108 108 108
107 107 107
104 104 104
75 75 75
58 58 58
54 54 54
52 52 52
53 53 53
53 53 53
54 54 54
55 55 55
55 55 55
54 54 54
53 53 53
53 53 53
52 52 52
53 53 53
51 51 51
51 51 51
51 51 51
50 50 50
52 52 52
51 51 51
53 53 53
54 54 54
54 54 54
50 50 50
48 48 48
54 54 54
54 54 54
51 51 51
45 45 45
49 49 49
51 51 51
51 51 51
51 51 51
52 52 52
55 55 55
53 53 53
57 57 57
61 61 61
67 67 67
102 102 102
122 122 122
112 112 112
68 68 68
69 69 69
86 86 86
115 115 115
126 126 126
136 136 136
132 132 132
131 131 131
128 128 128
122 122 122
118 118 118
118 118 118
117 117 117
118 118 118
115 115 115
113 113 113
114 114 114
117 117 117
118 118 118
116 116 116
115 115 115
116 116 116
115 115 115
116 116 116
125 125 125
88 88 88
39 39 39
42 42 42
43 43 43
42 42 42
42 42 42
43 43 43
43 43 43
42 42 42
41 41 41
41 41 41
42 42 42
39 39 39
40 40 40
43 43 43
44 44 44
27 27 27
24 24 24
23 23 23
25 25 25
27 27 27
28 28 28
27 27 27
27 27 27
25 25 25
24 24 24
24 24 24
24 24 24
23 23 23
23 23 23
24 24 24
23 23 23
21 21 21
22 22 22
22 22 22
23 23 23
23 23 23
170 170 170
174 174 174
175 175 175
178 178 178
178 178 178
174 174 174
174 174 174
172 172 172
173 173 173
176 176 176
177 177 177
173 173 173
168 168 168
162 162 162
153 153 153
140 140 140
116 116 116
105 105 105
113 113 113
67 67 67
88 88 88
106 106 106
113 113 113
102 102 102
80 80 80
63 63 63
60 60 60
57 57 57
44 44 44
40 40 40
40 40 40
40 40 40
40 40 40
40 40 40
40 40 40
40 40 40
40 40 40
41 41 41
38 38 38
89 89 89
98 98 98
73 73 73
70 70 70
73 73 73
52 52 52
57 57 57
55 55 55
54 54 54
54 54 54
55 55 55
54 54 54
54 54 54
54 54 54
55 55 55
54 54 54
54 54 54
54 54 54
55 55 55
57 57 57
79 79 79
108 108 108
112 112 112
109 109 109
95 95 95
65 65 65
55 55 55
52 52 52
51 51 51
53 53 53
54 54 54
51 51 51
51 51 51
51 51 51
52 52 52
52 52 52
51 51 51
52 52 52
53 53 53
52 52 52
51 51 51
50 50 50
49 49 49
49 49 49
51 51 51
49 49 49
51 51 51
51 51 51
52 52 52
49 49 49
43 43 43
51 51 51
50 50 50
50 50 50
50 50 50
44 44 44
51 51 51
51 51 51
52 52 52
51 51 51
53 53 53
53 53 53
57 57 57
88 88 88
104 104 104
116 116 116
126 126 126
126 126 126
100 100 100
67 67 67
67 67 67
102 102 102
106 106 106
133 133 133
131 131 131
128 128 128
126 126 126
121 121 121
117 117 117
117 117 117
119 119 119
121 121 121
117 117 117
116 116 116
114 114 114
117 117 117
119 119 119
120 120 120
118 118 118
117 117 117
117 117 117
119 119 119
120 120 120
65 65 65
36 36 36
41 41 41
41 41 41
42 42 42
42 42 42
43 43 43
43 43 43
42 42 42
41 41 41
40 40 40
41 41 41
39 39 39
40 40 40
47 47 47
38 38 38
24 24 24
25 25 25
24 24 24
24 24 24
25 25 25
25 25 25
24 24 24
23 23 23
23 23 23
23 23 23
24 24 24
24 24 24
24 24 24
23 23 23
23 23 23
22 22 22
21 21 21
22 22 22
22 22 22
23 23 23
23 23 23
166 166 166
171 171 171
174 174 174
178 178 178
180 180 180
179 179 179
175 175 175
174 174 174
173 173 173
173 173 173
172 172 172
173 173 173
173 173 173
172 172 172
171 171 171
169 169 169
115 115 115
121 121 121
96 96 96
103 103 103
113 113 113
106 106 106
85 85 85
64 64 64
62 62 62
60 60 60
58 58 58
44 44 44
41 41 41
40 40 40
40 40 40
41 41 41
40 40 40
39 39 39
38 38 38
38 38 38
40 40 40
54 54 54
74 74 74
72 72 72
84 84 84
79 79 79
69 69 69
55 55 55
56 56 56
55 55 55
54 54 54
54 54 54
54 54 54
55 55 55
55 55 55
56 56 56
56 56 56
56 56 56
55 55 55
52 52 52
55 55 55
55 55 55
80 80 80
109 109 109
110 110 110
110 110 110
90 90 90
57 57 57
55 55 55
51 51 51
46 46 46
49 49 49
50 50 50
53 53 53
47 47 47
48 48 48
50 50 50
50 50 50
50 50 50
50 50 50
50 50 50
52 52 52
51 51 51
50 50 50
49 49 49
46 46 46
49 49 49
49 49 49
50 50 50
51 51 51
50 50 50
49 49 49
48 48 48
45 45 45
48 48 48
49 49 49
49 49 49
50 50 50
43 43 43
45 45 45
53 53 53
53 53 53
55 55 55
50 50 50
53 53 53
55 55 55
66 66 66
106 106 106
123 123 123
128 128 128
129 129 129
122 122 122
77 77 77
65 65 65
73 73 73
112 112 112
113 113 113
133 133 133
125 125 125
124 124 124
120 120 120
117 117 117
118 118 118
120 120 120
121 121 121
117 117 117
117 117 117
116 116 116
117 117 117
116 116 116
117 117 117
117 117 117
117 117 117
117 117 117
120 120 120
102 102 102
46 46 46
38 38 38
39 39 39
40 40 40
43 43 43
43 43 43
43 43 43
43 43 43
42 42 42
40 40 40
38 38 38
40 40 40
37 37 37
41 41 41
43 43 43
30 30 30
24 24 24
25 25 25
25 25 25
24 24 24
23 23 23
23 23 23
22 22 22
22 22 22
22 22 22
22 22 22
23 23 23
23 23 23
23 23 23
24 24 24
24 24 24
22 22 22
22 22 22
23 23 23
23 23 23
23 23 23
23 23 23
152 152 152
156 156 156
157 157 157
161 161 161
166 166 166
169 169 169
168 168 168
168 168 168
167 167 167
167 167 167
167 167 167
168 168 168
167 167 167
167 167 167
166 166 166
144 144 144
117 117 117
109 109 109
110 110 110
115 115 115
93 93 93
66 66 66
62 62 62
62 62 62
62 62 62
59 59 59
47 47 47
40 40 40
40 40 40
40 40 40
41 41 41
41 41 41
40 40 40
39 39 39
39 39 39
39 39 39
38 38 38
129 129 129
146 146 146
116 116 116
77 77 77
55 55 55
53 53 53
55 55 55
56 56 56
54 54 54
55 55 55
55 55 55
56 56 56
56 56 56
56 56 56
56 56 56
57 57 57
57 57 57
56 56 56
55 55 55
55 55 55
73 73 73
111 111 111
110 110 110
110 110 110
84 84 84
57 57 57
54 54 54
53 53 53
49 49 49
44 44 44
50 50 50
50 50 50
46 46 46
48 48 48
52 52 52
51 51 51
50 50 50
49 49 49
50 50 50
50 50 50
50 50 50
49 49 49
50 50 50
44 44 44
48 48 48
50 50 50
49 49 49
51 51 51
51 51 51
51 51 51
50 50 50
49 49 49
48 48 48
44 44 44
52 52 52
51 51 51
57 57 57
51 51 51
33 33 33
45 45 45
75 75 75
89 89 89
58 58 58
49 49 49
55 55 55
58 58 58
72 72 72
117 117 117
127 127 127
129 129 129
124 124 124
109 109 109
66 66 66
64 64 64
96 96 96
105 105 105
124 124 124
125 125 125
124 124 124
120 120 120
117 117 117
116 116 116
117 117 117
120 120 120
119 119 119
118 118 118
117 117 117
115 115 115
117 117 117
118 118 118
118 118 118
116 116 116
116 116 116
119 119 119
79 79 79
39 39 39
41 41 41
41 41 41
42 42 42
43 43 43
42 42 42
40 40 40
42 42 42
41 41 41
38 38 38
37 37 37
40 40 40
38 38 38
43 43 43
38 38 38
24 24 24
23 23 23
25 25 25
25 25 25
24 24 24
23 23 23
23 23 23
23 23 23
23 23 23
22 22 22
22 22 22
24 24 24
24 24 24
23 23 23
24 24 24
25 25 25
23 23 23
22 22 22
23 23 23
22 22 22
23 23 23
24 24 24
138 138 138
136 136 136
138 138 138
146 146 146
152 152 152
157 157 157
156 156 156
156 156 156
155 155 155
156 156 156
159 159 159
162 162 162
162 162 162
162 162 162
163 163 163
110 110 110
123 123 123
120 120 120
110 110 110
81 81 81
64 64 64
62 62 62
63 63 63
61 61 61
59 59 59
50 50 50
40 40 40
40 40 40
40 40 40
40 40 40
41 41 41
40 40 40
40 40 40
39 39 39
39 39 39
39 39 39
37 37 37
121 121 121
123 123 123
86 86 86
81 81 81
65 65 65
54 54 54
55 55 55
56 56 56
54 54 54
54 54 54
53 53 53
54 54 54
54 54 54
55 55 55
55 55 55
55 55 55
55 55 55
53 53 53
54 54 54
59 59 59
107 107 107
109 109 109
109 109 109
79 79 79
56 56 56
55 55 55
53 53 53
51 51 51
45 45 45
49 49 49
49 49 49
49 49 49
53 53 53
50 50 50
53 53 53
51 51 51
48 48 48
50 50 50
51 51 51
52 52 52
50 50 50
49 49 49
49 49 49
44 44 44
51 51 51
51 51 51
51 51 51
51 51 51
51 51 51
50 50 50
51 51 51
50 50 50
50 50 50
43 43 43
51 51 51
49 49 49
62 62 62
55 55 55
42 42 42
40 40 40
71 71 71
107 107 107
72 72 72
50 50 50
50 50 50
55 55 55
58 58 58
88 88 88
121 121 121
124 124 124
125 125 125
117 117 117
85 85 85
64 64 64
67 67 67
110 110 110
103 103 103
126 126 126
122 122 122
120 120 120
120 120 120
117 117 117
119 119 119
119 119 119
118 118 118
117 117 117
115 115 115
114 114 114
117 117 117
118 118 118
117 117 117
117 117 117
120 120 120
110 110 110
53 53 53
38 38 38
42 42 42
42 42 42
41 41 41
41 41 41
39 39 39
38 38 38
41 41 41
40 40 40
38 38 38
38 38 38
37 37 37
38 38 38
42 42 42
33 33 33
24 24 24
24 24 24
25 25 25
26 26 26
24 24 24
22 22 22
23 23 23
23 23 23
23 23 23
25 25 25
25 25 25
23 23 23
23 23 23
24 24 24
24 24 24
24 24 24
22 22 22
21 21 21
23 23 23
26 26 26
30 30 30
37 37 37
121 121 121
118 118 118
123 123 123
135 135 135
140 140 140
144 144 144
145 145 145
144 144 144
141 141 141
144 144 144
147 147 147
145 145 145
146 146 146
152 152 152
133 133 133
114 114 114
119 119 119
110 110 110
73 73 73
62 62 62
63 63 63
62 62 62
62 62 62
58 58 58
57 57 57
43 43 43
38 38 38
40 40 40
39 39 39
39 39 39
41 41 41
40 40 40
38 38 38
36 36 36
37 37 37
37 37 37
37 37 37
60 60 60
65 65 65
62 62 62
73 73 73
55 55 55
55 55 55
54 54 54
55 55 55
55 55 55
54 54 54
54 54 54
55 55 55
55 55 55
55 55 55
55 55 55
55 55 55
55 55 55
54 54 54
54 54 54
94 94 94
110 110 110
109 109 109
79 79 79
55 55 55
51 51 51
50 50 50
49 49 49
47 47 47
45 45 45
51 51 51
50 50 50
63 63 63
53 53 53
50 50 50
52 52 52
51 51 51
48 48 48
49 49 49
51 51 51
52 52 52
50 50 50
49 49 49
44 44 44
48 48 48
53 53 53
64 64 64
61 61 61
53 53 53
51 51 51
50 50 50
50 50 50
50 50 50
49 49 49
45 45 45
48 48 48
49 49 49
57 57 57
65 65 65
47 47 47
36 36 36
50 50 50
103 103 103
95 95 95
58 58 58
46 46 46
51 51 51
55 55 55
60 60 60
103 103 103
117 117 117
102 102 102
109 109 109
107 107 107
61 61 61
61 61 61
83 83 83
104 104 104
119 119 119
118 118 118
118 118 118
122 122 122
120 120 120
122 122 122
117 117 117
113 113 113
115 115 115
114 114 114
116 116 116
116 116 116
118 118 118
118 118 118
118 118 118
119 119 119
87 87 87
39 39 39
37 37 37
41 41 41
43 43 43
40 40 40
41 41 41
40 40 40
39 39 39
38 38 38
38 38 38
39 39 39
38 38 38
38 38 38
39 39 39
41 41 41
29 29 29
25 25 25
25 25 25
25 25 25
26 26 26
23 23 23
22 22 22
22 22 22
24 24 24
21 21 21
23 23 23
23 23 23
24 24 24
23 23 23
24 24 24
25 25 25
24 24 24
25 25 25
28 28 28
36 36 36
45 45 45
47 47 47
46 46 46
115 115 115
111 111 111
115 115 115
124 124 124
125 125 125
127 127 127
127 127 127
127 127 127
124 124 124
123 123 123
128 128 128
131 131 131
131 131 131
133 133 133
106 106 106
120 120 120
112 112 112
70 70 70
65 65 65
63 63 63
62 62 62
61 61 61
62 62 62
59 59 59
56 56 56
40 40 40
38 38 38
39 39 39
38 38 38
38 38 38
37 37 37
34 34 34
34 34 34
36 36 36
36 36 36
48 48 48
55 55 55
63 63 63
80 80 80
77 77 77
58 58 58
53 53 53
54 54 54
55 55 55
55 55 55
54 54 54
54 54 54
55 55 55
54 54 54
53 53 53
53 53 53
55 55 55
54 54 54
54 54 54
54 54 54
75 75 75
109 109 109
110 110 110
87 87 87
56 56 56
52 52 52
50 50 50
49 49 49
49 49 49
45 45 45
49 49 49
51 51 51
72 72 72
63 63 63
51 51 51
50 50 50
51 51 51
50 50 50
48 48 48
49 49 49
51 51 51
51 51 51
51 51 51
49 49 49
43 43 43
52 52 52
61 61 61
101 101 101
86 86 86
58 58 58
58 58 58
57 57 57
51 51 51
49 49 49
49 49 49
48 48 48
45 45 45
50 50 50
51 51 51
64 64 64
50 50 50
37 37 37
42 42 42
86 86 86
107 107 107
67 67 67
50 50 50
46 46 46
50 50 50
55 55 55
68 68 68
110 110 110
91 91 91
76 76 76
108 108 108
82 82 82
59 59 59
64 64 64
106 106 106
100 100 100
112 112 112
117 117 117
118 118 118
117 117 117
117 117 117
112 112 112
111 111 111
115 115 115
115 115 115
116 116 116
117 117 117
117 117 117
115 115 115
117 117 117
112 112 112
66 66 66
38 38 38
40 40 40
41 41 41
42 42 42
41 41 41
43 43 43
41 41 41
38 38 38
37 37 37
37 37 37
39 39 39
39 39 39
39 39 39
43 43 43
38 38 38
25 25 25
25 25 25
25 25 25
25 25 25
24 24 24
23 23 23
23 23 23
22 22 22
25 25 25
22 22 22
23 23 23
23 23 23
23 23 23
21 21 21
24 24 24
27 27 27
35 35 35
44 44 44
51 51 51
55 55 55
54 54 54
46 46 46
44 44 44
119 119 119
116 116 116
116 116 116
119 119 119
119 119 119
119 119 119
118 118 118
117 117 117
115 115 115
111 111 111
115 115 115
117 117 117
117 117 117
102 102 102
118 118 118
115 115 115
74 74 74
65 65 65
63 63 63
62 62 62
61 61 61
60 60 60
59 59 59
59 59 59
56 56 56
41 41 41
38 38 38
35 35 35
34 34 34
35 35 35
37 37 37
39 39 39
40 40 40
38 38 38
36 36 36
51 51 51
52 52 52
34 34 34
39 39 39
51 51 51
53 53 53
53 53 53
54 54 54
54 54 54
54 54 54
54 54 54
54 54 54
54 54 54
54 54 54
53 53 53
51 51 51
52 52 52
52 52 52
54 54 54
56 56 56
103 103 103
111 111 111
97 97 97
57 57 57
54 54 54
50 50 50
51 51 51
50 50 50
49 49 49
46 46 46
51 51 51
65 65 65
87 87 87
53 53 53
51 51 51
49 49 49
49 49 49
50 50 50
49 49 49
49 49 49
51 51 51
50 50 50
51 51 51
48 48 48
50 50 50
58 58 58
83 83 83
116 116 116
93 93 93
65 65 65
92 92 92
74 74 74
52 52 52
49 49 49
49 49 49
48 48 48
43 43 43
49 49 49
49 49 49
63 63 63
54 54 54
41 41 41
38 38 38
56 56 56
102 102 102
82 82 82
51 51 51
45 45 45
48 48 48
49 49 49
54 54 54
83 83 83
91 91 91
60 60 60
81 81 81
104 104 104
58 58 58
60 60 60
95 95 95
95 95 95
118 118 118
117 117 117
118 118 118
118 118 118
115 115 115
113 113 113
114 114 114
116 116 116
118 118 118
118 118 118
117 117 117
117 117 117
115 115 115
120 120 120
100 100 100
47 47 47
40 40 40
44 44 44
41 41 41
41 41 41
41 41 41
41 41 41
40 40 40
38 38 38
37 37 37
37 37 37
40 40 40
39 39 39
38 38 38
45 45 45
35 35 35
24 24 24
24 24 24
24 24 24
23 23 23
22 22 22
22 22 22
23 23 23
24 24 24
24 24 24
22 22 22
23 23 23
23 23 23
24 24 24
30 30 30
40 40 40
51 51 51
56 56 56
56 56 56
50 50 50
46 46 46
44 44 44
43 43 43
44 44 44
120 120 120
118 118 118
118 118 118
121 121 121
121 121 121
120 120 120
123 123 123
120 120 120
117 117 117
115 115 115
114 114 114
111 111 111
108 108 108
109 109 109
120 120 120
83 83 83
64 64 64
63 63 63
62 62 62
62 62 62
58 58 58
55 55 55
56 56 56
58 58 58
51 51 51
37 37 37
36 36 36
39 39 39
39 39 39
40 40 40
39 39 39
40 40 40
40 40 40
38 38 38
38 38 38
54 54 54
49 49 49
37 37 37
38 38 38
53 53 53
54 54 54
54 54 54
54 54 54
55 55 55
55 55 55
55 55 55
54 54 54
51 51 51
51 51 51
52 52 52
52 52 52
50 50 50
52 52 52
57 57 57
77 77 77
111 111 111
108 108 108
68 68 68
52 52 52
51 51 51
49 49 49
50 50 50
49 49 49
46 46 46
51 51 51
55 55 55
99 99 99
67 67 67
52 52 52
49 49 49
50 50 50
51 51 51
52 52 52
53 53 53
57 57 57
51 51 51
50 50 50
51 51 51
50 50 50
80 80 80
69 69 69
107 107 107
122 122 122
97 97 97
90 90 90
113 113 113
70 70 70
53 53 53
49 49 49
49 49 49
48 48 48
42 42 42
48 48 48
49 49 49
57 57 57
61 61 61
47 47 47
35 35 35
41 41 41
81 81 81
90 90 90
51 51 51
47 47 47
45 45 45
49 49 49
51 51 51
54 54 54
90 90 90
55 55 55
56 56 56
90 90 90
77 77 77
58 58 58
71 71 71
103 103 103
106 106 106
118 118 118
117 117 117
119 119 119
115 115 115
117 117 117
121 121 121
121 121 121
123 123 123
121 121 121
120 120 120
116 116 116
116 116 116
122 122 122
84 84 84
40 40 40
40 40 40
42 42 42
41 41 41
41 41 41
41 41 41
40 40 40
39 39 39
36 36 36
38 38 38
37 37 37
40 40 40
37 37 37
37 37 37
45 45 45
30 30 30
25 25 25
26 26 26
26 26 26
25 25 25
20 20 20
21 21 21
23 23 23
24 24 24
23 23 23
25 25 25
27 27 27
33 33 33
46 46 46
56 56 56
57 57 57
55 55 55
50 50 50
46 46 46
42 42 42
42 42 42
42 42 42
42 42 42
43 43 43
103 103 103
106 106 106
108 108 108
109 109 109
107 107 107
105 105 105
108 108 108
109 109 109
112 112 112
114 114 114
113 113 113
115 115 115
99 99 99
119 119 119
110 110 110
66 66 66
63 63 63
63 63 63
60 60 60
60 60 60
59 59 59
58 58 58
52 52 52
41 41 41
37 37 37
37 37 37
38 38 38
39 39 39
40 40 40
39 39 39
37 37 37
39 39 39
40 40 40
38 38 38
46 46 46
53 53 53
45 45 45
36 36 36
37 37 37
44 44 44
55 55 55
55 55 55
54 54 54
55 55 55
54 54 54
53 53 53
52 52 52
52 52 52
51 51 51
52 52 52
51 51 51
52 52 52
53 53 53
55 55 55
100 100 100
110 110 110
86 86 86
56 56 56
53 53 53
51 51 51
51 51 51
50 50 50
49 49 49
47 47 47
55 55 55
88 88 88
94 94 94
58 58 58
53 53 53
50 50 50
52 52 52
57 57 57
60 60 60
83 83 83
63 63 63
49 49 49
49 49 49
53 53 53
76 76 76
111 111 111
81 81 81
121 121 121
128 128 128
113 113 113
121 121 121
113 113 113
66 66 66
52 52 52
49 49 49
48 48 48
48 48 48
43 43 43
46 46 46
49 49 49
52 52 52
64 64 64
48 48 48
35 35 35
36 36 36
50 50 50
64 64 64
49 49 49
47 47 47
39 39 39
47 47 47
50 50 50
51 51 51
72 72 72
55 55 55
51 51 51
61 61 61
92 92 92
52 52 52
56 56 56
100 100 100
97 97 97
119 119 119
116 116 116
118 118 118
119 119 119
123 123 123
120 120 120
122 122 122
122 122 122
123 123 123
121 121 121
116 116 116
117 117 117
116 116 116
61 61 61
39 39 39
41 41 41
44 44 44
42 42 42
41 41 41
41 41 41
39 39 39
39 39 39
39 39 39
40 40 40
37 37 37
38 38 38
38 38 38
39 39 39
41 41 41
26 26 26
26 26 26
24 24 24
25 25 25
23 23 23
20 20 20
22 22 22
24 24 24
26 26 26
30 30 30
38 38 38
46 46 46
51 51 51
55 55 55
52 52 52
46 46 46
42 42 42
42 42 42
43 43 43
41 41 41
40 40 40
41 41 41
42 42 42
43 43 43
78 78 78
79 79 79
82 82 82
86 86 86
90 90 90
92 92 92
94 94 94
94 94 94
95 95 95
97 97 97
95 95 95
98 98 98
96 96 96
119 119 119
87 87 87
65 65 65
63 63 63
59 59 59
59 59 59
58 58 58
55 55 55
46 46 46
40 40 40
40 40 40
40 40 40
39 39 39
40 40 40
40 40 40
40 40 40
37 37 37
33 33 33
38 38 38
39 39 39
39 39 39
55 55 55
54 54 54
51 51 51
34 34 34
38 38 38
37 37 37
48 48 48
52 52 52
53 53 53
52 52 52
51 51 51
50 50 50
50 50 50
50 50 50
50 50 50
50 50 50
49 49 49
53 53 53
54 54 54
65 65 65
109 109 109
104 104 104
61 61 61
53 53 53
50 50 50
50 50 50
49 49 49
48 48 48
48 48 48
53 53 53
72 72 72
110 110 110
76 76 76
57 57 57
53 53 53
55 55 55
60 60 60
80 80 80
104 104 104
89 89 89
54 54 54
51 51 51
53 53 53
54 54 54
102 102 102
109 109 109
99 99 99
129 129 129
133 133 133
133 133 133
126 126 126
109 109 109
61 61 61
50 50 50
45 45 45
49 49 49
47 47 47
46 46 46
43 43 43
48 48 48
52 52 52
66 66 66
48 48 48
38 38 38
35 35 35
43 43 43
48 48 48
49 49 49
47 47 47
41 41 41
36 36 36
45 45 45
47 47 47
49 49 49
49 49 49
49 49 49
49 49 49
75 75 75
64 64 64
53 53 53
81 81 81
93 93 93
114 114 114
118 118 118
121 121 121
124 124 124
123 123 123
117 117 117
120 120 120
122 122 122
119 119 119
118 118 118
115 115 115
121 121 121
99 99 99
44 44 44
39 39 39
41 41 41
45 45 45
43 43 43
40 40 40
38 38 38
36 36 36
37 37 37
40 40 40
39 39 39
35 35 35
36 36 36
37 37 37
43 43 43
36 36 36
26 26 26
26 26 26
25 25 25
24 24 24
23 23 23
22 22 22
26 26 26
33 33 33
41 41 41
49 49 49
52 52 52
50 50 50
47 47 47
46 46 46
44 44 44
41 41 41
40 40 40
41 41 41
42 42 42
40 40 40
40 40 40
41 41 41
42 42 42
41 41 41
81 81 81
79 79 79
77 77 77
75 75 75
78 78 78
78 78 78
78 78 78
80 80 80
81 81 81
84 84 84
84 84 84
84 84 84
104 104 104
115 115 115
71 71 71
62 62 62
60 60 60
59 59 59
57 57 57
46 46 46
38 38 38
38 38 38
41 41 41
41 41 41
42 42 42
41 41 41
40 40 40
39 39 39
39 39 39
34 34 34
37 37 37
38 38 38
36 36 36
47 47 47
54 54 54
54 54 54
54 54 54
42 42 42
37 37 37
37 37 37
37 37 37
45 45 45
52 52 52
52 52 52
51 51 51
50 50 50
53 53 53
51 51 51
49 49 49
50 50 50
52 52 52
54 54 54
54 54 54
88 88 88
112 112 112
84 84 84
56 56 56
49 49 49
50 50 50
50 50 50
49 49 49
47 47 47
46 46 46
57 57 57
106 106 106
110 110 110
65 65 65
60 60 60
59 59 59
72 72 72
105 105 105
117 117 117
111 111 111
65 65 65
54 54 54
50 50 50
55 55 55
63 63 63
114 114 114
98 98 98
113 113 113
130 130 130
136 136 136
133 133 133
125 125 125
96 96 96
57 57 57
53 53 53
43 43 43
46 46 46
47 47 47
48 48 48
40 40 40
47 47 47
50 50 50
69 69 69
46 46 46
41 41 41
31 31 31
34 34 34
46 46 46
49 49 49
47 47 47
44 44 44
37 37 37
40 40 40
47 47 47
45 45 45
46 46 46
46 46 46
47 47 47
50 50 50
70 70 70
50 50 50
62 62 62
99 99 99
102 102 102
121 121 121
120 120 120
122 122 122
120 120 120
117 117 117
118 118 118
117 117 117
114 114 114
115 115 115
115 115 115
123 123 123
78 78 78
38 38 38
39 39 39
42 42 42
44 44 44
43 43 43
43 43 43
39 39 39
37 37 37
37 37 37
39 39 39
38 38 38
35 35 35
37 37 37
40 40 40
46 46 46
30 30 30
23 23 23
24 24 24
22 22 22
22 22 22
24 24 24
37 37 37
46 46 46
49 49 49
51 51 51
50 50 50
46 46 46
43 43 43
41 41 41
40 40 40
41 41 41
41 41 41
40 40 40
44 44 44
42 42 42
42 42 42
41 41 41
41 41 41
42 42 42
41 41 41
108 108 108
103 103 103
96 96 96
91 91 91
87 87 87
83 83 83
80 80 80
78 78 78
75 75 75
74 74 74
73 73 73
69 69 69
107 107 107
112 112 112
64 64 64
61 61 61
58 58 58
56 56 56
41 41 41
37 37 37
39 39 39
41 41 41
41 41 41
41 41 41
42 42 42
41 41 41
39 39 39
39 39 39
33 33 33
34 34 34
38 38 38
36 36 36
37 37 37
54 54 54
55 55 55
54 54 54
53 53 53
50 50 50
35 35 35
34 34 34
33 33 33
37 37 37
39 39 39
46 46 46
49 49 49
51 51 51
51 51 51
50 50 50
50 50 50
51 51 51
52 52 52
54 54 54
61 61 61
108 108 108
103 103 103
60 60 60
52 52 52
50 50 50
50 50 50
48 48 48
47 47 47
48 48 48
54 54 54
90 90 90
120 120 120
112 112 112
70 70 70
69 69 69
92 92 92
120 120 120
126 126 126
123 123 123
98 98 98
58 58 58
52 52 52
50 50 50
53 53 53
82 82 82
115 115 115
85 85 85
120 120 120
130 130 130
133 133 133
131 131 131
122 122 122
80 80 80
54 54 54
50 50 50
42 42 42
47 47 47
48 48 48
48 48 48
38 38 38
47 47 47
49 49 49
53 53 53
48 48 48
44 44 44
29 29 29
31 31 31
44 44 44
47 47 47
46 46 46
45 45 45
55 55 55
34 34 34
45 45 45
46 46 46
44 44 44
46 46 46
46 46 46
47 47 47
50 50 50
42 42 42
49 49 49
91 91 91
94 94 94
121 121 121
120 120 120
118 118 118
118 118 118
117 117 117
116 116 116
114 114 114
114 114 114
113 113 113
118 118 118
113 113 113
56 56 56
38 38 38
39 39 39
42 42 42
42 42 42
40 40 40
41 41 41
40 40 40
36 36 36
35 35 35
38 38 38
39 39 39
36 36 36
35 35 35
44 44 44
40 40 40
25 25 25
25 25 25
28 28 28
31 31 31
31 31 31
40 40 40
57 57 57
55 55 55
47 47 47
43 43 43
41 41 41
42 42 42
42 42 42
40 40 40
41 41 41
41 41 41
40 40 40
39 39 39
43 43 43
41 41 41
42 42 42
41 41 41
41 41 41
42 42 42
41 41 41
110 110 110
111 111 111
112 112 112
110 110 110
108 108 108
105 105 105
102 102 102
98 98 98
92 92 92
87 87 87
79 79 79
73 73 73
106 106 106
109 109 109
64 64 64
60 60 60
56 56 56
45 45 45
39 39 39
37 37 37
41 41 41
40 40 40
41 41 41
41 41 41
41 41 41
41 41 41
38 38 38
35 35 35
34 34 34
38 38 38
36 36 36
31 31 31
40 40 40
54 54 54
55 55 55
54 54 54
54 54 54
52 52 52
48 48 48
35 35 35
35 35 35
35 35 35
34 34 34
33 33 33
34 34 34
37 37 37
37 37 37
38 38 38
40 40 40
39 39 39
42 42 42
46 46 46
82 82 82
112 112 112
92 92 92
55 55 55
52 52 52
51 51 51
51 51 51
49 49 49
49 49 49
48 48 48
66 66 66
121 121 121
129 129 129
125 125 125
105 105 105
120 120 120
129 129 129
130 130 130
130 130 130
123 123 123
74 74 74
54 54 54
50 50 50
51 51 51
52 52 52
93 93 93
110 110 110
78 78 78
121 121 121
126 126 126
114 114 114
120 120 120
113 113 113
63 63 63
52 52 52
50 50 50
42 42 42
47 47 47
47 47 47
49 49 49
34 34 34
42 42 42
46 46 46
48 48 48
47 47 47
45 45 45
30 30 30
29 29 29
41 41 41
43 43 43
42 42 42
45 45 45
54 54 54
58 58 58
37 37 37
44 44 44
45 45 45
45 45 45
46 46 46
47 47 47
39 39 39
32 32 32
48 48 48
75 75 75
86 86 86
121 121 121
118 118 118
117 117 117
115 115 115
117 117 117
114 114 114
110 110 110
108 108 108
114 114 114
120 120 120
94 94 94
43 43 43
38 38 38
41 41 41
42 42 42
42 42 42
41 41 41
41 41 41
41 41 41
37 37 37
35 35 35
37 37 37
40 40 40
38 38 38
37 37 37
47 47 47
38 38 38
36 36 36
47 47 47
51 51 51
53 53 53
53 53 53
50 50 50
52 52 52
48 48 48
42 42 42
41 41 41
39 39 39
39 39 39
40 40 40
40 40 40
43 43 43
41 41 41
40 40 40
40 40 40
39 39 39
40 40 40
42 42 42
41 41 41
42 42 42
42 42 42
42 42 42
107 107 107
108 108 108
109 109 109
106 106 106
110 110 110
112 112 112
111 111 111
110 110 110
111 111 111
110 110 110
106 106 106
96 96 96
105 105 105
108 108 108
62 62 62
59 59 59
52 52 52
46 46 46
36 36 36
40 40 40
39 39 39
38 38 38
40 40 40
41 41 41
41 41 41
40 40 40
36 36 36
35 35 35
39 39 39
39 39 39
33 33 33
33 33 33
39 39 39
54 54 54
55 55 55
55 55 55
54 54 54
54 54 54
53 53 53
46 46 46
35 35 35
36 36 36
36 36 36
34 34 34
33 33 33
34 34 34
34 34 34
35 35 35
34 34 34
35 35 35
38 38 38
43 43 43
104 104 104
112 112 112
71 71 71
53 53 53
50 50 50
50 50 50
50 50 50
49 49 49
51 51 51
51 51 51
105 105 105
131 131 131
133 133 133
136 136 136
135 135 135
134 134 134
135 135 135
134 134 134
130 130 130
109 109 109
60 60 60
49 49 49
49 49 49
50 50 50
48 48 48
98 98 98
93 93 93
78 78 78
117 117 117
110 110 110
69 69 69
105 105 105
97 97 97
54 54 54
51 51 51
49 49 49
41 41 41
42 42 42
46 46 46
47 47 47
32 32 32
35 35 35
45 45 45
46 46 46
45 45 45
45 45 45
33 33 33
28 28 28
36 36 36
45 45 45
44 44 44
43 43 43
43 43 43
71 71 71
32 32 32
43 43 43
44 44 44
45 45 45
44 44 44
41 41 41
32 32 32
29 29 29
41 41 41
55 55 55
84 84 84
116 116 116
123 123 123
122 122 122
117 117 117
117 117 117
114 114 114
107 107 107
110 110 110
115 115 115
113 113 113
67 67 67
40 40 40
40 40 40
42 42 42
42 42 42
42 42 42
42 42 42
42 42 42
41 41 41
38 38 38
36 36 36
37 37 37
40 40 40
40 40 40
40 40 40
47 47 47
46 46 46
59 59 59
57 57 57
52 52 52
47 47 47
48 48 48
47 47 47
43 43 43
44 44 44
40 40 40
39 39 39
42 42 42
41 41 41
41 41 41
41 41 41
42 42 42
41 41 41
40 40 40
41 41 41
40 40 40
40 40 40
41 41 41
40 40 40
41 41 41
41 41 41
42 42 42
105 105 105
104 104 104
104 104 104
104 104 104
106 106 106
107 107 107
105 105 105
104 104 104
106 106 106
108 108 108
110 110 110
108 108 108
102 102 102
114 114 114
64 64 64
51 51 51
56 56 56
45 45 45
36 36 36
40 40 40
38 38 38
38 38 38
39 39 39
40 40 40
39 39 39
37 37 37
35 35 35
37 37 37
37 37 37
36 36 36
34 34 34
36 36 36
40 40 40
54 54 54
54 54 54
55 55 55
54 54 54
51 51 51
49 49 49
50 50 50
48 48 48
38 38 38
34 34 34
34 34 34
35 35 35
35 35 35
35 35 35
35 35 35
35 35 35
38 38 38
40 40 40
63 63 63
113 113 113
107 107 107
60 60 60
53 53 53
49 49 49
50 50 50
50 50 50
51 51 51
53 53 53
67 67 67
124 124 124
135 135 135
139 139 139
138 138 138
137 137 137
136 136 136
131 131 131
129 129 129
124 124 124
87 87 87
57 57 57
48 48 48
48 48 48
45 45 45
41 41 41
94 94 94
75 75 75
80 80 80
111 111 111
74 74 74
61 61 61
90 90 90
76 76 76
52 52 52
49 49 49
47 47 47
41 41 41
38 38 38
44 44 44
46 46 46
37 37 37
34 34 34
43 43 43
45 45 45
45 45 45
44 44 44
35 35 35
29 29 29
32 32 32
43 43 43
44 44 44
45 45 45
42 42 42
79 79 79
29 29 29
39 39 39
43 43 43
42 42 42
37 37 37
30 30 30
30 30 30
29 29 29
35 35 35
46 46 46
84 84 84
106 106 106
125 125 125
124 124 124
119 119 119
115 115 115
114 114 114
111 111 111
113 113 113
118 118 118
104 104 104
50 50 50
39 39 39
40 40 40
42 42 42
42 42 42
40 40 40
38 38 38
41 41 41
40 40 40
40 40 40
40 40 40
39 39 39
40 40 40
38 38 38
43 43 43
46 46 46
42 42 42
45 45 45
44 44 44
43 43 43
41 41 41
41 41 41
49 49 49
44 44 44
42 42 42
41 41 41
39 39 39
42 42 42
41 41 41
41 41 41
41 41 41
42 42 42
42 42 42
41 41 41
41 41 41
41 41 41
40 40 40
39 39 39
39 39 39
40 40 40
42 42 42
42 42 42
116 116 116
110 110 110
108 108 108
106 106 106
107 107 107
109 109 109
106 106 106
104 104 104
106 106 106
108 108 108
108 108 108
107 107 107
96 96 96
116 116 116
85 85 85
54 54 54
60 60 60
47 47 47
36 36 36
39 39 39
41 41 41
40 40 40
38 38 38
38 38 38
37 37 37
34 34 34
36 36 36
40 40 40
45 45 45
38 38 38
37 37 37
39 39 39
37 37 37
54 54 54
54 54 54
54 54 54
54 54 54
53 53 53
48 48 48
53 53 53
51 51 51
49 49 49
46 46 46
36 36 36
33 33 33
34 34 34
34 34 34
34 34 34
35 35 35
38 38 38
41 41 41
88 88 88
113 113 113
95 95 95
57 57 57
52 52 52
50 50 50
50 50 50
50 50 50
53 53 53
52 52 52
103 103 103
131 131 131
138 138 138
141 141 141
138 138 138
134 134 134
120 120 120
97 97 97
117 117 117
114 114 114
65 65 65
52 52 52
50 50 50
48 48 48
53 53 53
52 52 52
77 77 77
60 60 60
78 78 78
81 81 81
55 55 55
52 52 52
61 61 61
55 55 55
49 49 49
48 48 48
46 46 46
42 42 42
32 32 32
42 42 42
45 45 45
50 50 50
43 43 43
40 40 40
44 44 44
45 45 45
44 44 44
36 36 36
29 29 29
29 29 29
41 41 41
42 42 42
45 45 45
42 42 42
75 75 75
49 49 49
31 31 31
38 38 38
35 35 35
28 28 28
28 28 28
30 30 30
30 30 30
29 29 29
44 44 44
76 76 76
89 89 89
125 125 125
124 124 124
121 121 121
119 119 119
114 114 114
114 114 114
115 115 115
121 121 121
83 83 83
40 40 40
40 40 40
41 41 41
42 42 42
42 42 42
41 41 41
40 40 40
42 42 42
43 43 43
43 43 43
43 43 43
43 43 43
42 42 42
41 41 41
48 48 48
44 44 44
40 40 40
41 41 41
42 42 42
42 42 42
41 41 41
41 41 41
49 49 49
44 44 44
43 43 43
42 42 42
40 40 40
41 41 41
40 40 40
40 40 40
40 40 40
44 44 44
43 43 43
40 40 40
41 41 41
40 40 40
40 40 40
40 40 40
38 38 38
39 39 39
41 41 41
41 41 41
148 148 148
141 141 141
132 132 132
123 123 123
120 120 120
117 117 117
108 108 108
108 108 108
109 109 109
109 109 109
108 108 108
109 109 109
95 95 95
115 115 115
109 109 109
58 58 58
61 61 61
52 52 52
37 37 37
35 35 35
35 35 35
36 36 36
36 36 36
38 38 38
38 38 38
43 43 43
48 48 48
52 52 52
47 47 47
42 42 42
36 36 36
39 39 39
38 38 38
54 54 54
55 55 55
54 54 54
53 53 53
52 52 52
45 45 45
51 51 51
54 54 54
49 49 49
50 50 50
50 50 50
46 46 46
38 38 38
36 36 36
33 33 33
35 35 35
39 39 39
45 45 45
108 108 108
114 114 114
78 78 78
57 57 57
51 51 51
50 50 50
50 50 50
51 51 51
55 55 55
64 64 64
123 123 123
134 134 134
138 138 138
138 138 138
133 133 133
121 121 121
75 75 75
65 65 65
101 101 101
96 96 96
56 56 56
50 50 50
50 50 50
45 45 45
76 76 76
47 47 47
51 51 51
50 50 50
52 52 52
52 52 52
51 51 51
49 49 49
49 49 49
49 49 49
48 48 48
48 48 48
47 47 47
44 44 44
31 31 31
42 42 42
45 45 45
55 55 55
59 59 59
36 36 36
44 44 44
44 44 44
44 44 44
38 38 38
29 29 29
30 30 30
39 39 39
42 42 42
41 41 41
43 43 43
62 62 62
75 75 75
27 27 27
28 28 28
28 28 28
27 27 27
27 27 27
27 27 27
29 29 29
26 26 26
41 41 41
64 64 64
81 81 81
121 121 121
117 117 117
121 121 121
120 120 120
115 115 115
114 114 114
117 117 117
114 114 114
62 62 62
39 39 39
41 41 41
42 42 42
42 42 42
41 41 41
41 41 41
40 40 40
41 41 41
43 43 43
42 42 42
42 42 42
42 42 42
41 41 41
41 41 41
47 47 47
42 42 42
41 41 41
42 42 42
42 42 42
42 42 42
41 41 41
43 43 43
48 48 48
43 43 43
43 43 43
42 42 42
41 41 41
40 40 40
40 40 40
40 40 40
42 42 42
41 41 41
39 39 39
41 41 41
40 40 40
40 40 40
41 41 41
40 40 40
38 38 38
38 38 38
38 38 38
39 39 39
164 164 164
163 163 163
161 161 161
162 162 162
160 160 160
156 156 156
147 147 147
142 142 142
132 132 132
123 123 123
114 114 114
112 112 112
105 105 105
101 101 101
117 117 117
99 99 99
68 68 68
59 59 59
49 49 49
42 42 42
41 41 41
41 41 41
40 40 40
44 44 44
51 51 51
55 55 55
55 55 55
51 51 51
45 45 45
38 38 38
35 35 35
35 35 35
36 36 36
53 53 53
55 55 55
53 53 53
54 54 54
55 55 55
49 49 49
45 45 45
51 51 51
51 51 51
52 52 52
50 50 50
49 49 49
49 49 49
50 50 50
49 49 49
50 50 50
52 52 52
68 68 68
117 117 117
111 111 111
65 65 65
54 54 54
50 50 50
48 48 48
49 49 49
51 51 51
54 54 54
75 75 75
129 129 129
136 136 136
140 140 140
136 136 136
128 128 128
87 87 87
60 60 60
57 57 57
90 90 90
77 77 77
55 55 55
49 49 49
48 48 48
47 47 47
85 85 85
47 47 47
49 49 49
48 48 48
48 48 48
48 48 48
47 47 47
48 48 48
47 47 47
47 47 47
47 47 47
47 47 47
46 46 46
44 44 44
30 30 30
39 39 39
44 44 44
56 56 56
67 67 67
33 33 33
44 44 44
44 44 44
44 44 44
40 40 40
29 29 29
29 29 29
35 35 35
31 31 31
28 28 28
34 34 34
45 45 45
91 91 91
27 27 27
29 29 29
29 29 29
27 27 27
27 27 27
27 27 27
28 28 28
27 27 27
38 38 38
52 52 52
75 75 75
115 115 115
115 115 115
116 116 116
119 119 119
115 115 115
115 115 115
120 120 120
99 99 99
43 43 43
39 39 39
41 41 41
43 43 43
42 42 42
40 40 40
41 41 41
39 39 39
41 41 41
43 43 43
42 42 42
42 42 42
42 42 42
40 40 40
44 44 44
48 48 48
39 39 39
42 42 42
42 42 42
42 42 42
40 40 40
39 39 39
43 43 43
46 46 46
41 41 41
43 43 43
42 42 42
41 41 41
40 40 40
41 41 41
41 41 41
42 42 42
41 41 41
41 41 41
41 41 41
41 41 41
41 41 41
40 40 40
40 40 40
39 39 39
39 39 39
37 37 37
38 38 38
140 140 140
145 145 145
153 153 153
165 165 165
169 169 169
170 170 170
168 168 168
167 167 167
165 165 165
160 160 160
149 149 149
137 137 137
123 123 123
105 105 105
110 110 110
119 119 119
112 112 112
82 82 82
56 56 56
57 57 57
58 58 58
56 56 56
56 56 56
57 57 57
55 55 55
56 56 56
53 53 53
47 47 47
50 50 50
36 36 36
35 35 35
35 35 35
36 36 36
48 48 48
55 55 55
54 54 54
54 54 54
54 54 54
53 53 53
36 36 36
44 44 44
51 51 51
49 49 49
50 50 50
49 49 49
49 49 49
50 50 50
51 51 51
53 53 53
58 58 58
94 94 94
117 117 117
106 106 106
59 59 59
52 52 52
50 50 50
44 44 44
47 47 47
50 50 50
51 51 51
74 74 74
128 128 128
135 135 135
133 133 133
128 128 128
99 99 99
58 58 58
54 54 54
55 55 55
77 77 77
60 60 60
51 51 51
48 48 48
47 47 47
61 61 61
82 82 82
45 45 45
48 48 48
48 48 48
47 47 47
47 47 47
48 48 48
48 48 48
48 48 48
48 48 48
48 48 48
47 47 47
47 47 47
43 43 43
29 29 29
37 37 37
43 43 43
60 60 60
78 78 78
30 30 30
43 43 43
43 43 43
37 37 37
38 38 38
27 27 27
29 29 29
29 29 29
29 29 29
29 29 29
30 30 30
35 35 35
97 97 97
30 30 30
28 28 28
28 28 28
28 28 28
28 28 28
27 27 27
28 28 28
26 26 26
34 34 34
45 45 45
74 74 74
107 107 107
112 112 112
115 115 115
118 118 118
117 117 117
119 119 119
122 122 122
76 76 76
38 38 38
39 39 39
40 40 40
40 40 40
42 42 42
41 41 41
43 43 43
42 42 42
42 42 42
42 42 42
42 42 42
40 40 40
41 41 41
38 38 38
45 45 45
45 45 45
41 41 41
42 42 42
42 42 42
41 41 41
38 38 38
38 38 38
43 43 43
44 44 44
40 40 40
41 41 41
41 41 41
42 42 42
41 41 41
41 41 41
40 40 40
40 40 40
41 41 41
41 41 41
39 39 39
40 40 40
40 40 40
38 38 38
38 38 38
37 37 37
39 39 39
37 37 37
37 37 37
90 90 90
96 96 96
108 108 108
122 122 122
135 135 135
143 143 143
148 148 148
153 153 153
162 162 162
166 166 166
166 166 166
160 160 160
144 144 144
138 138 138
136 136 136
119 119 119
107 107 107
96 96 96
62 62 62
60 60 60
60 60 60
59 59 59
59 59 59
55 55 55
55 55 55
52 52 52
49 49 49
54 54 54
43 43 43
37 37 37
37 37 37
36 36 36
33 33 33
43 43 43
55 55 55
54 54 54
55 55 55
54 54 54
53 53 53
46 46 46
34 34 34
42 42 42
50 50 50
50 50 50
51 51 51
50 50 50
50 50 50
51 51 51
56 56 56
61 61 61
110 110 110
120 120 120
94 94 94
57 57 57
52 52 52
49 49 49
42 42 42
47 47 47
49 49 49
44 44 44
70 70 70
124 124 124
129 129 129
127 127 127
102 102 102
49 49 49
51 51 51
51 51 51
50 50 50
54 54 54
50 50 50
48 48 48
48 48 48
46 46 46
90 90 90
71 71 71
48 48 48
47 47 47
47 47 47
47 47 47
47 47 47
48 48 48
48 48 48
47 47 47
47 47 47
47 47 47
46 46 46
45 45 45
41 41 41
27 27 27
35 35 35
42 42 42
60 60 60
83 83 83
28 28 28
39 39 39
39 39 39
30 30 30
30 30 30
26 26 26
29 29 29
29 29 29
30 30 30
29 29 29
30 30 30
29 29 29
100 100 100
47 47 47
28 28 28
27 27 27
29 29 29
29 29 29
28 28 28
28 28 28
25 25 25
40 40 40
43 43 43
72 72 72
98 98 98
116 116 116
119 119 119
119 119 119
121 121 121
126 126 126
115 115 115
57 57 57
39 39 39
39 39 39
39 39 39
38 38 38
41 41 41
42 42 42
42 42 42
43 43 43
42 42 42
40 40 40
38 38 38
36 36 36
35 35 35
37 37 37
44 44 44
42 42 42
43 43 43
41 41 41
41 41 41
40 40 40
37 37 37
39 39 39
42 42 42
42 42 42
40 40 40
43 43 43
40 40 40
41 41 41
41 41 41
41 41 41
40 40 40
40 40 40
41 41 41
41 41 41
38 38 38
40 40 40
40 40 40
39 39 39
36 36 36
36 36 36
37 37 37
37 37 37
37 37 37
69 69 69
70 70 70
72 72 72
76 76 76
83 83 83
86 86 86
93 93 93
101 101 101
117 117 117
131 131 131
140 140 140
144 144 144
147 147 147
152 152 152
158 158 158
160 160 160
156 156 156
140 140 140
122 122 122
89 89 89
67 67 67
63 63 63
60 60 60
74 74 74
86 86 86
88 88 88
57 57 57
53 53 53
36 36 36
36 36 36
36 36 36
36 36 36
33 33 33
38 38 38
52 52 52
51 51 51
51 51 51
53 53 53
55 55 55
50 50 50
39 39 39
33 33 33
36 36 36
45 45 45
49 49 49
49 49 49
49 49 49
53 53 53
56 56 56
68 68 68
120 120 120
119 119 119
82 82 82
55 55 55
53 53 53
50 50 50
42 42 42
49 49 49
47 47 47
39 39 39
60 60 60
111 111 111
118 118 118
101 101 101
54 54 54
42 42 42
49 49 49
49 49 49
48 48 48
48 48 48
48 48 48
48 48 48
49 49 49
47 47 47
109 109 109
57 57 57
49 49 49
47 47 47
47 47 47
47 47 47
47 47 47
47 47 47
47 47 47
47 47 47
46 46 46
46 46 46
45 45 45
44 44 44
41 41 41
27 27 27
33 33 33
43 43 43
62 62 62
89 89 89
28 28 28
35 35 35
31 31 31
29 29 29
29 29 29
25 25 25
27 27 27
28 28 28
28 28 28
29 29 29
31 31 31
27 27 27
92 92 92
66 66 66
31 31 31
27 27 27
26 26 26
27 27 27
29 29 29
24 24 24
33 33 33
44 44 44
44 44 44
67 67 67
97 97 97
119 119 119
120 120 120
121 121 121
119 119 119
127 127 127
98 98 98
44 44 44
40 40 40
40 40 40
39 39 39
38 38 38
39 39 39
43 43 43
43 43 43
42 42 42
42 42 42
40 40 40
38 38 38
35 35 35
34 34 34
39 39 39
43 43 43
42 42 42
42 42 42
41 41 41
41 41 41
38 38 38
36 36 36
40 40 40
41 41 41
41 41 41
40 40 40
43 43 43
41 41 41
41 41 41
41 41 41
41 41 41
41 41 41
41 41 41
41 41 41
41 41 41
37 37 37
39 39 39
39 39 39
38 38 38
35 35 35
36 36 36
36 36 36
37 37 37
38 38 38
74 74 74
67 67 67
64 64 64
63 63 63
66 66 66
68 68 68
69 69 69
73 73 73
75 75 75
78 78 78
86 86 86
89 89 89
100 100 100
109 109 109
115 115 115
126 126 126
138 138 138
143 143 143
151 151 151
126 126 126
96 96 96
90 90 90
80 80 80
110 110 110
109 109 109
92 92 92
57 57 57
50 50 50
34 34 34
36 36 36
37 37 37
35 35 35
33 33 33
35 35 35
50 50 50
52 52 52
51 51 51
51 51 51
53 53 53
50 50 50
48 48 48
35 35 35
34 34 34
34 34 34
38 38 38
43 43 43
46 46 46
52 52 52
59 59 59
86 86 86
123 123 123
120 120 120
71 71 71
57 57 57
52 52 52
48 48 48
40 40 40
49 49 49
46 46 46
39 39 39
54 54 54
78 78 78
90 90 90
58 58 58
40 40 40
42 42 42
47 47 47
48 48 48
50 50 50
50 50 50
48 48 48
48 48 48
49 49 49
59 59 59
112 112 112
48 48 48
47 47 47
47 47 47
47 47 47
48 48 48
48 48 48
48 48 48
48 48 48
48 48 48
46 46 46
45 45 45
45 45 45
43 43 43
38 38 38
25 25 25
31 31 31
41 41 41
67 67 67
91 91 91
27 27 27
30 30 30
29 29 29
29 29 29
27 27 27
24 24 24
29 29 29
30 30 30
30 30 30
30 30 30
30 30 30
28 28 28
86 86 86
81 81 81
29 29 29
28 28 28
28 28 28
27 27 27
24 24 24
23 23 23
32 32 32
41 41 41
42 42 42
64 64 64
92 92 92
116 116 116
119 119 119
120 120 120
121 121 121
122 122 122
69 69 69
39 39 39
41 41 41
41 41 41
40 40 40
38 38 38
38 38 38
43 43 43
42 42 42
40 40 40
38 38 38
39 39 39
37 37 37
36 36 36
34 34 34
39 39 39
43 43 43
43 43 43
42 42 42
41 41 41
40 40 40
38 38 38
39 39 39
39 39 39
41 41 41
41 41 41
41 41 41
39 39 39
41 41 41
41 41 41
41 41 41
42 42 42
42 42 42
42 42 42
40 40 40
38 38 38
37 37 37
37 37 37
37 37 37
37 37 37
36 36 36
34 34 34
35 35 35
37 37 37
36 36 36
140 140 140
128 128 128
113 113 113
96 96 96
84 84 84
75 75 75
68 68 68
65 65 65
64 64 64
64 64 64
67 67 67
70 70 70
74 74 74
76 76 76
77 77 77
79 79 79
81 81 81
82 82 82
115 115 115
119 119 119
94 94 94
93 93 93
82 82 82
116 116 116
111 111 111
87 87 87
57 57 57
50 50 50
34 34 34
36 36 36
35 35 35
35 35 35
35 35 35
33 33 33
47 47 47
51 51 51
50 50 50
51 51 51
52 52 52
51 51 51
50 50 50
46 46 46
35 35 35
34 34 34
33 33 33
33 33 33
33 33 33
41 41 41
50 50 50
105 105 105
122 122 122
117 117 117
67 67 67
54 54 54
51 51 51
47 47 47
42 42 42
47 47 47
42 42 42
36 36 36
51 51 51
52 52 52
51 51 51
51 51 51
34 34 34
41 41 41
49 49 49
49 49 49
50 50 50
51 51 51
48 48 48
47 47 47
48 48 48
80 80 80
108 108 108
42 42 42
46 46 46
46 46 46
47 47 47
48 48 48
48 48 48
47 47 47
47 47 47
47 47 47
46 46 46
44 44 44
45 45 45
43 43 43
37 37 37
24 24 24
29 29 29
42 42 42
74 74 74
93 93 93
28 28 28
28 28 28
27 27 27
26 26 26
25 25 25
24 24 24
29 29 29
30 30 30
30 30 30
28 28 28
29 29 29
29 29 29
85 85 85
94 94 94
29 29 29
29 29 29
28 28 28
43 43 43
26 26 26
28 28 28
29 29 29
42 42 42
42 42 42
62 62 62
90 90 90
117 117 117
119 119 119
121 121 121
127 127 127
111 111 111
49 49 49
38 38 38
40 40 40
41 41 41
39 39 39
37 37 37
36 36 36
41 41 41
41 41 41
38 38 38
37 37 37
39 39 39
39 39 39
37 37 37
38 38 38
41 41 41
42 42 42
43 43 43
42 42 42
41 41 41
40 40 40
40 40 40
41 41 41
41 41 41
42 42 42
40 40 40
40 40 40
39 39 39
41 41 41
41 41 41
41 41 41
42 42 42
42 42 42
41 41 41
40 40 40
38 38 38
38 38 38
37 37 37
38 38 38
36 36 36
34 34 34
34 34 34
33 33 33
32 32 32
33 33 33
142 142 142
149 149 149
149 149 149
146 146 146
142 142 142
141 141 141
132 132 132
123 123 123
109 109 109
91 91 91
75 75 75
67 67 67
63 63 63
63 63 63
63 63 63
62 62 62
60 60 60
52 52 52
96 96 96
117 117 117
96 96 96
93 93 93
94 94 94
116 116 116
112 112 112
79 79 79
57 57 57
49 49 49
35 35 35
37 37 37
34 34 34
33 33 33
34 34 34
34 34 34
41 41 41
50 50 50
51 51 51
51 51 51
51 51 51
50 50 50
50 50 50
50 50 50
47 47 47
35 35 35
34 34 34
34 34 34
33 33 33
39 39 39
52 52 52
117 117 117
125 125 125
113 113 113
63 63 63
53 53 53
50 50 50
45 45 45
45 45 45
47 47 47
39 39 39
36 36 36
48 48 48
50 50 50
49 49 49
46 46 46
31 31 31
42 42 42
49 49 49
49 49 49
50 50 50
50 50 50
48 48 48
48 48 48
46 46 46
94 94 94
99 99 99
44 44 44
44 44 44
46 46 46
46 46 46
47 47 47
46 46 46
46 46 46
45 45 45
44 44 44
44 44 44
44 44 44
43 43 43
41 41 41
38 38 38
28 28 28
29 29 29
41 41 41
80 80 80
92 92 92
29 29 29
31 31 31
29 29 29
27 27 27
27 27 27
25 25 25
28 28 28
27 27 27
28 28 28
30 30 30
30 30 30
31 31 31
89 89 89
102 102 102
31 31 31
30 30 30
69 69 69
98 98 98
28 28 28
28 28 28
27 27 27
42 42 42
43 43 43
57 57 57
85 85 85
121 121 121
121 121 121
121 121 121
129 129 129
87 87 87
38 38 38
38 38 38
39 39 39
40 40 40
39 39 39
39 39 39
38 38 38
40 40 40
41 41 41
37 37 37
38 38 38
40 40 40
38 38 38
38 38 38
39 39 39
38 38 38
41 41 41
44 44 44
43 43 43
41 41 41
40 40 40
40 40 40
42 42 42
41 41 41
41 41 41
41 41 41
41 41 41
40 40 40
41 41 41
40 40 40
41 41 41
42 42 42
42 42 42
41 41 41
39 39 39
36 36 36
37 37 37
37 37 37
37 37 37
36 36 36
33 33 33
32 32 32
32 32 32
38 38 38
36 36 36
146 146 146
148 148 148
145 145 145
142 142 142
139 139 139
143 143 143
151 151 151
157 157 157
160 160 160
156 156 156
146 146 146
135 135 135
120 120 120
104 104 104
83 83 83
72 72 72
60 60 60
49 49 49
88 88 88
115 115 115
100 100 100
89 89 89
104 104 104
115 115 115
114 114 114
70 70 70
56 56 56
49 49 49
37 37 37
35 35 35
35 35 35
34 34 34
33 33 33
36 36 36
37 37 37
51 51 51
51 51 51
51 51 51
51 51 51
50 50 50
50 50 50
50 50 50
49 49 49
49 49 49
39 39 39
32 32 32
35 35 35
42 42 42
68 68 68
123 123 123
126 126 126
107 107 107
60 60 60
53 53 53
50 50 50
44 44 44
46 46 46
46 46 46
36 36 36
35 35 35
47 47 47
49 49 49
49 49 49
43 43 43
29 29 29
43 43 43
46 46 46
45 45 45
47 47 47
47 47 47
46 46 46
45 45 45
47 47 47
109 109 109
90 90 90
44 44 44
44 44 44
45 45 45
45 45 45
44 44 44
44 44 44
43 43 43
43 43 43
42 42 42
43 43 43
40 40 40
37 37 37
31 31 31
49 49 49
38 38 38
32 32 32
42 42 42
87 87 87
94 94 94
29 29 29
32 32 32
31 31 31
29 29 29
29 29 29
24 24 24
26 26 26
31 31 31
31 31 31
29 29 29
31 31 31
32 32 32
97 97 97
106 106 106
42 42 42
91 91 91
112 112 112
104 104 104
33 33 33
30 30 30
25 25 25
40 40 40
43 43 43
53 53 53
79 79 79
124 124 124
121 121 121
124 124 124
120 120 120
61 61 61
38 38 38
39 39 39
40 40 40
40 40 40
40 40 40
40 40 40
41 41 41
40 40 40
38 38 38
39 39 39
39 39 39
40 40 40
39 39 39
38 38 38
42 42 42
40 40 40
41 41 41
42 42 42
42 42 42
41 41 41
40 40 40
40 40 40
41 41 41
40 40 40
41 41 41
40 40 40
42 42 42
44 44 44
40 40 40
41 41 41
42 42 42
42 42 42
41 41 41
40 40 40
39 39 39
37 37 37
37 37 37
36 36 36
35 35 35
32 32 32
29 29 29
27 27 27
39 39 39
48 48 48
37 37 37
157 157 157
164 164 164
164 164 164
163 163 163
158 158 158
151 151 151
144 144 144
140 140 140
135 135 135
136 136 136
142 142 142
149 149 149
150 150 150
152 152 152
148 148 148
142 142 142
130 130 130
116 116 116
119 119 119
118 118 118
98 98 98
88 88 88
113 113 113
119 119 119
112 112 112
64 64 64
57 57 57
49 49 49
37 37 37
34 34 34
35 35 35
34 34 34
34 34 34
34 34 34
35 35 35
47 47 47
49 49 49
50 50 50
50 50 50
50 50 50
50 50 50
49 49 49
50 50 50
50 50 50
49 49 49
42 42 42
36 36 36
43 43 43
83 83 83
125 125 125
126 126 126
101 101 101
59 59 59
50 50 50
49 49 49
43 43 43
46 46 46
46 46 46
32 32 32
32 32 32
48 48 48
48 48 48
47 47 47
38 38 38
28 28 28
40 40 40
45 45 45
45 45 45
46 46 46
47 47 47
47 47 47
45 45 45
51 51 51
114 114 114
77 77 77
44 44 44
39 39 39
34 34 34
33 33 33
34 34 34
35 35 35
37 37 37
36 36 36
33 33 33
33 33 33
30 30 30
28 28 28
28 28 28
64 64 64
38 38 38
30 30 30
40 40 40
94 94 94
94 94 94
30 30 30
30 30 30
29 29 29
28 28 28
29 29 29
24 24 24
27 27 27
31 31 31
30 30 30
31 31 31
30 30 30
58 58 58
112 112 112
117 117 117
109 109 109
116 116 116
117 117 117
110 110 110
38 38 38
31 31 31
27 27 27
38 38 38
44 44 44
48 48 48
76 76 76
121 121 121
121 121 121
127 127 127
105 105 105
44 44 44
38 38 38
39 39 39
39 39 39
40 40 40
41 41 41
41 41 41
42 42 42
42 42 42
40 40 40
40 40 40
40 40 40
39 39 39
39 39 39
41 41 41
43 43 43
39 39 39
40 40 40
39 39 39
40 40 40
40 40 40
41 41 41
42 42 42
42 42 42
40 40 40
42 42 42
37 37 37
41 41 41
44 44 44
42 42 42
41 41 41
41 41 41
41 41 41
40 40 40
38 38 38
37 37 37
37 37 37
36 36 36
34 34 34
35 35 35
35 35 35
32 32 32
31 31 31
47 47 47
49 49 49
35 35 35
158 158 158
159 159 159
165 165 165
172 172 172
174 174 174
167 167 167
162 162 162
158 158 158
153 153 153
143 143 143
129 129 129
114 114 114
110 110 110
123 123 123
137 137 137
143 143 143
146 146 146
151 151 151
151 151 151
130 130 130
98 98 98
87 87 87
117 117 117
119 119 119
110 110 110
62 62 62
57 57 57
49 49 49
39 39 39
34 34 34
35 35 35
33 33 33
33 33 33
35 35 35
33 33 33
43 43 43
50 50 50
51 51 51
50 50 50
50 50 50
50 50 50
50 50 50
50 50 50
50 50 50
50 50 50
50 50 50
50 50 50
47 47 47
100 100 100
125 125 125
125 125 125
93 93 93
58 58 58
50 50 50
48 48 48
41 41 41
47 47 47
45 45 45
30 30 30
32 32 32
47 47 47
47 47 47
46 46 46
35 35 35
29 29 29
40 40 40
46 46 46
38 38 38
39 39 39
45 45 45
45 45 45
46 46 46
62 62 62
118 118 118
66 66 66
40 40 40
30 30 30
29 29 29
29 29 29
29 29 29
29 29 29
30 30 30
30 30 30
30 30 30
29 29 29
28 28 28
29 29 29
28 28 28
79 79 79
35 35 35
30 30 30
38 38 38
99 99 99
93 93 93
31 31 31
29 29 29
29 29 29
29 29 29
29 29 29
25 25 25
29 29 29
31 31 31
30 30 30
34 34 34
76 76 76
117 117 117
121 121 121
122 122 122
122 122 122
120 120 120
140 140 140
166 166 166
48 48 48
32 32 32
29 29 29
38 38 38
43 43 43
47 47 47
74 74 74
116 116 116
122 122 122
131 131 131
82 82 82
37 37 37
40 40 40
39 39 39
39 39 39
40 40 40
41 41 41
41 41 41
41 41 41
40 40 40
38 38 38
36 36 36
36 36 36
38 38 38
37 37 37
43 43 43
42 42 42
39 39 39
40 40 40
40 40 40
39 39 39
41 41 41
42 42 42
42 42 42
42 42 42
40 40 40
41 41 41
36 36 36
43 43 43
44 44 44
42 42 42
41 41 41
40 40 40
40 40 40
38 38 38
36 36 36
37 37 37
34 34 34
34 34 34
37 37 37
42 42 42
45 45 45
42 42 42
36 36 36
43 43 43
40 40 40
32 32 32
150 150 150
155 155 155
165 165 165
174 174 174
170 170 170
167 167 167
158 158 158
145 145 145
136 136 136
132 132 132
134 134 134
141 141 141
151 151 151
154 154 154
153 153 153
148 148 148
142 142 142
133 133 133
133 133 133
125 125 125
99 99 99
85 85 85
121 121 121
121 121 121
104 104 104
59 59 59
56 56 56
49 49 49
42 42 42
34 34 34
33 33 33
32 32 32
33 33 33
34 34 34
34 34 34
37 37 37
50 50 50
50 50 50
50 50 50
50 50 50
50 50 50
50 50 50
50 50 50
50 50 50
51 51 51
50 50 50
53 53 53
60 60 60
114 114 114
127 127 127
124 124 124
82 82 82
56 56 56
49 49 49
48 48 48
41 41 41
48 48 48
43 43 43
29 29 29
32 32 32
46 46 46
45 45 45
38 38 38
30 30 30
30 30 30
37 37 37
38 38 38
31 31 31
31 31 31
37 37 37
42 42 42
44 44 44
77 77 77
118 118 118
56 56 56
33 33 33
28 28 28
29 29 29
30 30 30
30 30 30
31 31 31
31 31 31
31 31 31
30 30 30
28 28 28
30 30 30
31 31 31
27 27 27
86 86 86
32 32 32
30 30 30
38 38 38
106 106 106
92 92 92
31 31 31
29 29 29
29 29 29
30 30 30
30 30 30
28 28 28
31 31 31
31 31 31
56 56 56
102 102 102
120 120 120
123 123 123
125 125 125
123 123 123
139 139 139
171 171 171
187 187 187
174 174 174
42 42 42
30 30 30
28 28 28
35 35 35
43 43 43
44 44 44
74 74 74
110 110 110
126 126 126
123 123 123
58 58 58
38 38 38
40 40 40
40 40 40
42 42 42
40 40 40
40 40 40
40 40 40
40 40 40
40 40 40
40 40 40
39 39 39
39 39 39
38 38 38
39 39 39
45 45 45
41 41 41
40 40 40
40 40 40
39 39 39
38 38 38
41 41 41
42 42 42
41 41 41
39 39 39
39 39 39
40 40 40
36 36 36
42 42 42
42 42 42
40 40 40
41 41 41
40 40 40
41 41 41
36 36 36
36 36 36
38 38 38
39 39 39
39 39 39
38 38 38
38 38 38
39 39 39
42 42 42
36 36 36
37 37 37
34 34 34
33 33 33
112 112 112
133 133 133
146 146 146
155 155 155
148 148 148
137 137 137
127 127 127
126 126 126
137 137 137
152 152 152
167 167 167
170 170 170
167 167 167
165 165 165
164 164 164
163 163 163
162 162 162
150 150 150
147 147 147
130 130 130
98 98 98
87 87 87
122 122 122
121 121 121
100 100 100
60 60 60
56 56 56
49 49 49
45 45 45
34 34 34
32 32 32
31 31 31
33 33 33
34 34 34
34 34 34
33 33 33
48 48 48
50 50 50
50 50 50
50 50 50
50 50 50
50 50 50
50 50 50
50 50 50
49 49 49
51 51 51
53 53 53
61 61 61
123 123 123
128 128 128
121 121 121
72 72 72
54 54 54
48 48 48
48 48 48
42 42 42
48 48 48
41 41 41
28 28 28
30 30 30
44 44 44
39 39 39
29 29 29
25 25 25
30 30 30
32 32 32
32 32 32
31 31 31
31 31 31
29 29 29
32 32 32
31 31 31
92 92 92
115 115 115
45 45 45
31 31 31
30 30 30
31 31 31
31 31 31
32 32 32
32 32 32
31 31 31
28 28 28
29 29 29
30 30 30
31 31 31
31 31 31
38 38 38
95 95 95
31 31 31
31 31 31
40 40 40
110 110 110
94 94 94
33 33 33
30 30 30
30 30 30
32 32 32
33 33 33
32 32 32
42 42 42
86 86 86
120 120 120
121 121 121
124 124 124
127 127 127
140 140 140
165 165 165
183 183 183
184 184 184
185 185 185
170 170 170
37 37 37
29 29 29
26 26 26
33 33 33
43 43 43
44 44 44
75 75 75
102 102 102
129 129 129
102 102 102
41 41 41
40 40 40
41 41 41
42 42 42
42 42 42
40 40 40
40 40 40
40 40 40
40 40 40
41 41 41
39 39 39
40 40 40
40 40 40
39 39 39
42 42 42
45 45 45
39 39 39
42 42 42
42 42 42
42 42 42
40 40 40
41 41 41
42 42 42
41 41 41
37 37 37
37 37 37
41 41 41
36 36 36
43 43 43
40 40 40
40 40 40
39 39 39
39 39 39
39 39 39
39 39 39
40 40 40
40 40 40
38 38 38
37 37 37
37 37 37
39 39 39
38 38 38
40 40 40
35 35 35
35 35 35
34 34 34
32 32 32
77 77 77
80 80 80
84 84 84
93 93 93
95 95 95
93 93 93
105 105 105
128 128 128
146 146 146
155 155 155
162 162 162
167 167 167
166 166 166
169 169 169
169 169 169
170 170 170
167 167 167
153 153 153
151 151 151
132 132 132
99 99 99
91 91 91
124 124 124
122 122 122
96 96 96
59 59 59
55 55 55
50 50 50
48 48 48
35 35 35
32 32 32
31 31 31
34 34 34
34 34 34
34 34 34
32 32 32
40 40 40
49 49 49
50 50 50
50 50 50
50 50 50
50 50 50
50 50 50
50 50 50
49 49 49
51 51 51
56 56 56
73 73 73
125 125 125
127 127 127
114 114 114
63 63 63
52 52 52
48 48 48
46 46 46
41 41 41
46 46 46
37 37 37
28 28 28
29 29 29
41 41 41
34 34 34
27 27 27
26 26 26
30 30 30
30 30 30
31 31 31
31 31 31
31 31 31
31 31 31
33 33 33
31 31 31
101 101 101
112 112 112
36 36 36
30 30 30
28 28 28
31 31 31
31 31 31
32 32 32
31 31 31
30 30 30
29 29 29
29 29 29
29 29 29
30 30 30
32 32 32
63 63 63
99 99 99
32 32 32
33 33 33
46 46 46
118 118 118
89 89 89
34 34 34
35 35 35
34 34 34
47 47 47
91 91 91
113 113 113
132 132 132
137 137 137
146 146 146
141 141 141
164 164 164
170 170 170
168 168 168
167 167 167
165 165 165
168 168 168
170 170 170
153 153 153
31 31 31
31 31 31
27 27 27
31 31 31
42 42 42
42 42 42
73 73 73
97 97 97
127 127 127
74 74 74
39 39 39
42 42 42
39 39 39
39 39 39
41 41 41
40 40 40
41 41 41
42 42 42
41 41 41
41 41 41
40 40 40
40 40 40
40 40 40
39 39 39
46 46 46
41 41 41
42 42 42
43 43 43
43 43 43
42 42 42
41 41 41
40 40 40
39 39 39
37 37 37
38 38 38
37 37 37
38 38 38
31 31 31
37 37 37
36 36 36
34 34 34
36 36 36
38 38 38
40 40 40
41 41 41
38 38 38
36 36 36
35 35 35
37 37 37
37 37 37
38 38 38
36 36 36
36 36 36
34 34 34
36 36 36
33 33 33
32 32 32
59 59 59
61 61 61
63 63 63
68 68 68
70 70 70
72 72 72
75 75 75
82 82 82
93 93 93
103 103 103
117 117 117
130 130 130
142 142 142
155 155 155
163 163 163
164 164 164
161 161 161
151 151 151
149 149 149
133 133 133
100 100 100
96 96 96
128 128 128
124 124 124
90 90 90
59 59 59
55 55 55
51 51 51
44 44 44
40 40 40
32 32 32
32 32 32
35 35 35
35 35 35
34 34 34
33 33 33
33 33 33
47 47 47
50 50 50
50 50 50
50 50 50
50 50 50
50 50 50
50 50 50
48 48 48
51 51 51
56 56 56
85 85 85
126 126 126
127 127 127
110 110 110
61 61 61
51 51 51
48 48 48
46 46 46
40 40 40
45 45 45
35 35 35
28 28 28
29 29 29
36 36 36
31 31 31
27 27 27
26 26 26
30 30 30
30 30 30
30 30 30
31 31 31
30 30 30
31 31 31
33 33 33
32 32 32
107 107 107
109 109 109
32 32 32
29 29 29
27 27 27
30 30 30
30 30 30
31 31 31
31 31 31
28 28 28
30 30 30
30 30 30
30 30 30
31 31 31
31 31 31
93 93 93
93 93 93
34 34 34
35 35 35
58 58 58
133 133 133
86 86 86
35 35 35
54 54 54
71 71 71
117 117 117
131 131 131
186 186 186
196 196 196
170 170 170
145 145 145
162 162 162
169 169 169
154 154 154
145 145 145
134 134 134
131 131 131
135 135 135
143 143 143
128 128 128
29 29 29
28 28 28
27 27 27
30 30 30
41 41 41
41 41 41
72 72 72
94 94 94
115 115 115
50 50 50
38 38 38
42 42 42
38 38 38
39 39 39
41 41 41
39 39 39
40 40 40
41 41 41
42 42 42
41 41 41
40 40 40
40 40 40
39 39 39
42 42 42
46 46 46
44 44 44
44 44 44
44 44 44
42 42 42
42 42 42
40 40 40
39 39 39
36 36 36
35 35 35
37 37 37
37 37 37
34 34 34
28 28 28
32 32 32
35 35 35
36 36 36
37 37 37
38 38 38
38 38 38
37 37 37
37 37 37
36 36 36
35 35 35
36 36 36
36 36 36
36 36 36
34 34 34
36 36 36
34 34 34
35 35 35
34 34 34
33 33 33
97 97 97
84 84 84
70 70 70
62 62 62
59 59 59
58 58 58
60 60 60
64 64 64
66 66 66
67 67 67
70 70 70
74 74 74
80 80 80
93 93 93
105 105 105
117 117 117
121 121 121
122 122 122
126 126 126
127 127 127
99 99 99
100 100 100
126 126 126
123 123 123
87 87 87
59 59 59
55 55 55
52 52 52
45 45 45
44 44 44
33 33 33
32 32 32
31 31 31
34 34 34
33 33 33
33 33 33
33 33 33
38 38 38
48 48 48
48 48 48
49 49 49
48 48 48
48 48 48
47 47 47
49 49 49
52 52 52
57 57 57
94 94 94
126 126 126
126 126 126
107 107 107
60 60 60
51 51 51
48 48 48
47 47 47
39 39 39
45 45 45
32 32 32
29 29 29
29 29 29
30 30 30
29 29 29
29 29 29
26 26 26
30 30 30
31 31 31
30 30 30
30 30 30
30 30 30
30 30 30
32 32 32
37 37 37
114 114 114
104 104 104
31 31 31
31 31 31
29 29 29
28 28 28
29 29 29
29 29 29
29 29 29
30 30 30
30 30 30
30 30 30
29 29 29
30 30 30
39 39 39
117 117 117
83 83 83
37 37 37
39 39 39
84 84 84
154 154 154
111 111 111
112 112 112
118 118 118
107 107 107
127 127 127
170 170 170
195 195 195
156 156 156
169 169 169
185 185 185
169 169 169
144 144 144
108 108 108
88 88 88
94 94 94
105 105 105
111 111 111
119 119 119
101 101 101
27 27 27
27 27 27
27 27 27
29 29 29
42 42 42
37 37 37
68 68 68
86 86 86
87 87 87
39 39 39
40 40 40
40 40 40
39 39 39
40 40 40
40 40 40
38 38 38
40 40 40
41 41 41
41 41 41
40 40 40
39 39 39
39 39 39
40 40 40
48 48 48
44 44 44
43 43 43
46 46 46
45 45 45
43 43 43
42 42 42
38 38 38
37 37 37
36 36 36
36 36 36
39 39 39
35 35 35
33 33 33
36 36 36
42 42 42
43 43 43
41 41 41
38 38 38
37 37 37
37 37 37
37 37 37
37 37 37
37 37 37
36 36 36
35 35 35
33 33 33
31 31 31
31 31 31
34 34 34
33 33 33
34 34 34
34 34 34
34 34 34
170 170 170
154 154 154
139 139 139
121 121 121
105 105 105
87 87 87
73 73 73
61 61 61
55 55 55
52 52 52
53 53 53
57 57 57
59 59 59
62 62 62
66 66 66
67 67 67
66 66 66
66 66 66
88 88 88
118 118 118
97 97 97
107 107 107
127 127 127
123 123 123
85 85 85
59 59 59
56 56 56
53 53 53
47 47 47
46 46 46
33 33 33
33 33 33
28 28 28
34 34 34
32 32 32
33 33 33
34 34 34
32 32 32
45 45 45
48 48 48
49 49 49
49 49 49
48 48 48
48 48 48
49 49 49
51 51 51
56 56 56
93 93 93
124 124 124
123 123 123
103 103 103
56 56 56
50 50 50
48 48 48
46 46 46
38 38 38
44 44 44
32 32 32
29 29 29
29 29 29
30 30 30
30 30 30
29 29 29
27 27 27
30 30 30
31 31 31
31 31 31
31 31 31
28 28 28
28 28 28
31 31 31
49 49 49
116 116 116
99 99 99
31 31 31
30 30 30
28 28 28
28 28 28
29 29 29
29 29 29
31 31 31
31 31 31
31 31 31
33 33 33
34 34 34
35 35 35
77 77 77
127 127 127
87 87 87
96 96 96
110 110 110
131 131 131
168 168 168
129 129 129
128 128 128
109 109 109
123 123 123
152 152 152
195 195 195
156 156 156
140 140 140
185 185 185
175 175 175
112 112 112
42 42 42
23 23 23
61 61 61
73 73 73
84 84 84
93 93 93
105 105 105
85 85 85
26 26 26
27 27 27
28 28 28
29 29 29
42 42 42
37 37 37
65 65 65
70 70 70
57 57 57
35 35 35
39 39 39
40 40 40
41 41 41
41 41 41
41 41 41
40 40 40
39 39 39
39 39 39
40 40 40
39 39 39
38 38 38
39 39 39
41 41 41
47 47 47
42 42 42
44 44 44
43 43 43
43 43 43
43 43 43
41 41 41
37 37 37
36 36 36
37 37 37
36 36 36
36 36 36
39 39 39
43 43 43
45 45 45
44 44 44
40 40 40
37 37 37
37 37 37
37 37 37
38 38 38
38 38 38
38 38 38
38 38 38
38 38 38
37 37 37
34 34 34
32 32 32
31 31 31
33 33 33
33 33 33
38 38 38
34 34 34
33 33 33
175 175 175
175 175 175
171 171 171
168 168 168
163 163 163
156 156 156
146 146 146
134 134 134
119 119 119
104 104 104
85 85 85
69 69 69
60 60 60
55 55 55
53 53 53
52 52 52
50 50 50
47 47 47
71 71 71
117 117 117
99 99 99
120 120 120
131 131 131
127 127 127
84 84 84
59 59 59
56 56 56
54 54 54
50 50 50
46 46 46
36 36 36
34 34 34
29 29 29
33 33 33
32 32 32
31 31 31
33 33 33
32 32 32
38 38 38
49 49 49
49 49 49
49 49 49
48 48 48
48 48 48
49 49 49
51 51 51
54 54 54
96 96 96
123 123 123
122 122 122
101 101 101
54 54 54
49 49 49
46 46 46
44 44 44
38 38 38
43 43 43
30 30 30
29 29 29
30 30 30
31 31 31
29 29 29
28 28 28
26 26 26
30 30 30
31 31 31
31 31 31
30 30 30
28 28 28
29 29 29
30 30 30
60 60 60
118 118 118
96 96 96
29 29 29
29 29 29
29 29 29
30 30 30
31 31 31
31 31 31
31 31 31
31 31 31
32 32 32
34 34 34
44 44 44
85 85 85
120 120 120
130 130 130
157 157 157
180 180 180
132 132 132
141 141 141
171 171 171
134 134 134
136 136 136
111 111 111
142 142 142
191 191 191
159 159 159
185 185 185
147 147 147
152 152 152
68 68 68
24 24 24
23 23 23
20 20 20
18 18 18
20 20 20
53 53 53
80 80 80
101 101 101
72 72 72
24 24 24
27 27 27
28 28 28
28 28 28
42 42 42
38 38 38
61 61 61
64 64 64
39 39 39
37 37 37
39 39 39
39 39 39
40 40 40
41 41 41
41 41 41
40 40 40
40 40 40
41 41 41
41 41 41
39 39 39
39 39 39
38 38 38
46 46 46
46 46 46
41 41 41
42 42 42
43 43 43
42 42 42
42 42 42
41 41 41
37 37 37
34 34 34
36 36 36
39 39 39
40 40 40
40 40 40
38 38 38
37 37 37
37 37 37
37 37 37
37 37 37
37 37 37
37 37 37
38 38 38
38 38 38
38 38 38
38 38 38
38 38 38
36 36 36
33 33 33
32 32 32
32 32 32
34 34 34
35 35 35
39 39 39
33 33 33
33 33 33
163 163 163
168 168 168
170 170 170
166 166 166
166 166 166
169 169 169
169 169 169
171 171 171
170 170 170
167 167 167
156 156 156
142 142 142
129 129 129
115 115 115
99 99 99
83 83 83
66 66 66
54 54 54
70 70 70
118 118 118
99 99 99
127 127 127
130 130 130
126 126 126
82 82 82
60 60 60
56 56 56
55 55 55
51 51 51
45 45 45
41 41 41
33 33 33
32 32 32
30 30 30
33 33 33
31 31 31
33 33 33
33 33 33
33 33 33
44 44 44
49 49 49
48 48 48
48 48 48
48 48 48
48 48 48
49 49 49
53 53 53
95 95 95
119 119 119
121 121 121
97 97 97
50 50 50
48 48 48
45 45 45
42 42 42
37 37 37
43 43 43
28 28 28
28 28 28
30 30 30
31 31 31
29 29 29
26 26 26
26 26 26
29 29 29
29 29 29
30 30 30
31 31 31
30 30 30
31 31 31
31 31 31
64 64 64
100 100 100
74 74 74
32 32 32
31 31 31
31 31 31
30 30 30
32 32 32
32 32 32
32 32 32
39 39 39
63 63 63
94 94 94
120 120 120
131 131 131
132 132 132
135 135 135
185 185 185
177 177 177
137 137 137
161 161 161
176 176 176
156 156 156
192 192 192
145 145 145
188 188 188
163 163 163
182 182 182
187 187 187
86 86 86
34 34 34
26 26 26
27 27 27
38 38 38
22 22 22
21 21 21
20 20 20
44 44 44
88 88 88
99 99 99
67 67 67
26 26 26
27 27 27
27 27 27
27 27 27
40 40 40
37 37 37
54 54 54
62 62 62
38 38 38
37 37 37
39 39 39
39 39 39
40 40 40
41 41 41
41 41 41
40 40 40
40 40 40
39 39 39
39 39 39
37 37 37
38 38 38
39 39 39
48 48 48
44 44 44
42 42 42
42 42 42
41 41 41
43 43 43
43 43 43
39 39 39
37 37 37
40 40 40
39 39 39
38 38 38
35 35 35
34 34 34
34 34 34
37 37 37
37 37 37
37 37 37
37 37 37
38 38 38
38 38 38
38 38 38
38 38 38
38 38 38
38 38 38
37 37 37
38 38 38
36 36 36
33 33 33
32 32 32
33 33 33
34 34 34
37 37 37
33 33 33
33 33 33
140 140 140
139 139 139
139 139 139
138 138 138
142 142 142
153 153 153
166 166 166
172 172 172
170 170 170
169 169 169
167 167 167
165 165 165
167 167 167
165 165 165
160 160 160
149 149 149
134 134 134
117 117 117
111 111 111
124 124 124
101 101 101
130 130 130
131 131 131
125 125 125
84 84 84
58 58 58
55 55 55
54 54 54
52 52 52
47 47 47
43 43 43
31 31 31
33 33 33
30 30 30
32 32 32
34 34 34
31 31 31
32 32 32
31 31 31
33 33 33
45 45 45
48 48 48
48 48 48
48 48 48
48 48 48
50 50 50
52 52 52
94 94 94
120 120 120
118 118 118
96 96 96
46 46 46
48 48 48
45 45 45
42 42 42
38 38 38
43 43 43
27 27 27
30 30 30
32 32 32
32 32 32
29 29 29
26 26 26
26 26 26
28 28 28
28 28 28
30 30 30
31 31 31
31 31 31
32 32 32
34 34 34
34 34 34
58 58 58
52 52 52
35 35 35
34 34 34
34 34 34
36 36 36
49 49 49
70 70 70
98 98 98
116 116 116
127 127 127
130 130 130
131 131 131
136 136 136
138 138 138
153 153 153
201 201 201
168 168 168
142 142 142
183 183 183
201 201 201
201 201 201
202 202 202
197 197 197
173 173 173
176 176 176
183 183 183
94 94 94
26 26 26
33 33 33
32 32 32
44 44 44
132 132 132
109 109 109
39 39 39
21 21 21
18 18 18
35 35 35
88 88 88
75 75 75
28 28 28
26 26 26
27 27 27
27 27 27
39 39 39
36 36 36
47 47 47
65 65 65
38 38 38
37 37 37
40 40 40
40 40 40
41 41 41
40 40 40
40 40 40
39 39 39
39 39 39
38 38 38
39 39 39
38 38 38
38 38 38
41 41 41
47 47 47
42 42 42
43 43 43
42 42 42
39 39 39
41 41 41
42 42 42
41 41 41
42 42 42
39 39 39
34 34 34
35 35 35
37 37 37
37 37 37
37 37 37
38 38 38
38 38 38
38 38 38
38 38 38
38 38 38
38 38 38
38 38 38
38 38 38
38 38 38
36 36 36
35 35 35
37 37 37
36 36 36
35 35 35
35 35 35
34 34 34
33 33 33
34 34 34
34 34 34
32 32 32
117 117 117
116 116 116
118 118 118
121 121 121
124 124 124
136 136 136
155 155 155
164 164 164
166 166 166
166 166 166
164 164 164
159 159 159
162 162 162
165 165 165
166 166 166
160 160 160
156 156 156
151 151 151
145 145 145
127 127 127
115 115 115
132 132 132
130 130 130
126 126 126
82 82 82
60 60 60
56 56 56
56 56 56
53 53 53
50 50 50
42 42 42
37 37 37
32 32 32
33 33 33
28 28 28
30 30 30
30 30 30
32 32 32
30 30 30
32 32 32
36 36 36
45 45 45
48 48 48
48 48 48
48 48 48
51 51 51
53 53 53
91 91 91
118 118 118
116 116 116
95 95 95
43 43 43
47 47 47
45 45 45
44 44 44
38 38 38
40 40 40
27 27 27
29 29 29
31 31 31
29 29 29
30 30 30
28 28 28
28 28 28
29 29 29
29 29 29
30 30 30
31 31 31
30 30 30
33 33 33
36 36 36
87 87 87
124 124 124
101 101 101
116 116 116
98 98 98
108 108 108
116 116 116
126 126 126
126 126 126
131 131 131
133 133 133
134 134 134
137 137 137
145 145 145
158 158 158
174 174 174
198 198 198
204 204 204
179 179 179
171 171 171
202 202 202
205 205 205
204 204 204
204 204 204
195 195 195
156 156 156
186 186 186
85 85 85
29 29 29
38 38 38
42 42 42
39 39 39
33 33 33
147 147 147
148 148 148
117 117 117
28 28 28
46 46 46
86 86 86
83 83 83
82 82 82
31 31 31
26 26 26
25 25 25
27 27 27
40 40 40
36 36 36
41 41 41
65 65 65
39 39 39
37 37 37
39 39 39
40 40 40
40 40 40
40 40 40
39 39 39
40 40 40
39 39 39
39 39 39
39 39 39
37 37 37
36 36 36
43 43 43
41 41 41
43 43 43
42 42 42
37 37 37
39 39 39
45 45 45
46 46 46
42 42 42
37 37 37
36 36 36
36 36 36
36 36 36
37 37 37
37 37 37
37 37 37
37 37 37
38 38 38
38 38 38
38 38 38
38 38 38
38 38 38
38 38 38
37 37 37
37 37 37
36 36 36
34 34 34
35 35 35
34 34 34
34 34 34
35 35 35
35 35 35
34 34 34
34 34 34
33 33 33
32 32 32
90 90 90
101 101 101
109 109 109
120 120 120
129 129 129
139 139 139
152 152 152
162 162 162
158 158 158
159 159 159
164 164 164
163 163 163
157 157 157
157 157 157
154 154 154
150 150 150
151 151 151
145 145 145
136 136 136
109 109 109
129 129 129
133 133 133
124 124 124
127 127 127
86 86 86
58 58 58
57 57 57
54 54 54
52 52 52
50 50 50
46 46 46
43 43 43
33 33 33
32 32 32
30 30 30
26 26 26
29 29 29
30 30 30
29 29 29
30 30 30
31 31 31
36 36 36
45 45 45
48 48 48
48 48 48
50 50 50
51 51 51
88 88 88
115 115 115
114 114 114
94 94 94
40 40 40
47 47 47
45 45 45
44 44 44
37 37 37
39 39 39
28 28 28
30 30 30
31 31 31
29 29 29
30 30 30
29 29 29
28 28 28
31 31 31
32 32 32
30 30 30
32 32 32
44 44 44
69 69 69
91 91 91
115 115 115
128 128 128
140 140 140
186 186 186
132 132 132
131 131 131
131 131 131
133 133 133
121 121 121
118 118 118
136 136 136
154 154 154
195 195 195
202 202 202
205 205 205
206 206 206
207 207 207
207 207 207
207 207 207
206 206 206
206 206 206
206 206 206
204 204 204
204 204 204
176 176 176
183 183 183
92 92 92
34 34 34
43 43 43
49 49 49
57 57 57
59 59 59
35 35 35
189 189 189
190 190 190
152 152 152
54 54 54
59 59 59
108 108 108
106 106 106
99 99 99
33 33 33
25 25 25
25 25 25
26 26 26
40 40 40
37 37 37
39 39 39
64 64 64
40 40 40
38 38 38
39 39 39
40 40 40
40 40 40
39 39 39
39 39 39
40 40 40
40 40 40
39 39 39
38 38 38
37 37 37
36 36 36
46 46 46
37 37 37
39 39 39
41 41 41
40 40 40
42 42 42
43 43 43
42 42 42
39 39 39
37 37 37
36 36 36
36 36 36
37 37 37
38 38 38
37 37 37
35 35 35
37 37 37
38 38 38
38 38 38
38 38 38
38 38 38
37 37 37
37 37 37
37 37 37
38 38 38
37 37 37
35 35 35
33 33 33
33 33 33
33 33 33
34 34 34
34 34 34
31 31 31
33 33 33
32 32 32
31 31 31
67 67 67
71 71 71
77 77 77
93 93 93
116 116 116
139 139 139
145 145 145
150 150 150
151 151 151
146 146 146
152 152 152
159 159 159
154 154 154
145 145 145
137 137 137
134 134 134
144 144 144
136 136 136
111 111 111
120 120 120
130 130 130
132 132 132
107 107 107
122 122 122
101 101 101
48 48 48
55 55 55
54 54 54
53 53 53
52 52 52
47 47 47
45 45 45
39 39 39
33 33 33
31 31 31
29 29 29
27 27 27
28 28 28
29 29 29
28 28 28
29 29 29
31 31 31
32 32 32
40 40 40
46 46 46
47 47 47
50 50 50
85 85 85
112 112 112
113 113 113
95 95 95
37 37 37
44 44 44
44 44 44
44 44 44
38 38 38
39 39 39
31 31 31
32 32 32
32 32 32
32 32 32
32 32 32
31 31 31
30 30 30
47 47 47
71 71 71
92 92 92
107 107 107
122 122 122
127 127 127
129 129 129
130 130 130
132 132 132
153 153 153
185 185 185
137 137 137
137 137 137
139 139 139
144 144 144
144 144 144
116 116 116
132 132 132
155 155 155
204 204 204
207 207 207
208 208 208
207 207 207
207 207 207
208 208 208
207 207 207
206 206 206
208 208 208
207 207 207
205 205 205
202 202 202
198 198 198
135 135 135
51 51 51
100 100 100
65 65 65
69 69 69
67 67 67
65 65 65
43 43 43
192 192 192
208 208 208
197 197 197
78 78 78
78 78 78
118 118 118
104 104 104
105 105 105
36 36 36
26 26 26
25 25 25
25 25 25
39 39 39
37 37 37
36 36 36
62 62 62
38 38 38
38 38 38
39 39 39
40 40 40
40 40 40
40 40 40
40 40 40
39 39 39
39 39 39
39 39 39
38 38 38
38 38 38
44 44 44
43 43 43
37 37 37
40 40 40
42 42 42
41 41 41
41 41 41
41 41 41
40 40 40
38 38 38
37 37 37
35 35 35
34 34 34
34 34 34
37 37 37
35 35 35
33 33 33
37 37 37
37 37 37
37 37 37
37 37 37
37 37 37
37 37 37
37 37 37
37 37 37
37 37 37
35 35 35
33 33 33
33 33 33
33 33 33
33 33 33
33 33 33
32 32 32
31 31 31
33 33 33
32 32 32
30 30 30
81 81 81
76 76 76
72 72 72
69 69 69
70 70 70
74 74 74
78 78 78
89 89 89
103 103 103
114 114 114
124 124 124
127 127 127
128 128 128
125 125 125
133 133 133
132 132 132
131 131 131
123 123 123
104 104 104
127 127 127
128 128 128
128 128 128
123 123 123
108 108 108
115 115 115
59 59 59
43 43 43
51 51 51
53 53 53
51 51 51
48 48 48
42 42 42
44 44 44
33 33 33
31 31 31
28 28 28
29 29 29
27 27 27
28 28 28
28 28 28
31 31 31
31 31 31
29 29 29
28 28 28
31 31 31
37 37 37
41 41 41
82 82 82
112 112 112
111 111 111
96 96 96
36 36 36
40 40 40
44 44 44
43 43 43
38 38 38
41 41 41
31 31 31
33 33 33
38 38 38
55 55 55
81 81 81
101 101 101
112 112 112
123 123 123
126 126 126
127 127 127
127 127 127
129 129 129
130 130 130
132 132 132
136 136 136
137 137 137
170 170 170
190 190 190
174 174 174
192 192 192
200 200 200
202 202 202
202 202 202
190 190 190
151 151 151
165 165 165
207 207 207
208 208 208
208 208 208
208 208 208
208 208 208
208 208 208
207 207 207
207 207 207
207 207 207
207 207 207
206 206 206
204 204 204
177 177 177
132 132 132
111 111 111
211 211 211
118 118 118
80 80 80
64 64 64
69 69 69
48 48 48
196 196 196
212 212 212
210 210 210
119 119 119
111 111 111
134 134 134
108 108 108
111 111 111
38 38 38
26 26 26
26 26 26
26 26 26
39 39 39
34 34 34
34 34 34
59 59 59
37 37 37
38 38 38
40 40 40
41 41 41
41 41 41
40 40 40
40 40 40
40 40 40
39 39 39
38 38 38
37 37 37
39 39 39
47 47 47
42 42 42
41 41 41
42 42 42
40 40 40
41 41 41
42 42 42
41 41 41
40 40 40
36 36 36
35 35 35
35 35 35
32 32 32
33 33 33
34 34 34
31 31 31
31 31 31
36 36 36
36 36 36
36 36 36
36 36 36
36 36 36
37 37 37
36 36 36
36 36 36
35 35 35
32 32 32
32 32 32
34 34 34
33 33 33
32 32 32
32 32 32
30 30 30
29 29 29
32 32 32
30 30 30
29 29 29
65 65 65
70 70 70
74 74 74
80 80 80
82 82 82
81 81 81
78 78 78
75 75 75
69 69 69
64 64 64
59 59 59
62 62 62
70 70 70
82 82 82
96 96 96
106 106 106
113 113 113
101 101 101
123 123 123
126 126 126
111 111 111
102 102 102
122 122 122
108 108 108
114 114 114
99 99 99
49 49 49
41 41 41
48 48 48
51 51 51
49 49 49
48 48 48
45 45 45
40 40 40
31 31 31
30 30 30
30 30 30
29 29 29
26 26 26
27 27 27
29 29 29
31 31 31
30 30 30
30 30 30
30 30 30
32 32 32
36 36 36
76 76 76
110 110 110
109 109 109
98 98 98
38 38 38
36 36 36
43 43 43
43 43 43
39 39 39
43 43 43
84 84 84
105 105 105
115 115 115
124 124 124
127 127 127
127 127 127
127 127 127
127 127 127
129 129 129
129 129 129
130 130 130
134 134 134
141 141 141
155 155 155
173 173 173
186 186 186
188 188 188
188 188 188
176 176 176
167 167 167
166 166 166
172 172 172
188 188 188
200 200 200
207 207 207
208 208 208
209 209 209
207 207 207
209 209 209
208 208 208
208 208 208
207 207 207
208 208 208
207 207 207
207 207 207
206 206 206
206 206 206
202 202 202
199 199 199
102 102 102
172 172 172
214 214 214
143 143 143
94 94 94
66 66 66
77 77 77
52 52 52
199 199 199
213 213 213
212 212 212
111 111 111
142 142 142
150 150 150
117 117 117
113 113 113
40 40 40
26 26 26
26 26 26
27 27 27
38 38 38
32 32 32
34 34 34
46 46 46
34 34 34
36 36 36
39 39 39
41 41 41
41 41 41
40 40 40
39 39 39
40 40 40
40 40 40
39 39 39
39 39 39
43 43 43
47 47 47
39 39 39
42 42 42
42 42 42
39 39 39
41 41 41
42 42 42
40 40 40
39 39 39
35 35 35
35 35 35
34 34 34
34 34 34
34 34 34
34 34 34
31 31 31
30 30 30
33 33 33
36 36 36
36 36 36
34 34 34
33 33 33
36 36 36
37 37 37
36 36 36
35 35 35
31 31 31
32 32 32
34 34 34
33 33 33
31 31 31
28 28 28
26 26 26
25 25 25
31 31 31
30 30 30
30 30 30
45 45 45
46 46 46
50 50 50
55 55 55
60 60 60
66 66 66
73 73 73
78 78 78
79 79 79
78 78 78
76 76 76
73 73 73
68 68 68
63 63 63
62 62 62
63 63 63
70 70 70
111 111 111
122 122 122
107 107 107
69 69 69
67 67 67
94 94 94
117 117 117
100 100 100
113 113 113
94 94 94
46 46 46
39 39 39
42 42 42
46 46 46
48 48 48
43 43 43
46 46 46
34 34 34
32 32 32
31 31 31
32 32 32
30 30 30
27 27 27
27 27 27
30 30 30
32 32 32
30 30 30
30 30 30
32 32 32
34 34 34
66 66 66
109 109 109
108 108 108
101 101 101
40 40 40
34 34 34
44 44 44
45 45 45
39 39 39
45 45 45
122 122 122
127 127 127
130 130 130
130 130 130
130 130 130
131 131 131
131 131 131
132 132 132
129 129 129
113 113 113
122 122 122
141 141 141
156 156 156
164 164 164
166 166 166
172 172 172
182 182 182
189 189 189
197 197 197
188 188 188
164 164 164
169 169 169
193 193 193
183 183 183
205 205 205
207 207 207
208 208 208
209 209 209
208 208 208
208 208 208
208 208 208
208 208 208
208 208 208
207 207 207
207 207 207
206 206 206
205 205 205
201 201 201
189 189 189
60 60 60
126 126 126
142 142 142
68 68 68
68 68 68
65 65 65
84 84 84
73 73 73
205 205 205
214 214 214
210 210 210
129 129 129
157 157 157
166 166 166
122 122 122
121 121 121
45 45 45
26 26 26
25 25 25
26 26 26
39 39 39
31 31 31
32 32 32
31 31 31
35 35 35
35 35 35
37 37 37
40 40 40
40 40 40
39 39 39
40 40 40
39 39 39
39 39 39
39 39 39
41 41 41
45 45 45
45 45 45
41 41 41
43 43 43
42 42 42
39 39 39
41 41 41
41 41 41
40 40 40
39 39 39
34 34 34
34 34 34
34 34 34
34 34 34
33 33 33
33 33 33
31 31 31
32 32 32
34 34 34
36 36 36
36 36 36
32 32 32
33 33 33
37 37 37
34 34 34
33 33 33
32 32 32
32 32 32
32 32 32
32 32 32
31 31 31
28 28 28
25 25 25
26 26 26
32 32 32
39 39 39
37 37 37
33 33 33
44 44 44
43 43 43
42 42 42
41 41 41
41 41 41
43 43 43
46 46 46
50 50 50
56 56 56
62 62 62
68 68 68
74 74 74
77 77 77
80 80 80
82 82 82
75 75 75
92 92 92
119 119 119
110 110 110
71 71 71
62 62 62
61 61 61
62 62 62
90 90 90
114 114 114
96 96 96
109 109 109
88 88 88
43 43 43
36 36 36
35 35 35
36 36 36
37 37 37
33 33 33
32 32 32
32 32 32
31 31 31
32 32 32
31 31 31
29 29 29
29 29 29
27 27 27
27 27 27
28 28 28
30 30 30
32 32 32
34 34 34
55 55 55
108 108 108
107 107 107
104 104 104
46 46 46
33 33 33
41 41 41
44 44 44
41 41 41
50 50 50
159 159 159
163 163 163
160 160 160
157 157 157
156 156 156
157 157 157
160 160 160
143 143 143
149 149 149
174 174 174
193 193 193
195 195 195
195 195 195
191 191 191
188 188 188
151 151 151
198 198 198
203 203 203
203 203 203
182 182 182
200 200 200
190 190 190
171 171 171
208 208 208
208 208 208
208 208 208
207 207 207
208 208 208
208 208 208
208 208 208
208 208 208
208 208 208
208 208 208
207 207 207
207 207 207
205 205 205
203 203 203
200 200 200
174 174 174
64 64 64
67 67 67
70 70 70
49 49 49
63 63 63
68 68 68
112 112 112
149 149 149
213 213 213
213 213 213
198 198 198
159 159 159
168 168 168
175 175 175
124 124 124
124 124 124
48 48 48
23 23 23
25 25 25
26 26 26
38 38 38
31 31 31
35 35 35
33 33 33
37 37 37
37 37 37
39 39 39
40 40 40
40 40 40
39 39 39
39 39 39
38 38 38
38 38 38
38 38 38
40 40 40
49 49 49
41 41 41
41 41 41
43 43 43
42 42 42
42 42 42
41 41 41
41 41 41
40 40 40
39 39 39
34 34 34
34 34 34
34 34 34
35 35 35
34 34 34
34 34 34
34 34 34
36 36 36
36 36 36
37 37 37
37 37 37
35 35 35
36 36 36
36 36 36
35 35 35
33 33 33
33 33 33
32 32 32
31 31 31
30 30 30
29 29 29
27 27 27
28 28 28
36 36 36
43 43 43
43 43 43
34 34 34
32 32 32
44 44 44
43 43 43
41 41 41
41 41 41
42 42 42
42 42 42
42 42 42
42 42 42
43 43 43
44 44 44
44 44 44
48 48 48
52 52 52
57 57 57
65 65 65
78 78 78
116 116 116
118 118 118
82 82 82
64 64 64
56 56 56
56 56 56
58 58 58
60 60 60
78 78 78
104 104 104
94 94 94
99 99 99
86 86 86
41 41 41
37 37 37
34 34 34
34 34 34
30 30 30
29 29 29
32 32 32
31 31 31
31 31 31
31 31 31
31 31 31
31 31 31
31 31 31
28 28 28
27 27 27
28 28 28
30 30 30
32 32 32
45 45 45
103 103 103
106 106 106
105 105 105
54 54 54
33 33 33
38 38 38
44 44 44
41 41 41
52 52 52
177 177 177
179 179 179
171 171 171
159 159 159
154 154 154
150 150 150
148 148 148
145 145 145
132 132 132
118 118 118
99 99 99
73 73 73
56 56 56
47 47 47
38 38 38
44 44 44
71 71 71
99 99 99
108 108 108
142 142 142
190 190 190
202 202 202
200 200 200
182 182 182
208 208 208
207 207 207
207 207 207
208 208 208
207 207 207
207 207 207
207 207 207
208 208 208
207 207 207
207 207 207
207 207 207
206 206 206
204 204 204
202 202 202
159 159 159
144 144 144
72 72 72
94 94 94
92 92 92
82 82 82
82 82 82
186 186 186
204 204 204
213 213 213
213 213 213
177 177 177
168 168 168
176 176 176
183 183 183
123 123 123
122 122 122
51 51 51
22 22 22
24 24 24
28 28 28
38 38 38
32 32 32
32 32 32
32 32 32
36 36 36
37 37 37
40 40 40
40 40 40
40 40 40
39 39 39
39 39 39
36 36 36
39 39 39
39 39 39
42 42 42
47 47 47
39 39 39
40 40 40
42 42 42
42 42 42
41 41 41
41 41 41
41 41 41
40 40 40
39 39 39
33 33 33
33 33 33
36 36 36
35 35 35
34 34 34
37 37 37
37 37 37
38 38 38
38 38 38
38 38 38
37 37 37
37 37 37
37 37 37
35 35 35
34 34 34
33 33 33
33 33 33
32 32 32
31 31 31
30 30 30
29 29 29
32 32 32
34 34 34
35 35 35
35 35 35
34 34 34
31 31 31
30 30 30
41 41 41
41 41 41
41 41 41
41 41 41
41 41 41
40 40 40
41 41 41
40 40 40
40 40 40
40 40 40
40 40 40
41 41 41
40 40 40
43 43 43
45 45 45
101 101 101
120 120 120
117 117 117
74 74 74
60 60 60
56 56 56
54 54 54
55 55 55
55 55 55
57 57 57
63 63 63
84 84 84
92 92 92
87 87 87
78 78 78
41 41 41
35 35 35
33 33 33
31 31 31
29 29 29
34 34 34
32 32 32
31 31 31
30 30 30
30 30 30
29 29 29
30 30 30
31 31 31
32 32 32
30 30 30
29 29 29
29 29 29
34 34 34
101 101 101
106 106 106
103 103 103
64 64 64
33 33 33
33 33 33
44 44 44
42 42 42
48 48 48
147 147 147
150 150 150
140 140 140
131 131 131
118 118 118
102 102 102
77 77 77
36 36 36
31 31 31
31 31 31
30 30 30
29 29 29
27 27 27
27 27 27
28 28 28
27 27 27
26 26 26
30 30 30
33 33 33
34 34 34
90 90 90
162 162 162
180 180 180
206 206 206
207 207 207
208 208 208
208 208 208
209 209 209
208 208 208
207 207 207
207 207 207
208 208 208
207 207 207
207 207 207
208 208 208
207 207 207
206 206 206
203 203 203
189 189 189
196 196 196
82 82 82
159 159 159
154 154 154
146 146 146
87 87 87
117 117 117
207 207 207
213 213 213
202 202 202
173 173 173
179 179 179
187 187 187
188 188 188
122 122 122
118 118 118
48 48 48
27 27 27
23 23 23
29 29 29
36 36 36
32 32 32
33 33 33
33 33 33
35 35 35
36 36 36
39 39 39
40 40 40
40 40 40
38 38 38
38 38 38
40 40 40
38 38 38
40 40 40
45 45 45
41 41 41
39 39 39
40 40 40
42 42 42
42 42 42
41 41 41
41 41 41
42 42 42
41 41 41
40 40 40
34 34 34
34 34 34
35 35 35
36 36 36
36 36 36
36 36 36
39 39 39
39 39 39
38 38 38
38 38 38
37 37 37
36 36 36
36 36 36
33 33 33
34 34 34
34 34 34
32 32 32
32 32 32
31 31 31
35 35 35
37 37 37
34 34 34
31 31 31
31 31 31
33 33 33
33 33 33
31 31 31
28 28 28
41 41 41
41 41 41
41 41 41
41 41 41
41 41 41
41 41 41
42 42 42
41 41 41
40 40 40
41 41 41
42 42 42
42 42 42
42 42 42
43 43 43
44 44 44
103 103 103
120 120 120
119 119 119
79 79 79
59 59 59
56 56 56
54 54 54
55 55 55
55 55 55
54 54 54
55 55 55
55 55 55
59 59 59
76 76 76
82 82 82
59 59 59
35 35 35
34 34 34
35 35 35
33 33 33
30 30 30
33 33 33
33 33 33
31 31 31
31 31 31
30 30 30
29 29 29
33 33 33
33 33 33
31 31 31
32 32 32
32 32 32
33 33 33
92 92 92
104 104 104
101 101 101
72 72 72
33 33 33
30 30 30
41 41 41
45 45 45
44 44 44
114 114 114
118 118 118
104 104 104
88 88 88
88 88 88
67 67 67
34 34 34
38 38 38
47 47 47
50 50 50
43 43 43
41 41 41
39 39 39
40 40 40
41 41 41
41 41 41
33 33 33
31 31 31
76 76 76
44 44 44
38 38 38
117 117 117
199 199 199
207 207 207
208 208 208
207 207 207
208 208 208
209 209 209
209 209 209
208 208 208
207 207 207
208 208 208
207 207 207
207 207 207
208 208 208
207 207 207
207 207 207
204 204 204
201 201 201
208 208 208
114 114 114
116 116 116
146 146 146
132 132 132
66 66 66
132 132 132
213 213 213
211 211 211
186 186 186
175 175 175
187 187 187
191 191 191
190 190 190
119 119 119
117 117 117
67 67 67
24 24 24
23 23 23
31 31 31
34 34 34
34 34 34
32 32 32
32 32 32
36 36 36
35 35 35
36 36 36
39 39 39
39 39 39
38 38 38
38 38 38
39 39 39
39 39 39
41 41 41
44 44 44
39 39 39
41 41 41
41 41 41
42 42 42
43 43 43
42 42 42
42 42 42
41 41 41
41 41 41
41 41 41
40 40 40
40 40 40
38 38 38
36 36 36
36 36 36
38 38 38
40 40 40
38 38 38
37 37 37
37 37 37
37 37 37
36 36 36
34 34 34
32 32 32
34 34 34
33 33 33
33 33 33
35 35 35
36 36 36
35 35 35
32 32 32
31 31 31
30 30 30
31 31 31
33 33 33
32 32 32
30 30 30
28 28 28
46 46 46
43 43 43
43 43 43
43 43 43
41 41 41
41 41 41
42 42 42
42 42 42
42 42 42
43 43 43
44 44 44
42 42 42
42 42 42
43 43 43
44 44 44
87 87 87
117 117 117
120 120 120
90 90 90
60 60 60
53 53 53
53 53 53
54 54 54
54 54 54
55 55 55
55 55 55
53 53 53
53 53 53
53 53 53
55 55 55
72 72 72
77 77 77
68 68 68
55 55 55
42 42 42
38 38 38
34 34 34
33 33 33
35 35 35
36 36 36
34 34 34
34 34 34
32 32 32
32 32 32
32 32 32
33 33 33
34 34 34
35 35 35
82 82 82
104 104 104
104 104 104
82 82 82
34 34 34
32 32 32
36 36 36
45 45 45
41 41 41
96 96 96
103 103 103
96 96 96
80 80 80
37 37 37
28 28 28
37 37 37
76 76 76
179 179 179
182 182 182
76 76 76
58 58 58
53 53 53
51 51 51
49 49 49
47 47 47
43 43 43
33 33 33
130 130 130
150 150 150
95 95 95
47 47 47
138 138 138
207 207 207
206 206 206
208 208 208
208 208 208
208 208 208
207 207 207
207 207 207
207 207 207
208 208 208
207 207 207
207 207 207
208 208 208
207 207 207
207 207 207
206 206 206
203 203 203
205 205 205
192 192 192
81 81 81
92 92 92
71 71 71
115 115 115
203 203 203
212 212 212
199 199 199
181 181 181
190 190 190
192 192 192
193 193 193
190 190 190
116 116 116
118 118 118
116 116 116
73 73 73
24 24 24
33 33 33
34 34 34
36 36 36
31 31 31
33 33 33
35 35 35
34 34 34
35 35 35
38 38 38
38 38 38
38 38 38
38 38 38
38 38 38
38 38 38
42 42 42
43 43 43
41 41 41
42 42 42
42 42 42
43 43 43
43 43 43
41 41 41
41 41 41
41 41 41
41 41 41
41 41 41
41 41 41
41 41 41
40 40 40
36 36 36
36 36 36
38 38 38
39 39 39
35 35 35
36 36 36
38 38 38
36 36 36
35 35 35
31 31 31
30 30 30
34 34 34
35 35 35
35 35 35
34 34 34
31 31 31
32 32 32
31 31 31
31 31 31
30 30 30
32 32 32
33 33 33
31 31 31
30 30 30
28 28 28
115 115 115
95 95 95
75 75 75
57 57 57
49 49 49
45 45 45
46 46 46
47 47 47
46 46 46
45 45 45
45 45 45
44 44 44
45 45 45
45 45 45
44 44 44
55 55 55
112 112 112
116 116 116
99 99 99
60 60 60
52 52 52
52 52 52
53 53 53
53 53 53
51 51 51
52 52 52
52 52 52
52 52 52
52 52 52
50 50 50
49 49 49
46 46 46
57 57 57
74 74 74
84 84 84
89 89 89
89 89 89
79 79 79
45 45 45
36 36 36
36 36 36
36 36 36
36 36 36
36 36 36
35 35 35
34 34 34
36 36 36
37 37 37
68 68 68
105 105 105
105 105 105
89 89 89
33 33 33
32 32 32
32 32 32
41 41 41
38 38 38
89 89 89
91 91 91
57 57 57
27 27 27
27 27 27
43 43 43
54 54 54
141 141 141
222 222 222
217 217 217
106 106 106
86 86 86
76 76 76
63 63 63
63 63 63
66 66 66
65 65 65
51 51 51
93 93 93
169 169 169
177 177 177
166 166 166
66 66 66
180 180 180
207 207 207
207 207 207
208 208 208
207 207 207
206 206 206
206 206 206
207 207 207
208 208 208
209 209 209
209 209 209
207 207 207
208 208 208
208 208 208
205 205 205
203 203 203
203 203 203
212 212 212
201 201 201
169 169 169
180 180 180
209 209 209
213 213 213
186 186 186
148 148 148
195 195 195
193 193 193
194 194 194
194 194 194
192 192 192
114 114 114
118 118 118
120 120 120
102 102 102
30 30 30
34 34 34
33 33 33
37 37 37
33 33 33
32 32 32
35 35 35
33 33 33
36 36 36
36 36 36
39 39 39
38 38 38
38 38 38
37 37 37
40 40 40
44 44 44
42 42 42
42 42 42
42 42 42
42 42 42
43 43 43
44 44 44
42 42 42
41 41 41
40 40 40
41 41 41
41 41 41
40 40 40
40 40 40
38 38 38
35 35 35
35 35 35
37 37 37
37 37 37
36 36 36
36 36 36
36 36 36
32 32 32
34 34 34
36 36 36
38 38 38
38 38 38
35 35 35
31 31 31
32 32 32
32 32 32
33 33 33
33 33 33
33 33 33
33 33 33
33 33 33
34 34 34
31 31 31
30 30 30
28 28 28
176 176 176
168 168 168
157 157 157
139 139 139
123 123 123
106 106 106
87 87 87
69 69 69
56 56 56
47 47 47
45 45 45
44 44 44
46 46 46
47 47 47
46 46 46
43 43 43
85 85 85
115 115 115
107 107 107
62 62 62
51 51 51
50 50 50
51 51 51
51 51 51
50 50 50
50 50 50
50 50 50
50 50 50
51 51 51
49 49 49
49 49 49
49 49 49
50 50 50
47 47 47
43 43 43
43 43 43
43 43 43
38 38 38
37 37 37
38 38 38
40 40 40
41 41 41
43 43 43
41 41 41
41 41 41
38 38 38
39 39 39
38 38 38
54 54 54
106 106 106
104 104 104
96 96 96
37 37 37
31 31 31
30 30 30
35 35 35
37 37 37
79 79 79
45 45 45
27 27 27
26 26 26
63 63 63
141 141 141
98 98 98
90 90 90
182 182 182
162 162 162
85 85 85
109 109 109
100 100 100
63 63 63
63 63 63
64 64 64
71 71 71
69 69 69
72 72 72
204 204 204
184 184 184
200 200 200
192 192 192
149 149 149
206 206 206
207 207 207
207 207 207
207 207 207
207 207 207
207 207 207
207 207 207
206 206 206
208 208 208
209 209 209
207 207 207
207 207 207
207 207 207
205 205 205
204 204 204
203 203 203
207 207 207
213 213 213
211 211 211
213 213 213
205 205 205
177 177 177
180 180 180
201 201 201
200 200 200
198 198 198
195 195 195
194 194 194
194 194 194
112 112 112
119 119 119
120 120 120
80 80 80
35 35 35
33 33 33
32 32 32
35 35 35
34 34 34
31 31 31
36 36 36
33 33 33
35 35 35
35 35 35
36 36 36
37 37 37
39 39 39
38 38 38
43 43 43
44 44 44
40 40 40
41 41 41
41 41 41
41 41 41
41 41 41
41 41 41
41 41 41
40 40 40
40 40 40
40 40 40
41 41 41
40 40 40
39 39 39
37 37 37
35 35 35
34 34 34
37 37 37
37 37 37
37 37 37
34 34 34
33 33 33
36 36 36
40 40 40
43 43 43
39 39 39
36 36 36
33 33 33
33 33 33
32 32 32
33 33 33
33 33 33
33 33 33
33 33 33
35 35 35
34 34 34
33 33 33
30 30 30
29 29 29
28 28 28
171 171 171
173 173 173
174 174 174
174 174 174
170 170 170
163 163 163
150 150 150
133 133 133
120 120 120
103 103 103
83 83 83
69 69 69
56 56 56
49 49 49
43 43 43
41 41 41
49 49 49
106 106 106
108 108 108
67 67 67
53 53 53
49 49 49
50 50 50
50 50 50
50 50 50
50 50 50
50 50 50
50 50 50
50 50 50
50 50 50
50 50 50
51 51 51
51 51 51
49 49 49
50 50 50
51 51 51
51 51 51
51 51 51
52 52 52
56 56 56
54 54 54
92 92 92
109 109 109
99 99 99
70 70 70
46 46 46
46 46 46
46 46 46
131 131 131
101 101 101
104 104 104
101 101 101
45 45 45
33 33 33
31 31 31
30 30 30
35 35 35
29 29 29
26 26 26
27 27 27
59 59 59
153 153 153
166 166 166
104 104 104
48 48 48
83 83 83
81 81 81
69 69 69
63 63 63
40 40 40
49 49 49
67 67 67
61 61 61
78 78 78
79 79 79
70 70 70
214 214 214
219 219 219
208 208 208
209 209 209
210 210 210
208 208 208
209 209 209
208 208 208
208 208 208
208 208 208
207 207 207
207 207 207
206 206 206
208 208 208
208 208 208
207 207 207
208 208 208
208 208 208
205 205 205
204 204 204
204 204 204
203 203 203
199 199 199
172 172 172
173 173 173
179 179 179
194 194 194
199 199 199
199 199 199
198 198 198
197 197 197
194 194 194
194 194 194
193 193 193
113 113 113
123 123 123
115 115 115
54 54 54
38 38 38
27 27 27
37 37 37
34 34 34
33 33 33
31 31 31
34 34 34
33 33 33
35 35 35
36 36 36
36 36 36
37 37 37
39 39 39
40 40 40
45 45 45
38 38 38
38 38 38
40 40 40
40 40 40
40 40 40
40 40 40
40 40 40
37 37 37
38 38 38
39 39 39
40 40 40
40 40 40
39 39 39
38 38 38
36 36 36
35 35 35
37 37 37
36 36 36
34 34 34
30 30 30
29 29 29
39 39 39
42 42 42
39 39 39
37 37 37
37 37 37
33 33 33
33 33 33
34 34 34
34 34 34
33 33 33
33 33 33
32 32 32
32 32 32
33 33 33
33 33 33
33 33 33
31 31 31
30 30 30
27 27 27
155 155 155
154 154 154
158 158 158
159 159 159
156 156 156
154 154 154
156 156 156
155 155 155
156 156 156
151 151 151
147 147 147
137 137 137
123 123 123
108 108 108
89 89 89
71 71 71
56 56 56
73 73 73
108 108 108
82 82 82
53 53 53
49 49 49
51 51 51
50 50 50
51 51 51
50 50 50
50 50 50
50 50 50
50 50 50
50 50 50
51 51 51
50 50 50
50 50 50
49 49 49
51 51 51
50 50 50
50 50 50
53 53 53
57 57 57
70 70 70
165 165 165
201 201 201
202 202 202
203 203 203
201 201 201
176 176 176
105 105 105
118 118 118
191 191 191
101 101 101
107 107 107
104 104 104
57 57 57
33 33 33
31 31 31
31 31 31
32 32 32
39 39 39
27 27 27
33 33 33
132 132 132
177 177 177
209 209 209
145 145 145
42 42 42
71 71 71
67 67 67
68 68 68
55 55 55
40 40 40
40 40 40
65 65 65
66 66 66
87 87 87
88 88 88
79 79 79
218 218 218
222 222 222
219 219 219
211 211 211
210 210 210
210 210 210
210 210 210
209 209 209
209 209 209
208 208 208
208 208 208
208 208 208
208 208 208
208 208 208
207 207 207
206 206 206
207 207 207
206 206 206
205 205 205
204 204 204
204 204 204
201 201 201
202 202 202
202 202 202
202 202 202
200 200 200
199 199 199
199 199 199
199 199 199
198 198 198
197 197 197
194 194 194
194 194 194
191 191 191
113 113 113
130 130 130
102 102 102
42 42 42
41 41 41
34 34 34
39 39 39
30 30 30
33 33 33
31 31 31
34 34 34
34 34 34
36 36 36
37 37 37
36 36 36
36 36 36
38 38 38
43 43 43
49 49 49
38 38 38
40 40 40
41 41 41
40 40 40
41 41 41
42 42 42
38 38 38
35 35 35
36 36 36
38 38 38
40 40 40
41 41 41
39 39 39
37 37 37
36 36 36
36 36 36
34 34 34
31 31 31
29 29 29
33 33 33
40 40 40
44 44 44
39 39 39
37 37 37
37 37 37
37 37 37
36 36 36
32 32 32
33 33 33
34 34 34
33 33 33
32 32 32
31 31 31
31 31 31
31 31 31
31 31 31
32 32 32
31 31 31
30 30 30
28 28 28
142 142 142
150 150 150
153 153 153
152 152 152
151 151 151
152 152 152
155 155 155
156 156 156
154 154 154
153 153 153
156 156 156
158 158 158
160 160 160
156 156 156
145 145 145
130 130 130
115 115 115
99 99 99
92 92 92
96 96 96
54 54 54
48 48 48
50 50 50
50 50 50
49 49 49
49 49 49
50 50 50
50 50 50
50 50 50
50 50 50
50 50 50
50 50 50
51 51 51
49 49 49
51 51 51
50 50 50
52 52 52
56 56 56
58 58 58
155 155 155
202 202 202
204 204 204
204 204 204
204 204 204
203 203 203
204 204 204
204 204 204
197 197 197
201 201 201
122 122 122
110 110 110
104 104 104
71 71 71
33 33 33
31 31 31
31 31 31
31 31 31
44 44 44
27 27 27
35 35 35
165 165 165
216 216 216
218 218 218
178 178 178
40 40 40
64 64 64
70 70 70
66 66 66
59 59 59
40 40 40
55 55 55
86 86 86
72 72 72
99 99 99
145 145 145
138 138 138
221 221 221
225 225 225
221 221 221
211 211 211
210 210 210
209 209 209
210 210 210
210 210 210
208 208 208
207 207 207
207 207 207
208 208 208
208 208 208
208 208 208
207 207 207
207 207 207
207 207 207
206 206 206
205 205 205
205 205 205
203 203 203
202 202 202
202 202 202
202 202 202
201 201 201
200 200 200
200 200 200
198 198 198
197 197 197
198 198 198
196 196 196
194 194 194
194 194 194
191 191 191
115 115 115
131 131 131
76 76 76
37 37 37
40 40 40
37 37 37
38 38 38
30 30 30
29 29 29
34 34 34
34 34 34
35 35 35
38 38 38
36 36 36
36 36 36
35 35 35
38 38 38
47 47 47
45 45 45
39 39 39
41 41 41
42 42 42
40 40 40
40 40 40
39 39 39
37 37 37
37 37 37
37 37 37
38 38 38
40 40 40
41 41 41
38 38 38
34 34 34
33 33 33
33 33 33
34 34 34
45 45 45
41 41 41
43 43 43
45 45 45
41 41 41
35 35 35
36 36 36
36 36 36
34 34 34
34 34 34
32 32 32
32 32 32
33 33 33
32 32 32
31 31 31
31 31 31
32 32 32
31 31 31
31 31 31
31 31 31
30 30 30
31 31 31
26 26 26
127 127 127
129 129 129
131 131 131
133 133 133
136 136 136
150 150 150
156 156 156
155 155 155
160 160 160
164 164 164
165 165 165
166 166 166
165 165 165
161 161 161
156 156 156
151 151 151
144 144 144
133 133 133
100 100 100
98 98 98
62 62 62
43 43 43
44 44 44
49 49 49
48 48 48
48 48 48
49 49 49
50 50 50
50 50 50
50 50 50
50 50 50
50 50 50
50 50 50
49 49 49
51 51 51
51 51 51
53 53 53
58 58 58
81 81 81
193 193 193
171 171 171
176 176 176
195 195 195
207 207 207
204 204 204
205 205 205
206 206 206
205 205 205
203 203 203
154 154 154
111 111 111
104 104 104
80 80 80
32 32 32
31 31 31
32 32 32
30 30 30
29 29 29
46 46 46
39 39 39
137 137 137
220 220 220
219 219 219
212 212 212
81 81 81
57 57 57
86 86 86
73 73 73
102 102 102
102 102 102
110 110 110
126 126 126
117 117 117
162 162 162
213 213 213
215 215 215
226 226 226
227 227 227
220 220 220
210 210 210
210 210 210
209 209 209
210 210 210
210 210 210
208 208 208
207 207 207
207 207 207
208 208 208
208 208 208
208 208 208
207 207 207
207 207 207
207 207 207
206 206 206
206 206 206
205 205 205
203 203 203
203 203 203
201 201 201
201 201 201
200 200 200
200 200 200
200 200 200
198 198 198
197 197 197
197 197 197
194 194 194
195 195 195
193 193 193
192 192 192
123 123 123
119 119 119
48 48 48
36 36 36
36 36 36
35 35 35
36 36 36
30 30 30
30 30 30
35 35 35
35 35 35
37 37 37
38 38 38
36 36 36
36 36 36
35 35 35
40 40 40
48 48 48
39 39 39
40 40 40
42 42 42
40 40 40
37 37 37
38 38 38
37 37 37
37 37 37
39 39 39
39 39 39
40 40 40
41 41 41
40 40 40
36 36 36
32 32 32
34 34 34
39 39 39
45 45 45
59 59 59
54 54 54
42 42 42
42 42 42
37 37 37
33 33 33
33 33 33
32 32 32
32 32 32
33 33 33
32 32 32
30 30 30
31 31 31
31 31 31
31 31 31
32 32 32
32 32 32
32 32 32
32 32 32
31 31 31
31 31 31
31 31 31
27 27 27
135 135 135
135 135 135
130 130 130
135 135 135
143 143 143
153 153 153
154 154 154
154 154 154
157 157 157
159 159 159
162 162 162
164 164 164
163 163 163
157 157 157
150 150 150
144 144 144
142 142 142
129 129 129
112 112 112
86 86 86
80 80 80
40 40 40
34 34 34
43 43 43
48 48 48
48 48 48
50 50 50
49 49 49
49 49 49
48 48 48
48 48 48
48 48 48
48 48 48
47 47 47
50 50 50
51 51 51
53 53 53
56 56 56
120 120 120
198 198 198
153 153 153
135 135 135
125 125 125
142 142 142
183 183 183
206 206 206
204 204 204
204 204 204
203 203 203
184 184 184
104 104 104
105 105 105
90 90 90
34 34 34
31 31 31
30 30 30
33 33 33
52 52 52
101 101 101
99 99 99
68 68 68
164 164 164
222 222 222
218 218 218
177 177 177
48 48 48
76 76 76
113 113 113
164 164 164
160 160 160
164 164 164
162 162 162
130 130 130
137 137 137
193 193 193
221 221 221
227 227 227
228 228 228
216 216 216
211 211 211
211 211 211
210 210 210
209 209 209
208 208 208
208 208 208
208 208 208
208 208 208
208 208 208
208 208 208
208 208 208
207 207 207
207 207 207
207 207 207
206 206 206
206 206 206
204 204 204
201 201 201
201 201 201
200 200 200
201 201 201
201 201 201
200 200 200
200 200 200
199 199 199
199 199 199
198 198 198
193 193 193
195 195 195
195 195 195
191 191 191
122 122 122
90 90 90
39 39 39
33 33 33
36 36 36
35 35 35
32 32 32
29 29 29
34 34 34
34 34 34
37 37 37
39 39 39
40 40 40
37 37 37
36 36 36
36 36 36
46 46 46
44 44 44
37 37 37
41 41 41
40 40 40
38 38 38
37 37 37
37 37 37
37 37 37
38 38 38
37 37 37
39 39 39
39 39 39
40 40 40
41 41 41
43 43 43
44 44 44
43 43 43
42 42 42
42 42 42
41 41 41
43 43 43
48 48 48
41 41 41
34 34 34
31 31 31
32 32 32
33 33 33
31 31 31
31 31 31
32 32 32
31 31 31
29 29 29
29 29 29
30 30 30
31 31 31
32 32 32
32 32 32
32 32 32
32 32 32
31 31 31
30 30 30
26 26 26
136 136 136
134 134 134
136 136 136
141 141 141
150 150 150
150 150 150
145 145 145
147 147 147
147 147 147
144 144 144
148 148 148
152 152 152
152 152 152
154 154 154
150 150 150
139 139 139
137 137 137
132 132 132
123 123 123
120 120 120
86 86 86
57 57 57
32 32 32
33 33 33
41 41 41
47 47 47
50 50 50
48 48 48
48 48 48
48 48 48
49 49 49
48 48 48
48 48 48
49 49 49
48 48 48
50 50 50
50 50 50
46 46 46
150 150 150
200 200 200
151 151 151
141 141 141
141 141 141
128 128 128
117 117 117
134 134 134
188 188 188
206 206 206
206 206 206
202 202 202
119 119 119
107 107 107
100 100 100
41 41 41
33 33 33
29 29 29
32 32 32
46 46 46
110 110 110
116 116 116
118 118 118
100 100 100
159 159 159
216 216 216
218 218 218
157 157 157
55 55 55
89 89 89
140 140 140
150 150 150
148 148 148
132 132 132
109 109 109
77 77 77
178 178 178
225 225 225
228 228 228
224 224 224
212 212 212
210 210 210
211 211 211
210 210 210
208 208 208
208 208 208
209 209 209
209 209 209
208 208 208
207 207 207
208 208 208
208 208 208
207 207 207
207 207 207
207 207 207
206 206 206
205 205 205
204 204 204
201 201 201
200 200 200
198 198 198
193 193 193
190 190 190
199 199 199
199 199 199
198 198 198
198 198 198
197 197 197
193 193 193
194 194 194
193 193 193
193 193 193
116 116 116
60 60 60
37 37 37
37 37 37
35 35 35
36 36 36
27 27 27
28 28 28
36 36 36
36 36 36
37 37 37
39 39 39
40 40 40
39 39 39
39 39 39
37 37 37
49 49 49
38 38 38
36 36 36
41 41 41
38 38 38
38 38 38
37 37 37
37 37 37
37 37 37
37 37 37
36 36 36
36 36 36
39 39 39
46 46 46
49 49 49
46 46 46
42 42 42
36 36 36
33 33 33
35 35 35
38 38 38
38 38 38
50 50 50
38 38 38
31 31 31
29 29 29
31 31 31
31 31 31
31 31 31
30 30 30
30 30 30
32 32 32
29 29 29
30 30 30
31 31 31
31 31 31
31 31 31
32 32 32
32 32 32
31 31 31
30 30 30
30 30 30
24 24 24
108 108 108
115 115 115
126 126 126
129 129 129
134 134 134
132 132 132
134 134 134
145 145 145
149 149 149
144 144 144
141 141 141
143 143 143
144 144 144
150 150 150
149 149 149
148 148 148
144 144 144
143 143 143
143 143 143
140 140 140
120 120 120
70 70 70
36 36 36
31 31 31
34 34 34
38 38 38
44 44 44
46 46 46
46 46 46
48 48 48
49 49 49
48 48 48
47 47 47
47 47 47
44 44 44
40 40 40
41 41 41
45 45 45
173 173 173
204 204 204
162 162 162
151 151 151
132 132 132
113 113 113
135 135 135
138 138 138
126 126 126
160 160 160
204 204 204
201 201 201
155 155 155
109 109 109
105 105 105
52 52 52
33 33 33
29 29 29
32 32 32
40 40 40
122 122 122
138 138 138
135 135 135
131 131 131
129 129 129
160 160 160
214 214 214
220 220 220
183 183 183
95 95 95
73 73 73
91 91 91
89 89 89
73 73 73
97 97 97
188 188 188
224 224 224
225 225 225
221 221 221
214 214 214
210 210 210
209 209 209
211 211 211
210 210 210
209 209 209
207 207 207
207 207 207
208 208 208
208 208 208
208 208 208
208 208 208
208 208 208
209 209 209
208 208 208
205 205 205
205 205 205
204 204 204
203 203 203
202 202 202
201 201 201
199 199 199
171 171 171
138 138 138
185 185 185
195 195 195
197 197 197
198 198 198
196 196 196
193 193 193
193 193 193
193 193 193
194 194 194
106 106 106
42 42 42
36 36 36
35 35 35
34 34 34
30 30 30
24 24 24
36 36 36
34 34 34
35 35 35
37 37 37
38 38 38
39 39 39
38 38 38
38 38 38
40 40 40
46 46 46
32 32 32
38 38 38
41 41 41
36 36 36
38 38 38
37 37 37
38 38 38
34 34 34
34 34 34
37 37 37
44 44 44
46 46 46
48 48 48
42 42 42
39 39 39
37 37 37
34 34 34
33 33 33
32 32 32
36 36 36
37 37 37
42 42 42
33 33 33
30 30 30
28 28 28
30 30 30
30 30 30
30 30 30
31 31 31
32 32 32
32 32 32
30 30 30
31 31 31
30 30 30
30 30 30
30 30 30
31 31 31
32 32 32
31 31 31
30 30 30
29 29 29
25 25 25
113 113 113
129 129 129
134 134 134
132 132 132
129 129 129
129 129 129
134 134 134
140 140 140
143 143 143
142 142 142
138 138 138
135 135 135
139 139 139
146 146 146
149 149 149
149 149 149
145 145 145
158 158 158
175 175 175
166 166 166
142 142 142
120 120 120
67 67 67
31 31 31
33 33 33
33 33 33
32 32 32
37 37 37
40 40 40
41 41 41
42 42 42
39 39 39
34 34 34
30 30 30
32 32 32
35 35 35
42 42 42
43 43 43
182 182 182
201 201 201
168 168 168
204 204 204
178 178 178
182 182 182
144 144 144
114 114 114
137 137 137
135 135 135
133 133 133
202 202 202
189 189 189
104 104 104
107 107 107
77 77 77
33 33 33
32 32 32
33 33 33
39 39 39
127 127 127
168 168 168
164 164 164
155 155 155
149 149 149
145 145 145
153 153 153
200 200 200
219 219 219
217 217 217
181 181 181
161 161 161
163 163 163
188 188 188
217 217 217
221 221 221
213 213 213
212 212 212
211 211 211
210 210 210
209 209 209
209 209 209
210 210 210
209 209 209
208 208 208
207 207 207
207 207 207
208 208 208
207 207 207
207 207 207
207 207 207
207 207 207
208 208 208
208 208 208
206 206 206
205 205 205
204 204 204
203 203 203
201 201 201
200 200 200
198 198 198
150 150 150
136 136 136
160 160 160
196 196 196
198 198 198
197 197 197
195 195 195
193 193 193
194 194 194
193 193 193
191 191 191
96 96 96
42 42 42
35 35 35
34 34 34
34 34 34
33 33 33
32 32 32
35 35 35
35 35 35
35 35 35
38 38 38
38 38 38
38 38 38
36 36 36
35 35 35
45 45 45
41 41 41
33 33 33
34 34 34
42 42 42
39 39 39
39 39 39
38 38 38
36 36 36
36 36 36
42 42 42
44 44 44
44 44 44
40 40 40
41 41 41
39 39 39
35 35 35
34 34 34
34 34 34
34 34 34
33 33 33
36 36 36
35 35 35
37 37 37
31 31 31
30 30 30
29 29 29
29 29 29
29 29 29
31 31 31
32 32 32
31 31 31
31 31 31
30 30 30
31 31 31
31 31 31
30 30 30
30 30 30
30 30 30
31 31 31
31 31 31
30 30 30
27 27 27
25 25 25
151 151 151
153 153 153
142 142 142
136 136 136
134 134 134
137 137 137
137 137 137
136 136 136
137 137 137
137 137 137
140 140 140
133 133 133
134 134 134
145 145 145
149 149 149
145 145 145
140 140 140
166 166 166
184 184 184
176 176 176
165 165 165
154 154 154
139 139 139
86 86 86
32 32 32
31 31 31
30 30 30
31 31 31
32 32 32
30 30 30
31 31 31
31 31 31
29 29 29
30 30 30
32 32 32
35 35 35
41 41 41
46 46 46
184 184 184
191 191 191
177 177 177
208 208 208
207 207 207
204 204 204
165 165 165
108 108 108
138 138 138
137 137 137
121 121 121
190 190 190
201 201 201
126 126 126
109 109 109
93 93 93
35 35 35
35 35 35
34 34 34
42 42 42
103 103 103
191 191 191
189 189 189
184 184 184
179 179 179
175 175 175
172 172 172
176 176 176
178 178 178
191 191 191
204 204 204
214 214 214
216 216 216
209 209 209
197 197 197
179 179 179
188 188 188
208 208 208
209 209 209
209 209 209
210 210 210
208 208 208
209 209 209
209 209 209
209 209 209
207 207 207
207 207 207
208 208 208
208 208 208
208 208 208
207 207 207
207 207 207
208 208 208
208 208 208
206 206 206
206 206 206
204 204 204
202 202 202
201 201 201
199 199 199
194 194 194
123 123 123
134 134 134
166 166 166
196 196 196
197 197 197
195 195 195
194 194 194
192 192 192
193 193 193
191 191 191
189 189 189
87 87 87
41 41 41
36 36 36
35 35 35
34 34 34
36 36 36
36 36 36
35 35 35
36 36 36
36 36 36
39 39 39
38 38 38
39 39 39
37 37 37
40 40 40
44 44 44
35 35 35
32 32 32
31 31 31
42 42 42
40 40 40
38 38 38
37 37 37
39 39 39
42 42 42
42 42 42
37 37 37
34 34 34
32 32 32
36 36 36
36 36 36
34 34 34
32 32 32
32 32 32
31 31 31
34 34 34
33 33 33
31 31 31
35 35 35
30 30 30
30 30 30
29 29 29
30 30 30
31 31 31
31 31 31
32 32 32
30 30 30
29 29 29
29 29 29
31 31 31
31 31 31
30 30 30
29 29 29
29 29 29
31 31 31
32 32 32
29 29 29
27 27 27
25 25 25
154 154 154
151 151 151
146 146 146
148 148 148
141 141 141
140 140 140
138 138 138
129 129 129
130 130 130
134 134 134
140 140 140
140 140 140
141 141 141
145 145 145
144 144 144
142 142 142
140 140 140
160 160 160
169 169 169
158 158 158
148 148 148
141 141 141
135 135 135
133 133 133
93 93 93
36 36 36
32 32 32
29 29 29
31 31 31
30 30 30
31 31 31
32 32 32
30 30 30
29 29 29
32 32 32
34 34 34
38 38 38
47 47 47
177 177 177
203 203 203
156 156 156
196 196 196
207 207 207
205 205 205
182 182 182
108 108 108
137 137 137
138 138 138
120 120 120
192 192 192
201 201 201
167 167 167
105 105 105
103 103 103
43 43 43
35 35 35
35 35 35
40 40 40
60 60 60
194 194 194
201 201 201
200 200 200
200 200 200
198 198 198
197 197 197
194 194 194
197 197 197
194 194 194
190 190 190
189 189 189
190 190 190
190 190 190
200 200 200
209 209 209
210 210 210
209 209 209
209 209 209
210 210 210
210 210 210
209 209 209
209 209 209
209 209 209
209 209 209
208 208 208
209 209 209
208 208 208
208 208 208
208 208 208
207 207 207
207 207 207
207 207 207
207 207 207
207 207 207
206 206 206
204 204 204
203 203 203
199 199 199
198 198 198
162 162 162
132 132 132
144 144 144
191 191 191
195 195 195
195 195 195
194 194 194
194 194 194
193 193 193
193 193 193
190 190 190
181 181 181
53 53 53
41 41 41
37 37 37
35 35 35
35 35 35
36 36 36
37 37 37
36 36 36
35 35 35
37 37 37
38 38 38
38 38 38
39 39 39
39 39 39
44 44 44
39 39 39
36 36 36
33 33 33
29 29 29
33 33 33
37 37 37
41 41 41
39 39 39
38 38 38
37 37 37
35 35 35
34 34 34
34 34 34
35 35 35
36 36 36
36 36 36
35 35 35
33 33 33
31 31 31
31 31 31
31 31 31
31 31 31
30 30 30
34 34 34
31 31 31
30 30 30
26 26 26
29 29 29
31 31 31
32 32 32
31 31 31
29 29 29
28 28 28
28 28 28
29 29 29
31 31 31
30 30 30
28 28 28
29 29 29
29 29 29
29 29 29
27 27 27
26 26 26
26 26 26
146 146 146
136 136 136
139 139 139
149 149 149
143 143 143
141 141 141
140 140 140
135 135 135
134 134 134
139 139 139
136 136 136
138 138 138
140 140 140
138 138 138
133 133 133
133 133 133
133 133 133
146 146 146
152 152 152
145 145 145
136 136 136
122 122 122
113 113 113
119 119 119
119 119 119
104 104 104
56 56 56
29 29 29
31 31 31
29 29 29
29 29 29
29 29 29
27 27 27
28 28 28
31 31 31
33 33 33
37 37 37
43 43 43
151 151 151
206 206 206
204 204 204
169 169 169
186 186 186
205 205 205
193 193 193
114 114 114
134 134 134
137 137 137
121 121 121
197 197 197
200 200 200
194 194 194
102 102 102
107 107 107
64 64 64
36 36 36
36 36 36
37 37 37
46 46 46
166 166 166
205 205 205
207 207 207
209 209 209
208 208 208
208 208 208
207 207 207
207 207 207
210 210 210
210 210 210
210 210 210
210 210 210
208 208 208
209 209 209
210 210 210
211 211 211
210 210 210
209 209 209
208 208 208
208 208 208
209 209 209
209 209 209
209 209 209
209 209 209
208 208 208
208 208 208
208 208 208
208 208 208
208 208 208
208 208 208
208 208 208
206 206 206
206 206 206
205 205 205
205 205 205
204 204 204
205 205 205
200 200 200
198 198 198
181 181 181
168 168 168
194 194 194
198 198 198
198 198 198
195 195 195
193 193 193
193 193 193
194 194 194
194 194 194
190 190 190
160 160 160
41 41 41
40 40 40
37 37 37
37 37 37
37 37 37
37 37 37
37 37 37
36 36 36
36 36 36
37 37 37
39 39 39
38 38 38
40 40 40
41 41 41
46 46 46
34 34 34
34 34 34
31 31 31
32 32 32
35 35 35
37 37 37
38 38 38
33 33 33
34 34 34
33 33 33
35 35 35
35 35 35
34 34 34
34 34 34
35 35 35
34 34 34
33 33 33
32 32 32
31 31 31
31 31 31
30 30 30
30 30 30
28 28 28
33 33 33
31 31 31
31 31 31
27 27 27
30 30 30
31 31 31
31 31 31
29 29 29
28 28 28
27 27 27
28 28 28
27 27 27
30 30 30
30 30 30
28 28 28
28 28 28
26 26 26
24 24 24
25 25 25
25 25 25
26 26 26
148 148 148
141 141 141
143 143 143
148 148 148
140 140 140
132 132 132
131 131 131
133 133 133
136 136 136
139 139 139
135 135 135
131 131 131
142 142 142
140 140 140
134 134 134
137 137 137
133 133 133
130 130 130
122 122 122
109 109 109
105 105 105
101 101 101
102 102 102
109 109 109
113 113 113
116 116 116
116 116 116
94 94 94
48 48 48
30 30 30
29 29 29
29 29 29
30 30 30
29 29 29
31 31 31
33 33 33
35 35 35
42 42 42
79 79 79
191 191 191
204 204 204
206 206 206
190 190 190
167 167 167
195 195 195
122 122 122
128 128 128
137 137 137
122 122 122
193 193 193
202 202 202
202 202 202
139 139 139
109 109 109
87 87 87
37 37 37
37 37 37
36 36 36
48 48 48
121 121 121
206 206 206
208 208 208
210 210 210
211 211 211
210 210 210
210 210 210
209 209 209
211 211 211
210 210 210
210 210 210
212 212 212
209 209 209
208 208 208
210 210 210
210 210 210
210 210 210
208 208 208
208 208 208
208 208 208
208 208 208
208 208 208
209 209 209
209 209 209
209 209 209
209 209 209
208 208 208
208 208 208
207 207 207
208 208 208
208 208 208
205 205 205
205 205 205
205 205 205
204 204 204
203 203 203
204 204 204
200 200 200
198 198 198
196 196 196
197 197 197
199 199 199
197 197 197
197 197 197
195 195 195
194 194 194
193 193 193
193 193 193
194 194 194
189 189 189
119 119 119
42 42 42
39 39 39
36 36 36
37 37 37
36 36 36
37 37 37
37 37 37
37 37 37
36 36 36
37 37 37
38 38 38
35 35 35
37 37 37
43 43 43
39 39 39
32 32 32
32 32 32
35 35 35
37 37 37
38 38 38
38 38 38
35 35 35
32 32 32
33 33 33
34 34 34
33 33 33
34 34 34
34 34 34
34 34 34
36 36 36
34 34 34
32 32 32
31 31 31
31 31 31
31 31 31
29 29 29
28 28 28
24 24 24
31 31 31
31 31 31
30 30 30
27 27 27
30 30 30
31 31 31
31 31 31
30 30 30
28 28 28
27 27 27
26 26 26
26 26 26
28 28 28
28 28 28
26 26 26
24 24 24
24 24 24
26 26 26
27 27 27
26 26 26
26 26 26
136 136 136
136 136 136
138 138 138
144 144 144
147 147 147
140 140 140
138 138 138
144 144 144
142 142 142
141 141 141
139 139 139
135 135 135
138 138 138
138 138 138
132 132 132
129 129 129
123 123 123
128 128 128
136 136 136
125 125 125
107 107 107
91 91 91
82 82 82
81 81 81
82 82 82
88 88 88
97 97 97
104 104 104
101 101 101
72 72 72
35 35 35
29 29 29
30 30 30
31 31 31
32 32 32
33 33 33
31 31 31
36 36 36
42 42 42
85 85 85
184 184 184
204 204 204
206 206 206
205 205 205
200 200 200
138 138 138
119 119 119
136 136 136
134 134 134
144 144 144
195 195 195
201 201 201
180 180 180
102 102 102
102 102 102
46 46 46
37 37 37
37 37 37
44 44 44
66 66 66
196 196 196
208 208 208
211 211 211
211 211 211
212 212 212
213 213 213
211 211 211
211 211 211
209 209 209
210 210 210
211 211 211
208 208 208
209 209 209
211 211 211
210 210 210
209 209 209
208 208 208
209 209 209
207 207 207
208 208 208
208 208 208
208 208 208
209 209 209
209 209 209
209 209 209
208 208 208
208 208 208
208 208 208
208 208 208
208 208 208
205 205 205
204 204 204
204 204 204
203 203 203
202 202 202
203 203 203
199 199 199
199 199 199
199 199 199
200 200 200
200 200 200
197 197 197
196 196 196
194 194 194
194 194 194
193 193 193
192 192 192
191 191 191
180 180 180
63 63 63
42 42 42
37 37 37
35 35 35
35 35 35
35 35 35
36 36 36
37 37 37
37 37 37
36 36 36
35 35 35
38 38 38
37 37 37
38 38 38
43 43 43
31 31 31
29 29 29
36 36 36
38 38 38
36 36 36
37 37 37
37 37 37
35 35 35
33 33 33
31 31 31
31 31 31
31 31 31
33 33 33
34 34 34
36 36 36
36 36 36
31 31 31
31 31 31
32 32 32
31 31 31
30 30 30
29 29 29
28 28 28
26 26 26
31 31 31
30 30 30
30 30 30
31 31 31
31 31 31
30 30 30
32 32 32
30 30 30
29 29 29
26 26 26
26 26 26
27 27 27
27 27 27
25 25 25
21 21 21
22 22 22
26 26 26
28 28 28
29 29 29
28 28 28
28 28 28
131 131 131
129 129 129
127 127 127
138 138 138
145 145 145
144 144 144
145 145 145
150 150 150
150 150 150
148 148 148
149 149 149
146 146 146
141 141 141
139 139 139
134 134 134
130 130 130
127 127 127
132 132 132
141 141 141
139 139 139
128 128 128
116 116 116
104 104 104
94 94 94
87 87 87
78 78 78
74 74 74
74 74 74
75 75 75
79 79 79
83 83 83
82 82 82
50 50 50
35 35 35
36 36 36
38 38 38
32 32 32
35 35 35
37 37 37
43 43 43
64 64 64
159 159 159
201 201 201
204 204 204
202 202 202
168 168 168
111 111 111
129 129 129
138 138 138
137 137 137
125 125 125
137 137 137
166 166 166
157 157 157
105 105 105
76 76 76
43 43 43
41 41 41
54 54 54
50 50 50
167 167 167
206 206 206
207 207 207
209 209 209
209 209 209
209 209 209
209 209 209
210 210 210
209 209 209
210 210 210
210 210 210
210 210 210
211 211 211
211 211 211
211 211 211
209 209 209
209 209 209
208 208 208
207 207 207
208 208 208
208 208 208
207 207 207
208 208 208
208 208 208
208 208 208
208 208 208
208 208 208
208 208 208
208 208 208
208 208 208
204 204 204
203 203 203
204 204 204
202 202 202
201 201 201
203 203 203
199 199 199
199 199 199
199 199 199
198 198 198
200 200 200
197 197 197
195 195 195
195 195 195
193 193 193
195 195 195
192 192 192
189 189 189
134 134 134
41 41 41
38 38 38
36 36 36
34 34 34
33 33 33
34 34 34
36 36 36
37 37 37
37 37 37
36 36 36
36 36 36
39 39 39
37 37 37
42 42 42
43 43 43
30 30 30
35 35 35
36 36 36
37 37 37
35 35 35
36 36 36
36 36 36
34 34 34
33 33 33
32 32 32
29 29 29
29 29 29
29 29 29
31 31 31
29 29 29
30 30 30
32 32 32
32 32 32
32 32 32
32 32 32
30 30 30
29 29 29
28 28 28
26 26 26
29 29 29
31 31 31
30 30 30
30 30 30
31 31 31
30 30 30
31 31 31
31 31 31
26 26 26
26 26 26
26 26 26
26 26 26
26 26 26
27 27 27
23 23 23
27 27 27
30 30 30
28 28 28
27 27 27
28 28 28
28 28 28
123 123 123
119 119 119
119 119 119
131 131 131
146 146 146
153 153 153
157 157 157
156 156 156
150 150 150
145 145 145
144 144 144
146 146 146
145 145 145
148 148 148
144 144 144
136 136 136
133 133 133
135 135 135
139 139 139
126 126 126
123 123 123
119 119 119
109 109 109
105 105 105
108 108 108
106 106 106
98 98 98
92 92 92
85 85 85
76 76 76
81 81 81
99 99 99
76 76 76
49 49 49
48 48 48
43 43 43
31 31 31
33 33 33
34 34 34
37 37 37
42 42 42
46 46 46
118 118 118
192 192 192
202 202 202
199 199 199
156 156 156
108 108 108
120 120 120
137 137 137
138 138 138
139 139 139
135 135 135
203 203 203
179 179 179
109 109 109
46 46 46
46 46 46
91 91 91
69 69 69
117 117 117
206 206 206
206 206 206
208 208 208
209 209 209
210 210 210
209 209 209
209 209 209
210 210 210
211 211 211
210 210 210
211 211 211
211 211 211
210 210 210
211 211 211
210 210 210
209 209 209
208 208 208
208 208 208
208 208 208
208 208 208
208 208 208
208 208 208
208 208 208
208 208 208
208 208 208
208 208 208
208 208 208
208 208 208
208 208 208
204 204 204
204 204 204
203 203 203
202 202 202
203 203 203
204 204 204
201 201 201
199 199 199
199 199 199
198 198 198
200 200 200
199 199 199
194 194 194
193 193 193
193 193 193
192 192 192
188 188 188
177 177 177
63 63 63
40 40 40
36 36 36
34 34 34
34 34 34
33 33 33
34 34 34
35 35 35
36 36 36
36 36 36
37 37 37
36 36 36
39 39 39
38 38 38
46 46 46
39 39 39
34 34 34
37 37 37
36 36 36
35 35 35
36 36 36
37 37 37
34 34 34
33 33 33
32 32 32
31 31 31
30 30 30
30 30 30
30 30 30
31 31 31
31 31 31
31 31 31
32 32 32
32 32 32
33 33 33
32 32 32
30 30 30
28 28 28
29 29 29
26 26 26
29 29 29
32 32 32
31 31 31
29 29 29
30 30 30
30 30 30
30 30 30
31 31 31
24 24 24
25 25 25
29 29 29
32 32 32
37 37 37
31 31 31
26 26 26
30 30 30
30 30 30
28 28 28
26 26 26
27 27 27
27 27 27
129 129 129
128 128 128
122 122 122
130 130 130
143 143 143
157 157 157
172 172 172
175 175 175
170 170 170
163 163 163
155 155 155
144 144 144
139 139 139
143 143 143
150 150 150
151 151 151
146 146 146
137 137 137
130 130 130
113 113 113
107 107 107
106 106 106
101 101 101
102 102 102
109 109 109
113 113 113
111 111 111
102 102 102
98 98 98
97 97 97
84 84 84
101 101 101
87 87 87
49 49 49
48 48 48
47 47 47
33 33 33
31 31 31
33 33 33
35 35 35
38 38 38
40 40 40
41 41 41
67 67 67
161 161 161
197 197 197
199 199 199
179 179 179
149 149 149
118 118 118
127 127 127
123 123 123
171 171 171
205 205 205
204 204 204
199 199 199
143 143 143
64 64 64
66 66 66
143 143 143
62 62 62
188 188 188
208 208 208
209 209 209
209 209 209
210 210 210
211 211 211
210 210 210
210 210 210
210 210 210
210 210 210
211 211 211
212 212 212
210 210 210
209 209 209
209 209 209
210 210 210
208 208 208
208 208 208
207 207 207
207 207 207
207 207 207
207 207 207
208 208 208
207 207 207
207 207 207
207 207 207
207 207 207
207 207 207
207 207 207
203 203 203
203 203 203
202 202 202
202 202 202
205 205 205
202 202 202
200 200 200
199 199 199
198 198 198
197 197 197
199 199 199
198 198 198
193 193 193
192 192 192
192 192 192
191 191 191
188 188 188
109 109 109
43 43 43
41 41 41
36 36 36
35 35 35
35 35 35
35 35 35
36 36 36
36 36 36
36 36 36
36 36 36
35 35 35
34 34 34
37 37 37
38 38 38
42 42 42
35 35 35
36 36 36
37 37 37
37 37 37
37 37 37
37 37 37
36 36 36
35 35 35
33 33 33
31 31 31
31 31 31
30 30 30
31 31 31
30 30 30
30 30 30
30 30 30
31 31 31
31 31 31
32 32 32
33 33 33
32 32 32
31 31 31
29 29 29
27 27 27
24 24 24
29 29 29
31 31 31
30 30 30
28 28 28
29 29 29
29 29 29
27 27 27
27 27 27
27 27 27
29 29 29
34 34 34
39 39 39
36 36 36
27 27 27
27 27 27
31 31 31
29 29 29
27 27 27
25 25 25
26 26 26
24 24 24
132 132 132
130 130 130
129 129 129
134 134 134
150 150 150
166 166 166
168 168 168
168 168 168
161 161 161
160 160 160
164 164 164
155 155 155
154 154 154
152 152 152
153 153 153
148 148 148
136 136 136
138 138 138
153 153 153
138 138 138
121 121 121
105 105 105
95 95 95
93 93 93
104 104 104
114 114 114
115 115 115
109 109 109
106 106 106
103 103 103
85 85 85
102 102 102
94 94 94
52 52 52
49 49 49
48 48 48
37 37 37
30 30 30
31 31 31
32 32 32
34 34 34
36 36 36
37 37 37
41 41 41
42 42 42
105 105 105
184 184 184
201 201 201
201 201 201
204 204 204
185 185 185
179 179 179
205 205 205
207 207 207
207 207 207
203 203 203
202 202 202
187 187 187
138 138 138
177 177 177
121 121 121
143 143 143
209 209 209
208 208 208
209 209 209
211 211 211
210 210 210
209 209 209
209 209 209
209 209 209
211 211 211
211 211 211
211 211 211
210 210 210
209 209 209
208 208 208
208 208 208
209 209 209
209 209 209
207 207 207
208 208 208
208 208 208
208 208 208
208 208 208
208 208 208
208 208 208
207 207 207
207 207 207
205 205 205
205 205 205
202 202 202
202 202 202
201 201 201
201 201 201
201 201 201
200 200 200
200 200 200
200 200 200
197 197 197
196 196 196
199 199 199
195 195 195
193 193 193
193 193 193
194 194 194
193 193 193
147 147 147
43 43 43
39 39 39
39 39 39
36 36 36
36 36 36
35 35 35
33 33 33
37 37 37
35 35 35
34 34 34
34 34 34
33 33 33
34 34 34
35 35 35
39 39 39
39 39 39
33 33 33
35 35 35
37 37 37
37 37 37
38 38 38
38 38 38
37 37 37
35 35 35
32 32 32
31 31 31
30 30 30
30 30 30
31 31 31
31 31 31
31 31 31
29 29 29
29 29 29
30 30 30
31 31 31
31 31 31
31 31 31
30 30 30
28 28 28
25 25 25
24 24 24
29 29 29
31 31 31
30 30 30
27 27 27
30 30 30
27 27 27
26 26 26
27 27 27
31 31 31
31 31 31
30 30 30
29 29 29
23 23 23
23 23 23
26 26 26
28 28 28
29 29 29
27 27 27
25 25 25
26 26 26
23 23 23
133 133 133
126 126 126
133 133 133
146 146 146
157 157 157
162 162 162
159 159 159
151 151 151
144 144 144
143 143 143
159 159 159
167 167 167
154 154 154
135 135 135
124 124 124
118 118 118
116 116 116
133 133 133
162 162 162
158 158 158
149 149 149
140 140 140
127 127 127
112 112 112
101 101 101
98 98 98
99 99 99
99 99 99
102 102 102
104 104 104
84 84 84
101 101 101
98 98 98
58 58 58
48 48 48
49 49 49
42 42 42
29 29 29
31 31 31
32 32 32
32 32 32
32 32 32
30 30 30
35 35 35
36 36 36
42 42 42
54 54 54
138 138 138
195 195 195
202 202 202
203 203 203
204 204 204
205 205 205
200 200 200
157 157 157
203 203 203
204 204 204
205 205 205
206 206 206
206 206 206
201 201 201
135 135 135
197 197 197
208 208 208
209 209 209
212 212 212
210 210 210
209 209 209
209 209 209
209 209 209
211 211 211
210 210 210
210 210 210
208 208 208
207 207 207
208 208 208
208 208 208
209 209 209
209 209 209
209 209 209
209 209 209
208 208 208
208 208 208
208 208 208
208 208 208
207 207 207
207 207 207
206 206 206
206 206 206
203 203 203
204 204 204
203 203 203
200 200 200
200 200 200
199 199 199
198 198 198
198 198 198
199 199 199
198 198 198
197 197 197
197 197 197
194 194 194
193 193 193
192 192 192
189 189 189
167 167 167
54 54 54
41 41 41
39 39 39
37 37 37
38 38 38
36 36 36
34 34 34
34 34 34
32 32 32
33 33 33
33 33 33
33 33 33
33 33 33
34 34 34
36 36 36
38 38 38
33 33 33
33 33 33
35 35 35
37 37 37
37 37 37
38 38 38
38 38 38
37 37 37
35 35 35
32 32 32
31 31 31
30 30 30
31 31 31
31 31 31
32 32 32
31 31 31
30 30 30
27 27 27
28 28 28
30 30 30
31 31 31
29 29 29
29 29 29
28 28 28
25 25 25
24 24 24
28 28 28
30 30 30
29 29 29
31 31 31
30 30 30
29 29 29
30 30 30
32 32 32
29 29 29
27 27 27
25 25 25
23 23 23
23 23 23
23 23 23
25 25 25
26 26 26
27 27 27
26 26 26
24 24 24
26 26 26
24 24 24
157 157 157
149 149 149
149 149 149
154 154 154
151 151 151
141 141 141
134 134 134
131 131 131
134 134 134
129 129 129
135 135 135
125 125 125
110 110 110
110 110 110
113 113 113
117 117 117
122 122 122
128 128 128
145 145 145
137 137 137
127 127 127
125 125 125
125 125 125
127 127 127
127 127 127
121 121 121
118 118 118
113 113 113
104 104 104
98 98 98
87 87 87
97 97 97
101 101 101
67 67 67
48 48 48
50 50 50
49 49 49
32 32 32
31 31 31
32 32 32
31 31 31
32 32 32
27 27 27
32 32 32
34 34 34
36 36 36
39 39 39
41 41 41
77 77 77
162 162 162
203 203 203
204 204 204
205 205 205
178 178 178
165 165 165
184 184 184
193 193 193
203 203 203
205 205 205
206 206 206
206 206 206
207 207 207
206 206 206
209 209 209
210 210 210
210 210 210
210 210 210
210 210 210
209 209 209
210 210 210
210 210 210
210 210 210
209 209 209
208 208 208
208 208 208
208 208 208
208 208 208
209 209 209
209 209 209
210 210 210
210 210 210
209 209 209
208 208 208
208 208 208
207 207 207
207 207 207
206 206 206
205 205 205
204 204 204
204 204 204
202 202 202
201 201 201
199 199 199
200 200 200
200 200 200
185 185 185
197 197 197
200 200 200
200 200 200
200 200 200
195 195 195
194 194 194
193 193 193
192 192 192
184 184 184
85 85 85
42 42 42
38 38 38
36 36 36
35 35 35
36 36 36
34 34 34
34 34 34
34 34 34
34 34 34
34 34 34
33 33 33
33 33 33
33 33 33
34 34 34
38 38 38
38 38 38
33 33 33
36 36 36
36 36 36
36 36 36
37 37 37
38 38 38
38 38 38
37 37 37
36 36 36
31 31 31
30 30 30
30 30 30
29 29 29
30 30 30
31 31 31
32 32 32
31 31 31
29 29 29
29 29 29
30 30 30
30 30 30
29 29 29
28 28 28
26 26 26
23 23 23
21 21 21
23 23 23
27 27 27
26 26 26
28 28 28
31 31 31
31 31 31
32 32 32
30 30 30
27 27 27
28 28 28
25 25 25
23 23 23
22 22 22
23 23 23
25 25 25
27 27 27
27 27 27
26 26 26
27 27 27
26 26 26
24 24 24
159 159 159
158 158 158
155 155 155
157 157 157
157 157 157
150 150 150
148 148 148
145 145 145
139 139 139
124 124 124
117 117 117
112 112 112
107 107 107
109 109 109
116 116 116
123 123 123
128 128 128
123 123 123
119 119 119
116 116 116
105 105 105
98 98 98
100 100 100
101 101 101
105 105 105
107 107 107
110 110 110
116 116 116
119 119 119
123 123 123
120 120 120
92 92 92
100 100 100
79 79 79
52 52 52
51 51 51
49 49 49
41 41 41
30 30 30
30 30 30
30 30 30
28 28 28
27 27 27
29 29 29
32 32 32
34 34 34
36 36 36
38 38 38
42 42 42
45 45 45
110 110 110
162 162 162
168 168 168
130 130 130
138 138 138
104 104 104
122 122 122
128 128 128
200 200 200
206 206 206
208 208 208
207 207 207
210 210 210
211 211 211
210 210 210
209 209 209
210 210 210
211 211 211
211 211 211
211 211 211
210 210 210
209 209 209
208 208 208
207 207 207
208 208 208
208 208 208
207 207 207
209 209 209
209 209 209
210 210 210
209 209 209
207 207 207
206 206 206
207 207 207
207 207 207
206 206 206
206 206 206
205 205 205
204 204 204
203 203 203
200 200 200
198 198 198
189 189 189
166 166 166
137 137 137
131 131 131
196 196 196
201 201 201
200 200 200
196 196 196
194 194 194
193 193 193
192 192 192
189 189 189
115 115 115
44 44 44
38 38 38
35 35 35
34 34 34
34 34 34
34 34 34
34 34 34
35 35 35
34 34 34
33 33 33
34 34 34
33 33 33
33 33 33
34 34 34
36 36 36
39 39 39
36 36 36
35 35 35
37 37 37
36 36 36
36 36 36
37 37 37
36 36 36
36 36 36
36 36 36
35 35 35
31 31 31
31 31 31
30 30 30
30 30 30
30 30 30
30 30 30
31 31 31
31 31 31
31 31 31
31 31 31
31 31 31
31 31 31
29 29 29
28 28 28
25 25 25
21 21 21
21 21 21
23 23 23
25 25 25
26 26 26
30 30 30
32 32 32
31 31 31
27 27 27
28 28 28
27 27 27
28 28 28
26 26 26
24 24 24
22 22 22
23 23 23
24 24 24
27 27 27
27 27 27
27 27 27
26 26 26
25 25 25
23 23 23
153 153 153
147 147 147
153 153 153
158 158 158
160 160 160
156 156 156
151 151 151
135 135 135
122 122 122
115 115 115
105 105 105
98 98 98
99 99 99
110 110 110
120 120 120
125 125 125
126 126 126
127 127 127
117 117 117
108 108 108
87 87 87
79 79 79
80 80 80
83 83 83
89 89 89
91 91 91
93 93 93
97 97 97
104 104 104
117 117 117
127 127 127
88 88 88
100 100 100
88 88 88
53 53 53
52 52 52
49 49 49
46 46 46
30 30 30
30 30 30
29 29 29
28 28 28
27 27 27
27 27 27
30 30 30
31 31 31
31 31 31
33 33 33
35 35 35
41 41 41
70 70 70
87 87 87
101 101 101
180 180 180
182 182 182
142 142 142
130 130 130
136 136 136
132 132 132
199 199 199
206 206 206
208 208 208
210 210 210
211 211 211
211 211 211
210 210 210
211 211 211
211 211 211
211 211 211
212 212 212
210 210 210
209 209 209
208 208 208
208 208 208
208 208 208
208 208 208
208 208 208
209 209 209
209 209 209
210 210 210
209 209 209
207 207 207
207 207 207
208 208 208
207 207 207
206 206 206
205 205 205
205 205 205
203 203 203
201 201 201
196 196 196
157 157 157
116 116 116
113 113 113
120 120 120
180 180 180
197 197 197
200 200 200
197 197 197
194 194 194
193 193 193
192 192 192
192 192 192
143 143 143
63 63 63
40 40 40
36 36 36
34 34 34
32 32 32
31 31 31
34 34 34
35 35 35
35 35 35
35 35 35
34 34 34
34 34 34
34 34 34
33 33 33
33 33 33
36 36 36
38 38 38
35 35 35
35 35 35
36 36 36
36 36 36
37 37 37
37 37 37
36 36 36
36 36 36
35 35 35
33 33 33
33 33 33
31 31 31
31 31 31
32 32 32
31 31 31
31 31 31
31 31 31
31 31 31
32 32 32
31 31 31
31 31 31
29 29 29
27 27 27
26 26 26
23 23 23
19 19 19
21 21 21
24 24 24
26 26 26
28 28 28
29 29 29
28 28 28
27 27 27
26 26 26
27 27 27
28 28 28
28 28 28
26 26 26
25 25 25
23 23 23
23 23 23
22 22 22
26 26 26
26 26 26
27 27 27
26 26 26
24 24 24
23 23 23
152 152 152
149 149 149
154 154 154
153 153 153
145 145 145
142 142 142
140 140 140
140 140 140
136 136 136
128 128 128
111 111 111
101 101 101
101 101 101
109 109 109
121 121 121
126 126 126
130 130 130
131 131 131
127 127 127
120 120 120
103 103 103
89 89 89
89 89 89
89 89 89
85 85 85
78 78 78
82 82 82
86 86 86
94 94 94
103 103 103
111 111 111
85 85 85
101 101 101
95 95 95
56 56 56
54 54 54
53 53 53
50 50 50
39 39 39
31 31 31
30 30 30
28 28 28
27 27 27
23 23 23
27 27 27
30 30 30
31 31 31
30 30 30
32 32 32
38 38 38
74 74 74
90 90 90
144 144 144
201 201 201
204 204 204
170 170 170
112 112 112
137 137 137
135 135 135
136 136 136
199 199 199
206 206 206
208 208 208
209 209 209
209 209 209
209 209 209
210 210 210
210 210 210
211 211 211
212 212 212
211 211 211
210 210 210
208 208 208
208 208 208
208 208 208
208 208 208
208 208 208
209 209 209
209 209 209
209 209 209
208 208 208
207 207 207
207 207 207
208 208 208
207 207 207
206 206 206
205 205 205
204 204 204
203 203 203
199 199 199
160 160 160
141 141 141
152 152 152
135 135 135
140 140 140
191 191 191
198 198 198
199 199 199
197 197 197
196 196 196
193 193 193
190 190 190
166 166 166
93 93 93
46 46 46
37 37 37
35 35 35
34 34 34
32 32 32
34 34 34
35 35 35
35 35 35
34 34 34
34 34 34
35 35 35
32 32 32
32 32 32
31 31 31
34 34 34
38 38 38
35 35 35
31 31 31
33 33 33
35 35 35
36 36 36
36 36 36
36 36 36
34 34 34
34 34 34
32 32 32
31 31 31
33 33 33
31 31 31
31 31 31
31 31 31
31 31 31
32 32 32
32 32 32
32 32 32
32 32 32
31 31 31
30 30 30
25 25 25
25 25 25
24 24 24
23 23 23
23 23 23
25 25 25
27 27 27
27 27 27
29 29 29
26 26 26
25 25 25
26 26 26
27 27 27
27 27 27
28 28 28
27 27 27
28 28 28
27 27 27
25 25 25
25 25 25
23 23 23
27 27 27
26 26 26
26 26 26
26 26 26
24 24 24
23 23 23
155 155 155
149 149 149
145 145 145
143 143 143
136 136 136
136 136 136
135 135 135
129 129 129
124 124 124
118 118 118
111 111 111
114 114 114
117 117 117
121 121 121
126 126 126
122 122 122
120 120 120
115 115 115
123 123 123
127 127 127
120 120 120
114 114 114
113 113 113
111 111 111
102 102 102
98 98 98
98 98 98
99 99 99
102 102 102
101 101 101
98 98 98
74 74 74
101 101 101
97 97 97
60 60 60
55 55 55
53 53 53
50 50 50
45 45 45
30 30 30
29 29 29
28 28 28
28 28 28
24 24 24
26 26 26
30 30 30
29 29 29
29 29 29
32 32 32
35 35 35
69 69 69
113 113 113
134 134 134
194 194 194
193 193 193
158 158 158
104 104 104
135 135 135
136 136 136
135 135 135
136 136 136
199 199 199
206 206 206
207 207 207
209 209 209
208 208 208
209 209 209
209 209 209
210 210 210
211 211 211
209 209 209
209 209 209
208 208 208
208 208 208
208 208 208
208 208 208
208 208 208
208 208 208
208 208 208
207 207 207
208 208 208
208 208 208
207 207 207
208 208 208
207 207 207
206 206 206
204 204 204
202 202 202
202 202 202
200 200 200
172 172 172
151 151 151
152 152 152
146 146 146
164 164 164
178 178 178
197 197 197
198 198 198
197 197 197
193 193 193
192 192 192
179 179 179
113 113 113
81 81 81
35 35 35
35 35 35
34 34 34
34 34 34
33 33 33
34 34 34
34 34 34
33 33 33
31 31 31
34 34 34
35 35 35
32 32 32
31 31 31
31 31 31
35 35 35
37 37 37
32 32 32
33 33 33
31 31 31
33 33 33
33 33 33
33 33 33
32 32 32
31 31 31
31 31 31
30 30 30
31 31 31
34 34 34
31 31 31
31 31 31
30 30 30
30 30 30
34 34 34
31 31 31
33 33 33
32 32 32
31 31 31
30 30 30
24 24 24
25 25 25
26 26 26
27 27 27
29 29 29
28 28 28
27 27 27
27 27 27
28 28 28
25 25 25
25 25 25
26 26 26
26 26 26
26 26 26
25 25 25
26 26 26
25 25 25
25 25 25
25 25 25
25 25 25
22 22 22
27 27 27
27 27 27
25 25 25
26 26 26
23 23 23
23 23 23
126 126 126
119 119 119
116 116 116
121 121 121
123 123 123
125 125 125
122 122 122
108 108 108
96 96 96
86 86 86
85 85 85
97 97 97
103 103 103
111 111 111
113 113 113
110 110 110
107 107 107
104 104 104
109 109 109
118 118 118
114 114 114
111 111 111
107 107 107
107 107 107
103 103 103
104 104 104
111 111 111
117 117 117
111 111 111
85 85 85
65 65 65
56 56 56
98 98 98
98 98 98
65 65 65
55 55 55
53 53 53
53 53 53
51 51 51
38 38 38
27 27 27
28 28 28
28 28 28
26 26 26
25 25 25
27 27 27
27 27 27
29 29 29
32 32 32
35 35 35
66 66 66
126 126 126
133 133 133
135 135 135
131 131 131
94 94 94
80 80 80
131 131 131
134 134 134
136 136 136
137 137 137
132 132 132
195 195 195
206 206 206
206 206 206
207 207 207
209 209 209
209 209 209
209 209 209
209 209 209
209 209 209
209 209 209
209 209 209
209 209 209
209 209 209
209 209 209
209 209 209
207 207 207
207 207 207
207 207 207
207 207 207
207 207 207
207 207 207
208 208 208
207 207 207
206 206 206
204 204 204
203 203 203
201 201 201
202 202 202
200 200 200
189 189 189
177 177 177
166 166 166
153 153 153
195 195 195
197 197 197
197 197 197
195 195 195
192 192 192
190 190 190
124 124 124
117 117 117
49 49 49
35 35 35
35 35 35
33 33 33
34 34 34
33 33 33
34 34 34
34 34 34
33 33 33
33 33 33
34 34 34
33 33 33
30 30 30
31 31 31
32 32 32
35 35 35
34 34 34
31 31 31
35 35 35
30 30 30
31 31 31
32 32 32
31 31 31
31 31 31
30 30 30
30 30 30
30 30 30
31 31 31
31 31 31
30 30 30
30 30 30
30 30 30
32 32 32
34 34 34
31 31 31
34 34 34
32 32 32
30 30 30
28 28 28
27 27 27
32 32 32
34 34 34
30 30 30
29 29 29
30 30 30
28 28 28
26 26 26
27 27 27
25 25 25
25 25 25
25 25 25
24 24 24
23 23 23
23 23 23
24 24 24
23 23 23
23 23 23
24 24 24
24 24 24
23 23 23
27 27 27
28 28 28
25 25 25
24 24 24
23 23 23
23 23 23
103 103 103
103 103 103
112 112 112
114 114 114
113 113 113
121 121 121
119 119 119
106 106 106
93 93 93
88 88 88
84 84 84
84 84 84
85 85 85
86 86 86
96 96 96
100 100 100
97 97 97
98 98 98
90 90 90
88 88 88
87 87 87
87 87 87
94 94 94
106 106 106
108 108 108
105 105 105
103 103 103
88 88 88
71 71 71
69 69 69
75 75 75
73 73 73
93 93 93
99 99 99
70 70 70
54 54 54
53 53 53
53 53 53
51 51 51
47 47 47
31 31 31
28 28 28
27 27 27
28 28 28
24 24 24
30 30 30
27 27 27
31 31 31
30 30 30
33 33 33
67 67 67
104 104 104
152 152 152
144 144 144
139 139 139
91 91 91
82 82 82
129 129 129
131 131 131
132 132 132
135 135 135
135 135 135
126 126 126
189 189 189
207 207 207
206 206 206
207 207 207
208 208 208
209 209 209
209 209 209
209 209 209
209 209 209
209 209 209
209 209 209
209 209 209
208 208 208
207 207 207
208 208 208
208 208 208
208 208 208
208 208 208
207 207 207
208 208 208
208 208 208
206 206 206
206 206 206
205 205 205
204 204 204
203 203 203
200 200 200
199 199 199
154 154 154
124 124 124
138 138 138
192 192 192
198 198 198
197 197 197
195 195 195
193 193 193
193 193 193
146 146 146
128 128 128
85 85 85
38 38 38
35 35 35
33 33 33
31 31 31
33 33 33
33 33 33
34 34 34
34 34 34
34 34 34
35 35 35
35 35 35
33 33 33
30 30 30
31 31 31
32 32 32
36 36 36
35 35 35
32 32 32
33 33 33
32 32 32
31 31 31
32 32 32
32 32 32
31 31 31
30 30 30
30 30 30
30 30 30
31 31 31
30 30 30
31 31 31
31 31 31
31 31 31
37 37 37
34 34 34
32 32 32
33 33 33
30 30 30
28 28 28
32 32 32
37 37 37
37 37 37
31 31 31
29 29 29
28 28 28
28 28 28
27 27 27
25 25 25
25 25 25
25 25 25
25 25 25
24 24 24
24 24 24
24 24 24
23 23 23
24 24 24
23 23 23
23 23 23
24 24 24
24 24 24
24 24 24
27 27 27
28 28 28
25 25 25
23 23 23
23 23 23
24 24 24
123 123 123
134 134 134
136 136 136
135 135 135
132 132 132
133 133 133
131 131 131
122 122 122
116 116 116
104 104 104
90 90 90
85 85 85
78 78 78
77 77 77
79 79 79
82 82 82
86 86 86
87 87 87
79 79 79
73 73 73
75 75 75
81 81 81
93 93 93
100 100 100
94 94 94
79 79 79
69 69 69
71 71 71
82 82 82
90 90 90
94 94 94
89 89 89
89 89 89
99 99 99
75 75 75
54 54 54
53 53 53
53 53 53
51 51 51
49 49 49
41 41 41
28 28 28
29 29 29
29 29 29
27 27 27
24 24 24
27 27 27
28 28 28
28 28 28
30 30 30
49 49 49
64 64 64
100 100 100
119 119 119
95 95 95
79 79 79
116 116 116
129 129 129
131 131 131
131 131 131
133 133 133
135 135 135
137 137 137
125 125 125
167 167 167
206 206 206
206 206 206
207 207 207
208 208 208
208 208 208
209 209 209
209 209 209
209 209 209
209 209 209
208 208 208
208 208 208
208 208 208
208 208 208
207 207 207
208 208 208
208 208 208
207 207 207
207 207 207
207 207 207
206 206 206
206 206 206
205 205 205
204 204 204
204 204 204
201 201 201
201 201 201
194 194 194
186 186 186
194 194 194
199 199 199
198 198 198
195 195 195
195 195 195
193 193 193
166 166 166
122 122 122
117 117 117
52 52 52
34 34 34
35 35 35
33 33 33
32 32 32
34 34 34
33 33 33
33 33 33
34 34 34
33 33 33
35 35 35
34 34 34
31 31 31
30 30 30
31 31 31
33 33 33
34 34 34
34 34 34
36 36 36
32 32 32
32 32 32
31 31 31
33 33 33
32 32 32
31 31 31
30 30 30
30 30 30
31 31 31
31 31 31
31 31 31
31 31 31
30 30 30
32 32 32
32 32 32
32 32 32
32 32 32
32 32 32
31 31 31
32 32 32
35 35 35
34 34 34
29 29 29
28 28 28
27 27 27
27 27 27
26 26 26
26 26 26
26 26 26
26 26 26
24 24 24
23 23 23
22 22 22
24 24 24
25 25 25
24 24 24
24 24 24
22 22 22
23 23 23
23 23 23
22 22 22
22 22 22
25 25 25
27 27 27
25 25 25
25 25 25
24 24 24
24 24 24
128 128 128
139 139 139
140 140 140
140 140 140
138 138 138
133 133 133
126 126 126
125 125 125
130 130 130
124 124 124
111 111 111
104 104 104
100 100 100
94 94 94
93 93 93
92 92 92
89 89 89
83 83 83
80 80 80
82 82 82
91 91 91
91 91 91
82 82 82
69 69 69
69 69 69
77 77 77
84 84 84
92 92 92
98 98 98
106 106 106
109 109 109
108 108 108
88 88 88
100 100 100
81 81 81
54 54 54
54 54 54
54 54 54
51 51 51
49 49 49
49 49 49
33 33 33
28 28 28
27 27 27
29 29 29
24 24 24
28 28 28
27 27 27
28 28 28
30 30 30
39 39 39
72 72 72
73 73 73
68 68 68
152 152 152
125 125 125
131 131 131
129 129 129
131 131 131
131 131 131
131 131 131
132 132 132
133 133 133
137 137 137
130 130 130
133 133 133
184 184 184
205 205 205
205 205 205
207 207 207
206 206 206
207 207 207
207 207 207
208 208 208
208 208 208
207 207 207
207 207 207
208 208 208
207 207 207
208 208 208
208 208 208
207 207 207
207 207 207
207 207 207
206 206 206
205 205 205
204 204 204
204 204 204
203 203 203
203 203 203
202 202 202
200 200 200
201 201 201
200 200 200
199 199 199
196 196 196
194 194 194
194 194 194
180 180 180
110 110 110
136 136 136
90 90 90
35 35 35
35 35 35
36 36 36
34 34 34
33 33 33
33 33 33
32 32 32
32 32 32
32 32 32
34 34 34
34 34 34
32 32 32
31 31 31
30 30 30
32 32 32
34 34 34
33 33 33
30 30 30
30 30 30
32 32 32
30 30 30
31 31 31
33 33 33
32 32 32
31 31 31
31 31 31
31 31 31
32 32 32
31 31 31
31 31 31
31 31 31
31 31 31
31 31 31
31 31 31
31 31 31
32 32 32
36 36 36
34 34 34
31 31 31
31 31 31
30 30 30
29 29 29
29 29 29
28 28 28
26 26 26
24 24 24
24 24 24
25 25 25
25 25 25
23 23 23
22 22 22
22 22 22
24 24 24
25 25 25
24 24 24
23 23 23
24 24 24
25 25 25
24 24 24
21 21 21
20 20 20
21 21 21
24 24 24
26 26 26
26 26 26
25 25 25
24 24 24
120 120 120
134 134 134
140 140 140
145 145 145
140 140 140
132 132 132
127 127 127
121 121 121
123 123 123
127 127 127
117 117 117
107 107 107
108 108 108
110 110 110
107 107 107
109 109 109
109 109 109
105 105 105
103 103 103
92 92 92
78 78 78
67 67 67
69 69 69
78 78 78
88 88 88
98 98 98
98 98 98
97 97 97
96 96 96
104 104 104
117 117 117
120 120 120
90 90 90
100 100 100
85 85 85
54 54 54
54 54 54
54 54 54
53 53 53
53 53 53
51 51 51
43 43 43
29 29 29
29 29 29
30 30 30
27 27 27
27 27 27
29 29 29
30 30 30
32 32 32
36 36 36
67 67 67
78 78 78
91 91 91
188 188 188
149 149 149
132 132 132
131 131 131
131 131 131
131 131 131
131 131 131
131 131 131
132 132 132
132 132 132
135 135 135
135 135 135
127 127 127
135 135 135
173 173 173
201 201 201
207 207 207
205 205 205
206 206 206
207 207 207
208 208 208
207 207 207
206 206 206
207 207 207
206 206 206
207 207 207
207 207 207
207 207 207
207 207 207
206 206 206
205 205 205
204 204 204
203 203 203
203 203 203
203 203 203
202 202 202
202 202 202
199 199 199
200 200 200
199 199 199
197 197 197
195 195 195
194 194 194
188 188 188
116 116 116
124 124 124
119 119 119
56 56 56
35 35 35
37 37 37
37 37 37
33 33 33
34 34 34
33 33 33
32 32 32
32 32 32
33 33 33
34 34 34
34 34 34
33 33 33
31 31 31
29 29 29
32 32 32
35 35 35
33 33 33
32 32 32
31 31 31
31 31 31
32 32 32
31 31 31
31 31 31
31 31 31
33 33 33
33 33 33
32 32 32
32 32 32
30 30 30
30 30 30
30 30 30
31 31 31
31 31 31
31 31 31
33 33 33
35 35 35
33 33 33
30 30 30
31 31 31
31 31 31
31 31 31
29 29 29
29 29 29
28 28 28
25 25 25
24 24 24
24 24 24
24 24 24
23 23 23
23 23 23
24 24 24
24 24 24
24 24 24
24 24 24
23 23 23
23 23 23
26 26 26
27 27 27
26 26 26
24 24 24
24 24 24
27 27 27
30 30 30
28 28 28
25 25 25
23 23 23
22 22 22
121 121 121
130 130 130
136 136 136
141 141 141
139 139 139
134 134 134
131 131 131
128 128 128
129 129 129
129 129 129
118 118 118
109 109 109
108 108 108
109 109 109
111 111 111
113 113 113
107 107 107
94 94 94
79 79 79
69 69 69
73 73 73
84 84 84
94 94 94
99 99 99
97 97 97
99 99 99
98 98 98
96 96 96
98 98 98
108 108 108
118 118 118
123 123 123
92 92 92
103 103 103
90 90 90
53 53 53
53 53 53
54 54 54
54 54 54
54 54 54
52 52 52
51 51 51
40 40 40
29 29 29
27 27 27
29 29 29
25 25 25
29 29 29
30 30 30
30 30 30
32 32 32
75 75 75
114 114 114
113 113 113
197 197 197
153 153 153
127 127 127
129 129 129
130 130 130
130 130 130
130 130 130
131 131 131
131 131 131
130 130 130
132 132 132
133 133 133
134 134 134
137 137 137
129 129 129
126 126 126
156 156 156
186 186 186
202 202 202
205 205 205
204 204 204
206 206 206
206 206 206
205 205 205
205 205 205
205 205 205
205 205 205
206 206 206
205 205 205
205 205 205
204 204 204
203 203 203
202 202 202
203 203 203
203 203 203
201 201 201
202 202 202
200 200 200
199 199 199
196 196 196
196 196 196
194 194 194
191 191 191
133 133 133
119 119 119
129 129 129
94 94 94
38 38 38
35 35 35
35 35 35
35 35 35
33 33 33
35 35 35
34 34 34
32 32 32
32 32 32
33 33 33
34 34 34
33 33 33
32 32 32
31 31 31
31 31 31
38 38 38
35 35 35
34 34 34
32 32 32
30 30 30
30 30 30
31 31 31
31 31 31
30 30 30
33 33 33
33 33 33
33 33 33
33 33 33
32 32 32
31 31 31
29 29 29
28 28 28
29 29 29
32 32 32
34 34 34
32 32 32
31 31 31
30 30 30
29 29 29
30 30 30
31 31 31
31 31 31
29 29 29
29 29 29
27 27 27
25 25 25
24 24 24
24 24 24
24 24 24
22 22 22
24 24 24
24 24 24
24 24 24
24 24 24
24 24 24
23 23 23
25 25 25
26 26 26
25 25 25
25 25 25
27 27 27
32 32 32
33 33 33
29 29 29
25 25 25
24 24 24
22 22 22
21 21 21
125 125 125
130 130 130
132 132 132
137 137 137
138 138 138
137 137 137
134 134 134
134 134 134
135 135 135
132 132 132
125 125 125
119 119 119
118 118 118
119 119 119
111 111 111
95 95 95
75 75 75
72 72 72
82 82 82
95 95 95
106 106 106
112 112 112
110 110 110
111 111 111
108 108 108
101 101 101
99 99 99
104 104 104
109 109 109
110 110 110
109 109 109
108 108 108
86 86 86
102 102 102
89 89 89
49 49 49
53 53 53
53 53 53
53 53 53
53 53 53
52 52 52
52 52 52
49 49 49
34 34 34
27 27 27
29 29 29
28 28 28
27 27 27
27 27 27
31 31 31
32 32 32
97 97 97
110 110 110
118 118 118
200 200 200
153 153 153
122 122 122
129 129 129
130 130 130
130 130 130
131 131 131
131 131 131
131 131 131
128 128 128
129 129 129
132 132 132
131 131 131
132 132 132
132 132 132
136 136 136
133 133 133
123 123 123
128 128 128
148 148 148
174 174 174
198 198 198
204 204 204
202 202 202
201 201 201
203 203 203
202 202 202
202 202 202
204 204 204
202 202 202
203 203 203
202 202 202
199 199 199
201 201 201
201 201 201
199 199 199
201 201 201
200 200 200
197 197 197
196 196 196
194 194 194
192 192 192
154 154 154
81 81 81
115 115 115
124 124 124
60 60 60
35 35 35
36 36 36
34 34 34
33 33 33
34 34 34
34 34 34
34 34 34
33 33 33
33 33 33
33 33 33
34 34 34
33 33 33
32 32 32
31 31 31
35 35 35
36 36 36
32 32 32
32 32 32
30 30 30
29 29 29
30 30 30
31 31 31
31 31 31
30 30 30
30 30 30
31 31 31
30 30 30
30 30 30
29 29 29
29 29 29
29 29 29
31 31 31
33 33 33
34 34 34
30 30 30
31 31 31
31 31 31
31 31 31
30 30 30
29 29 29
29 29 29
30 30 30
26 26 26
26 26 26
24 24 24
22 22 22
24 24 24
25 25 25
25 25 25
23 23 23
23 23 23
24 24 24
23 23 23
23 23 23
23 23 23
24 24 24
26 26 26
26 26 26
26 26 26
29 29 29
31 31 31
31 31 31
25 25 25
24 24 24
24 24 24
23 23 23
22 22 22
19 19 19
131 131 131
128 128 128
130 130 130
135 135 135
140 140 140
138 138 138
139 139 139
139 139 139
136 136 136
129 129 129
123 123 123
117 117 117
106 106 106
92 92 92
74 74 74
72 72 72
81 81 81
90 90 90
97 97 97
101 101 101
103 103 103
107 107 107
105 105 105
107 107 107
108 108 108
105 105 105
103 103 103
108 108 108
108 108 108
104 104 104
104 104 104
104 104 104
87 87 87
100 100 100
91 91 91
47 47 47
51 51 51
53 53 53
53 53 53
51 51 51
51 51 51
52 52 52
50 50 50
46 46 46
32 32 32
28 28 28
29 29 29
25 25 25
28 28 28
30 30 30
30 30 30
90 90 90
110 110 110
125 125 125
195 195 195
141 141 141
123 123 123
129 129 129
132 132 132
145 145 145
151 151 151
131 131 131
131 131 131
130 130 130
128 128 128
129 129 129
129 129 129
129 129 129
129 129 129
130 130 130
131 131 131
131 131 131
134 134 134
133 133 133
124 124 124
118 118 118
132 132 132
154 154 154
175 175 175
194 194 194
203 203 203
200 200 200
201 201 201
200 200 200
201 201 201
201 201 201
199 199 199
198 198 198
198 198 198
199 199 199
200 200 200
198 198 198
195 195 195
194 194 194
192 192 192
175 175 175
96 96 96
98 98 98
84 84 84
97 97 97
39 39 39
35 35 35
35 35 35
34 34 34
33 33 33
32 32 32
33 33 33
34 34 34
34 34 34
34 34 34
33 33 33
33 33 33
33 33 33
33 33 33
33 33 33
38 38 38
34 34 34
32 32 32
31 31 31
30 30 30
29 29 29
31 31 31
31 31 31
31 31 31
30 30 30
30 30 30
30 30 30
29 29 29
28 28 28
27 27 27
29 29 29
35 35 35
34 34 34
31 31 31
30 30 30
32 32 32
31 31 31
30 30 30
30 30 30
29 29 29
28 28 28
27 27 27
28 28 28
23 23 23
22 22 22
24 24 24
23 23 23
23 23 23
25 25 25
25 25 25
23 23 23
22 22 22
23 23 23
23 23 23
23 23 23
23 23 23
24 24 24
26 26 26
26 26 26
30 30 30
29 29 29
26 26 26
23 23 23
24 24 24
24 24 24
25 25 25
22 22 22
20 20 20
20 20 20
130 130 130
130 130 130
141 141 141
151 151 151
152 152 152
152 152 152
153 153 153
151 151 151
145 145 145
127 127 127
106 106 106
86 86 86
77 77 77
79 79 79
80 80 80
89 89 89
90 90 90
85 85 85
81 81 81
82 82 82
87 87 87
99 99 99
103 103 103
105 105 105
106 106 106
109 109 109
107 107 107
107 107 107
108 108 108
108 108 108
110 110 110
109 109 109
94 94 94
97 97 97
93 93 93
46 46 46
51 51 51
52 52 52
52 52 52
51 51 51
50 50 50
52 52 52
49 49 49
49 49 49
44 44 44
30 30 30
32 32 32
28 28 28
25 25 25
30 30 30
32 32 32
78 78 78
105 105 105
116 116 116
153 153 153
121 121 121
124 124 124
129 129 129
133 133 133
181 181 181
198 198 198
146 146 146
131 131 131
129 129 129
129 129 129
129 129 129
129 129 129
129 129 129
128 128 128
128 128 128
128 128 128
129 129 129
130 130 130
131 131 131
129 129 129
132 132 132
131 131 131
129 129 129
123 123 123
122 122 122
127 127 127
144 144 144
173 173 173
189 189 189
196 196 196
197 197 197
194 194 194
195 195 195
194 194 194
194 194 194
195 195 195
194 194 194
193 193 193
191 191 191
183 183 183
87 87 87
78 78 78
95 95 95
90 90 90
61 61 61
38 38 38
36 36 36
34 34 34
33 33 33
34 34 34
34 34 34
34 34 34
33 33 33
33 33 33
33 33 33
33 33 33
33 33 33
33 33 33
33 33 33
37 37 37
41 41 41
31 31 31
32 32 32
31 31 31
30 30 30
29 29 29
30 30 30
31 31 31
31 31 31
30 30 30
31 31 31
28 28 28
27 27 27
29 29 29
30 30 30
31 31 31
32 32 32
30 30 30
30 30 30
30 30 30
31 31 31
31 31 31
30 30 30
27 27 27
28 28 28
27 27 27
25 25 25
25 25 25
23 23 23
23 23 23
24 24 24
24 24 24
23 23 23
23 23 23
24 24 24
22 22 22
22 22 22
23 23 23
24 24 24
24 24 24
25 25 25
26 26 26
28 28 28
28 28 28
25 25 25
22 22 22
22 22 22
22 22 22
23 23 23
23 23 23
23 23 23
23 23 23
20 20 20
20 20 20
125 125 125
125 125 125
132 132 132
144 144 144
150 150 150
149 149 149
145 145 145
137 137 137
118 118 118
98 98 98
90 90 90
98 98 98
117 117 117
118 118 118
110 110 110
110 110 110
108 108 108
102 102 102
96 96 96
93 93 93
97 97 97
104 104 104
107 107 107
107 107 107
103 103 103
104 104 104
108 108 108
105 105 105
108 108 108
110 110 110
114 114 114
113 113 113
103 103 103
93 93 93
92 92 92
47 47 47
49 49 49
51 51 51
51 51 51
51 51 51
50 50 50
51 51 51
49 49 49
49 49 49
49 49 49
42 42 42
29 29 29
27 27 27
23 23 23
29 29 29
30 30 30
66 66 66
105 105 105
96 96 96
121 121 121
99 99 99
127 127 127
132 132 132
142 142 142
199 199 199
202 202 202
187 187 187
134 134 134
130 130 130
130 130 130
131 131 131
130 130 130
129 129 129
129 129 129
129 129 129
129 129 129
130 130 130
130 130 130
129 129 129
126 126 126
128 128 128
129 129 129
128 128 128
129 129 129
128 128 128
129 129 129
129 129 129
121 121 121
114 114 114
106 106 106
120 120 120
142 142 142
159 159 159
170 170 170
179 179 179
184 184 184
185 185 185
181 181 181
163 163 163
98 98 98
51 51 51
47 47 47
71 71 71
88 88 88
85 85 85
46 46 46
37 37 37
35 35 35
33 33 33
34 34 34
34 34 34
34 34 34
33 33 33
33 33 33
33 33 33
33 33 33
33 33 33
33 33 33
34 34 34
44 44 44
37 37 37
30 30 30
31 31 31
30 30 30
30 30 30
29 29 29
30 30 30
31 31 31
31 31 31
28 28 28
24 24 24
23 23 23
27 27 27
31 31 31
31 31 31
31 31 31
27 27 27
29 29 29
29 29 29
28 28 28
30 30 30
30 30 30
29 29 29
27 27 27
29 29 29
27 27 27
26 26 26
26 26 26
25 25 25
25 25 25
25 25 25
25 25 25
25 25 25
24 24 24
24 24 24
23 23 23
22 22 22
23 23 23
22 22 22
24 24 24
27 27 27
29 29 29
28 28 28
24 24 24
23 23 23
23 23 23
23 23 23
22 22 22
22 22 22
22 22 22
23 23 23
23 23 23
23 23 23
21 21 21
125 125 125
126 126 126
126 126 126
131 131 131
134 134 134
125 125 125
106 106 106
90 90 90
91 91 91
106 106 106
124 124 124
133 133 133
136 136 136
133 133 133
132 132 132
129 129 129
125 125 125
120 120 120
115 115 115
108 108 108
107 107 107
110 110 110
112 112 112
110 110 110
107 107 107
109 109 109
110 110 110
107 107 107
109 109 109
110 110 110
111 111 111
111 111 111
106 106 106
90 90 90
96 96 96
51 51 51
53 53 53
52 52 52
51 51 51
50 50 50
50 50 50
50 50 50
50 50 50
50 50 50
50 50 50
49 49 49
38 38 38
27 27 27
26 26 26
24 24 24
29 29 29
49 49 49
103 103 103
102 102 102
89 89 89
88 88 88
128 128 128
135 135 135
158 158 158
202 202 202
206 206 206
204 204 204
168 168 168
132 132 132
129 129 129
128 128 128
130 130 130
130 130 130
130 130 130
130 130 130
127 127 127
128 128 128
128 128 128
127 127 127
125 125 125
124 124 124
126 126 126
125 125 125
125 125 125
126 126 126
126 126 126
126 126 126
125 125 125
122 122 122
84 84 84
35 35 35
36 36 36
38 38 38
37 37 37
41 41 41
50 50 50
56 56 56
44 44 44
37 37 37
46 46 46
47 47 47
45 45 45
45 45 45
73 73 73
86 86 86
76 76 76
39 39 39
34 34 34
33 33 33
34 34 34
34 34 34
34 34 34
33 33 33
33 33 33
33 33 33
33 33 33
34 34 34
33 33 33
37 37 37
46 46 46
35 35 35
30 30 30
31 31 31
30 30 30
29 29 29
29 29 29
30 30 30
31 31 31
29 29 29
26 26 26
22 22 22
24 24 24
31 31 31
30 30 30
30 30 30
31 31 31
27 27 27
29 29 29
29 29 29
28 28 28
31 31 31
30 30 30
29 29 29
27 27 27
29 29 29
28 28 28
26 26 26
26 26 26
26 26 26
26 26 26
26 26 26
25 25 25
25 25 25
26 26 26
23 23 23
22 22 22
22 22 22
23 23 23
23 23 23
27 27 27
26 26 26
27 27 27
23 23 23
22 22 22
24 24 24
24 24 24
24 24 24
23 23 23
23 23 23
21 21 21
21 21 21
22 22 22
22 22 22
21 21 21
133 133 133
135 135 135
126 126 126
109 109 109
91 91 91
76 76 76
84 84 84
99 99 99
106 106 106
104 104 104
110 110 110
114 114 114
117 117 117
115 115 115
120 120 120
124 124 124
121 121 121
111 111 111
105 105 105
106 106 106
109 109 109
111 111 111
113 113 113
114 114 114
115 115 115
115 115 115
113 113 113
111 111 111
112 112 112
112 112 112
111 111 111
108 108 108
107 107 107
85 85 85
96 96 96
55 55 55
65 65 65
52 52 52
51 51 51
49 49 49
50 50 50
50 50 50
50 50 50
50 50 50
49 49 49
51 51 51
48 48 48
36 36 36
29 29 29
26 26 26
27 27 27
33 33 33
95 95 95
103 103 103
107 107 107
91 91 91
129 129 129
135 135 135
169 169 169
205 205 205
206 206 206
206 206 206
202 202 202
147 147 147
132 132 132
129 129 129
130 130 130
129 129 129
130 130 130
130 130 130
125 125 125
123 123 123
124 124 124
124 124 124
122 122 122
123 123 123
124 124 124
124 124 124
123 123 123
123 123 123
123 123 123
122 122 122
121 121 121
117 117 117
56 56 56
33 33 33
31 31 31
33 33 33
33 33 33
33 33 33
32 32 32
30 30 30
31 31 31
29 29 29
27 27 27
33 33 33
41 41 41
42 42 42
48 48 48
74 74 74
87 87 87
64 64 64
36 36 36
34 34 34
34 34 34
34 34 34
34 34 34
33 33 33
33 33 33
33 33 33
33 33 33
36 36 36
34 34 34
39 39 39
36 36 36
32 32 32
30 30 30
29 29 29
30 30 30
31 31 31
31 31 31
31 31 31
31 31 31
31 31 31
31 31 31
25 25 25
30 30 30
34 34 34
30 30 30
30 30 30
28 28 28
26 26 26
28 28 28
29 29 29
29 29 29
30 30 30
29 29 29
29 29 29
27 27 27
29 29 29
29 29 29
28 28 28
26 26 26
26 26 26
26 26 26
25 25 25
24 24 24
24 24 24
26 26 26
25 25 25
24 24 24
23 23 23
23 23 23
22 22 22
23 23 23
23 23 23
24 24 24
23 23 23
24 24 24
26 26 26
25 25 25
26 26 26
24 24 24
23 23 23
22 22 22
20 20 20
21 21 21
21 21 21
20 20 20
126 126 126
109 109 109
84 84 84
73 73 73
71 71 71
80 80 80
91 91 91
98 98 98
92 92 92
93 93 93
102 102 102
105 105 105
108 108 108
108 108 108
108 108 108
111 111 111
114 114 114
111 111 111
107 107 107
108 108 108
109 109 109
109 109 109
108 108 108
110 110 110
111 111 111
111 111 111
114 114 114
113 113 113
113 113 113
114 114 114
115 115 115
114 114 114
111 111 111
87 87 87
98 98 98
55 55 55
54 54 54
66 66 66
50 50 50
49 49 49
50 50 50
50 50 50
50 50 50
50 50 50
49 49 49
50 50 50
50 50 50
46 46 46
32 32 32
29 29 29
25 25 25
29 29 29
83 83 83
101 101 101
108 108 108
94 94 94
130 130 130
136 136 136
178 178 178
207 207 207
207 207 207
207 207 207
205 205 205
188 188 188
136 136 136
131 131 131
130 130 130
127 127 127
129 129 129
129 129 129
124 124 124
123 123 123
123 123 123
123 123 123
123 123 123
123 123 123
123 123 123
123 123 123
122 122 122
122 122 122
121 121 121
120 120 120
117 117 117
109 109 109
37 37 37
28 28 28
28 28 28
28 28 28
28 28 28
29 29 29
27 27 27
26 26 26
25 25 25
25 25 25
22 22 22
24 24 24
28 28 28
37 37 37
44 44 44
51 51 51
82 82 82
83 83 83
52 52 52
35 35 35
34 34 34
33 33 33
33 33 33
33 33 33
33 33 33
33 33 33
33 33 33
34 34 34
37 37 37
42 42 42
31 31 31
34 34 34
30 30 30
29 29 29
29 29 29
30 30 30
31 31 31
32 32 32
32 32 32
32 32 32
30 30 30
25 25 25
31 31 31
31 31 31
31 31 31
29 29 29
28 28 28
28 28 28
28 28 28
28 28 28
29 29 29
29 29 29
28 28 28
28 28 28
28 28 28
28 28 28
28 28 28
27 27 27
26 26 26
26 26 26
26 26 26
24 24 24
24 24 24
24 24 24
24 24 24
24 24 24
25 25 25
23 23 23
22 22 22
22 22 22
22 22 22
24 24 24
24 24 24
24 24 24
24 24 24
26 26 26
26 26 26
27 27 27
25 25 25
23 23 23
22 22 22
21 21 21
19 19 19
20 20 20
20 20 20
89 89 89
83 83 83
96 96 96
106 106 106
108 108 108
105 105 105
102 102 102
97 97 97
96 96 96
101 101 101
102 102 102
104 104 104
107 107 107
110 110 110
112 112 112
112 112 112
112 112 112
105 105 105
101 101 101
99 99 99
103 103 103
102 102 102
99 99 99
101 101 101
106 106 106
110 110 110
110 110 110
112 112 112
111 111 111
109 109 109
112 112 112
111 111 111
107 107 107
82 82 82
100 100 100
56 56 56
46 46 46
64 64 64
51 51 51
49 49 49
50 50 50
50 50 50
50 50 50
50 50 50
51 51 51
50 50 50
50 50 50
49 49 49
44 44 44
31 31 31
29 29 29
28 28 28
67 67 67
101 101 101
107 107 107
98 98 98
132 132 132
138 138 138
189 189 189
207 207 207
207 207 207
207 207 207
206 206 206
204 204 204
174 174 174
134 134 134
130 130 130
127 127 127
129 129 129
129 129 129
124 124 124
123 123 123
122 122 122
123 123 123
122 122 122
122 122 122
122 122 122
121 121 121
122 122 122
121 121 121
121 121 121
118 118 118
115 115 115
97 97 97
27 27 27
26 26 26
27 27 27
26 26 26
25 25 25
28 28 28
25 25 25
25 25 25
24 24 24
23 23 23
22 22 22
22 22 22
25 25 25
24 24 24
36 36 36
44 44 44
59 59 59
84 84 84
79 79 79
40 40 40
36 36 36
32 32 32
33 33 33
33 33 33
33 33 33
32 32 32
32 32 32
31 31 31
38 38 38
38 38 38
31 31 31
37 37 37
32 32 32
29 29 29
29 29 29
30 30 30
31 31 31
32 32 32
31 31 31
28 28 28
30 30 30
25 25 25
32 32 32
32 32 32
30 30 30
30 30 30
29 29 29
30 30 30
30 30 30
29 29 29
29 29 29
28 28 28
28 28 28
28 28 28
28 28 28
29 29 29
27 27 27
26 26 26
27 27 27
27 27 27
26 26 26
24 24 24
22 22 22
21 21 21
22 22 22
22 22 22
23 23 23
23 23 23
22 22 22
23 23 23
24 24 24
23 23 23
24 24 24
24 24 24
23 23 23
25 25 25
24 24 24
26 26 26
26 26 26
23 23 23
22 22 22
22 22 22
19 19 19
19 19 19
20 20 20
104 104 104
115 115 115
117 117 117
115 115 115
111 111 111
109 109 109
110 110 110
106 106 106
106 106 106
106 106 106
105 105 105
104 104 104
106 106 106
111 111 111
117 117 117
116 116 116
112 112 112
109 109 109
106 106 106
107 107 107
108 108 108
105 105 105
105 105 105
106 106 106
108 108 108
108 108 108
109 109 109
108 108 108
100 100 100
95 95 95
102 102 102
104 104 104
97 97 97
79 79 79
98 98 98
56 56 56
48 48 48
46 46 46
60 60 60
50 50 50
49 49 49
50 50 50
50 50 50
50 50 50
50 50 50
50 50 50
50 50 50
50 50 50
50 50 50
43 43 43
31 31 31
28 28 28
41 41 41
101 101 101
95 95 95
116 116 116
133 133 133
141 141 141
198 198 198
207 207 207
207 207 207
207 207 207
207 207 207
205 205 205
202 202 202
170 170 170
132 132 132
130 130 130
129 129 129
129 129 129
126 126 126
123 123 123
122 122 122
122 122 122
123 123 123
123 123 123
123 123 123
123 123 123
122 122 122
120 120 120
119 119 119
117 117 117
115 115 115
82 82 82
37 37 37
27 27 27
25 25 25
23 23 23
24 24 24
25 25 25
26 26 26
25 25 25
23 23 23
23 23 23
22 22 22
21 21 21
23 23 23
24 24 24
24 24 24
33 33 33
41 41 41
68 68 68
85 85 85
65 65 65
35 35 35
33 33 33
33 33 33
33 33 33
33 33 33
32 32 32
31 31 31
31 31 31
35 35 35
32 32 32
31 31 31
36 36 36
37 37 37
34 34 34
33 33 33
32 32 32
31 31 31
31 31 31
31 31 31
30 30 30
28 28 28
26 26 26
33 33 33
33 33 33
30 30 30
29 29 29
29 29 29
30 30 30
29 29 29
28 28 28
26 26 26
26 26 26
26 26 26
25 25 25
27 27 27
28 28 28
28 28 28
25 25 25
26 26 26
26 26 26
24 24 24
22 22 22
19 19 19
20 20 20
22 22 22
24 24 24
23 23 23
22 22 22
23 23 23
23 23 23
23 23 23
24 24 24
24 24 24
24 24 24
23 23 23
24 24 24
22 22 22
24 24 24
26 26 26
22 22 22
21 21 21
21 21 21
19 19 19
18 18 18
19 19 19
115 115 115
118 118 118
118 118 118
111 111 111
103 103 103
96 96 96
103 103 103
107 107 107
108 108 108
109 109 109
107 107 107
104 104 104
104 104 104
107 107 107
111 111 111
111 111 111
108 108 108
109 109 109
109 109 109
114 114 114
118 118 118
116 116 116
111 111 111
108 108 108
107 107 107
108 108 108
109 109 109
106 106 106
104 104 104
102 102 102
96 96 96
84 84 84
74 74 74
68 68 68
98 98 98
56 56 56
49 49 49
36 36 36
60 60 60
50 50 50
49 49 49
50 50 50
50 50 50
50 50 50
49 49 49
47 47 47
50 50 50
49 49 49
46 46 46
46 46 46
40 40 40
30 30 30
26 26 26
91 91 91
94 94 94
129 129 129
132 132 132
145 145 145
205 205 205
209 209 209
210 210 210
209 209 209
208 208 208
207 207 207
205 205 205
200 200 200
162 162 162
132 132 132
130 130 130
129 129 129
129 129 129
126 126 126
123 123 123
123 123 123
123 123 123
123 123 123
123 123 123
123 123 123
121 121 121
121 121 121
121 121 121
117 117 117
114 114 114
68 68 68
52 52 52
40 40 40
27 27 27
25 25 25
24 24 24
24 24 24
25 25 25
26 26 26
25 25 25
24 24 24
24 24 24
25 25 25
21 21 21
21 21 21
25 25 25
23 23 23
34 34 34
45 45 45
78 78 78
83 83 83
48 48 48
36 36 36
31 31 31
32 32 32
33 33 33
33 33 33
33 33 33
35 35 35
33 33 33
29 29 29
33 33 33
37 37 37
38 38 38
32 32 32
31 31 31
31 31 31
32 32 32
31 31 31
30 30 30
30 30 30
31 31 31
27 27 27
34 34 34
32 32 32
30 30 30
30 30 30
29 29 29
29 29 29
28 28 28
27 27 27
28 28 28
27 27 27
28 28 28
24 24 24
25 25 25
27 27 27
27 27 27
25 25 25
25 25 25
24 24 24
22 22 22
20 20 20
20 20 20
23 23 23
24 24 24
23 23 23
24 24 24
24 24 24
24 24 24
24 24 24
24 24 24
23 23 23
22 22 22
23 23 23
23 23 23
24 24 24
22 22 22
22 22 22
23 23 23
22 22 22
21 21 21
22 22 22
20 20 20
19 19 19
19 19 19
116 116 116
115 115 115
119 119 119
118 118 118
110 110 110
102 102 102
107 107 107
111 111 111
115 115 115
115 115 115
111 111 111
105 105 105
102 102 102
106 106 106
107 107 107
104 104 104
100 100 100
96 96 96
100 100 100
108 108 108
111 111 111
112 112 112
111 111 111
110 110 110
114 114 114
119 119 119
118 118 118
116 116 116
106 106 106
87 87 87
75 75 75
75 75 75
88 88 88
73 73 73
97 97 97
54 54 54
48 48 48
35 35 35
49 49 49
64 64 64
50 50 50
50 50 50
50 50 50
49 49 49
49 49 49
47 47 47
49 49 49
49 49 49
48 48 48
47 47 47
44 44 44
40 40 40
28 28 28
45 45 45
118 118 118
130 130 130
135 135 135
155 155 155
206 206 206
208 208 208
209 209 209
209 209 209
208 208 208
209 209 209
207 207 207
204 204 204
201 201 201
159 159 159
131 131 131
129 129 129
129 129 129
129 129 129
124 124 124
124 124 124
124 124 124
123 123 123
123 123 123
123 123 123
121 121 121
121 121 121
122 122 122
121 121 121
114 114 114
79 79 79
81 81 81
56 56 56
49 49 49
35 35 35
25 25 25
24 24 24
22 22 22
24 24 24
24 24 24
23 23 23
24 24 24
24 24 24
24 24 24
21 21 21
20 20 20
23 23 23
25 25 25
37 37 37
55 55 55
84 84 84
74 74 74
36 36 36
34 34 34
34 34 34
34 34 34
34 34 34
32 32 32
33 33 33
28 28 28
32 32 32
38 38 38
34 34 34
33 33 33
31 31 31
32 32 32
32 32 32
32 32 32
31 31 31
29 29 29
30 30 30
31 31 31
29 29 29
31 31 31
32 32 32
30 30 30
30 30 30
30 30 30
30 30 30
28 28 28
27 27 27
27 27 27
28 28 28
27 27 27
24 24 24
26 26 26
28 28 28
26 26 26
25 25 25
25 25 25
24 24 24
22 22 22
22 22 22
22 22 22
25 25 25
23 23 23
23 23 23
24 24 24
24 24 24
24 24 24
24 24 24
23 23 23
23 23 23
21 21 21
22 22 22
23 23 23
24 24 24
24 24 24
22 22 22
22 22 22
22 22 22
22 22 22
23 23 23
20 20 20
19 19 19
19 19 19
122 122 122
118 118 118
119 119 119
115 115 115
114 114 114
116 116 116
121 121 121
119 119 119
119 119 119
115 115 115
107 107 107
110 110 110
104 104 104
105 105 105
108 108 108
108 108 108
107 107 107
104 104 104
103 103 103
113 113 113
117 117 117
117 117 117
116 116 116
117 117 117
120 120 120
120 120 120
113 113 113
96 96 96
82 82 82
78 78 78
85 85 85
95 95 95
101 101 101
79 79 79
97 97 97
52 52 52
50 50 50
37 37 37
31 31 31
73 73 73
57 57 57
48 48 48
50 50 50
50 50 50
51 51 51
50 50 50
48 48 48
47 47 47
48 48 48
48 48 48
48 48 48
49 49 49
43 43 43
33 33 33
92 92 92
129 129 129
135 135 135
168 168 168
205 205 205
208 208 208
210 210 210
210 210 210
210 210 210
210 210 210
208 208 208
207 207 207
204 204 204
200 200 200
160 160 160
133 133 133
129 129 129
128 128 128
128 128 128
126 126 126
123 123 123
123 123 123
124 124 124
121 121 121
120 120 120
121 121 121
120 120 120
121 121 121
114 114 114
85 85 85
94 94 94
94 94 94
75 75 75
52 52 52
49 49 49
35 35 35
25 25 25
24 24 24
25 25 25
25 25 25
23 23 23
24 24 24
24 24 24
23 23 23
20 20 20
21 21 21
24 24 24
28 28 28
41 41 41
70 70 70
83 83 83
48 48 48
34 34 34
34 34 34
34 34 34
33 33 33
34 34 34
31 31 31
30 30 30
31 31 31
33 33 33
30 30 30
29 29 29
31 31 31
31 31 31
30 30 30
30 30 30
29 29 29
28 28 28
29 29 29
30 30 30
26 26 26
31 31 31
32 32 32
31 31 31
31 31 31
30 30 30
27 27 27
26 26 26
26 26 26
28 28 28
29 29 29
28 28 28
25 25 25
27 27 27
27 27 27
26 26 26
25 25 25
25 25 25
25 25 25
25 25 25
22 22 22
22 22 22
23 23 23
24 24 24
23 23 23
24 24 24
24 24 24
24 24 24
24 24 24
23 23 23
22 22 22
21 21 21
21 21 21
22 22 22
24 24 24
25 25 25
25 25 25
24 24 24
23 23 23
23 23 23
24 24 24
20 20 20
20 20 20
20 20 20
115 115 115
113 113 113
118 118 118
116 116 116
113 113 113
113 113 113
116 116 116
115 115 115
112 112 112
105 105 105
98 98 98
107 107 107
106 106 106
102 102 102
106 106 106
108 108 108
104 104 104
93 93 93
91 91 91
100 100 100
106 106 106
111 111 111
116 116 116
117 117 117
105 105 105
87 87 87
79 79 79
85 85 85
96 96 96
100 100 100
100 100 100
104 104 104
104 104 104
79 79 79
94 94 94
51 51 51
48 48 48
37 37 37
28 28 28
51 51 51
78 78 78
49 49 49
48 48 48
50 50 50
51 51 51
50 50 50
48 48 48
47 47 47
50 50 50
49 49 49
48 48 48
49 49 49
50 50 50
46 46 46
39 39 39
107 107 107
134 134 134
179 179 179
205 205 205
206 206 206
208 208 208
210 210 210
210 210 210
210 210 210
208 208 208
205 205 205
204 204 204
203 203 203
200 200 200
160 160 160
130 130 130
129 129 129
128 128 128
126 126 126
123 123 123
122 122 122
122 122 122
121 121 121
121 121 121
121 121 121
120 120 120
119 119 119
110 110 110
71 71 71
87 87 87
94 94 94
92 92 92
90 90 90
68 68 68
50 50 50
49 49 49
36 36 36
27 27 27
25 25 25
24 24 24
23 23 23
24 24 24
23 23 23
23 23 23
20 20 20
20 20 20
23 23 23
32 32 32
49 49 49
80 80 80
71 71 71
33 33 33
34 34 34
33 33 33
34 34 34
37 37 37
32 32 32
31 31 31
29 29 29
29 29 29
30 30 30
29 29 29
30 30 30
31 31 31
30 30 30
29 29 29
29 29 29
30 30 30
29 29 29
30 30 30
27 27 27
32 32 32
33 33 33
30 30 30
30 30 30
29 29 29
27 27 27
28 28 28
28 28 28
28 28 28
28 28 28
30 30 30
28 28 28
27 27 27
26 26 26
26 26 26
26 26 26
25 25 25
24 24 24
24 24 24
22 22 22
22 22 22
24 24 24
24 24 24
23 23 23
24 24 24
24 24 24
24 24 24
24 24 24
24 24 24
23 23 23
23 23 23
22 22 22
22 22 22
24 24 24
25 25 25
24 24 24
24 24 24
23 23 23
24 24 24
23 23 23
20 20 20
20 20 20
20 20 20
98 98 98
111 111 111
129 129 129
132 132 132
132 132 132
121 121 121
114 114 114
112 112 112
110 110 110
103 103 103
103 103 103
110 110 110
108 108 108
104 104 104
107 107 107
110 110 110
111 111 111
108 108 108
105 105 105
108 108 108
109 109 109
112 112 112
105 105 105
88 88 88
84 84 84
92 92 92
99 99 99
102 102 102
103 103 103
104 104 104
107 107 107
108 108 108
102 102 102
80 80 80
93 93 93
50 50 50
46 46 46
37 37 37
29 29 29
32 32 32
72 72 72
67 67 67
49 49 49
47 47 47
50 50 50
50 50 50
47 47 47
47 47 47
48 48 48
48 48 48
46 46 46
46 46 46
48 48 48
51 51 51
50 50 50
55 55 55
124 124 124
185 185 185
205 205 205
208 208 208
209 209 209
210 210 210
210 210 210
210 210 210
208 208 208
207 207 207
206 206 206
206 206 206
203 203 203
199 199 199
158 158 158
130 130 130
129 129 129
126 126 126
124 124 124
123 123 123
123 123 123
122 122 122
122 122 122
122 122 122
121 121 121
118 118 118
105 105 105
103 103 103
94 94 94
60 60 60
81 81 81
93 93 93
92 92 92
87 87 87
62 62 62
49 49 49
50 50 50
37 37 37
28 28 28
25 25 25
23 23 23
24 24 24
23 23 23
23 23 23
20 20 20
22 22 22
24 24 24
35 35 35
66 66 66
82 82 82
45 45 45
32 32 32
32 32 32
34 34 34
36 36 36
30 30 30
31 31 31
30 30 30
31 31 31
30 30 30
29 29 29
31 31 31
31 31 31
30 30 30
30 30 30
29 29 29
29 29 29
29 29 29
30 30 30
27 27 27
30 30 30
33 33 33
30 30 30
29 29 29
28 28 28
29 29 29
30 30 30
29 29 29
28 28 28
29 29 29
26 26 26
25 25 25
27 27 27
27 27 27
28 28 28
24 24 24
23 23 23
23 23 23
24 24 24
22 22 22
22 22 22
25 25 25
24 24 24
23 23 23
24 24 24
24 24 24
24 24 24
24 24 24
23 23 23
22 22 22
22 22 22
22 22 22
23 23 23
24 24 24
24 24 24
23 23 23
22 22 22
22 22 22
23 23 23
23 23 23
23 23 23
19 19 19
19 19 19
94 94 94
105 105 105
115 115 115
122 122 122
126 126 126
123 123 123
118 118 118
112 112 112
110 110 110
110 110 110
107 107 107
108 108 108
105 105 105
102 102 102
105 105 105
107 107 107
110 110 110
113 113 113
112 112 112
109 109 109
96 96 96
77 77 77
74 74 74
93 93 93
107 107 107
112 112 112
108 108 108
107 107 107
106 106 106
108 108 108
113 113 113
109 109 109
95 95 95
78 78 78
90 90 90
49 49 49
47 47 47
41 41 41
30 30 30
28 28 28
46 46 46
84 84 84
55 55 55
49 49 49
50 50 50
49 49 49
49 49 49
47 47 47
45 45 45
47 47 47
47 47 47
45 45 45
49 49 49
50 50 50
52 52 52
53 53 53
80 80 80
194 194 194
204 204 204
206 206 206
208 208 208
210 210 210
209 209 209
209 209 209
209 209 209
208 208 208
207 207 207
207 207 207
205 205 205
203 203 203
199 199 199
159 159 159
130 130 130
128 128 128
127 127 127
124 124 124
123 123 123
122 122 122
122 122 122
122 122 122
121 121 121
118 118 118
102 102 102
106 106 106
115 115 115
78 78 78
61 61 61
65 65 65
85 85 85
94 94 94
92 92 92
85 85 85
60 60 60
52 52 52
52 52 52
45 45 45
35 35 35
26 26 26
24 24 24
23 23 23
23 23 23
19 19 19
22 22 22
26 26 26
46 46 46
80 80 80
66 66 66
34 34 34
33 33 33
37 37 37
33 33 33
30 30 30
31 31 31
29 29 29
30 30 30
30 30 30
30 30 30
30 30 30
31 31 31
30 30 30
30 30 30
30 30 30
29 29 29
29 29 29
29 29 29
25 25 25
29 29 29
31 31 31
30 30 30
30 30 30
28 28 28
29 29 29
30 30 30
29 29 29
28 28 28
26 26 26
24 24 24
25 25 25
26 26 26
26 26 26
24 24 24
25 25 25
24 24 24
24 24 24
24 24 24
22 22 22
22 22 22
25 25 25
25 25 25
24 24 24
24 24 24
24 24 24
24 24 24
24 24 24
24 24 24
22 22 22
22 22 22
23 23 23
23 23 23
23 23 23
23 23 23
22 22 22
22 22 22
23 23 23
23 23 23
24 24 24
24 24 24
19 19 19
19 19 19
100 100 100
107 107 107
107 107 107
108 108 108
113 113 113
116 116 116
112 112 112
105 105 105
101 101 101
100 100 100
103 103 103
110 110 110
111 111 111
106 106 106
107 107 107
113 113 113
115 115 115
107 107 107
85 85 85
67 67 67
62 62 62
65 65 65
79 79 79
103 103 103
111 111 111
110 110 110
101 101 101
105 105 105
109 109 109
111 111 111
109 109 109
106 106 106
106 106 106
85 85 85
87 87 87
49 49 49
48 48 48
44 44 44
30 30 30
28 28 28
36 36 36
62 62 62
80 80 80
50 50 50
50 50 50
49 49 49
49 49 49
46 46 46
40 40 40
46 46 46
46 46 46
46 46 46
48 48 48
49 49 49
52 52 52
54 54 54
58 58 58
148 148 148
203 203 203
204 204 204
208 208 208
208 208 208
209 209 209
209 209 209
209 209 209
208 208 208
207 207 207
207 207 207
206 206 206
204 204 204
203 203 203
201 201 201
159 159 159
130 130 130
129 129 129
125 125 125
123 123 123
122 122 122
122 122 122
122 122 122
121 121 121
119 119 119
100 100 100
110 110 110
114 114 114
105 105 105
65 65 65
75 75 75
101 101 101
82 82 82
93 93 93
93 93 93
93 93 93
81 81 81
55 55 55
53 53 53
55 55 55
52 52 52
43 43 43
37 37 37
25 25 25
24 24 24
21 21 21
24 24 24
35 35 35
69 69 69
74 74 74
47 47 47
35 35 35
37 37 37
31 31 31
31 31 31
31 31 31
30 30 30
31 31 31
31 31 31
31 31 31
31 31 31
31 31 31
30 30 30
30 30 30
29 29 29
27 27 27
29 29 29
29 29 29
24 24 24
28 28 28
30 30 30
30 30 30
30 30 30
28 28 28
28 28 28
27 27 27
25 25 25
25 25 25
26 26 26
28 28 28
29 29 29
28 28 28
24 24 24
24 24 24
24 24 24
24 24 24
24 24 24
23 23 23
22 22 22
22 22 22
24 24 24
24 24 24
24 24 24
24 24 24
24 24 24
24 24 24
24 24 24
24 24 24
23 23 23
23 23 23
23 23 23
23 23 23
23 23 23
23 23 23
22 22 22
22 22 22
25 25 25
25 25 25
25 25 25
22 22 22
19 19 19
19 19 19
109 109 109
110 110 110
111 111 111
111 111 111
113 113 113
110 110 110
102 102 102
96 96 96
100 100 100
102 102 102
102 102 102
105 105 105
113 113 113
118 118 118
120 120 120
110 110 110
83 83 83
71 71 71
73 73 73
79 79 79
80 80 80
78 78 78
79 79 79
88 88 88
102 102 102
96 96 96
90 90 90
104 104 104
112 112 112
112 112 112
112 112 112
115 115 115
120 120 120
94 94 94
84 84 84
48 48 48
47 47 47
46 46 46
34 34 34
28 28 28
29 29 29
43 43 43
79 79 79
68 68 68
48 48 48
48 48 48
47 47 47
46 46 46
43 43 43
38 38 38
46 46 46
47 47 47
74 74 74
83 83 83
53 53 53
57 57 57
61 61 61
68 68 68
170 170 170
202 202 202
206 206 206
208 208 208
208 208 208
207 207 207
207 207 207
209 209 209
208 208 208
208 208 208
208 208 208
207 207 207
206 206 206
203 203 203
198 198 198
161 161 161
131 131 131
126 126 126
124 124 124
124 124 124
122 122 122
123 123 123
122 122 122
119 119 119
98 98 98
112 112 112
113 113 113
114 114 114
84 84 84
62 62 62
105 105 105
110 110 110
89 89 89
81 81 81
93 93 93
92 92 92
91 91 91
72 72 72
52 52 52
57 57 57
76 76 76
93 93 93
80 80 80
51 51 51
26 26 26
21 21 21
25 25 25
51 51 51
78 78 78
49 49 49
51 51 51
34 34 34
31 31 31
30 30 30
31 31 31
30 30 30
30 30 30
31 31 31
30 30 30
31 31 31
31 31 31
30 30 30
30 30 30
29 29 29
28 28 28
28 28 28
28 28 28
24 24 24
28 28 28
30 30 30
30 30 30
28 28 28
26 26 26
25 25 25
23 23 23
23 23 23
28 28 28
29 29 29
28 28 28
26 26 26
26 26 26
24 24 24
23 23 23
24 24 24
24 24 24
22 22 22
22 22 22
21 21 21
22 22 22
23 23 23
23 23 23
24 24 24
23 23 23
23 23 23
24 24 24
23 23 23
24 24 24
23 23 23
25 25 25
24 24 24
22 22 22
22 22 22
21 21 21
21 21 21
23 23 23
28 28 28
26 26 26
21 21 21
20 20 20
20 20 20
20 20 20
98 98 98
98 98 98
100 100 100
107 107 107
111 111 111
103 103 103
94 94 94
97 97 97
107 107 107
113 113 113
115 115 115
118 118 118
116 116 116
110 110 110
97 97 97
83 83 83
78 78 78
90 90 90
100 100 100
100 100 100
93 93 93
90 90 90
95 95 95
96 96 96
90 90 90
83 83 83
82 82 82
97 97 97
104 104 104
102 102 102
98 98 98
99 99 99
102 102 102
82 82 82
76 76 76
46 46 46
46 46 46
46 46 46
38 38 38
28 28 28
27 27 27
36 36 36
53 53 53
85 85 85
59 59 59
49 49 49
62 62 62
54 54 54
44 44 44
33 33 33
43 43 43
48 48 48
74 74 74
100 100 100
88 88 88
57 57 57
57 57 57
61 61 61
79 79 79
189 189 189
204 204 204
205 205 205
208 208 208
209 209 209
209 209 209
210 210 210
208 208 208
208 208 208
208 208 208
208 208 208
206 206 206
205 205 205
202 202 202
197 197 197
160 160 160
129 129 129
127 127 127
127 127 127
125 125 125
123 123 123
123 123 123
118 118 118
94 94 94
116 116 116
116 116 116
115 115 115
107 107 107
64 64 64
87 87 87
110 110 110
112 112 112
103 103 103
83 83 83
89 89 89
95 95 95
92 92 92
97 97 97
84 84 84
94 94 94
100 100 100
98 98 98
96 96 96
85 85 85
57 57 57
28 28 28
34 34 34
69 69 69
46 46 46
51 51 51
49 49 49
32 32 32
31 31 31
31 31 31
31 31 31
30 30 30
31 31 31
31 31 31
31 31 31
31 31 31
29 29 29
29 29 29
28 28 28
27 27 27
25 25 25
24 24 24
23 23 23
28 28 28
31 31 31
31 31 31
27 27 27
23 23 23
24 24 24
25 25 25
28 28 28
27 27 27
25 25 25
25 25 25
25 25 25
24 24 24
23 23 23
23 23 23
24 24 24
24 24 24
23 23 23
23 23 23
21 21 21
22 22 22
24 24 24
23 23 23
23 23 23
22 22 22
22 22 22
24 24 24
24 24 24
23 23 23
22 22 22
25 25 25
24 24 24
21 21 21
21 21 21
20 20 20
20 20 20
23 23 23
25 25 25
22 22 22
20 20 20
20 20 20
20 20 20
20 20 20
107 107 107
104 104 104
101 101 101
100 100 100
101 101 101
105 105 105
109 109 109
112 112 112
117 117 117
127 127 127
127 127 127
111 111 111
85 85 85
74 74 74
80 80 80
90 90 90
92 92 92
102 102 102
107 107 107
104 104 104
103 103 103
100 100 100
107 107 107
105 105 105
98 98 98
89 89 89
87 87 87
93 93 93
93 93 93
90 90 90
81 81 81
79 79 79
80 80 80
73 73 73
68 68 68
45 45 45
46 46 46
46 46 46
43 43 43
29 29 29
27 27 27
29 29 29
46 46 46
67 67 67
89 89 89
55 55 55
55 55 55
79 79 79
53 53 53
38 38 38
35 35 35
45 45 45
58 58 58
97 97 97
103 103 103
83 83 83
55 55 55
59 59 59
62 62 62
106 106 106
198 198 198
204 204 204
204 204 204
207 207 207
209 209 209
209 209 209
209 209 209
209 209 209
208 208 208
207 207 207
206 206 206
206 206 206
203 203 203
201 201 201
197 197 197
166 166 166
130 130 130
126 126 126
124 124 124
123 123 123
122 122 122
121 121 121
96 96 96
114 114 114
120 120 120
117 117 117
113 113 113
75 75 75
68 68 68
111 111 111
114 114 114
116 116 116
106 106 106
91 91 91
85 85 85
131 131 131
147 147 147
152 152 152
122 122 122
85 85 85
98 98 98
100 100 100
96 96 96
96 96 96
77 77 77
34 34 34
57 57 57
62 62 62
40 40 40
49 49 49
46 46 46
30 30 30
30 30 30
29 29 29
30 30 30
31 31 31
31 31 31
30 30 30
31 31 31
30 30 30
30 30 30
27 27 27
25 25 25
25 25 25
24 24 24
22 22 22
28 28 28
32 32 32
29 29 29
26 26 26
26 26 26
29 29 29
29 29 29
27 27 27
24 24 24
24 24 24
22 22 22
23 23 23
24 24 24
22 22 22
24 24 24
24 24 24
24 24 24
22 22 22
23 23 23
21 21 21
22 22 22
24 24 24
23 23 23
22 22 22
23 23 23
22 22 22
23 23 23
25 25 25
24 24 24
22 22 22
24 24 24
24 24 24
22 22 22
21 21 21
19 19 19
19 19 19
23 23 23
21 21 21
19 19 19
20 20 20
21 21 21
21 21 21
21 21 21
113 113 113
110 110 110
108 108 108
110 110 110
117 117 117
123 123 123
125 125 125
125 125 125
119 119 119
107 107 107
85 85 85
78 78 78
82 82 82
84 84 84
87 87 87
92 92 92
91 91 91
99 99 99
99 99 99
101 101 101
101 101 101
97 97 97
106 106 106
106 106 106
102 102 102
100 100 100
102 102 102
93 93 93
88 88 88
84 84 84
78 78 78
76 76 76
76 76 76
75 75 75
61 61 61
45 45 45
46 46 46
46 46 46
46 46 46
34 34 34
28 28 28
27 27 27
36 36 36
49 49 49
86 86 86
88 88 88
57 57 57
85 85 85
87 87 87
48 48 48
31 31 31
37 37 37
49 49 49
78 78 78
104 104 104
108 108 108
79 79 79
58 58 58
62 62 62
64 64 64
133 133 133
201 201 201
204 204 204
206 206 206
208 208 208
208 208 208
207 207 207
206 206 206
207 207 207
207 207 207
207 207 207
207 207 207
180 180 180
201 201 201
200 200 200
199 199 199
178 178 178
139 139 139
128 128 128
124 124 124
121 121 121
121 121 121
98 98 98
115 115 115
121 121 121
118 118 118
115 115 115
102 102 102
56 56 56
103 103 103
116 116 116
119 119 119
94 94 94
116 116 116
106 106 106
107 107 107
147 147 147
153 153 153
151 151 151
139 139 139
91 91 91
95 95 95
101 101 101
96 96 96
96 96 96
77 77 77
115 115 115
91 91 91
45 45 45
43 43 43
54 54 54
41 41 41
29 29 29
30 30 30
30 30 30
31 31 31
29 29 29
29 29 29
29 29 29
29 29 29
29 29 29
27 27 27
25 25 25
23 23 23
22 22 22
20 20 20
24 24 24
26 26 26
29 29 29
30 30 30
30 30 30
31 31 31
28 28 28
27 27 27
26 26 26
25 25 25
23 23 23
22 22 22
22 22 22
22 22 22
24 24 24
24 24 24
23 23 23
22 22 22
22 22 22
21 21 21
22 22 22
24 24 24
23 23 23
22 22 22
22 22 22
22 22 22
23 23 23
24 24 24
23 23 23
22 22 22
24 24 24
24 24 24
22 22 22
23 23 23
20 20 20
19 19 19
20 20 20
19 19 19
19 19 19
19 19 19
20 20 20
21 21 21
21 21 21
103 103 103
102 102 102
98 98 98
96 96 96
103 103 103
104 104 104
102 102 102
94 94 94
80 80 80
69 69 69
77 77 77
92 92 92
90 90 90
91 91 91
94 94 94
87 87 87
76 76 76
77 77 77
93 93 93
102 102 102
106 106 106
101 101 101
99 99 99
99 99 99
100 100 100
96 96 96
102 102 102
100 100 100
90 90 90
85 85 85
85 85 85
81 81 81
78 78 78
72 72 72
53 53 53
45 45 45
45 45 45
44 44 44
46 46 46
38 38 38
29 29 29
30 30 30
29 29 29
43 43 43
59 59 59
100 100 100
97 97 97
95 95 95
110 110 110
93 93 93
44 44 44
34 34 34
45 45 45
54 54 54
97 97 97
107 107 107
107 107 107
72 72 72
60 60 60
63 63 63
61 61 61
159 159 159
201 201 201
204 204 204
205 205 205
207 207 207
208 208 208
208 208 208
207 207 207
207 207 207
206 206 206
205 205 205
183 183 183
181 181 181
203 203 203
200 200 200
199 199 199
192 192 192
150 150 150
127 127 127
125 125 125
123 123 123
100 100 100
119 119 119
121 121 121
119 119 119
118 118 118
115 115 115
69 69 69
91 91 91
117 117 117
133 133 133
133 133 133
166 166 166
121 121 121
115 115 115
101 101 101
137 137 137
151 151 151
152 152 152
147 147 147
102 102 102
95 95 95
98 98 98
97 97 97
80 80 80
137 137 137
94 94 94
45 45 45
41 41 41
53 53 53
51 51 51
34 34 34
30 30 30
31 31 31
30 30 30
30 30 30
28 28 28
27 27 27
28 28 28
28 28 28
25 25 25
24 24 24
24 24 24
25 25 25
22 22 22
23 23 23
27 27 27
30 30 30
31 31 31
28 28 28
29 29 29
29 29 29
28 28 28
25 25 25
24 24 24
23 23 23
24 24 24
23 23 23
23 23 23
24 24 24
24 24 24
24 24 24
23 23 23
22 22 22
21 21 21
21 21 21
22 22 22
22 22 22
23 23 23
23 23 23
22 22 22
22 22 22
23 23 23
25 25 25
23 23 23
24 24 24
24 24 24
23 23 23
23 23 23
20 20 20
20 20 20
19 19 19
18 18 18
20 20 20
19 19 19
19 19 19
21 21 21
21 21 21
115 115 115
112 112 112
111 111 111
107 107 107
94 94 94
76 76 76
61 61 61
63 63 63
71 71 71
80 80 80
87 87 87
97 97 97
87 87 87
87 87 87
81 81 81
72 72 72
67 67 67
66 66 66
85 85 85
97 97 97
105 105 105
103 103 103
99 99 99
96 96 96
103 103 103
111 111 111
115 115 115
113 113 113
107 107 107
95 95 95
92 92 92
86 86 86
82 82 82
70 70 70
43 43 43
45 45 45
44 44 44
44 44 44
45 45 45
43 43 43
34 34 34
29 29 29
27 27 27
35 35 35
47 47 47
73 73 73
107 107 107
112 112 112
116 116 116
114 114 114
92 92 92
43 43 43
36 36 36
52 52 52
64 64 64
104 104 104
109 109 109
106 106 106
65 65 65
61 61 61
63 63 63
73 73 73
179 179 179
202 202 202
206 206 206
206 206 206
208 208 208
208 208 208
207 207 207
207 207 207
206 206 206
205 205 205
203 203 203
159 159 159
203 203 203
201 201 201
200 200 200
200 200 200
199 199 199
174 174 174
141 141 141
127 127 127
108 108 108
119 119 119
122 122 122
121 121 121
121 121 121
116 116 116
84 84 84
79 79 79
120 120 120
167 167 167
142 142 142
189 189 189
166 166 166
123 123 123
116 116 116
100 100 100
128 128 128
155 155 155
151 151 151
151 151 151
106 106 106
91 91 91
99 99 99
77 77 77
64 64 64
47 47 47
41 41 41
35 35 35
51 51 51
53 53 53
48 48 48
29 29 29
32 32 32
31 31 31
29 29 29
29 29 29
29 29 29
29 29 29
27 27 27
23 23 23
23 23 23
27 27 27
29 29 29
28 28 28
29 29 29
30 30 30
29 29 29
29 29 29
25 25 25
28 28 28
25 25 25
24 24 24
24 24 24
24 24 24
25 25 25
24 24 24
24 24 24
24 24 24
24 24 24
24 24 24
24 24 24
23 23 23
22 22 22
21 21 21
21 21 21
22 22 22
22 22 22
22 22 22
22 22 22
22 22 22
22 22 22
22 22 22
23 23 23
24 24 24
24 24 24
24 24 24
22 22 22
21 21 21
20 20 20
20 20 20
20 20 20
18 18 18
19 19 19
19 19 19
19 19 19
21 21 21
21 21 21
110 110 110
103 103 103
103 103 103
93 93 93
75 75 75
69 69 69
67 67 67
81 81 81
95 95 95
102 102 102
105 105 105
109 109 109
98 98 98
87 87 87
67 67 67
69 69 69
75 75 75
79 79 79
88 88 88
99 99 99
102 102 102
97 97 97
102 102 102
103 103 103
106 106 106
117 117 117
118 118 118
117 117 117
122 122 122
109 109 109
96 96 96
97 97 97
88 88 88
86 86 86
64 64 64
47 47 47
44 44 44
44 44 44
43 43 43
45 45 45
41 41 41
30 30 30
28 28 28
27 27 27
42 42 42
50 50 50
91 91 91
115 115 115
122 122 122
123 123 123
118 118 118
89 89 89
41 41 41
38 38 38
51 51 51
71 71 71
107 107 107
112 112 112
98 98 98
60 60 60
62 62 62
77 77 77
94 94 94
194 194 194
203 203 203
205 205 205
206 206 206
207 207 207
207 207 207
207 207 207
207 207 207
206 206 206
204 204 204
189 189 189
177 177 177
201 201 201
203 203 203
201 201 201
200 200 200
200 200 200
195 195 195
178 178 178
174 174 174
122 122 122
125 125 125
123 123 123
122 122 122
117 117 117
85 85 85
61 61 61
145 145 145
190 190 190
151 151 151
191 191 191
190 190 190
165 165 165
119 119 119
114 114 114
102 102 102
116 116 116
148 148 148
148 148 148
148 148 148
105 105 105
89 89 89
93 93 93
71 71 71
50 50 50
35 35 35
39 39 39
38 38 38
51 51 51
52 52 52
42 42 42
33 33 33
31 31 31
30 30 30
29 29 29
30 30 30
30 30 30
28 28 28
27 27 27
28 28 28
28 28 28
29 29 29
30 30 30
29 29 29
29 29 29
29 29 29
26 26 26
25 25 25
27 27 27
24 24 24
23 23 23
24 24 24
23 23 23
23 23 23
23 23 23
23 23 23
23 23 23
24 24 24
24 24 24
24 24 24
23 23 23
21 21 21
21 21 21
21 21 21
23 23 23
23 23 23
23 23 23
24 24 24
23 23 23
22 22 22
22 22 22
24 24 24
25 25 25
22 22 22
22 22 22
20 20 20
20 20 20
18 18 18
19 19 19
21 21 21
20 20 20
19 19 19
19 19 19
20 20 20
21 21 21
21 21 21
87 87 87
78 78 78
73 73 73
77 77 77
87 87 87
89 89 89
81 81 81
87 87 87
103 103 103
115 115 115
117 117 117
115 115 115
104 104 104
98 98 98
84 84 84
88 88 88
97 97 97
97 97 97
95 95 95
102 102 102
104 104 104
98 98 98
103 103 103
105 105 105
111 111 111
114 114 114
113 113 113
115 115 115
113 113 113
105 105 105
99 99 99
100 100 100
91 91 91
91 91 91
89 89 89
52 52 52
46 46 46
45 45 45
45 45 45
45 45 45
43 43 43
38 38 38
28 28 28
28 28 28
30 30 30
48 48 48
58 58 58
102 102 102
120 120 120
127 127 127
128 128 128
118 118 118
81 81 81
40 40 40
42 42 42
54 54 54
74 74 74
110 110 110
110 110 110
84 84 84
59 59 59
60 60 60
76 76 76
115 115 115
197 197 197
203 203 203
206 206 206
207 207 207
207 207 207
207 207 207
207 207 207
206 206 206
205 205 205
204 204 204
163 163 163
196 196 196
203 203 203
204 204 204
200 200 200
200 200 200
199 199 199
196 196 196
196 196 196
153 153 153
157 157 157
160 160 160
140 140 140
100 100 100
91 91 91
85 85 85
137 137 137
188 188 188
154 154 154
192 192 192
192 192 192
187 187 187
150 150 150
118 118 118
114 114 114
107 107 107
112 112 112
150 150 150
146 146 146
147 147 147
101 101 101
93 93 93
96 96 96
89 89 89
43 43 43
39 39 39
39 39 39
40 40 40
52 52 52
51 51 51
34 34 34
31 31 31
29 29 29
29 29 29
29 29 29
28 28 28
28 28 28
28 28 28
26 26 26
28 28 28
29 29 29
29 29 29
27 27 27
27 27 27
28 28 28
26 26 26
25 25 25
26 26 26
24 24 24
23 23 23
25 25 25
22 22 22
22 22 22
24 24 24
22 22 22
22 22 22
23 23 23
24 24 24
24 24 24
23 23 23
21 21 21
21 21 21
21 21 21
23 23 23
23 23 23
23 23 23
23 23 23
22 22 22
22 22 22
22 22 22
23 23 23
23 23 23
22 22 22
22 22 22
21 21 21
21 21 21
18 18 18
18 18 18
20 20 20
20 20 20
19 19 19
19 19 19
20 20 20
21 21 21
20 20 20
81 81 81
79 79 79
90 90 90
95 95 95
94 94 94
95 95 95
92 92 92
96 96 96
103 103 103
108 108 108
110 110 110
113 113 113
113 113 113
108 108 108
105 105 105
110 110 110
115 115 115
109 109 109
105 105 105
105 105 105
104 104 104
105 105 105
102 102 102
107 107 107
111 111 111
105 105 105
111 111 111
115 115 115
113 113 113
109 109 109
102 102 102
96 96 96
98 98 98
101 101 101
102 102 102
88 88 88
42 42 42
46 46 46
44 44 44
45 45 45
45 45 45
43 43 43
35 35 35
28 28 28
28 28 28
37 37 37
50 50 50
65 65 65
110 110 110
125 125 125
129 129 129
125 125 125
116 116 116
77 77 77
38 38 38
47 47 47
53 53 53
74 74 74
106 106 106
105 105 105
71 71 71
55 55 55
58 58 58
78 78 78
139 139 139
203 203 203
202 202 202
207 207 207
207 207 207
206 206 206
207 207 207
207 207 207
205 205 205
204 204 204
200 200 200
164 164 164
203 203 203
203 203 203
203 203 203
202 202 202
200 200 200
200 200 200
199 199 199
199 199 199
179 179 179
194 194 194
186 186 186
134 134 134
139 139 139
86 86 86
139 139 139
188 188 188
185 185 185
192 192 192
194 194 194
189 189 189
185 185 185
140 140 140
116 116 116
112 112 112
102 102 102
116 116 116
150 150 150
147 147 147
148 148 148
100 100 100
94 94 94
94 94 94
64 64 64
37 37 37
42 42 42
38 38 38
45 45 45
53 53 53
46 46 46
31 31 31
29 29 29
30 30 30
30 30 30
29 29 29
28 28 28
28 28 28
27 27 27
27 27 27
28 28 28
27 27 27
29 29 29
27 27 27
25 25 25
23 23 23
24 24 24
25 25 25
24 24 24
23 23 23
24 24 24
23 23 23
23 23 23
23 23 23
23 23 23
24 24 24
23 23 23
23 23 23
23 23 23
23 23 23
22 22 22
20 20 20
21 21 21
22 22 22
21 21 21
20 20 20
23 23 23
22 22 22
22 22 22
22 22 22
22 22 22
22 22 22
22 22 22
22 22 22
22 22 22
20 20 20
18 18 18
18 18 18
18 18 18
19 19 19
20 20 20
20 20 20
19 19 19
18 18 18
18 18 18
104 104 104
98 98 98
103 103 103
106 106 106
101 101 101
98 98 98
100 100 100
102 102 102
109 109 109
112 112 112
110 110 110
113 113 113
112 112 112
113 113 113
107 107 107
109 109 109
111 111 111
106 106 106
103 103 103
98 98 98
99 99 99
93 93 93
96 96 96
105 105 105
109 109 109
109 109 109
114 114 114
116 116 116
116 116 116
110 110 110
104 104 104
101 101 101
102 102 102
107 107 107
106 106 106
135 135 135
129 129 129
61 61 61
48 48 48
46 46 46
45 45 45
45 45 45
44 44 44
37 37 37
31 31 31
28 28 28
44 44 44
55 55 55
73 73 73
117 117 117
129 129 129
129 129 129
124 124 124
115 115 115
65 65 65
38 38 38
51 51 51
54 54 54
73 73 73
103 103 103
99 99 99
61 61 61
57 57 57
62 62 62
77 77 77
157 157 157
203 203 203
205 205 205
207 207 207
206 206 206
206 206 206
207 207 207
205 205 205
205 205 205
206 206 206
188 188 188
177 177 177
204 204 204
203 203 203
204 204 204
203 203 203
201 201 201
200 200 200
199 199 199
200 200 200
195 195 195
177 177 177
149 149 149
169 169 169
106 106 106
138 138 138
194 194 194
196 196 196
195 195 195
195 195 195
194 194 194
191 191 191
181 181 181
130 130 130
119 119 119
113 113 113
103 103 103
122 122 122
150 150 150
147 147 147
146 146 146
88 88 88
94 94 94
84 84 84
30 30 30
36 36 36
40 40 40
38 38 38
50 50 50
52 52 52
36 36 36
28 28 28
28 28 28
29 29 29
30 30 30
29 29 29
29 29 29
27 27 27
25 25 25
25 25 25
25 25 25
28 28 28
30 30 30
27 27 27
25 25 25
24 24 24
24 24 24
25 25 25
25 25 25
26 26 26
24 24 24
23 23 23
24 24 24
25 25 25
24 24 24
23 23 23
22 22 22
22 22 22
22 22 22
22 22 22
20 20 20
22 22 22
23 23 23
23 23 23
22 22 22
24 24 24
24 24 24
23 23 23
23 23 23
22 22 22
23 23 23
23 23 23
22 22 22
22 22 22
21 21 21
19 19 19
19 19 19
19 19 19
19 19 19
20 20 20
20 20 20
20 20 20
18 18 18
18 18 18
115 115 115
110 110 110
110 110 110
111 111 111
110 110 110
108 108 108
108 108 108
110 110 110
112 112 112
112 112 112
109 109 109
113 113 113
112 112 112
114 114 114
112 112 112
110 110 110
104 104 104
95 95 95
86 86 86
81 81 81
73 73 73
73 73 73
89 89 89
95 95 95
99 99 99
108 108 108
112 112 112
113 113 113
113 113 113
108 108 108
103 103 103
105 105 105
107 107 107
106 106 106
169 169 169
177 177 177
152 152 152
100 100 100
69 69 69
48 48 48
47 47 47
45 45 45
47 47 47
43 43 43
38 38 38
31 31 31
33 33 33
48 48 48
53 53 53
76 76 76
118 118 118
125 125 125
125 125 125
122 122 122
106 106 106
50 50 50
41 41 41
51 51 51
53 53 53
66 66 66
98 98 98
89 89 89
53 53 53
57 57 57
69 69 69
73 73 73
178 178 178
203 203 203
205 205 205
205 205 205
206 206 206
207 207 207
207 207 207
207 207 207
206 206 206
205 205 205
176 176 176
186 186 186
205 205 205
204 204 204
204 204 204
204 204 204
202 202 202
201 201 201
200 200 200
202 202 202
167 167 167
197 197 197
155 155 155
114 114 114
109 109 109
188 188 188
196 196 196
196 196 196
196 196 196
195 195 195
192 192 192
187 187 187
171 171 171
122 122 122
118 118 118
114 114 114
103 103 103
129 129 129
150 150 150
148 148 148
134 134 134
86 86 86
94 94 94
52 52 52
26 26 26
37 37 37
41 41 41
45 45 45
52 52 52
46 46 46
30 30 30
29 29 29
29 29 29
29 29 29
28 28 28
28 28 28
27 27 27
28 28 28
27 27 27
25 25 25
28 28 28
28 28 28
24 24 24
25 25 25
25 25 25
25 25 25
24 24 24
25 25 25
25 25 25
23 23 23
24 24 24
25 25 25
25 25 25
24 24 24
22 22 22
22 22 22
22 22 22
23 23 23
23 23 23
22 22 22
22 22 22
24 24 24
25 25 25
24 24 24
25 25 25
25 25 25
25 25 25
24 24 24
24 24 24
24 24 24
22 22 22
21 21 21
21 21 21
20 20 20
19 19 19
20 20 20
19 19 19
20 20 20
21 21 21
21 21 21
20 20 20
20 20 20
19 19 19
116 116 116
110 110 110
106 106 106
109 109 109
109 109 109
112 112 112
114 114 114
109 109 109
108 108 108
106 106 106
107 107 107
112 112 112
114 114 114
117 117 117
123 123 123
118 118 118
98 98 98
83 83 83
73 73 73
70 70 70
71 71 71
72 72 72
82 82 82
92 92 92
96 96 96
99 99 99
102 102 102
110 110 110
115 115 115
112 112 112
109 109 109
118 118 118
125 125 125
129 129 129
179 179 179
179 179 179
162 162 162
120 120 120
95 95 95
96 96 96
64 64 64
48 48 48
47 47 47
46 46 46
46 46 46
39 39 39
31 31 31
36 36 36
47 47 47
55 55 55
72 72 72
111 111 111
120 120 120
119 119 119
114 114 114
88 88 88
36 36 36
38 38 38
48 48 48
52 52 52
56 56 56
84 84 84
71 71 71
53 53 53
57 57 57
62 62 62
80 80 80
188 188 188
202 202 202
203 203 203
206 206 206
206 206 206
206 206 206
207 207 207
205 205 205
203 203 203
205 205 205
170 170 170
193 193 193
204 204 204
204 204 204
204 204 204
203 203 203
201 201 201
201 201 201
176 176 176
145 145 145
134 134 134
137 137 137
90 90 90
91 91 91
168 168 168
196 196 196
197 197 197
198 198 198
195 195 195
192 192 192
191 191 191
190 190 190
153 153 153
117 117 117
114 114 114
113 113 113
98 98 98
136 136 136
148 148 148
148 148 148
105 105 105
91 91 91
78 78 78
25 25 25
27 27 27
38 38 38
38 38 38
52 52 52
52 52 52
37 37 37
30 30 30
28 28 28
27 27 27
28 28 28
28 28 28
24 24 24
27 27 27
26 26 26
25 25 25
28 28 28
27 27 27
24 24 24
25 25 25
25 25 25
24 24 24
22 22 22
23 23 23
25 25 25
28 28 28
27 27 27
26 26 26
25 25 25
25 25 25
24 24 24
24 24 24
23 23 23
23 23 23
23 23 23
23 23 23
22 22 22
23 23 23
24 24 24
25 25 25
25 25 25
25 25 25
25 25 25
25 25 25
25 25 25
25 25 25
23 23 23
22 22 22
20 20 20
20 20 20
20 20 20
20 20 20
20 20 20
22 22 22
23 23 23
21 21 21
20 20 20
20 20 20
17 17 17
120 120 120
113 113 113
109 109 109
112 112 112
109 109 109
106 106 106
108 108 108
108 108 108
115 115 115
113 113 113
111 111 111
113 113 113
119 119 119
123 123 123
117 117 117
95 95 95
74 74 74
81 81 81
93 93 93
95 95 95
88 88 88
87 87 87
89 89 89
95 95 95
95 95 95
88 88 88
90 90 90
107 107 107
113 113 113
114 114 114
113 113 113
118 118 118
126 126 126
139 139 139
180 180 180
180 180 180
173 173 173
127 127 127
117 117 117
100 100 100
112 112 112
90 90 90
59 59 59
49 49 49
46 46 46
46 46 46
43 43 43
31 31 31
38 38 38
47 47 47
52 52 52
63 63 63
100 100 100
113 113 113
111 111 111
107 107 107
59 59 59
30 30 30
40 40 40
47 47 47
48 48 48
49 49 49
58 58 58
51 51 51
51 51 51
55 55 55
61 61 61
96 96 96
195 195 195
204 204 204
204 204 204
205 205 205
206 206 206
207 207 207
204 204 204
203 203 203
203 203 203
203 203 203
172 172 172
200 200 200
204 204 204
204 204 204
203 203 203
200 200 200
197 197 197
199 199 199
144 144 144
154 154 154
112 112 112
83 83 83
135 135 135
195 195 195
195 195 195
196 196 196
198 198 198
194 194 194
193 193 193
193 193 193
191 191 191
180 180 180
125 125 125
117 117 117
114 114 114
111 111 111
93 93 93
148 148 148
146 146 146
145 145 145
83 83 83
93 93 93
49 49 49
22 22 22
24 24 24
37 37 37
47 47 47
53 53 53
47 47 47
29 29 29
28 28 28
29 29 29
29 29 29
29 29 29
27 27 27
25 25 25
24 24 24
25 25 25
28 28 28
27 27 27
26 26 26
26 26 26
23 23 23
22 22 22
22 22 22
24 24 24
28 28 28
27 27 27
26 26 26
26 26 26
24 24 24
24 24 24
23 23 23
23 23 23
24 24 24
25 25 25
25 25 25
24 24 24
24 24 24
24 24 24
25 25 25
25 25 25
25 25 25
25 25 25
25 25 25
25 25 25
25 25 25
26 26 26
24 24 24
24 24 24
20 20 20
18 18 18
18 18 18
19 19 19
22 22 22
24 24 24
21 21 21
18 18 18
16 16 16
16 16 16
15 15 15
123 123 123
118 118 118
118 118 118
117 117 117
113 113 113
110 110 110
119 119 119
118 118 118
118 118 118
126 126 126
131 131 131
126 126 126
107 107 107
91 91 91
85 85 85
92 92 92
91 91 91
100 100 100
107 107 107
105 105 105
99 99 99
100 100 100
105 105 105
104 104 104
98 98 98
88 88 88
87 87 87
99 99 99
104 104 104
102 102 102
96 96 96
95 95 95
99 99 99
140 140 140
181 181 181
182 182 182
180 180 180
133 133 133
128 128 128
116 116 116
89 89 89
114 114 114
112 112 112
91 91 91
60 60 60
50 50 50
47 47 47
44 44 44
36 36 36
42 42 42
47 47 47
51 51 51
54 54 54
71 71 71
92 92 92
102 102 102
90 90 90
33 33 33
30 30 30
40 40 40
47 47 47
48 48 48
47 47 47
48 48 48
50 50 50
53 53 53
56 56 56
59 59 59
109 109 109
196 196 196
202 202 202
203 203 203
205 205 205
205 205 205
203 203 203
203 203 203
203 203 203
202 202 202
194 194 194
203 203 203
205 205 205
198 198 198
195 195 195
201 201 201
199 199 199
168 168 168
167 167 167
108 108 108
95 95 95
77 77 77
170 170 170
195 195 195
197 197 197
198 198 198
199 199 199
197 197 197
193 193 193
194 194 194
192 192 192
189 189 189
160 160 160
117 117 117
113 113 113
112 112 112
87 87 87
119 119 119
149 149 149
146 146 146
117 117 117
89 89 89
79 79 79
24 24 24
21 21 21
27 27 27
42 42 42
53 53 53
52 52 52
41 41 41
28 28 28
29 29 29
30 30 30
24 24 24
24 24 24
24 24 24
24 24 24
23 23 23
28 28 28
31 31 31
30 30 30
25 25 25
22 22 22
25 25 25
25 25 25
26 26 26
28 28 28
27 27 27
26 26 26
27 27 27
26 26 26
24 24 24
23 23 23
23 23 23
24 24 24
24 24 24
25 25 25
24 24 24
24 24 24
25 25 25
25 25 25
25 25 25
25 25 25
25 25 25
25 25 25
26 26 26
26 26 26
26 26 26
23 23 23
24 24 24
20 20 20
17 17 17
15 15 15
16 16 16
20 20 20
21 21 21
18 18 18
19 19 19
18 18 18
17 17 17
18 18 18
119 119 119
114 114 114
114 114 114
118 118 118
120 120 120
122 122 122
127 127 127
125 125 125
127 127 127
128 128 128
115 115 115
93 93 93
80 80 80
78 78 78
87 87 87
94 94 94
96 96 96
106 106 106
107 107 107
104 104 104
102 102 102
104 104 104
111 111 111
111 111 111
106 106 106
100 100 100
98 98 98
98 98 98
96 96 96
92 92 92
84 84 84
86 86 86
87 87 87
158 158 158
183 183 183
183 183 183
181 181 181
163 163 163
117 117 117
127 127 127
118 118 118
92 92 92
115 115 115
117 117 117
112 112 112
94 94 94
66 66 66
46 46 46
47 47 47
41 41 41
43 43 43
47 47 47
48 48 48
48 48 48
51 51 51
58 58 58
66 66 66
36 36 36
29 29 29
28 28 28
42 42 42
48 48 48
49 49 49
48 48 48
48 48 48
49 49 49
52 52 52
56 56 56
54 54 54
133 133 133
183 183 183
201 201 201
202 202 202
205 205 205
203 203 203
203 203 203
204 204 204
192 192 192
152 152 152
198 198 198
173 173 173
187 187 187
187 187 187
164 164 164
178 178 178
168 168 168
142 142 142
92 92 92
84 84 84
120 120 120
195 195 195
196 196 196
198 198 198
199 199 199
199 199 199
198 198 198
194 194 194
193 193 193
190 190 190
188 188 188
183 183 183
127 127 127
116 116 116
115 115 115
96 96 96
146 146 146
141 141 141
146 146 146
147 147 147
87 87 87
94 94 94
57 57 57
24 24 24
23 23 23
39 39 39
52 52 52
52 52 52
50 50 50
31 31 31
28 28 28
30 30 30
28 28 28
27 27 27
24 24 24
23 23 23
22 22 22
27 27 27
29 29 29
28 28 28
27 27 27
29 29 29
29 29 29
27 27 27
27 27 27
28 28 28
28 28 28
27 27 27
26 26 26
24 24 24
23 23 23
23 23 23
24 24 24
24 24 24
24 24 24
24 24 24
24 24 24
22 22 22
25 25 25
25 25 25
24 24 24
25 25 25
25 25 25
26 26 26
26 26 26
26 26 26
26 26 26
24 24 24
22 22 22
21 21 21
20 20 20
17 17 17
16 16 16
19 19 19
20 20 20
18 18 18
18 18 18
17 17 17
17 17 17
18 18 18
109 109 109
108 108 108
106 106 106
108 108 108
117 117 117
119 119 119
120 120 120
118 118 118
106 106 106
88 88 88
78 78 78
85 85 85
92 92 92
91 91 91
96 96 96
96 96 96
89 89 89
87 87 87
84 84 84
85 85 85
85 85 85
95 95 95
107 107 107
109 109 109
108 108 108
107 107 107
109 109 109
101 101 101
94 94 94
90 90 90
88 88 88
90 90 90
89 89 89
174 174 174
183 183 183
182 182 182
182 182 182
181 181 181
136 136 136
125 125 125
129 129 129
126 126 126
113 113 113
114 114 114
116 116 116
116 116 116
115 115 115
103 103 103
86 86 86
67 67 67
43 43 43
46 46 46
47 47 47
48 48 48
48 48 48
47 47 47
48 48 48
41 41 41
28 28 28
26 26 26
29 29 29
44 44 44
47 47 47
47 47 47
47 47 47
48 48 48
50 50 50
52 52 52
54 54 54
112 112 112
111 111 111
140 140 140
157 157 157
178 178 178
191 191 191
200 200 200
200 200 200
186 186 186
201 201 201
162 162 162
188 188 188
220 220 220
190 190 190
147 147 147
163 163 163
173 173 173
142 142 142
85 85 85
103 103 103
124 124 124
194 194 194
196 196 196
198 198 198
198 198 198
199 199 199
198 198 198
193 193 193
194 194 194
193 193 193
191 191 191
187 187 187
155 155 155
116 116 116
114 114 114
96 96 96
186 186 186
131 131 131
148 148 148
147 147 147
121 121 121
89 89 89
88 88 88
44 44 44
24 24 24
33 33 33
51 51 51
54 54 54
51 51 51
41 41 41
28 28 28
29 29 29
27 27 27
25 25 25
25 25 25
23 23 23
22 22 22
22 22 22
25 25 25
29 29 29
31 31 31
30 30 30
27 27 27
27 27 27
27 27 27
27 27 27
27 27 27
26 26 26
24 24 24
23 23 23
22 22 22
23 23 23
24 24 24
24 24 24
25 25 25
25 25 25
24 24 24
23 23 23
24 24 24
23 23 23
23 23 23
24 24 24
25 25 25
26 26 26
26 26 26
26 26 26
25 25 25
23 23 23
22 22 22
22 22 22
21 21 21
19 19 19
17 17 17
21 21 21
19 19 19
17 17 17
18 18 18
16 16 16
17 17 17
18 18 18
109 109 109
110 110 110
108 108 108
103 103 103
102 102 102
97 97 97
85 85 85
79 79 79
70 70 70
74 74 74
87 87 87
95 95 95
87 87 87
90 90 90
95 95 95
86 86 86
75 75 75
76 76 76
80 80 80
89 89 89
93 93 93
95 95 95
97 97 97
100 100 100
104 104 104
106 106 106
109 109 109
109 109 109
102 102 102
95 95 95
96 96 96
97 97 97
117 117 117
183 183 183
184 184 184
184 184 184
182 182 182
183 183 183
177 177 177
114 114 114
130 130 130
128 128 128
150 150 150
121 121 121
114 114 114
118 118 118
118 118 118
116 116 116
117 117 117
115 115 115
106 106 106
64 64 64
47 47 47
48 48 48
47 47 47
46 46 46
46 46 46
45 45 45
35 35 35
28 28 28
27 27 27
31 31 31
44 44 44
47 47 47
47 47 47
47 47 47
46 46 46
48 48 48
51 51 51
60 60 60
154 154 154
131 131 131
149 149 149
148 148 148
145 145 145
152 152 152
140 140 140
140 140 140
173 173 173
135 135 135
205 205 205
189 189 189
146 146 146
139 139 139
143 143 143
109 109 109
115 115 115
108 108 108
96 96 96
117 117 117
197 197 197
197 197 197
198 198 198
198 198 198
199 199 199
198 198 198
194 194 194
193 193 193
192 192 192
190 190 190
187 187 187
175 175 175
118 118 118
114 114 114
104 104 104
193 193 193
176 176 176
135 135 135
147 147 147
144 144 144
86 86 86
94 94 94
85 85 85
48 48 48
67 67 67
58 58 58
48 48 48
54 54 54
50 50 50
32 32 32
30 30 30
25 25 25
24 24 24
26 26 26
25 25 25
25 25 25
25 25 25
29 29 29
31 31 31
29 29 29
26 26 26
26 26 26
26 26 26
26 26 26
25 25 25
25 25 25
25 25 25
24 24 24
23 23 23
23 23 23
24 24 24
24 24 24
24 24 24
23 23 23
24 24 24
24 24 24
23 23 23
22 22 22
21 21 21
21 21 21
22 22 22
25 25 25
26 26 26
26 26 26
26 26 26
26 26 26
23 23 23
22 22 22
22 22 22
21 21 21
19 19 19
17 17 17
20 20 20
19 19 19
17 17 17
18 18 18
16 16 16
18 18 18
18 18 18
117 117 117
113 113 113
117 117 117
113 113 113
92 92 92
72 72 72
63 63 63
73 73 73
88 88 88
94 94 94
99 99 99
103 103 103
92 92 92
80 80 80
81 81 81
79 79 79
79 79 79
87 87 87
95 95 95
102 102 102
102 102 102
105 105 105
105 105 105
105 105 105
108 108 108
118 118 118
122 122 122
118 118 118
113 113 113
107 107 107
109 109 109
102 102 102
152 152 152
185 185 185
185 185 185
184 184 184
183 183 183
183 183 183
183 183 183
161 161 161
118 118 118
130 130 130
131 131 131
165 165 165
126 126 126
115 115 115
120 120 120
118 118 118
117 117 117
117 117 117
114 114 114
109 109 109
72 72 72
46 46 46
44 44 44
45 45 45
45 45 45
45 45 45
44 44 44
34 34 34
27 27 27
27 27 27
33 33 33
44 44 44
48 48 48
47 47 47
46 46 46
46 46 46
48 48 48
49 49 49
113 113 113
162 162 162
117 117 117
159 159 159
154 154 154
148 148 148
125 125 125
176 176 176
178 178 178
144 144 144
116 116 116
140 140 140
139 139 139
115 115 115
115 115 115
85 85 85
97 97 97
118 118 118
182 182 182
191 191 191
197 197 197
198 198 198
199 199 199
199 199 199
198 198 198
197 197 197
195 195 195
193 193 193
192 192 192
189 189 189
188 188 188
177 177 177
119 119 119
117 117 117
127 127 127
197 197 197
196 196 196
139 139 139
148 148 148
147 147 147
111 111 111
93 93 93
82 82 82
110 110 110
137 137 137
81 81 81
49 49 49
54 54 54
51 51 51
43 43 43
27 27 27
26 26 26
25 25 25
25 25 25
26 26 26
27 27 27
29 29 29
29 29 29
28 28 28
26 26 26
25 25 25
27 27 27
26 26 26
25 25 25
23 23 23
24 24 24
24 24 24
25 25 25
24 24 24
24 24 24
25 25 25
25 25 25
25 25 25
25 25 25
23 23 23
21 21 21
23 23 23
21 21 21
21 21 21
21 21 21
22 22 22
24 24 24
21 21 21
24 24 24
26 26 26
25 25 25
23 23 23
22 22 22
22 22 22
20 20 20
16 16 16
16 16 16
20 20 20
20 20 20
18 18 18
17 17 17
18 18 18
18 18 18
18 18 18
100 100 100
96 96 96
91 91 91
82 82 82
81 81 81
83 83 83
80 80 80
88 88 88
108 108 108
115 115 115
115 115 115
116 116 116
109 109 109
93 93 93
83 83 83
81 81 81
82 82 82
89 89 89
95 95 95
101 101 101
106 106 106
108 108 108
105 105 105
104 104 104
101 101 101
101 101 101
110 110 110
113 113 113
114 114 114
118 118 118
121 121 121
110 110 110
179 179 179
183 183 183
183 183 183
183 183 183
182 182 182
183 183 183
182 182 182
182 182 182
138 138 138
126 126 126
131 131 131
140 140 140
174 174 174
138 138 138
112 112 112
119 119 119
118 118 118
116 116 116
116 116 116
114 114 114
110 110 110
87 87 87
51 51 51
45 45 45
44 44 44
44 44 44
44 44 44
43 43 43
33 33 33
28 28 28
28 28 28
37 37 37
47 47 47
46 46 46
46 46 46
45 45 45
48 48 48
47 47 47
54 54 54
150 150 150
161 161 161
142 142 142
192 192 192
200 200 200
198 198 198
146 146 146
117 117 117
103 103 103
82 82 82
108 108 108
101 101 101
98 98 98
95 95 95
139 139 139
177 177 177
195 195 195
196 196 196
196 196 196
197 197 197
198 198 198
199 199 199
199 199 199
198 198 198
197 197 197
195 195 195
193 193 193
193 193 193
189 189 189
187 187 187
165 165 165
119 119 119
115 115 115
157 157 157
195 195 195
197 197 197
184 184 184
125 125 125
144 144 144
140 140 140
82 82 82
79 79 79
110 110 110
136 136 136
74 74 74
49 49 49
52 52 52
52 52 52
50 50 50
33 33 33
27 27 27
27 27 27
27 27 27
27 27 27
26 26 26
26 26 26
26 26 26
26 26 26
25 25 25
25 25 25
27 27 27
27 27 27
25 25 25
24 24 24
24 24 24
24 24 24
25 25 25
23 23 23
24 24 24
25 25 25
26 26 26
26 26 26
25 25 25
21 21 21
18 18 18
20 20 20
21 21 21
21 21 21
21 21 21
22 22 22
21 21 21
21 21 21
24 24 24
25 25 25
23 23 23
21 21 21
21 21 21
20 20 20
19 19 19
16 16 16
15 15 15
18 18 18
19 19 19
18 18 18
17 17 17
18 18 18
18 18 18
18 18 18
82 82 82
77 77 77
82 82 82
91 91 91
96 96 96
97 97 97
94 94 94
96 96 96
108 108 108
116 116 116
118 118 118
117 117 117
113 113 113
107 107 107
98 98 98
87 87 87
82 82 82
87 87 87
93 93 93
96 96 96
98 98 98
99 99 99
102 102 102
106 106 106
110 110 110
111 111 111
120 120 120
135 135 135
143 143 143
145 145 145
133 133 133
144 144 144
182 182 182
183 183 183
183 183 183
183 183 183
184 184 184
184 184 184
183 183 183
181 181 181
177 177 177
121 121 121
128 128 128
131 131 131
159 159 159
178 178 178
147 147 147
109 109 109
119 119 119
120 120 120
117 117 117
115 115 115
115 115 115
113 113 113
104 104 104
74 74 74
47 47 47
44 44 44
46 46 46
43 43 43
42 42 42
33 33 33
27 27 27
26 26 26
38 38 38
45 45 45
46 46 46
45 45 45
43 43 43
48 48 48
50 50 50
91 91 91
165 165 165
168 168 168
144 144 144
189 189 189
200 200 200
199 199 199
185 185 185
173 173 173
160 160 160
101 101 101
141 141 141
194 194 194
194 194 194
196 196 196
196 196 196
198 198 198
198 198 198
198 198 198
198 198 198
198 198 198
198 198 198
198 198 198
199 199 199
196 196 196
195 195 195
194 194 194
192 192 192
190 190 190
188 188 188
139 139 139
120 120 120
106 106 106
183 183 183
196 196 196
197 197 197
195 195 195
148 148 148
146 146 146
146 146 146
95 95 95
87 87 87
82 82 82
81 81 81
57 57 57
42 42 42
52 52 52
54 54 54
53 53 53
44 44 44
29 29 29
27 27 27
27 27 27
26 26 26
26 26 26
26 26 26
26 26 26
27 27 27
27 27 27
27 27 27
27 27 27
26 26 26
25 25 25
23 23 23
23 23 23
25 25 25
25 25 25
24 24 24
23 23 23
24 24 24
25 25 25
25 25 25
24 24 24
22 22 22
19 19 19
19 19 19
21 21 21
20 20 20
19 19 19
19 19 19
22 22 22
25 25 25
25 25 25
24 24 24
22 22 22
21 21 21
20 20 20
19 19 19
18 18 18
16 16 16
17 17 17
18 18 18
18 18 18
16 16 16
15 15 15
18 18 18
18 18 18
18 18 18
81 81 81
89 89 89
94 94 94
98 98 98
102 102 102
104 104 104
105 105 105
108 108 108
109 109 109
111 111 111
109 109 109
112 112 112
110 110 110
110 110 110
105 105 105
91 91 91
80 80 80
77 77 77
79 79 79
81 81 81
84 84 84
85 85 85
95 95 95
113 113 113
128 128 128
135 135 135
140 140 140
146 146 146
149 149 149
151 151 151
130 130 130
175 175 175
182 182 182
183 183 183
183 183 183
185 185 185
183 183 183
184 184 184
184 184 184
183 183 183
181 181 181
169 169 169
115 115 115
130 130 130
134 134 134
168 168 168
179 179 179
160 160 160
108 108 108
119 119 119
119 119 119
119 119 119
120 120 120
117 117 117
113 113 113
111 111 111
105 105 105
77 77 77
54 54 54
43 43 43
46 46 46
45 45 45
35 35 35
27 27 27
27 27 27
40 40 40
44 44 44
45 45 45
47 47 47
45 45 45
45 45 45
47 47 47
137 137 137
165 165 165
168 168 168
143 143 143
182 182 182
199 199 199
198 198 198
198 198 198
198 198 198
178 178 178
174 174 174
199 199 199
196 196 196
198 198 198
199 199 199
201 201 201
200 200 200
200 200 200
198 198 198
198 198 198
198 198 198
198 198 198
198 198 198
195 195 195
194 194 194
193 193 193
192 192 192
189 189 189
177 177 177
121 121 121
118 118 118
127 127 127
198 198 198
198 198 198
198 198 198
197 197 197
189 189 189
128 128 128
146 146 146
134 134 134
88 88 88
86 86 86
60 60 60
37 37 37
36 36 36
45 45 45
54 54 54
54 54 54
52 52 52
35 35 35
26 26 26
24 24 24
25 25 25
26 26 26
27 27 27
27 27 27
27 27 27
27 27 27
28 28 28
27 27 27
26 26 26
26 26 26
25 25 25
24 24 24
25 25 25
25 25 25
25 25 25
24 24 24
24 24 24
25 25 25
25 25 25
24 24 24
21 21 21
19 19 19
18 18 18
21 21 21
20 20 20
18 18 18
21 21 21
24 24 24
25 25 25
25 25 25
23 23 23
21 21 21
20 20 20
20 20 20
19 19 19
18 18 18
16 16 16
17 17 17
18 18 18
17 17 17
17 17 17
18 18 18
18 18 18
18 18 18
18 18 18
87 87 87
87 87 87
94 94 94
100 100 100
104 104 104
107 107 107
109 109 109
112 112 112
112 112 112
108 108 108
103 103 103
104 104 104
110 110 110
110 110 110
109 109 109
105 105 105
98 98 98
92 92 92
88 88 88
83 83 83
84 84 84
92 92 92
102 102 102
112 112 112
125 125 125
135 135 135
135 135 135
135 135 135
135 135 135
135 135 135
137 137 137
184 184 184
183 183 183
184 184 184
184 184 184
184 184 184
184 184 184
183 183 183
183 183 183
182 182 182
182 182 182
181 181 181
155 155 155
116 116 116
129 129 129
139 139 139
176 176 176
177 177 177
169 169 169
119 119 119
115 115 115
121 121 121
120 120 120
118 118 118
115 115 115
114 114 114
113 113 113
112 112 112
107 107 107
93 93 93
67 67 67
50 50 50
44 44 44
39 39 39
30 30 30
27 27 27
41 41 41
45 45 45
45 45 45
44 44 44
46 46 46
48 48 48
54 54 54
135 135 135
168 168 168
171 171 171
148 148 148
176 176 176
200 200 200
201 201 201
199 199 199
200 200 200
199 199 199
199 199 199
199 199 199
199 199 199
200 200 200
200 200 200
199 199 199
198 198 198
199 199 199
199 199 199
199 199 199
199 199 199
199 199 199
196 196 196
194 194 194
193 193 193
191 191 191
187 187 187
147 147 147
120 120 120
110 110 110
171 171 171
198 198 198
200 200 200
199 199 199
197 197 197
195 195 195
151 151 151
142 142 142
146 146 146
101 101 101
92 92 92
90 90 90
41 41 41
38 38 38
38 38 38
46 46 46
52 52 52
53 53 53
46 46 46
28 28 28
27 27 27
26 26 26
26 26 26
27 27 27
28 28 28
28 28 28
28 28 28
28 28 28
27 27 27
27 27 27
27 27 27
25 25 25
24 24 24
24 24 24
24 24 24
25 25 25
24 24 24
25 25 25
25 25 25
25 25 25
24 24 24
19 19 19
17 17 17
17 17 17
19 19 19
20 20 20
20 20 20
23 23 23
25 25 25
25 25 25
25 25 25
24 24 24
20 20 20
18 18 18
18 18 18
18 18 18
17 17 17
17 17 17
17 17 17
19 19 19
16 16 16
16 16 16
19 19 19
19 19 19
18 18 18
18 18 18
88 88 88
91 91 91
98 98 98
106 106 106
108 108 108
111 111 111
111 111 111
116 116 116
119 119 119
115 115 115
110 110 110
106 106 106
106 106 106
102 102 102
106 106 106
113 113 113
111 111 111
108 108 108
105 105 105
92 92 92
88 88 88
99 99 99
97 97 97
101 101 101
105 105 105
108 108 108
110 110 110
114 114 114
117 117 117
108 108 108
166 166 166
183 183 183
183 183 183
183 183 183
184 184 184
184 184 184
183 183 183
182 182 182
183 183 183
183 183 183
181 181 181
181 181 181
180 180 180
140 140 140
124 124 124
130 130 130
154 154 154
178 178 178
177 177 177
175 175 175
133 133 133
111 111 111
120 120 120
120 120 120
119 119 119
118 118 118
116 116 116
114 114 114
114 114 114
112 112 112
111 111 111
106 106 106
96 96 96
84 84 84
68 68 68
48 48 48
38 38 38
40 40 40
46 46 46
46 46 46
46 46 46
45 45 45
46 46 46
76 76 76
138 138 138
169 169 169
168 168 168
147 147 147
172 172 172
201 201 201
199 199 199
201 201 201
199 199 199
199 199 199
200 200 200
200 200 200
200 200 200
200 200 200
200 200 200
197 197 197
199 199 199
199 199 199
199 199 199
198 198 198
197 197 197
195 195 195
193 193 193
193 193 193
191 191 191
179 179 179
125 125 125
120 120 120
118 118 118
198 198 198
199 199 199
200 200 200
200 200 200
197 197 197
195 195 195
186 186 186
122 122 122
145 145 145
131 131 131
81 81 81
90 90 90
64 64 64
30 30 30
38 38 38
37 37 37
50 50 50
54 54 54
52 52 52
46 46 46
27 27 27
24 24 24
26 26 26
28 28 28
28 28 28
28 28 28
28 28 28
28 28 28
28 28 28
27 27 27
27 27 27
24 24 24
24 24 24
23 23 23
25 25 25
26 26 26
25 25 25
24 24 24
25 25 25
24 24 24
21 21 21
18 18 18
17 17 17
19 19 19
24 24 24
24 24 24
22 22 22
24 24 24
25 25 25
24 24 24
23 23 23
21 21 21
19 19 19
18 18 18
18 18 18
18 18 18
17 17 17
16 16 16
16 16 16
20 20 20
17 17 17
17 17 17
18 18 18
19 19 19
17 17 17
17 17 17
94 94 94
99 99 99
102 102 102
107 107 107
107 107 107
111 111 111
114 114 114
116 116 116
116 116 116
115 115 115
115 115 115
112 112 112
107 107 107
98 98 98
103 103 103
107 107 107
106 106 106
100 100 100
92 92 92
84 84 84
84 84 84
86 86 86
83 83 83
86 86 86
87 87 87
87 87 87
89 89 89
94 94 94
110 110 110
114 114 114
182 182 182
183 183 183
183 183 183
183 183 183
184 184 184
184 184 184
184 184 184
184 184 184
184 184 184
182 182 182
182 182 182
182 182 182
181 181 181
178 178 178
129 129 129
128 128 128
131 131 131
164 164 164
179 179 179
179 179 179
180 180 180
151 151 151
109 109 109
119 119 119
118 118 118
117 117 117
115 115 115
116 116 116
116 116 116
114 114 114
112 112 112
112 112 112
113 113 113
110 110 110
110 110 110
109 109 109
104 104 104
81 81 81
45 45 45
43 43 43
41 41 41
42 42 42
43 43 43
60 60 60
98 98 98
133 133 133
167 167 167
167 167 167
155 155 155
167 167 167
199 199 199
202 202 202
198 198 198
199 199 199
200 200 200
200 200 200
200 200 200
200 200 200
201 201 201
200 200 200
199 199 199
197 197 197
198 198 198
197 197 197
194 194 194
194 194 194
193 193 193
191 191 191
188 188 188
147 147 147
122 122 122
108 108 108
183 183 183
198 198 198
200 200 200
200 200 200
200 200 200
198 198 198
196 196 196
193 193 193
115 115 115
144 144 144
145 145 145
95 95 95
92 92 92
78 78 78
25 25 25
32 32 32
37 37 37
41 41 41
52 52 52
52 52 52
66 66 66
33 33 33
24 24 24
25 25 25
27 27 27
28 28 28
28 28 28
27 27 27
28 28 28
28 28 28
26 26 26
26 26 26
23 23 23
23 23 23
24 24 24
25 25 25
24 24 24
24 24 24
24 24 24
22 22 22
20 20 20
18 18 18
19 19 19
21 21 21
22 22 22
26 26 26
27 27 27
26 26 26
26 26 26
25 25 25
22 22 22
20 20 20
19 19 19
19 19 19
18 18 18
18 18 18
18 18 18
18 18 18
15 15 15
15 15 15
19 19 19
17 17 17
18 18 18
18 18 18
18 18 18
17 17 17
16 16 16
94 94 94
96 96 96
102 102 102
104 104 104
104 104 104
106 106 106
115 115 115
120 120 120
119 119 119
121 121 121
121 121 121
117 117 117
111 111 111
107 107 107
103 103 103
95 95 95
98 98 98
94 94 94
87 87 87
86 86 86
92 92 92
100 100 100
97 97 97
95 95 95
97 97 97
103 103 103
103 103 103
98 98 98
99 99 99
148 148 148
182 182 182
184 184 184
183 183 183
183 183 183
184 184 184
183 183 183
183 183 183
183 183 183
183 183 183
183 183 183
182 182 182
182 182 182
181 181 181
181 181 181
175 175 175
122 122 122
129 129 129
135 135 135
173 173 173
179 179 179
178 178 178
177 177 177
170 170 170
122 122 122
113 113 113
118 118 118
117 117 117
118 118 118
118 118 118
116 116 116
114 114 114
113 113 113
112 112 112
113 113 113
111 111 111
111 111 111
110 110 110
110 110 110
91 91 91
48 48 48
44 44 44
42 42 42
42 42 42
44 44 44
95 95 95
99 99 99
130 130 130
168 168 168
171 171 171
159 159 159
163 163 163
199 199 199
199 199 199
199 199 199
200 200 200
200 200 200
199 199 199
199 199 199
200 200 200
198 198 198
199 199 199
198 198 198
198 198 198
196 196 196
194 194 194
195 195 195
193 193 193
190 190 190
166 166 166
124 124 124
117 117 117
156 156 156
198 198 198
199 199 199
199 199 199
200 200 200
200 200 200
197 197 197
195 195 195
192 192 192
142 142 142
126 126 126
143 143 143
128 128 128
82 82 82
85 85 85
34 34 34
27 27 27
37 37 37
37 37 37
48 48 48
51 51 51
62 62 62
67 67 67
24 24 24
25 25 25
27 27 27
26 26 26
24 24 24
25 25 25
27 27 27
27 27 27
25 25 25
25 25 25
24 24 24
24 24 24
25 25 25
24 24 24
24 24 24
24 24 24
23 23 23
20 20 20
18 18 18
18 18 18
20 20 20
21 21 21
21 21 21
24 24 24
26 26 26
24 24 24
24 24 24
24 24 24
21 21 21
19 19 19
19 19 19
20 20 20
18 18 18
18 18 18
18 18 18
17 17 17
14 14 14
14 14 14
18 18 18
17 17 17
17 17 17
18 18 18
18 18 18
16 16 16
17 17 17
96 96 96
91 91 91
99 99 99
105 105 105
105 105 105
102 102 102
106 106 106
110 110 110
111 111 111
109 109 109
114 114 114
118 118 118
118 118 118
112 112 112
99 99 99
87 87 87
92 92 92
96 96 96
100 100 100
103 103 103
104 104 104
107 107 107
111 111 111
110 110 110
113 113 113
118 118 118
119 119 119
111 111 111
94 94 94
173 173 173
183 183 183
186 186 186
183 183 183
183 183 183
184 184 184
183 183 183
183 183 183
183 183 183
183 183 183
183 183 183
183 183 183
181 181 181
181 181 181
182 182 182
182 182 182
174 174 174
120 120 120
131 131 131
143 143 143
177 177 177
179 179 179
178 178 178
177 177 177
176 176 176
145 145 145
109 109 109
116 116 116
119 119 119
118 118 118
118 118 118
116 116 116
115 115 115
114 114 114
113 113 113
113 113 113
112 112 112
112 112 112
112 112 112
108 108 108
96 96 96
52 52 52
42 42 42
43 43 43
46 46 46
67 67 67
107 107 107
104 104 104
125 125 125
168 168 168
169 169 169
162 162 162
152 152 152
197 197 197
199 199 199
199 199 199
199 199 199
199 199 199
199 199 199
199 199 199
198 198 198
199 199 199
198 198 198
197 197 197
193 193 193
193 193 193
193 193 193
191 191 191
181 181 181
128 128 128
119 119 119
137 137 137
199 199 199
198 198 198
199 199 199
199 199 199
200 200 200
200 200 200
198 198 198
198 198 198
195 195 195
159 159 159
144 144 144
146 146 146
142 142 142
95 95 95
89 89 89
48 48 48
23 23 23
36 36 36
38 38 38
42 42 42
52 52 52
54 54 54
82 82 82
37 37 37
26 26 26
26 26 26
25 25 25
24 24 24
24 24 24
25 25 25
25 25 25
25 25 25
25 25 25
24 24 24
24 24 24
23 23 23
23 23 23
22 22 22
21 21 21
19 19 19
18 18 18
19 19 19
21 21 21
22 22 22
23 23 23
23 23 23
25 25 25
26 26 26
24 24 24
24 24 24
22 22 22
19 19 19
18 18 18
19 19 19
20 20 20
18 18 18
19 19 19
17 17 17
16 16 16
12 12 12
13 13 13
19 19 19
18 18 18
17 17 17
18 18 18
18 18 18
17 17 17
16 16 16
102 102 102
94 94 94
100 100 100
103 103 103
99 99 99
97 97 97
100 100 100
109 109 109
113 113 113
111 111 111
109 109 109
112 112 112
114 114 114
110 110 110
107 107 107
103 103 103
104 104 104
105 105 105
113 113 113
116 116 116
114 114 114
113 113 113
114 114 114
115 115 115
116 116 116
119 119 119
119 119 119
113 113 113
116 116 116
183 183 183
183 183 183
184 184 184
182 182 182
184 184 184
184 184 184
183 183 183
184 184 184
184 184 184
184 184 184
183 183 183
182 182 182
183 183 183
183 183 183
183 183 183
182 182 182
181 181 181
168 168 168
117 117 117
129 129 129
151 151 151
179 179 179
180 180 180
180 180 180
180 180 180
178 178 178
167 167 167
116 116 116
115 115 115
117 117 117
116 116 116
116 116 116
116 116 116
116 116 116
115 115 115
115 115 115
113 113 113
111 111 111
111 111 111
111 111 111
110 110 110
102 102 102
61 61 61
43 43 43
51 51 51
92 92 92
91 91 91
97 97 97
104 104 104
126 126 126
167 167 167
169 169 169
165 165 165
148 148 148
194 194 194
200 200 200
200 200 200
200 200 200
198 198 198
197 197 197
198 198 198
197 197 197
198 198 198
196 196 196
192 192 192
193 193 193
191 191 191
187 187 187
142 142 142
122 122 122
123 123 123
197 197 197
201 201 201
201 201 201
200 200 200
199 199 199
200 200 200
200 200 200
200 200 200
199 199 199
195 195 195
166 166 166
176 176 176
130 130 130
141 141 141
123 123 123
84 84 84
60 60 60
22 22 22
34 34 34
40 40 40
39 39 39
53 53 53
52 52 52
71 71 71
72 72 72
51 51 51
31 31 31
26 26 26
25 25 25
26 26 26
25 25 25
24 24 24
24 24 24
25 25 25
24 24 24
23 23 23
23 23 23
21 21 21
19 19 19
19 19 19
18 18 18
19 19 19
21 21 21
21 21 21
23 23 23
24 24 24
25 25 25
24 24 24
24 24 24
23 23 23
23 23 23
21 21 21
20 20 20
20 20 20
19 19 19
19 19 19
20 20 20
20 20 20
20 20 20
17 17 17
12 12 12
12 12 12
15 15 15
17 17 17
17 17 17
18 18 18
18 18 18
19 19 19
18 18 18
97 97 97
96 96 96
97 97 97
96 96 96
96 96 96
98 98 98
102 102 102
104 104 104
107 107 107
106 106 106
105 105 105
106 106 106
107 107 107
106 106 106
109 109 109
107 107 107
102 102 102
100 100 100
104 104 104
106 106 106
109 109 109
112 112 112
112 112 112
114 114 114
117 117 117
121 121 121
122 122 122
117 117 117
147 147 147
183 183 183
184 184 184
183 183 183
184 184 184
184 184 184
184 184 184
182 182 182
183 183 183
183 183 183
184 184 184
184 184 184
183 183 183
183 183 183
183 183 183
183 183 183
182 182 182
181 181 181
179 179 179
166 166 166
117 117 117
131 131 131
161 161 161
180 180 180
180 180 180
181 181 181
179 179 179
179 179 179
176 176 176
128 128 128
109 109 109
117 117 117
116 116 116
115 115 115
115 115 115
116 116 116
116 116 116
114 114 114
115 115 115
113 113 113
112 112 112
111 111 111
109 109 109
107 107 107
66 66 66
97 97 97
135 135 135
111 111 111
85 85 85
104 104 104
105 105 105
123 123 123
165 165 165
166 166 166
166 166 166
143 143 143
188 188 188
197 197 197
198 198 198
196 196 196
196 196 196
197 197 197
196 196 196
197 197 197
195 195 195
193 193 193
190 190 190
183 183 183
142 142 142
125 125 125
121 121 121
189 189 189
199 199 199
204 204 204
204 204 204
200 200 200
200 200 200
200 200 200
200 200 200
200 200 200
199 199 199
196 196 196
161 161 161
191 191 191
128 128 128
145 145 145
142 142 142
81 81 81
68 68 68
22 22 22
31 31 31
39 39 39
37 37 37
52 52 52
52 52 52
57 57 57
88 88 88
81 81 81
92 92 92
69 69 69
43 43 43
25 25 25
25 25 25
25 25 25
24 24 24
23 23 23
24 24 24
22 22 22
21 21 21
19 19 19
19 19 19
22 22 22
23 23 23
23 23 23
22 22 22
20 20 20
22 22 22
24 24 24
25 25 25
23 23 23
23 23 23
21 21 21
21 21 21
20 20 20
19 19 19
19 19 19
19 19 19
18 18 18
19 19 19
18 18 18
18 18 18
15 15 15
12 12 12
12 12 12
15 15 15
17 17 17
18 18 18
18 18 18
18 18 18
19 19 19
19 19 19
92 92 92
91 91 91
94 94 94
95 95 95
95 95 95
95 95 95
94 94 94
95 95 95
101 101 101
103 103 103
103 103 103
103 103 103
105 105 105
105 105 105
111 111 111
114 114 114
108 108 108
106 106 106
104 104 104
104 104 104
105 105 105
108 108 108
109 109 109
108 108 108
108 108 108
113 113 113
120 120 120
113 113 113
173 173 173
184 184 184
185 185 185
185 185 185
185 185 185
184 184 184
184 184 184
182 182 182
183 183 183
185 185 185
186 186 186
185 185 185
183 183 183
183 183 183
182 182 182
182 182 182
182 182 182
182 182 182
182 182 182
181 181 181
166 166 166
118 118 118
131 131 131
172 172 172
180 180 180
181 181 181
181 181 181
180 180 180
180 180 180
178 178 178
146 146 146
107 107 107
116 116 116
117 117 117
115 115 115
116 116 116
116 116 116
115 115 115
115 115 115
113 113 113
112 112 112
111 111 111
110 110 110
110 110 110
81 81 81
124 124 124
169 169 169
120 120 120
86 86 86
98 98 98
112 112 112
106 106 106
125 125 125
166 166 166
164 164 164
166 166 166
138 138 138
183 183 183
194 194 194
194 194 194
193 193 193
193 193 193
192 192 192
190 190 190
181 181 181
168 168 168
149 149 149
126 126 126
123 123 123
119 119 119
191 191 191
200 200 200
201 201 201
203 203 203
205 205 205
203 203 203
200 200 200
201 201 201
200 200 200
198 198 198
199 199 199
195 195 195
157 157 157
191 191 191
158 158 158
138 138 138
141 141 141
117 117 117
59 59 59
23 23 23
32 32 32
37 37 37
40 40 40
52 52 52
51 51 51
49 49 49
88 88 88
79 79 79
94 94 94
101 101 101
101 101 101
84 84 84
52 52 52
26 26 26
24 24 24
22 22 22
21 21 21
20 20 20
18 18 18
20 20 20
23 23 23
24 24 24
23 23 23
23 23 23
19 19 19
17 17 17
20 20 20
23 23 23
24 24 24
20 20 20
19 19 19
20 20 20
21 21 21
20 20 20
19 19 19
19 19 19
19 19 19
18 18 18
18 18 18
18 18 18
17 17 17
14 14 14
13 13 13
14 14 14
18 18 18
20 20 20
19 19 19
19 19 19
19 19 19
19 19 19
19 19 19
86 86 86
88 88 88
93 93 93
94 94 94
95 95 95
97 97 97
96 96 96
94 94 94
99 99 99
103 103 103
103 103 103
104 104 104
105 105 105
108 108 108
112 112 112
116 116 116
114 114 114
113 113 113
110 110 110
109 109 109
109 109 109
111 111 111
110 110 110
109 109 109
107 107 107
113 113 113
122 122 122
117 117 117
180 180 180
183 183 183
185 185 185
184 184 184
184 184 184
184 184 184
184 184 184
182 182 182
183 183 183
184 184 184
183 183 183
183 183 183
183 183 183
183 183 183
182 182 182
182 182 182
183 183 183
183 183 183
182 182 182
183 183 183
182 182 182
165 165 165
119 119 119
143 143 143
178 178 178
182 182 182
182 182 182
181 181 181
181 181 181
180 180 180
179 179 179
155 155 155
106 106 106
118 118 118
116 116 116
115 115 115
115 115 115
114 114 114
114 114 114
114 114 114
113 113 113
112 112 112
112 112 112
111 111 111
78 78 78
94 94 94
99 99 99
82 82 82
71 71 71
97 97 97
108 108 108
111 111 111
107 107 107
123 123 123
162 162 162
162 162 162
165 165 165
134 134 134
146 146 146
156 156 156
154 154 154
145 145 145
138 138 138
129 129 129
123 123 123
124 124 124
124 124 124
124 124 124
121 121 121
188 188 188
200 200 200
205 205 205
204 204 204
203 203 203
205 205 205
203 203 203
199 199 199
201 201 201
201 201 201
197 197 197
196 196 196
192 192 192
151 151 151
191 191 191
184 184 184
124 124 124
142 142 142
140 140 140
67 67 67
23 23 23
35 35 35
43 43 43
51 51 51
52 52 52
51 51 51
49 49 49
79 79 79
93 93 93
83 83 83
102 102 102
103 103 103
104 104 104
104 104 104
96 96 96
24 24 24
21 21 21
19 19 19
18 18 18
20 20 20
22 22 22
23 23 23
24 24 24
23 23 23
23 23 23
19 19 19
18 18 18
19 19 19
21 21 21
22 22 22
21 21 21
19 19 19
19 19 19
20 20 20
20 20 20
20 20 20
19 19 19
19 19 19
18 18 18
17 17 17
17 17 17
15 15 15
13 13 13
17 17 17
21 21 21
21 21 21
18 18 18
18 18 18
18 18 18
19 19 19
19 19 19
19 19 19
92 92 92
96 96 96
101 101 101
100 100 100
97 97 97
101 101 101
103 103 103
100 100 100
102 102 102
103 103 103
101 101 101
102 102 102
107 107 107
109 109 109
112 112 112
112 112 112
111 111 111
110 110 110
110 110 110
112 112 112
111 111 111
111 111 111
112 112 112
111 111 111
109 109 109
117 117 117
126 126 126
138 138 138
182 182 182
182 182 182
184 184 184
185 185 185
184 184 184
183 183 183
182 182 182
183 183 183
184 184 184
184 184 184
183 183 183
183 183 183
184 184 184
183 183 183
184 184 184
182 182 182
182 182 182
183 183 183
183 183 183
183 183 183
182 182 182
182 182 182
168 168 168
117 117 117
152 152 152
180 180 180
182 182 182
181 181 181
181 181 181
180 180 180
179 179 179
178 178 178
162 162 162
109 109 109
117 117 117
117 117 117
115 115 115
115 115 115
116 116 116
115 115 115
114 114 114
114 114 114
112 112 112
110 110 110
86 86 86
71 71 71
52 52 52
47 47 47
42 42 42
84 84 84
108 108 108
111 111 111
111 111 111
104 104 104
123 123 123
162 162 162
160 160 160
163 163 163
134 134 134
110 110 110
124 124 124
123 123 123
124 124 124
123 123 123
122 122 122
124 124 124
123 123 123
120 120 120
191 191 191
199 199 199
203 203 203
206 206 206
206 206 206
205 205 205
203 203 203
201 201 201
199 199 199
201 201 201
199 199 199
196 196 196
172 172 172
155 155 155
146 146 146
192 192 192
189 189 189
141 141 141
144 144 144
140 140 140
105 105 105
44 44 44
67 67 67
84 84 84
58 58 58
52 52 52
52 52 52
51 51 51
66 66 66
93 93 93
83 83 83
93 93 93
102 102 102
105 105 105
105 105 105
135 135 135
76 76 76
20 20 20
20 20 20
21 21 21
24 24 24
24 24 24
25 25 25
23 23 23
23 23 23
23 23 23
20 20 20
19 19 19
18 18 18
19 19 19
19 19 19
20 20 20
20 20 20
18 18 18
20 20 20
20 20 20
20 20 20
19 19 19
20 20 20
18 18 18
17 17 17
17 17 17
16 16 16
19 19 19
22 22 22
21 21 21
18 18 18
18 18 18
18 18 18
18 18 18
18 18 18
18 18 18
18 18 18
95 95 95
99 99 99
106 106 106
107 107 107
106 106 106
105 105 105
98 98 98
100 100 100
103 103 103
103 103 103
105 105 105
104 104 104
101 101 101
103 103 103
106 106 106
109 109 109
112 112 112
113 113 113
115 115 115
112 112 112
110 110 110
111 111 111
114 114 114
117 117 117
116 116 116
122 122 122
120 120 120
155 155 155
181 181 181
185 185 185
184 184 184
184 184 184
183 183 183
183 183 183
183 183 183
184 184 184
183 183 183
182 182 182
181 181 181
183 183 183
184 184 184
185 185 185
185 185 185
183 183 183
182 182 182
183 183 183
183 183 183
183 183 183
182 182 182
182 182 182
182 182 182
167 167 167
118 118 118
165 165 165
181 181 181
182 182 182
181 181 181
181 181 181
180 180 180
179 179 179
177 177 177
166 166 166
110 110 110
116 116 116
116 116 116
116 116 116
116 116 116
116 116 116
115 115 115
113 113 113
110 110 110
110 110 110
104 104 104
83 83 83
73 73 73
47 47 47
44 44 44
46 46 46
94 94 94
107 107 107
111 111 111
113 113 113
103 103 103
128 128 128
162 162 162
162 162 162
160 160 160
142 142 142
102 102 102
120 120 120
122 122 122
124 124 124
124 124 124
114 114 114
136 136 136
192 192 192
202 202 202
206 206 206
205 205 205
206 206 206
206 206 206
205 205 205
204 204 204
203 203 203
199 199 199
200 200 200
198 198 198
195 195 195
154 154 154
139 139 139
151 151 151
192 192 192
191 191 191
168 168 168
135 135 135
141 141 141
129 129 129
86 86 86
90 90 90
91 91 91
59 59 59
54 54 54
52 52 52
52 52 52
54 54 54
93 93 93
95 95 95
80 80 80
102 102 102
104 104 104
103 103 103
122 122 122
129 129 129
28 28 28
23 23 23
24 24 24
23 23 23
24 24 24
23 23 23
22 22 22
23 23 23
24 24 24
19 19 19
17 17 17
18 18 18
19 19 19
20 20 20
19 19 19
19 19 19
18 18 18
20 20 20
20 20 20
19 19 19
18 18 18
18 18 18
17 17 17
16 16 16
14 14 14
20 20 20
21 21 21
19 19 19
19 19 19
18 18 18
18 18 18
18 18 18
18 18 18
18 18 18
18 18 18
18 18 18
106 106 106
105 105 105
103 103 103
101 101 101
102 102 102
100 100 100
95 95 95
94 94 94
93 93 93
92 92 92
99 99 99
102 102 102
100 100 100
100 100 100
104 104 104
109 109 109
110 110 110
112 112 112
113 113 113
109 109 109
106 106 106
106 106 106
108 108 108
113 113 113
118 118 118
117 117 117
106 106 106
174 174 174
182 182 182
185 185 185
185 185 185
185 185 185
185 185 185
183 183 183
182 182 182
182 182 182
182 182 182
182 182 182
182 182 182
183 183 183
183 183 183
183 183 183
183 183 183
183 183 183
183 183 183
183 183 183
183 183 183
182 182 182
183 183 183
183 183 183
182 182 182
181 181 181
171 171 171
124 124 124
175 175 175
183 183 183
182 182 182
182 182 182
181 181 181
179 179 179
179 179 179
176 176 176
169 169 169
113 113 113
115 115 115
116 116 116
116 116 116
116 116 116
115 115 115
114 114 114
110 110 110
110 110 110
110 110 110
108 108 108
105 105 105
53 53 53
40 40 40
42 42 42
56 56 56
104 104 104
107 107 107
111 111 111
109 109 109
101 101 101
131 131 131
165 165 165
156 156 156
158 158 158
150 150 150
103 103 103
118 118 118
111 111 111
116 116 116
172 172 172
203 203 203
204 204 204
205 205 205
205 205 205
204 204 204
205 205 205
205 205 205
204 204 204
203 203 203
203 203 203
200 200 200
200 200 200
199 199 199
194 194 194
172 172 172
129 129 129
139 139 139
190 190 190
192 192 192
186 186 186
127 127 127
144 144 144
141 141 141
113 113 113
87 87 87
88 88 88
60 60 60
53 53 53
52 52 52
52 52 52
49 49 49
87 87 87
93 93 93
88 88 88
92 92 92
104 104 104
104 104 104
107 107 107
148 148 148
82 82 82
24 24 24
21 21 21
22 22 22
23 23 23
22 22 22
20 20 20
22 22 22
24 24 24
18 18 18
16 16 16
19 19 19
19 19 19
19 19 19
19 19 19
19 19 19
18 18 18
20 20 20
19 19 19
18 18 18
18 18 18
17 17 17
17 17 17
16 16 16
16 16 16
19 19 19
19 19 19
18 18 18
19 19 19
19 19 19
18 18 18
18 18 18
18 18 18
18 18 18
17 17 17
18 18 18
114 114 114
106 106 106
99 99 99
102 102 102
98 98 98
103 103 103
103 103 103
97 97 97
89 89 89
84 84 84
91 91 91
97 97 97
99 99 99
104 104 104
110 110 110
114 114 114
113 113 113
114 114 114
112 112 112
109 109 109
107 107 107
109 109 109
109 109 109
109 109 109
114 114 114
114 114 114
110 110 110
180 180 180
182 182 182
184 184 184
185 185 185
185 185 185
185 185 185
183 183 183
182 182 182
182 182 182
182 182 182
183 183 183
183 183 183
183 183 183
183 183 183
183 183 183
183 183 183
183 183 183
182 182 182
182 182 182
182 182 182
182 182 182
182 182 182
182 182 182
182 182 182
182 182 182
182 182 182
178 178 178
143 143 143
181 181 181
183 183 183
182 182 182
181 181 181
181 181 181
179 179 179
178 178 178
178 178 178
173 173 173
118 118 118
112 112 112
117 117 117
115 115 115
114 114 114
114 114 114
112 112 112
111 111 111
111 111 111
110 110 110
106 106 106
58 58 58
31 31 31
40 40 40
40 40 40
87 87 87
106 106 106
109 109 109
107 107 107
107 107 107
101 101 101
133 133 133
159 159 159
156 156 156
156 156 156
156 156 156
108 108 108
165 165 165
199 199 199
205 205 205
205 205 205
204 204 204
206 206 206
207 207 207
205 205 205
204 204 204
204 204 204
203 203 203
202 202 202
200 200 200
200 200 200
200 200 200
199 199 199
197 197 197
190 190 190
122 122 122
131 131 131
179 179 179
190 190 190
191 191 191
140 140 140
144 144 144
142 142 142
136 136 136
81 81 81
91 91 91
60 60 60
53 53 53
52 52 52
53 53 53
50 50 50
80 80 80
94 94 94
94 94 94
79 79 79
102 102 102
104 104 104
103 103 103
136 136 136
130 130 130
27 27 27
21 21 21
22 22 22
22 22 22
19 19 19
19 19 19
21 21 21
21 21 21
18 18 18
18 18 18
20 20 20
19 19 19
19 19 19
19 19 19
20 20 20
20 20 20
20 20 20
19 19 19
18 18 18
18 18 18
18 18 18
18 18 18
17 17 17
17 17 17
19 19 19
18 18 18
18 18 18
19 19 19
19 19 19
18 18 18
18 18 18
17 17 17
17 17 17
17 17 17
17 17 17
114 114 114
102 102 102
98 98 98
99 99 99
97 97 97
97 97 97
100 100 100
99 99 99
99 99 99
93 93 93
91 91 91
92 92 92
97 97 97
100 100 100
105 105 105
110 110 110
111 111 111
109 109 109
111 111 111
109 109 109
108 108 108
107 107 107
107 107 107
113 113 113
117 117 117
119 119 119
125 125 125
184 184 184
182 182 182
184 184 184
184 184 184
185 185 185
185 185 185
184 184 184
183 183 183
183 183 183
183 183 183
183 183 183
183 183 183
183 183 183
183 183 183
183 183 183
183 183 183
183 183 183
182 182 182
182 182 182
182 182 182
182 182 182
182 182 182
182 182 182
182 182 182
182 182 182
182 182 182
182 182 182
182 182 182
182 182 182
183 183 183
182 182 182
181 181 181
183 183 183
180 180 180
179 179 179
178 178 178
177 177 177
174 174 174
123 123 123
113 113 113
116 116 116
116 116 116
116 116 116
113 113 113
112 112 112
111 111 111
110 110 110
106 106 106
69 69 69
26 26 26
36 36 36
41 41 41
62 62 62
105 105 105
107 107 107
109 109 109
108 108 108
111 111 111
95 95 95
139 139 139
158 158 158
158 158 158
159 159 159
160 160 160
134 134 134
195 195 195
206 206 206
207 207 207
206 206 206
206 206 206
207 207 207
206 206 206
205 205 205
203 203 203
202 202 202
201 201 201
199 199 199
199 199 199
198 198 198
200 200 200
197 197 197
195 195 195
124 124 124
140 140 140
159 159 159
192 192 192
188 188 188
166 166 166
135 135 135
142 142 142
143 143 143
93 93 93
92 92 92
61 61 61
52 52 52
53 53 53
54 54 54
53 53 53
70 70 70
94 94 94
92 92 92
88 88 88
87 87 87
102 102 102
106 106 106
111 111 111
147 147 147
62 62 62
22 22 22
22 22 22
21 21 21
21 21 21
19 19 19
21 21 21
18 18 18
19 19 19
19 19 19
19 19 19
18 18 18
18 18 18
20 20 20
21 21 21
20 20 20
20 20 20
18 18 18
16 16 16
19 19 19
19 19 19
18 18 18
17 17 17
17 17 17
20 20 20
19 19 19
17 17 17
17 17 17
16 16 16
17 17 17
17 17 17
16 16 16
16 16 16
15 15 15
12 12 12
117 117 117
110 110 110
108 108 108
108 108 108
103 103 103
96 96 96
98 98 98
98 98 98
104 104 104
103 103 103
99 99 99
99 99 99
97 97 97
96 96 96
101 101 101
105 105 105
102 102 102
107 107 107
107 107 107
106 106 106
107 107 107
104 104 104
107 107 107
112 112 112
118 118 118
121 121 121
136 136 136
182 182 182
182 182 182
183 183 183
183 183 183
183 183 183
184 184 184
184 184 184
183 183 183
183 183 183
183 183 183
183 183 183
183 183 183
183 183 183
183 183 183
183 183 183
183 183 183
183 183 183
182 182 182
182 182 182
182 182 182
182 182 182
182 182 182
182 182 182
182 182 182
182 182 182
183 183 183
183 183 183
183 183 183
183 183 183
183 183 183
183 183 183
181 181 181
182 182 182
181 181 181
180 180 180
179 179 179
178 178 178
177 177 177
175 175 175
124 124 124
110 110 110
113 113 113
115 115 115
114 114 114
114 114 114
112 112 112
110 110 110
107 107 107
80 80 80
27 27 27
30 30 30
40 40 40
47 47 47
102 102 102
108 108 108
109 109 109
110 110 110
110 110 110
109 109 109
92 92 92
143 143 143
157 157 157
157 157 157
158 158 158
159 159 159
136 136 136
199 199 199
207 207 207
207 207 207
206 206 206
206 206 206
205 205 205
205 205 205
202 202 202
202 202 202
201 201 201
199 199 199
199 199 199
198 198 198
197 197 197
196 196 196
165 165 165
151 151 151
139 139 139
142 142 142
186 186 186
190 190 190
185 185 185
122 122 122
144 144 144
139 139 139
116 116 116
85 85 85
62 62 62
52 52 52
53 53 53
53 53 53
52 52 52
59 59 59
93 93 93
95 95 95
95 95 95
81 81 81
101 101 101
103 103 103
99 99 99
154 154 154
111 111 111
21 21 21
21 21 21
21 21 21
20 20 20
21 21 21
21 21 21
19 19 19
19 19 19
18 18 18
17 17 17
18 18 18
18 18 18
17 17 17
17 17 17
17 17 17
17 17 17
16 16 16
17 17 17
18 18 18
18 18 18
17 17 17
18 18 18
17 17 17
17 17 17
17 17 17
17 17 17
17 17 17
17 17 17
17 17 17
17 17 17
15 15 15
14 14 14
14 14 14
12 12 12
121 121 121
114 114 114
113 113 113
115 115 115
114 114 114
105 105 105
99 99 99
100 100 100
105 105 105
103 103 103
98 98 98
98 98 98
101 101 101
102 102 102
110 110 110
109 109 109
98 98 98
104 104 104
110 110 110
111 111 111
108 108 108
105 105 105
110 110 110
111 111 111
112 112 112
113 113 113
149 149 149
182 182 182
181 181 181
182 182 182
182 182 182
182 182 182
182 182 182
183 183 183
182 182 182
182 182 182
183 183 183
183 183 183
183 183 183
182 182 182
182 182 182
183 183 183
183 183 183
183 183 183
182 182 182
182 182 182
182 182 182
182 182 182
182 182 182
183 183 183
182 182 182
183 183 183
183 183 183
183 183 183
182 182 182
183 183 183
183 183 183
183 183 183
182 182 182
182 182 182
182 182 182
181 181 181
180 180 180
179 179 179
178 178 178
177 177 177
175 175 175
129 129 129
111 111 111
115 115 115
114 114 114
116 116 116
114 114 114
109 109 109
109 109 109
95 95 95
32 32 32
26 26 26
39 39 39
43 43 43
93 93 93
107 107 107
108 108 108
109 109 109
109 109 109
109 109 109
106 106 106
95 95 95
144 144 144
159 159 159
159 159 159
160 160 160
158 158 158
151 151 151
203 203 203
205 205 205
206 206 206
206 206 206
206 206 206
205 205 205
202 202 202
200 200 200
199 199 199
199 199 199
198 198 198
198 198 198
197 197 197
169 169 169
174 174 174
182 182 182
139 139 139
137 137 137
174 174 174
190 190 190
189 189 189
133 133 133
145 145 145
140 140 140
138 138 138
76 76 76
63 63 63
52 52 52
53 53 53
53 53 53
52 52 52
49 49 49
89 89 89
95 95 95
95 95 95
88 88 88
82 82 82
101 101 101
91 91 91
152 152 152
137 137 137
30 30 30
20 20 20
20 20 20
21 21 21
20 20 20
19 19 19
19 19 19
19 19 19
19 19 19
19 19 19
18 18 18
19 19 19
18 18 18
16 16 16
17 17 17
18 18 18
15 15 15
19 19 19
19 19 19
19 19 19
19 19 19
17 17 17
15 15 15
17 17 17
17 17 17
18 18 18
18 18 18
17 17 17
17 17 17
16 16 16
13 13 13
12 12 12
12 12 12
12 12 12
114 114 114
110 110 110
115 115 115
124 124 124
124 124 124
111 111 111
101 101 101
101 101 101
103 103 103
104 104 104
104 104 104
104 104 104
106 106 106
109 109 109
110 110 110
108 108 108
102 102 102
105 105 105
110 110 110
108 108 108
102 102 102
104 104 104
115 115 115
116 116 116
116 116 116
114 114 114
156 156 156
182 182 182
184 184 184
183 183 183
182 182 182
182 182 182
183 183 183
183 183 183
183 183 183
182 182 182
181 181 181
183 183 183
183 183 183
182 182 182
183 183 183
183 183 183
183 183 183
183 183 183
183 183 183
181 181 181
181 181 181
182 182 182
181 181 181
181 181 181
181 181 181
182 182 182
182 182 182
183 183 183
183 183 183
183 183 183
183 183 183
183 183 183
182 182 182
182 182 182
183 183 183
182 182 182
182 182 182
181 181 181
180 180 180
178 178 178
178 178 178
176 176 176
133 133 133
108 108 108
115 115 115
116 116 116
115 115 115
112 112 112
110 110 110
105 105 105
47 47 47
26 26 26
32 32 32
45 45 45
87 87 87
106 106 106
109 109 109
110 110 110
109 109 109
109 109 109
108 108 108
107 107 107
96 96 96
150 150 150
158 158 158
158 158 158
158 158 158
152 152 152
172 172 172
204 204 204
205 205 205
205 205 205
206 206 206
204 204 204
202 202 202
202 202 202
201 201 201
199 199 199
198 198 198
198 198 198
165 165 165
177 177 177
194 194 194
188 188 188
139 139 139
134 134 134
154 154 154
190 190 190
189 189 189
151 151 151
141 141 141
140 140 140
139 139 139
101 101 101
63 63 63
53 53 53
54 54 54
53 53 53
52 52 52
48 48 48
83 83 83
95 95 95
94 94 94
93 93 93
81 81 81
97 97 97
92 92 92
143 143 143
151 151 151
71 71 71
20 20 20
20 20 20
20 20 20
19 19 19
18 18 18
18 18 18
18 18 18
19 19 19
20 20 20
20 20 20
18 18 18
16 16 16
15 15 15
17 17 17
17 17 17
17 17 17
18 18 18
18 18 18
20 20 20
19 19 19
18 18 18
18 18 18
18 18 18
18 18 18
17 17 17
17 17 17
17 17 17
14 14 14
13 13 13
12 12 12
12 12 12
12 12 12
12 12 12
102 102 102
105 105 105
112 112 112
120 120 120
118 118 118
115 115 115
105 105 105
97 97 97
95 95 95
97 97 97
102 102 102
106 106 106
105 105 105
104 104 104
105 105 105
106 106 106
107 107 107
114 114 114
111 111 111
105 105 105
99 99 99
105 105 105
114 114 114
119 119 119
122 122 122
116 116 116
158 158 158
182 182 182
184 184 184
182 182 182
182 182 182
182 182 182
183 183 183
182 182 182
183 183 183
183 183 183
182 182 182
182 182 182
182 182 182
183 183 183
183 183 183
183 183 183
183 183 183
183 183 183
181 181 181
180 180 180
180 180 180
181 181 181
180 180 180
180 180 180
180 180 180
181 181 181
183 183 183
183 183 183
183 183 183
181 181 181
182 182 182
182 182 182
181 181 181
182 182 182
181 181 181
181 181 181
181 181 181
181 181 181
181 181 181
180 180 180
178 178 178
178 178 178
177 177 177
134 134 134
108 108 108
114 114 114
114 114 114
113 113 113
110 110 110
106 106 106
80 80 80
27 27 27
27 27 27
42 42 42
82 82 82
107 107 107
109 109 109
110 110 110
109 109 109
109 109 109
108 108 108
107 107 107
107 107 107
95 95 95
152 152 152
157 157 157
159 159 159
161 161 161
139 139 139
186 186 186
202 202 202
205 205 205
205 205 205
204 204 204
202 202 202
201 201 201
201 201 201
198 198 198
199 199 199
158 158 158
183 183 183
195 195 195
195 195 195
191 191 191
143 143 143
136 136 136
136 136 136
184 184 184
189 189 189
177 177 177
125 125 125
140 140 140
140 140 140
126 126 126
51 51 51
53 53 53
53 53 53
53 53 53
53 53 53
51 51 51
74 74 74
95 95 95
94 94 94
94 94 94
92 92 92
80 80 80
97 97 97
132 132 132
151 151 151
115 115 115
22 22 22
20 20 20
20 20 20
20 20 20
19 19 19
20 20 20
20 20 20
19 19 19
18 18 18
17 17 17
17 17 17
16 16 16
18 18 18
18 18 18
17 17 17
18 18 18
20 20 20
15 15 15
16 16 16
17 17 17
18 18 18
18 18 18
18 18 18
18 18 18
16 16 16
16 16 16
17 17 17
13 13 13
11 11 11
12 12 12
12 12 12
12 12 12
12 12 12
97 97 97
99 99 99
108 108 108
117 117 117
116 116 116
115 115 115
103 103 103
97 97 97
94 94 94
98 98 98
104 104 104
113 113 113
109 109 109
109 109 109
110 110 110
107 107 107
106 106 106
111 111 111
113 113 113
111 111 111
108 108 108
110 110 110
117 117 117
116 116 116
119 119 119
119 119 119
163 163 163
182 182 182
182 182 182
182 182 182
182 182 182
183 183 183
182 182 182
182 182 182
182 182 182
182 182 182
182 182 182
182 182 182
182 182 182
183 183 183
183 183 183
183 183 183
183 183 183
182 182 182
180 180 180
179 179 179
179 179 179
181 181 181
181 181 181
181 181 181
181 181 181
182 182 182
183 183 183
183 183 183
183 183 183
181 181 181
181 181 181
160 160 160
164 164 164
180 180 180
180 180 180
180 180 180
180 180 180
181 181 181
181 181 181
180 180 180
177 177 177
177 177 177
178 178 178
174 174 174
136 136 136
107 107 107
115 115 115
114 114 114
111 111 111
108 108 108
102 102 102
49 49 49
27 27 27
39 39 39
81 81 81
108 108 108
109 109 109
109 109 109
109 109 109
109 109 109
109 109 109
109 109 109
109 109 109
105 105 105
98 98 98
155 155 155
159 159 159
158 158 158
162 162 162
137 137 137
196 196 196
203 203 203
203 203 203
203 203 203
204 204 204
201 201 201
199 199 199
194 194 194
157 157 157
191 191 191
198 198 198
197 197 197
196 196 196
191 191 191
144 144 144
135 135 135
134 134 134
170 170 170
188 188 188
186 186 186
129 129 129
143 143 143
140 140 140
138 138 138
69 69 69
52 52 52
54 54 54
54 54 54
54 54 54
52 52 52
62 62 62
94 94 94
95 95 95
95 95 95
95 95 95
82 82 82
90 90 90
118 118 118
151 151 151
143 143 143
39 39 39
20 20 20
20 20 20
20 20 20
20 20 20
20 20 20
19 19 19
18 18 18
14 14 14
12 12 12
17 17 17
18 18 18
19 19 19
19 19 19
18 18 18
18 18 18
18 18 18
19 19 19
19 19 19
17 17 17
17 17 17
16 16 16
17 17 17
16 16 16
16 16 16
16 16 16
14 14 14
11 11 11
10 10 10
11 11 11
12 12 12
12 12 12
13 13 13
92 92 92
93 93 93
96 96 96
98 98 98
97 97 97
90 90 90
89 89 89
93 93 93
95 95 95
97 97 97
103 103 103
107 107 107
109 109 109
107 107 107
104 104 104
99 99 99
95 95 95
99 99 99
99 99 99
99 99 99
98 98 98
100 100 100
106 106 106
104 104 104
103 103 103
103 103 103
169 169 169
179 179 179
179 179 179
180 180 180
181 181 181
182 182 182
183 183 183
159 159 159
182 182 182
182 182 182
182 182 182
181 181 181
181 181 181
182 182 182
182 182 182
183 183 183
183 183 183
182 182 182
181 181 181
181 181 181
179 179 179
182 182 182
183 183 183
183 183 183
183 183 183
183 183 183
183 183 183
183 183 183
183 183 183
181 181 181
181 181 181
180 180 180
163 163 163
148 148 148
177 177 177
180 180 180
180 180 180
180 180 180
181 181 181
180 180 180
179 179 179
177 177 177
177 177 177
177 177 177
176 176 176
142 142 142
106 106 106
114 114 114
112 112 112
110 110 110
107 107 107
90 90 90
30 30 30
33 33 33
89 89 89
108 108 108
109 109 109
109 109 109
108 108 108
108 108 108
109 109 109
108 108 108
108 108 108
110 110 110
106 106 106
104 104 104
156 156 156
156 156 156
156 156 156
156 156 156
148 148 148
199 199 199
201 201 201
204 204 204
204 204 204
201 201 201
188 188 188
157 157 157
196 196 196
200 200 200
199 199 199
198 198 198
196 196 196
193 193 193
149 149 149
136 136 136
135 135 135
155 155 155
190 190 190
187 187 187
152 152 152
136 136 136
140 140 140
138 138 138
90 90 90
51 51 51
53 53 53
53 53 53
53 53 53
53 53 53
55 55 55
91 91 91
94 94 94
95 95 95
94 94 94
92 92 92
78 78 78
84 84 84
139 139 139
151 151 151
91 91 91
21 21 21
20 20 20
20 20 20
20 20 20
19 19 19
18 18 18
16 16 16
12 12 12
14 14 14
20 20 20
18 18 18
18 18 18
19 19 19
18 18 18
17 17 17
17 17 17
19 19 19
18 18 18
16 16 16
16 16 16
16 16 16
16 16 16
16 16 16
14 14 14
13 13 13
11 11 11
10 10 10
10 10 10
10 10 10
10 10 10
12 12 12
13 13 13
88 88 88
88 88 88
90 90 90
91 91 91
94 94 94
91 91 91
91 91 91
90 90 90
92 92 92
92 92 92
94 94 94
97 97 97
99 99 99
99 99 99
97 97 97
90 90 90
91 91 91
91 91 91
89 89 89
84 84 84
82 82 82
86 86 86
96 96 96
103 103 103
101 101 101
92 92 92
170 170 170
180 180 180
179 179 179
181 181 181
180 180 180
182 182 182
178 178 178
149 149 149
181 181 181
182 182 182
182 182 182
183 183 183
183 183 183
183 183 183
182 182 182
183 183 183
183 183 183
183 183 183
183 183 183
183 183 183
183 183 183
183 183 183
183 183 183
183 183 183
184 184 184
183 183 183
181 181 181
182 182 182
181 181 181
181 181 181
181 181 181
180 180 180
181 181 181
172 172 172
142 142 142
167 167 167
177 177 177
181 181 181
180 180 180
180 180 180
181 181 181
179 179 179
178 178 178
177 177 177
175 175 175
176 176 176
139 139 139
105 105 105
116 116 116
112 112 112
110 110 110
92 92 92
91 91 91
54 54 54
86 86 86
108 108 108
109 109 109
109 109 109
110 110 110
109 109 109
108 108 108
108 108 108
107 107 107
107 107 107
106 106 106
100 100 100
116 116 116
157 157 157
157 157 157
158 158 158
148 148 148
177 177 177
201 201 201
202 202 202
200 200 200
177 177 177
166 166 166
199 199 199
200 200 200
201 201 201
202 202 202
199 199 199
197 197 197
192 192 192
152 152 152
136 136 136
135 135 135
144 144 144
189 189 189
188 188 188
176 176 176
125 125 125
140 140 140
137 137 137
94 94 94
51 51 51
53 53 53
52 52 52
52 52 52
53 53 53
50 50 50
91 91 91
93 93 93
94 94 94
95 95 95
93 93 93
83 83 83
68 68 68
111 111 111
150 150 150
130 130 130
25 25 25
20 20 20
20 20 20
18 18 18
19 19 19
17 17 17
18 18 18
16 16 16
17 17 17
20 20 20
19 19 19
20 20 20
19 19 19
18 18 18
17 17 17
18 18 18
19 19 19
19 19 19
19 19 19
18 18 18
18 18 18
17 17 17
16 16 16
12 12 12
12 12 12
12 12 12
11 11 11
11 11 11
11 11 11
10 10 10
9 9 9
11 11 11
92 92 92
90 90 90
87 87 87
90 90 90
98 98 98
98 98 98
95 95 95
92 92 92
89 89 89
87 87 87
87 87 87
95 95 95
94 94 94
93 93 93
95 95 95
91 91 91
91 91 91
93 93 93
83 83 83
75 75 75
76 76 76
81 81 81
93 93 93
99 99 99
99 99 99
91 91 91
174 174 174
180 180 180
180 180 180
181 181 181
180 180 180
181 181 181
165 165 165
165 165 165
181 181 181
182 182 182
182 182 182
183 183 183
183 183 183
183 183 183
183 183 183
183 183 183
183 183 183
183 183 183
183 183 183
183 183 183
183 183 183
183 183 183
182 182 182
183 183 183
183 183 183
182 182 182
181 181 181
181 181 181
181 181 181
181 181 181
181 181 181
180 180 180
180 180 180
179 179 179
178 178 178
147 147 147
154 154 154
180 180 180
179 179 179
180 180 180
180 180 180
180 180 180
178 178 178
177 177 177
177 177 177
178 178 178
174 174 174
139 139 139
104 104 104
113 113 113
112 112 112
91 91 91
146 146 146
132 132 132
106 106 106
96 96 96
109 109 109
109 109 109
110 110 110
110 110 110
108 108 108
108 108 108
109 109 109
108 108 108
108 108 108
108 108 108
98 98 98
126 126 126
156 156 156
153 153 153
159 159 159
135 135 135
194 194 194
200 200 200
164 164 164
179 179 179
201 201 201
200 200 200
200 200 200
201 201 201
201 201 201
198 198 198
197 197 197
193 193 193
152 152 152
136 136 136
136 136 136
135 135 135
182 182 182
189 189 189
188 188 188
121 121 121
143 143 143
135 135 135
91 91 91
61 61 61
49 49 49
53 53 53
53 53 53
53 53 53
49 49 49
85 85 85
93 93 93
94 94 94
96 96 96
94 94 94
92 92 92
70 70 70
101 101 101
132 132 132
148 148 148
66 66 66
22 22 22
18 18 18
16 16 16
18 18 18
20 20 20
20 20 20
17 17 17
17 17 17
19 19 19
19 19 19
19 19 19
18 18 18
17 17 17
18 18 18
18 18 18
18 18 18
19 19 19
19 19 19
17 17 17
17 17 17
16 16 16
13 13 13
12 12 12
12 12 12
10 10 10
10 10 10
11 11 11
11 11 11
12 12 12
11 11 11
10 10 10
100 100 100
96 96 96
94 94 94
95 95 95
96 96 96
100 100 100
100 100 100
94 94 94
90 90 90
84 84 84
84 84 84
93 93 93
100 100 100
99 99 99
95 95 95
94 94 94
95 95 95
94 94 94
83 83 83
78 78 78
77 77 77
74 74 74
76 76 76
81 81 81
85 85 85
84 84 84
177 177 177
181 181 181
181 181 181
180 180 180
179 179 179
182 182 182
149 149 149
178 178 178
181 181 181
181 181 181
182 182 182
182 182 182
182 182 182
182 182 182
183 183 183
183 183 183
183 183 183
183 183 183
183 183 183
183 183 183
183 183 183
182 182 182
182 182 182
182 182 182
182 182 182
181 181 181
181 181 181
181 181 181
180 180 180
181 181 181
181 181 181
181 181 181
181 181 181
180 180 180
180 180 180
179 179 179
162 162 162
146 146 146
174 174 174
179 179 179
179 179 179
179 179 179
177 177 177
177 177 177
177 177 177
178 178 178
176 176 176
174 174 174
142 142 142
105 105 105
112 112 112
92 92 92
140 140 140
128 128 128
102 102 102
87 87 87
109 109 109
109 109 109
109 109 109
109 109 109
108 108 108
109 109 109
109 109 109
109 109 109
108 108 108
107 107 107
105 105 105
92 92 92
143 143 143
154 154 154
155 155 155
157 157 157
142 142 142
151 151 151
190 190 190
200 200 200
200 200 200
201 201 201
201 201 201
201 201 201
201 201 201
199 199 199
197 197 197
193 193 193
153 153 153
135 135 135
134 134 134
133 133 133
173 173 173
188 188 188
186 186 186
132 132 132
134 134 134
134 134 134
87 87 87
73 73 73
46 46 46
53 53 53
52 52 52
54 54 54
50 50 50
78 78 78
93 93 93
94 94 94
95 95 95
95 95 95
92 92 92
79 79 79
99 99 99
113 113 113
149 149 149
113 113 113
21 21 21
18 18 18
17 17 17
18 18 18
19 19 19
20 20 20
18 18 18
18 18 18
18 18 18
16 16 16
16 16 16
17 17 17
17 17 17
18 18 18
17 17 17
17 17 17
18 18 18
18 18 18
16 16 16
15 15 15
13 13 13
10 10 10
11 11 11
12 12 12
9 9 9
10 10 10
10 10 10
11 11 11
11 11 11
13 13 13
13 13 13
104 104 104
99 99 99
94 94 94
93 93 93
95 95 95
95 95 95
102 102 102
96 96 96
92 92 92
90 90 90
92 92 92
95 95 95
105 105 105
107 107 107
97 97 97
95 95 95
96 96 96
97 97 97
94 94 94
86 86 86
80 80 80
81 81 81
83 83 83
87 87 87
90 90 90
90 90 90
178 178 178
181 181 181
180 180 180
180 180 180
180 180 180
183 183 183
142 142 142
182 182 182
181 181 181
182 182 182
182 182 182
183 183 183
183 183 183
183 183 183
183 183 183
183 183 183
183 183 183
183 183 183
182 182 182
183 183 183
183 183 183
183 183 183
181 181 181
181 181 181
182 182 182
180 180 180
180 180 180
181 181 181
181 181 181
181 181 181
181 181 181
181 181 181
181 181 181
181 181 181
181 181 181
178 178 178
177 177 177
170 170 170
141 141 141
172 172 172
177 177 177
176 176 176
177 177 177
178 178 178
177 177 177
177 177 177
177 177 177
176 176 176
173 173 173
143 143 143
104 104 104
104 104 104
95 95 95
100 100 100
64 64 64
94 94 94
109 109 109
109 109 109
108 108 108
108 108 108
108 108 108
109 109 109
109 109 109
109 109 109
107 107 107
106 106 106
107 107 107
106 106 106
96 96 96
152 152 152
156 156 156
155 155 155
141 141 141
174 174 174
199 199 199
200 200 200
199 199 199
201 201 201
201 201 201
201 201 201
200 200 200
198 198 198
196 196 196
193 193 193
154 154 154
134 134 134
132 132 132
132 132 132
160 160 160
189 189 189
189 189 189
141 141 141
113 113 113
132 132 132
84 84 84
82 82 82
47 47 47
53 53 53
53 53 53
53 53 53
51 51 51
70 70 70
91 91 91
95 95 95
95 95 95
95 95 95
92 92 92
82 82 82
95 95 95
100 100 100
141 141 141
141 141 141
36 36 36
21 21 21
18 18 18
19 19 19
20 20 20
20 20 20
19 19 19
16 16 16
17 17 17
17 17 17
17 17 17
18 18 18
18 18 18
18 18 18
18 18 18
17 17 17
16 16 16
16 16 16
14 14 14
11 11 11
10 10 10
9 9 9
11 11 11
12 12 12
10 10 10
10 10 10
11 11 11
10 10 10
11 11 11
12 12 12
13 13 13
96 96 96
93 93 93
94 94 94
94 94 94
94 94 94
96 96 96
100 100 100
95 95 95
96 96 96
96 96 96
95 95 95
94 94 94
95 95 95
97 97 97
98 98 98
100 100 100
102 102 102
104 104 104
103 103 103
88 88 88
76 76 76
86 86 86
95 95 95
97 97 97
91 91 91
94 94 94
179 179 179
180 180 180
180 180 180
181 181 181
182 182 182
179 179 179
145 145 145
182 182 182
183 183 183
183 183 183
183 183 183
183 183 183
183 183 183
183 183 183
183 183 183
183 183 183
183 183 183
183 183 183
182 182 182
182 182 182
183 183 183
183 183 183
181 181 181
181 181 181
181 181 181
179 179 179
180 180 180
181 181 181
181 181 181
181 181 181
181 181 181
181 181 181
181 181 181
181 181 181
181 181 181
179 179 179
178 178 178
178 178 178
176 176 176
143 143 143
166 166 166
178 178 178
178 178 178
178 178 178
177 177 177
177 177 177
177 177 177
176 176 176
174 174 174
173 173 173
146 146 146
103 103 103
97 97 97
74 74 74
31 31 31
53 53 53
102 102 102
108 108 108
108 108 108
108 108 108
109 109 109
109 109 109
109 109 109
108 108 108
107 107 107
106 106 106
107 107 107
106 106 106
99 99 99
115 115 115
156 156 156
155 155 155
157 157 157
138 138 138
195 195 195
202 202 202
201 201 201
201 201 201
201 201 201
201 201 201
200 200 200
199 199 199
194 194 194
194 194 194
155 155 155
133 133 133
132 132 132
132 132 132
145 145 145
189 189 189
188 188 188
144 144 144
104 104 104
130 130 130
82 82 82
81 81 81
60 60 60
51 51 51
52 52 52
53 53 53
52 52 52
61 61 61
92 92 92
95 95 95
96 96 96
96 96 96
92 92 92
84 84 84
90 90 90
101 101 101
127 127 127
150 150 150
87 87 87
20 20 20
19 19 19
20 20 20
19 19 19
18 18 18
19 19 19
16 16 16
17 17 17
18 18 18
18 18 18
18 18 18
18 18 18
17 17 17
17 17 17
16 16 16
15 15 15
14 14 14
12 12 12
11 11 11
11 11 11
11 11 11
11 11 11
12 12 12
12 12 12
11 11 11
11 11 11
11 11 11
12 12 12
13 13 13
13 13 13
91 91 91
93 93 93
95 95 95
94 94 94
94 94 94
94 94 94
93 93 93
93 93 93
96 96 96
97 97 97
94 94 94
96 96 96
95 95 95
92 92 92
93 93 93
93 93 93
98 98 98
103 103 103
100 100 100
91 91 91
83 83 83
86 86 86
92 92 92
95 95 95
96 96 96
102 102 102
181 181 181
180 180 180
180 180 180
182 182 182
183 183 183
170 170 170
157 157 157
182 182 182
183 183 183
183 183 183
183 183 183
183 183 183
183 183 183
183 183 183
183 183 183
183 183 183
183 183 183
183 183 183
182 182 182
182 182 182
181 181 181
181 181 181
181 181 181
180 180 180
180 180 180
180 180 180
181 181 181
181 181 181
180 180 180
181 181 181
181 181 181
181 181 181
181 181 181
181 181 181
181 181 181
181 181 181
180 180 180
180 180 180
179 179 179
179 179 179
146 146 146
160 160 160
178 178 178
177 177 177
177 177 177
177 177 177
177 177 177
176 176 176
177 177 177
176 176 176
171 171 171
141 141 141
99 99 99
103 103 103
36 36 36
30 30 30
68 68 68
107 107 107
109 109 109
108 108 108
109 109 109
109 109 109
108 108 108
108 108 108
107 107 107
106 106 106
106 106 106
105 105 105
102 102 102
89 89 89
136 136 136
151 151 151
154 154 154
151 151 151
159 159 159
199 199 199
198 198 198
201 201 201
201 201 201
201 201 201
200 200 200
199 199 199
195 195 195
195 195 195
155 155 155
132 132 132
132 132 132
132 132 132
136 136 136
185 185 185
186 186 186
140 140 140
110 110 110
110 110 110
80 80 80
80 80 80
73 73 73
47 47 47
51 51 51
53 53 53
52 52 52
55 55 55
91 91 91
94 94 94
96 96 96
96 96 96
94 94 94
87 87 87
89 89 89
103 103 103
114 114 114
149 149 149
125 125 125
23 23 23
19 19 19
18 18 18
19 19 19
19 19 19
19 19 19
18 18 18
18 18 18
17 17 17
18 18 18
19 19 19
18 18 18
16 16 16
16 16 16
14 14 14
14 14 14
11 11 11
10 10 10
11 11 11
12 12 12
11 11 11
11 11 11
11 11 11
11 11 11
11 11 11
12 12 12
12 12 12
13 13 13
13 13 13
13 13 13
88 88 88
90 90 90
93 93 93
95 95 95
96 96 96
94 94 94
94 94 94
94 94 94
98 98 98
98 98 98
96 96 96
96 96 96
92 92 92
89 89 89
88 88 88
86 86 86
92 92 92
96 96 96
93 93 93
93 93 93
92 92 92
91 91 91
92 92 92
101 101 101
119 119 119
114 114 114
182 182 182
180 180 180
181 181 181
183 183 183
183 183 183
161 161 161
170 170 170
182 182 182
182 182 182
183 183 183
183 183 183
183 183 183
183 183 183
183 183 183
183 183 183
183 183 183
183 183 183
183 183 183
183 183 183
182 182 182
180 180 180
180 180 180
180 180 180
180 180 180
180 180 180
181 181 181
181 181 181
180 180 180
180 180 180
181 181 181
181 181 181
181 181 181
181 181 181
181 181 181
181 181 181
181 181 181
180 180 180
179 179 179
178 178 178
177 177 177
178 178 178
154 154 154
159 159 159
177 177 177
177 177 177
177 177 177
177 177 177
177 177 177
176 176 176
176 176 176
174 174 174
171 171 171
141 141 141
96 96 96
51 51 51
27 27 27
42 42 42
94 94 94
108 108 108
109 109 109
110 110 110
109 109 109
108 108 108
106 106 106
102 102 102
103 103 103
105 105 105
104 104 104
103 103 103
104 104 104
94 94 94
147 147 147
152 152 152
155 155 155
128 128 128
175 175 175
197 197 197
200 200 200
201 201 201
201 201 201
200 200 200
199 199 199
195 195 195
195 195 195
154 154 154
132 132 132
132 132 132
131 131 131
127 127 127
162 162 162
183 183 183
137 137 137
124 124 124
80 80 80
83 83 83
81 81 81
83 83 83
49 49 49
50 50 50
53 53 53
52 52 52
51 51 51
88 88 88
93 93 93
96 96 96
97 97 97
95 95 95
91 91 91
86 86 86
102 102 102
106 106 106
145 145 145
146 146 146
64 64 64
20 20 20
18 18 18
19 19 19
20 20 20
19 19 19
18 18 18
17 17 17
18 18 18
18 18 18
18 18 18
17 17 17
15 15 15
13 13 13
12 12 12
12 12 12
13 13 13
12 12 12
13 13 13
14 14 14
14 14 14
13 13 13
13 13 13
14 14 14
14 14 14
14 14 14
15 15 15
16 16 16
15 15 15
15 15 15
86 86 86
89 89 89
94 94 94
98 98 98
97 97 97
94 94 94
97 97 97
102 102 102
104 104 104
103 103 103
99 99 99
91 91 91
83 83 83
81 81 81
84 84 84
87 87 87
90 90 90
87 87 87
88 88 88
89 89 89
88 88 88
89 89 89
85 85 85
84 84 84
105 105 105
122 122 122
181 181 181
182 182 182
182 182 182
182 182 182
182 182 182
152 152 152
178 178 178
181 181 181
182 182 182
182 182 182
182 182 182
183 183 183
183 183 183
183 183 183
183 183 183
182 182 182
182 182 182
181 181 181
181 181 181
181 181 181
181 181 181
181 181 181
181 181 181
181 181 181
181 181 181
181 181 181
181 181 181
180 180 180
180 180 180
180 180 180
180 180 180
180 180 180
181 181 181
181 181 181
181 181 181
181 181 181
180 180 180
178 178 178
178 178 178
177 177 177
178 178 178
179 179 179
155 155 155
159 159 159
177 177 177
177 177 177
177 177 177
177 177 177
175 175 175
176 176 176
176 176 176
174 174 174
169 169 169
137 137 137
47 47 47
26 26 26
39 39 39
68 68 68
106 106 106
108 108 108
109 109 109
109 109 109
107 107 107
105 105 105
105 105 105
104 104 104
105 105 105
105 105 105
104 104 104
106 106 106
100 100 100
106 106 106
151 151 151
152 152 152
153 153 153
112 112 112
165 165 165
196 196 196
198 198 198
200 200 200
201 201 201
199 199 199
196 196 196
194 194 194
153 153 153
132 132 132
132 132 132
131 131 131
122 122 122
163 163 163
181 181 181
135 135 135
127 127 127
101 101 101
80 80 80
80 80 80
80 80 80
64 64 64
49 49 49
52 52 52
52 52 52
48 48 48
85 85 85
93 93 93
95 95 95
95 95 95
95 95 95
91 91 91
83 83 83
100 100 100
101 101 101
140 140 140
147 147 147
108 108 108
27 27 27
17 17 17
18 18 18
18 18 18
19 19 19
16 16 16
16 16 16
18 18 18
18 18 18
17 17 17
16 16 16
13 13 13
14 14 14
15 15 15
18 18 18
18 18 18
16 16 16
16 16 16
16 16 16
16 16 16
16 16 16
16 16 16
16 16 16
16 16 16
16 16 16
16 16 16
16 16 16
16 16 16
16 16 16
91 91 91
96 96 96
100 100 100
101 101 101
97 97 97
96 96 96
98 98 98
99 99 99
103 103 103
99 99 99
92 92 92
88 88 88
79 79 79
78 78 78
83 83 83
86 86 86
83 83 83
81 81 81
86 86 86
91 91 91
87 87 87
86 86 86
83 83 83
79 79 79
83 83 83
123 123 123
182 182 182
182 182 182
182 182 182
181 181 181
181 181 181
146 146 146
182 182 182
181 181 181
182 182 182
182 182 182
182 182 182
183 183 183
183 183 183
183 183 183
182 182 182
182 182 182
181 181 181
180 180 180
179 179 179
181 181 181
181 181 181
181 181 181
181 181 181
180 180 180
180 180 180
181 181 181
181 181 181
180 180 180
180 180 180
180 180 180
180 180 180
180 180 180
180 180 180
181 181 181
181 181 181
180 180 180
180 180 180
180 180 180
178 178 178
177 177 177
178 178 178
179 179 179
178 178 178
155 155 155
157 157 157
178 178 178
177 177 177
177 177 177
176 176 176
176 176 176
175 175 175
173 173 173
170 170 170
165 165 165
100 100 100
27 27 27
38 38 38
47 47 47
100 100 100
109 109 109
109 109 109
109 109 109
108 108 108
106 106 106
105 105 105
106 106 106
105 105 105
106 106 106
106 106 106
105 105 105
101 101 101
93 93 93
123 123 123
151 151 151
154 154 154
141 141 141
121 121 121
166 166 166
196 196 196
198 198 198
200 200 200
197 197 197
196 196 196
194 194 194
153 153 153
133 133 133
132 132 132
131 131 131
117 117 117
174 174 174
179 179 179
132 132 132
126 126 126
117 117 117
71 71 71
80 80 80
80 80 80
75 75 75
45 45 45
51 51 51
52 52 52
47 47 47
83 83 83
93 93 93
94 94 94
95 95 95
95 95 95
93 93 93
84 84 84
100 100 100
101 101 101
128 128 128
149 149 149
125 125 125
124 124 124
65 65 65
18 18 18
18 18 18
19 19 19
15 15 15
17 17 17
17 17 17
17 17 17
14 14 14
15 15 15
14 14 14
16 16 16
17 17 17
18 18 18
19 19 19
18 18 18
17 17 17
16 16 16
16 16 16
16 16 16
17 17 17
17 17 17
17 17 17
17 17 17
17 17 17
15 15 15
16 16 16
15 15 15
95 95 95
99 99 99
102 102 102
101 101 101
97 97 97
94 94 94
90 90 90
93 93 93
94 94 94
87 87 87
84 84 84
86 86 86
85 85 85
80 80 80
84 84 84
86 86 86
86 86 86
91 91 91
94 94 94
94 94 94
89 89 89
84 84 84
82 82 82
81 81 81
82 82 82
126 126 126
181 181 181
182 182 182
182 182 182
181 181 181
182 182 182
142 142 142
181 181 181
182 182 182
182 182 182
181 181 181
182 182 182
183 183 183
183 183 183
183 183 183
182 182 182
181 181 181
181 181 181
181 181 181
180 180 180
180 180 180
181 181 181
180 180 180
181 181 181
181 181 181
181 181 181
181 181 181
180 180 180
181 181 181
181 181 181
180 180 180
180 180 180
180 180 180
180 180 180
179 179 179
180 180 180
179 179 179
180 180 180
180 180 180
179 179 179
177 177 177
178 178 178
178 178 178
178 178 178
178 178 178
153 153 153
159 159 159
177 177 177
176 176 176
177 177 177
177 177 177
175 175 175
174 174 174
172 172 172
167 167 167
109 109 109
30 30 30
37 37 37
43 43 43
91 91 91
108 108 108
109 109 109
109 109 109
109 109 109
108 108 108
107 107 107
107 107 107
105 105 105
105 105 105
106 106 106
101 101 101
100 100 100
104 104 104
87 87 87
141 141 141
150 150 150
151 151 151
117 117 117
135 135 135
175 175 175
197 197 197
198 198 198
197 197 197
195 195 195
194 194 194
152 152 152
133 133 133
133 133 133
131 131 131
112 112 112
183 183 183
173 173 173
128 128 128
126 126 126
125 125 125
95 95 95
80 80 80
81 81 81
80 80 80
48 48 48
51 51 51
51 51 51
48 48 48
79 79 79
93 93 93
94 94 94
95 95 95
95 95 95
93 93 93
77 77 77
101 101 101
103 103 103
117 117 117
151 151 151
129 129 129
138 138 138
144 144 144
101 101 101
29 29 29
17 17 17
16 16 16
16 16 16
16 16 16
16 16 16
14 14 14
15 15 15
17 17 17
17 17 17
17 17 17
17 17 17
17 17 17
17 17 17
16 16 16
18 18 18
18 18 18
18 18 18
18 18 18
18 18 18
18 18 18
18 18 18
17 17 17
16 16 16
16 16 16
15 15 15
81 81 81
87 87 87
93 93 93
95 95 95
94 94 94
93 93 93
89 89 89
88 88 88
88 88 88
82 82 82
76 76 76
77 77 77
83 83 83
83 83 83
81 81 81
81 81 81
81 81 81
88 88 88
92 92 92
87 87 87
86 86 86
86 86 86
87 87 87
87 87 87
81 81 81
132 132 132
181 181 181
181 181 181
182 182 182
181 181 181
181 181 181
139 139 139
181 181 181
182 182 182
180 180 180
181 181 181
182 182 182
183 183 183
183 183 183
182 182 182
182 182 182
181 181 181
181 181 181
180 180 180
180 180 180
179 179 179
179 179 179
178 178 178
178 178 178
179 179 179
179 179 179
180 180 180
180 180 180
181 181 181
181 181 181
180 180 180
180 180 180
179 179 179
179 179 179
179 179 179
179 179 179
178 178 178
179 179 179
180 180 180
179 179 179
177 177 177
178 178 178
178 178 178
178 178 178
178 178 178
178 178 178
147 147 147
161 161 161
177 177 177
177 177 177
179 179 179
175 175 175
173 173 173
171 171 171
166 166 166
102 102 102
29 29 29
36 36 36
42 42 42
83 83 83
106 106 106
109 109 109
111 111 111
111 111 111
109 109 109
107 107 107
106 106 106
106 106 106
105 105 105
105 105 105
104 104 104
101 101 101
105 105 105
104 104 104
102 102 102
152 152 152
148 148 148
147 147 147
109 109 109
139 139 139
182 182 182
197 197 197
197 197 197
195 195 195
194 194 194
151 151 151
134 134 134
133 133 133
132 132 132
112 112 112
187 187 187
162 162 162
127 127 127
126 126 126
126 126 126
114 114 114
75 75 75
80 80 80
80 80 80
60 60 60
51 51 51
51 51 51
50 50 50
74 74 74
93 93 93
94 94 94
95 95 95
95 95 95
93 93 93
76 76 76
101 101 101
101 101 101
109 109 109
150 150 150
130 130 130
140 140 140
150 150 150
150 150 150
124 124 124
45 45 45
16 16 16
17 17 17
13 13 13
16 16 16
15 15 15
16 16 16
17 17 17
17 17 17
17 17 17
16 16 16
16 16 16
16 16 16
16 16 16
18 18 18
18 18 18
18 18 18
18 18 18
18 18 18
18 18 18
17 17 17
16 16 16
16 16 16
16 16 16
15 15 15
85 85 85
85 85 85
86 86 86
87 87 87
89 89 89
92 92 92
93 93 93
94 94 94
97 97 97
95 95 95
82 82 82
71 71 71
71 71 71
72 72 72
72 72 72
71 71 71
70 70 70
69 69 69
69 69 69
71 71 71
74 74 74
82 82 82
85 85 85
77 77 77
68 68 68
139 139 139
180 180 180
179 179 179
179 179 179
180 180 180
178 178 178
141 141 141
179 179 179
182 182 182
182 182 182
181 181 181
182 182 182
182 182 182
182 182 182
181 181 181
182 182 182
181 181 181
180 180 180
180 180 180
181 181 181
179 179 179
179 179 179
167 167 167
160 160 160
177 177 177
177 177 177
178 178 178
180 180 180
180 180 180
180 180 180
181 181 181
181 181 181
180 180 180
181 181 181
181 181 181
179 179 179
178 178 178
177 177 177
177 177 177
178 178 178
178 178 178
178 178 178
179 179 179
178 178 178
178 178 178
177 177 177
177 177 177
143 143 143
167 167 167
177 177 177
176 176 176
176 176 176
173 173 173
171 171 171
166 166 166
90 90 90
31 31 31
36 36 36
44 44 44
70 70 70
107 107 107
110 110 110
110 110 110
110 110 110
110 110 110
107 107 107
106 106 106
105 105 105
105 105 105
105 105 105
105 105 105
104 104 104
103 103 103
102 102 102
92 92 92
128 128 128
149 149 149
149 149 149
133 133 133
121 121 121
144 144 144
187 187 187
198 198 198
194 194 194
194 194 194
150 150 150
134 134 134
133 133 133
132 132 132
120 120 120
185 185 185
151 151 151
129 129 129
126 126 126
125 125 125
122 122 122
73 73 73
80 80 80
80 80 80
70 70 70
46 46 46
53 53 53
52 52 52
71 71 71
92 92 92
95 95 95
95 95 95
93 93 93
92 92 92
78 78 78
101 101 101
102 102 102
104 104 104
147 147 147
132 132 132
140 140 140
153 153 153
152 152 152
150 150 150
139 139 139
71 71 71
16 16 16
16 16 16
16 16 16
16 16 16
16 16 16
15 15 15
17 17 17
17 17 17
17 17 17
17 17 17
17 17 17
17 17 17
16 16 16
17 17 17
18 18 18
18 18 18
18 18 18
18 18 18
18 18 18
18 18 18
16 16 16
17 17 17
16 16 16
101 101 101
96 96 96
92 92 92
91 91 91
86 86 86
91 91 91
93 93 93
94 94 94
99 99 99
95 95 95
90 90 90
85 85 85
82 82 82
82 82 82
74 74 74
71 71 71
71 71 71
73 73 73
74 74 74
76 76 76
81 81 81
79 79 79
71 71 71
66 66 66
70 70 70
142 142 142
179 179 179
177 177 177
178 178 178
179 179 179
172 172 172
146 146 146
179 179 179
182 182 182
182 182 182
181 181 181
182 182 182
182 182 182
182 182 182
181 181 181
181 181 181
181 181 181
180 180 180
179 179 179
179 179 179
178 178 178
178 178 178
154 154 154
127 127 127
149 149 149
178 178 178
179 179 179
180 180 180
180 180 180
180 180 180
181 181 181
181 181 181
180 180 180
180 180 180
179 179 179
178 178 178
178 178 178
177 177 177
177 177 177
178 178 178
178 178 178
177 177 177
178 178 178
178 178 178
178 178 178
176 176 176
176 176 176
174 174 174
138 138 138
172 172 172
174 174 174
174 174 174
173 173 173
171 171 171
166 166 166
74 74 74
32 32 32
38 38 38
45 45 45
58 58 58
96 96 96
108 108 108
108 108 108
109 109 109
109 109 109
105 105 105
105 105 105
105 105 105
105 105 105
104 104 104
105 105 105
105 105 105
104 104 104
102 102 102
101 101 101
87 87 87
147 147 147
148 148 148
151 151 151
111 111 111
134 134 134
151 151 151
193 193 193
193 193 193
190 190 190
145 145 145
135 135 135
132 132 132
131 131 131
133 133 133
185 185 185
139 139 139
127 127 127
126 126 126
126 126 126
122 122 122
80 80 80
80 80 80
78 78 78
77 77 77
46 46 46
53 53 53
51 51 51
66 66 66
93 93 93
94 94 94
95 95 95
93 93 93
92 92 92
78 78 78
101 101 101
102 102 102
103 103 103
142 142 142
133 133 133
140 140 140
153 153 153
152 152 152
152 152 152
150 150 150
144 144 144
87 87 87
20 20 20
18 18 18
17 17 17
17 17 17
16 16 16
17 17 17
17 17 17
17 17 17
17 17 17
17 17 17
17 17 17
17 17 17
18 18 18
18 18 18
18 18 18
17 17 17
17 17 17
17 17 17
18 18 18
16 16 16
16 16 16
16 16 16
88 88 88
85 85 85
82 82 82
88 88 88
92 92 92
96 96 96
93 93 93
91 91 91
93 93 93
91 91 91
91 91 91
95 95 95
98 98 98
92 92 92
81 81 81
78 78 78
78 78 78
81 81 81
84 84 84
81 81 81
76 76 76
76 76 76
83 83 83
90 90 90
86 86 86
151 151 151
178 178 178
178 178 178
179 179 179
179 179 179
172 172 172
145 145 145
179 179 179
180 180 180
182 182 182
183 183 183
183 183 183
182 182 182
182 182 182
181 181 181
181 181 181
180 180 180
180 180 180
180 180 180
178 178 178
178 178 178
176 176 176
166 166 166
127 127 127
128 128 128
159 159 159
178 178 178
179 179 179
179 179 179
180 180 180
180 180 180
180 180 180
180 180 180
180 180 180
179 179 179
178 178 178
178 178 178
177 177 177
177 177 177
177 177 177
177 177 177
177 177 177
177 177 177
177 177 177
177 177 177
176 176 176
176 176 176
175 175 175
169 169 169
141 141 141
174 174 174
172 172 172
173 173 173
171 171 171
159 159 159
51 51 51
36 36 36
42 42 42
46 46 46
83 83 83
123 123 123
101 101 101
107 107 107
108 108 108
107 107 107
104 104 104
104 104 104
105 105 105
105 105 105
104 104 104
105 105 105
104 104 104
103 103 103
99 99 99
103 103 103
99 99 99
110 110 110
152 152 152
150 150 150
143 143 143
109 109 109
133 133 133
169 169 169
193 193 193
188 188 188
139 139 139
133 133 133
132 132 132
132 132 132
142 142 142
178 178 178
132 132 132
125 125 125
126 126 126
125 125 125
121 121 121
80 80 80
73 73 73
66 66 66
70 70 70
44 44 44
51 51 51
50 50 50
62 62 62
92 92 92
93 93 93
93 93 93
94 94 94
93 93 93
76 76 76
102 102 102
102 102 102
102 102 102
136 136 136
132 132 132
138 138 138
152 152 152
152 152 152
153 153 153
151 151 151
149 149 149
147 147 147
96 96 96
18 18 18
18 18 18
17 17 17
17 17 17
17 17 17
17 17 17
17 17 17
17 17 17
18 18 18
18 18 18
17 17 17
17 17 17
17 17 17
17 17 17
16 16 16
18 18 18
17 17 17
17 17 17
17 17 17
16 16 16
16 16 16
68 68 68
71 71 71
77 77 77
84 84 84
95 95 95
96 96 96
95 95 95
92 92 92
92 92 92
97 97 97
101 101 101
103 103 103
98 98 98
96 96 96
90 90 90
81 81 81
73 73 73
71 71 71
68 68 68
63 63 63
63 63 63
72 72 72
81 81 81
91 91 91
87 87 87
156 156 156
178 178 178
180 180 180
180 180 180
179 179 179
170 170 170
146 146 146
179 179 179
180 180 180
182 182 182
182 182 182
182 182 182
181 181 181
181 181 181
181 181 181
180 180 180
180 180 180
180 180 180
180 180 180
178 178 178
178 178 178
177 177 177
175 175 175
132 132 132
126 126 126
131 131 131
169 169 169
178 178 178
178 178 178
179 179 179
180 180 180
180 180 180
180 180 180
180 180 180
180 180 180
177 177 177
178 178 178
177 177 177
177 177 177
177 177 177
177 177 177
177 177 177
177 177 177
177 177 177
177 177 177
177 177 177
176 176 176
175 175 175
175 175 175
159 159 159
139 139 139
171 171 171
174 174 174
170 170 170
145 145 145
40 40 40
38 38 38
45 45 45
48 48 48
79 79 79
163 163 163
112 112 112
105 105 105
107 107 107
109 109 109
106 106 106
104 104 104
105 105 105
105 105 105
105 105 105
105 105 105
105 105 105
103 103 103
100 100 100
104 104 104
102 102 102
86 86 86
137 137 137
149 149 149
148 148 148
118 118 118
128 128 128
137 137 137
180 180 180
180 180 180
134 134 134
134 134 134
132 132 132
125 125 125
156 156 156
165 165 165
126 126 126
125 125 125
123 123 123
121 121 121
104 104 104
44 44 44
36 36 36
36 36 36
33 33 33
43 43 43
51 51 51
51 51 51
62 62 62
91 91 91
92 92 92
92 92 92
95 95 95
94 94 94
76 76 76
101 101 101
102 102 102
102 102 102
134 134 134
130 130 130
139 139 139
151 151 151
151 151 151
153 153 153
153 153 153
152 152 152
149 149 149
144 144 144
61 61 61
18 18 18
17 17 17
16 16 16
17 17 17
17 17 17
17 17 17
17 17 17
18 18 18
18 18 18
17 17 17
17 17 17
17 17 17
17 17 17
17 17 17
18 18 18
18 18 18
17 17 17
16 16 16
16 16 16
16 16 16
68 68 68
83 83 83
91 91 91
94 94 94
98 98 98
100 100 100
97 97 97
94 94 94
95 95 95
97 97 97
98 98 98
93 93 93
89 89 89
96 96 96
95 95 95
82 82 82
70 70 70
63 63 63
65 65 65
75 75 75
78 78 78
78 78 78
76 76 76
81 81 81
83 83 83
161 161 161
180 180 180
181 181 181
180 180 180
179 179 179
170 170 170
148 148 148
179 179 179
179 179 179
181 181 181
181 181 181
181 181 181
181 181 181
181 181 181
181 181 181
180 180 180
180 180 180
180 180 180
179 179 179
179 179 179
177 177 177
177 177 177
177 177 177
145 145 145
126 126 126
126 126 126
138 138 138
174 174 174
177 177 177
177 177 177
179 179 179
179 179 179
179 179 179
179 179 179
178 178 178
177 177 177
177 177 177
177 177 177
177 177 177
177 177 177
177 177 177
177 177 177
177 177 177
177 177 177
177 177 177
177 177 177
177 177 177
177 177 177
175 175 175
176 176 176
140 140 140
147 147 147
175 175 175
171 171 171
108 108 108
41 41 41
45 45 45
49 49 49
50 50 50
101 101 101
168 168 168
161 161 161
99 99 99
105 105 105
109 109 109
108 108 108
105 105 105
105 105 105
105 105 105
105 105 105
106 106 106
104 104 104
103 103 103
101 101 101
102 102 102
104 104 104
100 100 100
96 96 96
148 148 148
147 147 147
148 148 148
106 106 106
133 133 133
152 152 152
167 167 167
133 133 133
134 134 134
133 133 133
119 119 119
168 168 168
148 148 148
128 128 128
126 126 126
123 123 123
109 109 109
45 45 45
39 39 39
37 37 37
37 37 37
34 34 34
36 36 36
48 48 48
50 50 50
64 64 64
93 93 93
93 93 93
92 92 92
95 95 95
94 94 94
75 75 75
100 100 100
102 102 102
103 103 103
132 132 132
128 128 128
140 140 140
150 150 150
151 151 151
153 153 153
154 154 154
154 154 154
153 153 153
148 148 148
133 133 133
31 31 31
17 17 17
16 16 16
17 17 17
18 18 18
17 17 17
18 18 18
18 18 18
18 18 18
17 17 17
18 18 18
19 19 19
19 19 19
18 18 18
18 18 18
18 18 18
16 16 16
13 13 13
11 11 11
13 13 13
74 74 74
79 79 79
85 85 85
92 92 92
96 96 96
97 97 97
99 99 99
98 98 98
99 99 99
96 96 96
94 94 94
87 87 87
76 76 76
78 78 78
77 77 77
73 73 73
75 75 75
75 75 75
75 75 75
85 85 85
88 88 88
87 87 87
80 80 80
79 79 79
81 81 81
167 167 167
181 181 181
179 179 179
180 180 180
179 179 179
169 169 169
150 150 150
179 179 179
179 179 179
180 180 180
180 180 180
180 180 180
180 180 180
181 181 181
181 181 181
180 180 180
180 180 180
180 180 180
177 177 177
178 178 178
178 178 178
177 177 177
177 177 177
160 160 160
126 126 126
125 125 125
124 124 124
150 150 150
177 177 177
177 177 177
179 179 179
179 179 179
179 179 179
179 179 179
178 178 178
178 178 178
177 177 177
177 177 177
177 177 177
177 177 177
177 177 177
177 177 177
177 177 177
177 177 177
177 177 177
177 177 177
177 177 177
177 177 177
177 177 177
177 177 177
174 174 174
117 117 117
157 157 157
162 162 162
133 133 133
106 106 106
55 55 55
54 54 54
55 55 55
143 143 143
168 168 168
170 170 170
153 153 153
95 95 95
108 108 108
108 108 108
109 109 109
106 106 106
105 105 105
105 105 105
105 105 105
104 104 104
103 103 103
101 101 101
101 101 101
102 102 102
103 103 103
91 91 91
127 127 127
149 149 149
150 150 150
128 128 128
126 126 126
133 133 133
136 136 136
133 133 133
134 134 134
132 132 132
116 116 116
175 175 175
133 133 133
127 127 127
125 125 125
117 117 117
57 57 57
41 41 41
37 37 37
36 36 36
39 39 39
35 35 35
33 33 33
41 41 41
44 44 44
69 69 69
93 93 93
93 93 93
93 93 93
95 95 95
93 93 93
74 74 74
99 99 99
102 102 102
103 103 103
131 131 131
127 127 127
141 141 141
151 151 151
149 149 149
142 142 142
153 153 153
154 154 154
154 154 154
151 151 151
148 148 148
82 82 82
18 18 18
17 17 17
17 17 17
18 18 18
18 18 18
17 17 17
17 17 17
18 18 18
18 18 18
18 18 18
18 18 18
18 18 18
17 17 17
17 17 17
17 17 17
16 16 16
11 11 11
8 8 8
9 9 9
76 76 76
75 75 75
81 81 81
89 89 89
95 95 95
98 98 98
98 98 98
97 97 97
97 97 97
97 97 97
96 96 96
89 89 89
76 76 76
65 65 65
65 65 65
72 72 72
75 75 75
75 75 75
76 76 76
84 84 84
89 89 89
90 90 90
88 88 88
85 85 85
80 80 80
168 168 168
180 180 180
180 180 180
180 180 180
179 179 179
170 170 170
149 149 149
179 179 179
179 179 179
180 180 180
180 180 180
180 180 180
180 180 180
180 180 180
181 181 181
180 180 180
180 180 180
180 180 180
178 178 178
178 178 178
178 178 178
177 177 177
177 177 177
172 172 172
131 131 131
126 126 126
127 127 127
128 128 128
162 162 162
178 178 178
179 179 179
178 178 178
178 178 178
178 178 178
178 178 178
178 178 178
177 177 177
177 177 177
177 177 177
177 177 177
177 177 177
177 177 177
177 177 177
177 177 177
177 177 177
177 177 177
177 177 177
177 177 177
177 177 177
176 176 176
174 174 174
161 161 161
112 112 112
162 162 162
169 169 169
165 165 165
121 121 121
95 95 95
136 136 136
168 168 168
169 169 169
169 169 169
167 167 167
144 144 144
95 95 95
109 109 109
108 108 108
106 106 106
105 105 105
105 105 105
105 105 105
105 105 105
104 104 104
99 99 99
98 98 98
98 98 98
101 101 101
100 100 100
91 91 91
145 145 145
146 146 146
147 147 147
106 106 106
130 130 130
132 132 132
133 133 133
134 134 134
133 133 133
116 116 116
167 167 167
128 128 128
126 126 126
123 123 123
82 82 82
41 41 41
34 34 34
40 40 40
44 44 44
42 42 42
37 37 37
34 34 34
40 40 40
38 38 38
85 85 85
93 93 93
94 94 94
94 94 94
94 94 94
93 93 93
75 75 75
99 99 99
102 102 102
102 102 102
132 132 132
123 123 123
145 145 145
150 150 150
122 122 122
103 103 103
133 133 133
152 152 152
153 153 153
151 151 151
148 148 148
123 123 123
17 17 17
17 17 17
17 17 17
17 17 17
17 17 17
16 16 16
15 15 15
16 16 16
18 18 18
17 17 17
16 16 16
15 15 15
15 15 15
15 15 15
15 15 15
15 15 15
12 12 12
8 8 8
9 9 9
84 84 84
78 78 78
83 83 83
89 89 89
93 93 93
94 94 94
94 94 94
96 96 96
96 96 96
93 93 93
89 89 89
78 78 78
69 69 69
69 69 69
73 73 73
75 75 75
74 74 74
75 75 75
79 79 79
85 85 85
89 89 89
94 94 94
102 102 102
102 102 102
91 91 91
172 172 172
180 180 180
181 181 181
180 180 180
179 179 179
170 170 170
146 146 146
178 178 178
179 179 179
180 180 180
180 180 180
180 180 180
180 180 180
180 180 180
180 180 180
180 180 180
180 180 180
179 179 179
179 179 179
178 178 178
177 177 177
177 177 177
176 176 176
176 176 176
147 147 147
127 127 127
125 125 125
126 126 126
130 130 130
171 171 171
177 177 177
178 178 178
177 177 177
177 177 177
177 177 177
177 177 177
177 177 177
177 177 177
177 177 177
177 177 177
177 177 177
177 177 177
177 177 177
177 177 177
177 177 177
177 177 177
177 177 177
177 177 177
177 177 177
176 176 176
174 174 174
174 174 174
133 133 133
129 129 129
166 166 166
170 170 170
171 171 171
172 172 172
171 171 171
172 172 172
173 173 173
172 172 172
170 170 170
167 167 167
128 128 128
103 103 103
109 109 109
104 104 104
105 105 105
105 105 105
105 105 105
104 104 104
106 106 106
100 100 100
99 99 99
100 100 100
100 100 100
102 102 102
95 95 95
119 119 119
142 142 142
144 144 144
124 124 124
120 120 120
130 130 130
132 132 132
132 132 132
132 132 132
125 125 125
146 146 146
129 129 129
125 125 125
115 115 115
46 46 46
42 42 42
34 34 34
43 43 43
45 45 45
41 41 41
37 37 37
37 37 37
43 43 43
41 41 41
72 72 72
92 92 92
94 94 94
95 95 95
92 92 92
92 92 92
77 77 77
100 100 100
102 102 102
102 102 102
133 133 133
120 120 120
149 149 149
142 142 142
103 103 103
102 102 102
106 106 106
148 148 148
153 153 153
151 151 151
148 148 148
140 140 140
39 39 39
11 11 11
12 12 12
12 12 12
14 14 14
15 15 15
14 14 14
15 15 15
16 16 16
16 16 16
15 15 15
15 15 15
15 15 15
15 15 15
14 14 14
15 15 15
13 13 13
10 10 10
10 10 10
93 93 93
86 86 86
83 83 83
84 84 84
86 86 86
86 86 86
86 86 86
90 90 90
80 80 80
72 72 72
71 71 71
74 74 74
76 76 76
77 77 77
81 81 81
82 82 82
83 83 83
81 81 81
78 78 78
82 82 82
87 87 87
92 92 92
98 98 98
98 98 98
93 93 93
176 176 176
180 180 180
180 180 180
180 180 180
180 180 180
169 169 169
145 145 145
179 179 179
180 180 180
180 180 180
180 180 180
180 180 180
180 180 180
180 180 180
180 180 180
180 180 180
180 180 180
179 179 179
179 179 179
178 178 178
177 177 177
177 177 177
176 176 176
169 169 169
156 156 156
122 122 122
123 123 123
125 125 125
125 125 125
140 140 140
174 174 174
177 177 177
177 177 177
178 178 178
177 177 177
177 177 177
177 177 177
177 177 177
177 177 177
177 177 177
177 177 177
177 177 177
177 177 177
177 177 177
177 177 177
177 177 177
177 177 177
177 177 177
177 177 177
177 177 177
176 176 176
173 173 173
169 169 169
106 106 106
141 141 141
171 171 171
173 173 173
174 174 174
174 174 174
173 173 173
173 173 173
173 173 173
171 171 171
170 170 170
165 165 165
115 115 115
104 104 104
105 105 105
106 106 106
104 104 104
105 105 105
104 104 104
105 105 105
102 102 102
100 100 100
98 98 98
99 99 99
101 101 101
99 99 99
86 86 86
141 141 141
145 145 145
146 146 146
102 102 102
131 131 131
132 132 132
131 131 131
127 127 127
126 126 126
129 129 129
127 127 127
124 124 124
85 85 85
37 37 37
39 39 39
37 37 37
43 43 43
45 45 45
39 39 39
35 35 35
39 39 39
42 42 42
42 42 42
56 56 56
91 91 91
93 93 93
93 93 93
91 91 91
92 92 92
78 78 78
100 100 100
102 102 102
103 103 103
134 134 134
119 119 119
150 150 150
122 122 122
102 102 102
101 101 101
101 101 101
127 127 127
152 152 152
150 150 150
148 148 148
147 147 147
77 77 77
10 10 10
11 11 11
10 10 10
9 9 9
9 9 9
11 11 11
11 11 11
13 13 13
14 14 14
15 15 15
15 15 15
16 16 16
16 16 16
16 16 16
15 15 15
13 13 13
11 11 11
10 10 10
97 97 97
96 96 96
89 89 89
90 90 90
95 95 95
93 93 93
85 85 85
74 74 74
68 68 68
76 76 76
84 84 84
89 89 89
86 86 86
84 84 84
79 79 79
77 77 77
77 77 77
76 76 76
77 77 77
82 82 82
90 90 90
95 95 95
95 95 95
96 96 96
91 91 91
178 178 178
180 180 180
180 180 180
180 180 180
179 179 179
172 172 172
145 145 145
179 179 179
180 180 180
180 180 180
180 180 180
181 181 181
181 181 181
181 181 181
181 181 181
180 180 180
180 180 180
179 179 179
177 177 177
177 177 177
177 177 177
177 177 177
177 177 177
175 175 175
131 131 131
132 132 132
121 121 121
124 124 124
125 125 125
125 125 125
152 152 152
177 177 177
178 178 178
178 178 178
177 177 177
177 177 177
178 178 178
178 178 178
178 178 178
177 177 177
177 177 177
177 177 177
177 177 177
177 177 177
177 177 177
177 177 177
177 177 177
177 177 177
177 177 177
178 178 178
177 177 177
175 175 175
173 173 173
142 142 142
117 117 117
152 152 152
174 174 174
175 175 175
174 174 174
173 173 173
173 173 173
172 172 172
171 171 171
170 170 170
169 169 169
162 162 162
100 100 100
107 107 107
107 107 107
103 103 103
105 105 105
104 104 104
105 105 105
102 102 102
99 99 99
99 99 99
99 99 99
100 100 100
100 100 100
94 94 94
110 110 110
148 148 148
147 147 147
127 127 127
112 112 112
128 128 128
130 130 130
119 119 119
114 114 114
127 127 127
125 125 125
116 116 116
48 48 48
42 42 42
37 37 37
38 38 38
44 44 44
42 42 42
35 35 35
34 34 34
37 37 37
40 40 40
40 40 40
50 50 50
93 93 93
92 92 92
93 93 93
91 91 91
92 92 92
79 79 79
100 100 100
103 103 103
102 102 102
133 133 133
116 116 116
147 147 147
105 105 105
101 101 101
101 101 101
101 101 101
106 106 106
147 147 147
152 152 152
151 151 151
148 148 148
105 105 105
16 16 16
13 13 13
11 11 11
10 10 10
9 9 9
10 10 10
12 12 12
11 11 11
11 11 11
14 14 14
14 14 14
15 15 15
16 16 16
16 16 16
16 16 16
15 15 15
14 14 14
12 12 12
89 89 89
101 101 101
105 105 105
100 100 100
96 96 96
86 86 86
73 73 73
76 76 76
87 87 87
94 94 94
95 95 95
97 97 97
96 96 96
89 89 89
76 76 76
72 72 72
77 77 77
79 79 79
81 81 81
87 87 87
91 91 91
95 95 95
97 97 97
99 99 99
102 102 102
179 179 179
180 180 180
180 180 180
180 180 180
179 179 179
177 177 177
148 148 148
178 178 178
179 179 179
180 180 180
180 180 180
181 181 181
182 182 182
182 182 182
182 182 182
181 181 181
181 181 181
180 180 180
177 177 177
177 177 177
177 177 177
177 177 177
176 176 176
176 176 176
161 161 161
125 125 125
122 122 122
124 124 124
125 125 125
124 124 124
126 126 126
166 166 166
178 178 178
178 178 178
177 177 177
177 177 177
178 178 178
178 178 178
178 178 178
177 177 177
177 177 177
177 177 177
177 177 177
177 177 177
177 177 177
177 177 177
177 177 177
177 177 177
178 178 178
178 178 178
177 177 177
174 174 174
175 175 175
171 171 171
105 105 105
124 124 124
164 164 164
174 174 174
173 173 173
172 172 172
173 173 173
173 173 173
172 172 172
171 171 171
169 169 169
166 166 166
151 151 151
94 94 94
106 106 106
104 104 104
105 105 105
104 104 104
104 104 104
100 100 100
99 99 99
97 97 97
98 98 98
98 98 98
99 99 99
97 97 97
80 80 80
131 131 131
137 137 137
141 141 141
100 100 100
129 129 129
129 129 129
106 106 106
125 125 125
128 128 128
124 124 124
98 98 98
41 41 41
43 43 43
34 34 34
38 38 38
43 43 43
40 40 40
34 34 34
35 35 35
37 37 37
37 37 37
38 38 38
44 44 44
89 89 89
93 93 93
93 93 93
92 92 92
91 91 91
78 78 78
99 99 99
103 103 103
102 102 102
138 138 138
116 116 116
124 124 124
100 100 100
100 100 100
99 99 99
100 100 100
99 99 99
129 129 129
152 152 152
152 152 152
149 149 149
122 122 122
18 18 18
14 14 14
12 12 12
12 12 12
11 11 11
12 12 12
12 12 12
14 14 14
12 12 12
14 14 14
14 14 14
15 15 15
16 16 16
17 17 17
16 16 16
16 16 16
15 15 15
13 13 13
75 75 75
79 79 79
76 76 76
74 74 74
66 66 66
73 73 73
84 84 84
90 90 90
94 94 94
95 95 95
93 93 93
91 91 91
92 92 92
93 93 93
89 89 89
89 89 89
91 91 91
92 92 92
95 95 95
96 96 96
96 96 96
99 99 99
100 100 100
104 104 104
109 109 109
180 180 180
179 179 179
179 179 179
180 180 180
179 179 179
178 178 178
144 144 144
180 180 180
178 178 178
180 180 180
181 181 181
180 180 180
180 180 180
180 180 180
179 179 179
178 178 178
177 177 177
177 177 177
177 177 177
177 177 177
177 177 177
177 177 177
177 177 177
175 175 175
175 175 175
128 128 128
120 120 120
124 124 124
125 125 125
127 127 127
124 124 124
133 133 133
173 173 173
178 178 178
177 177 177
177 177 177
177 177 177
178 178 178
178 178 178
177 177 177
177 177 177
177 177 177
177 177 177
177 177 177
177 177 177
177 177 177
177 177 177
177 177 177
177 177 177
177 177 177
176 176 176
173 173 173
173 173 173
171 171 171
134 134 134
114 114 114
135 135 135
171 171 171
171 171 171
172 172 172
172 172 172
172 172 172
172 172 172
170 170 170
170 170 170
169 169 169
167 167 167
137 137 137
97 97 97
104 104 104
104 104 104
104 104 104
104 104 104
100 100 100
99 99 99
99 99 99
95 95 95
87 87 87
76 76 76
62 62 62
53 53 53
59 59 59
89 89 89
90 90 90
87 87 87
109 109 109
128 128 128
100 100 100
126 126 126
126 126 126
125 125 125
82 82 82
41 41 41
41 41 41
36 36 36
38 38 38
43 43 43
38 38 38
35 35 35
37 37 37
40 40 40
36 36 36
31 31 31
40 40 40
87 87 87
93 93 93
93 93 93
92 92 92
87 87 87
88 88 88
102 102 102
103 103 103
102 102 102
141 141 141
115 115 115
103 103 103
98 98 98
98 98 98
98 98 98
99 99 99
100 100 100
112 112 112
149 149 149
151 151 151
148 148 148
137 137 137
29 29 29
13 13 13
11 11 11
13 13 13
13 13 13
14 14 14
14 14 14
15 15 15
15 15 15
15 15 15
15 15 15
16 16 16
16 16 16
16 16 16
17 17 17
17 17 17
16 16 16
12 12 12
97 97 97
82 82 82
59 59 59
56 56 56
54 54 54
65 65 65
81 81 81
92 92 92
97 97 97
98 98 98
93 93 93
89 89 89
90 90 90
92 92 92
95 95 95
99 99 99
100 100 100
98 98 98
99 99 99
101 101 101
102 102 102
105 105 105
106 106 106
110 110 110
120 120 120
179 179 179
180 180 180
180 180 180
180 180 180
180 180 180
179 179 179
140 140 140
178 178 178
178 178 178
179 179 179
181 181 181
180 180 180
178 178 178
178 178 178
178 178 178
177 177 177
177 177 177
177 177 177
177 177 177
177 177 177
177 177 177
177 177 177
177 177 177
174 174 174
178 178 178
169 169 169
107 107 107
122 122 122
122 122 122
125 125 125
124 124 124
123 123 123
145 145 145
175 175 175
177 177 177
177 177 177
177 177 177
178 178 178
178 178 178
177 177 177
177 177 177
177 177 177
177 177 177
177 177 177
177 177 177
177 177 177
177 177 177
177 177 177
177 177 177
177 177 177
176 176 176
174 174 174
174 174 174
172 172 172
163 163 163
105 105 105
121 121 121
153 153 153
172 172 172
172 172 172
172 172 172
172 172 172
172 172 172
172 172 172
171 171 171
171 171 171
168 168 168
164 164 164
118 118 118
104 104 104
104 104 104
105 105 105
103 103 103
99 99 99
98 98 98
90 90 90
67 67 67
57 57 57
55 55 55
53 53 53
54 54 54
48 48 48
80 80 80
86 86 86
88 88 88
80 80 80
123 123 123
107 107 107
126 126 126
126 126 126
127 127 127
74 74 74
43 43 43
41 41 41
35 35 35
36 36 36
41 41 41
35 35 35
37 37 37
35 35 35
39 39 39
37 37 37
31 31 31
39 39 39
87 87 87
94 94 94
92 92 92
92 92 92
75 75 75
99 99 99
102 102 102
103 103 103
104 104 104
137 137 137
91 91 91
99 99 99
98 98 98
97 97 97
96 96 96
99 99 99
99 99 99
100 100 100
139 139 139
151 151 151
148 148 148
145 145 145
56 56 56
15 15 15
14 14 14
15 15 15
15 15 15
15 15 15
15 15 15
15 15 15
15 15 15
16 16 16
16 16 16
17 17 17
16 16 16
16 16 16
16 16 16
16 16 16
14 14 14
10 10 10
84 84 84
80 80 80
81 81 81
81 81 81
78 78 78
72 72 72
69 69 69
73 73 73
83 83 83
89 89 89
94 94 94
97 97 97
99 99 99
96 96 96
99 99 99
102 102 102
101 101 101
98 98 98
97 97 97
100 100 100
101 101 101
105 105 105
107 107 107
110 110 110
127 127 127
179 179 179
180 180 180
180 180 180
180 180 180
180 180 180
179 179 179
143 143 143
177 177 177
178 178 178
178 178 178
178 178 178
177 177 177
178 178 178
178 178 178
177 177 177
177 177 177
177 177 177
177 177 177
177 177 177
177 177 177
177 177 177
177 177 177
177 177 177
177 177 177
175 175 175
178 178 178
144 144 144
113 113 113
119 119 119
122 122 122
124 124 124
124 124 124
123 123 123
157 157 157
176 176 176
176 176 176
177 177 177
178 178 178
178 178 178
177 177 177
177 177 177
177 177 177
177 177 177
177 177 177
177 177 177
177 177 177
177 177 177
176 176 176
174 174 174
174 174 174
175 175 175
176 176 176
175 175 175
174 174 174
172 172 172
126 126 126
116 116 116
127 127 127
168 168 168
171 171 171
172 172 172
172 172 172
172 172 172
172 172 172
171 171 171
171 171 171
169 169 169
167 167 167
157 157 157
97 97 97
102 102 102
104 104 104
103 103 103
99 99 99
86 86 86
60 60 60
55 55 55
54 54 54
56 56 56
55 55 55
54 54 54
55 55 55
61 61 61
88 88 88
86 86 86
84 84 84
78 78 78
121 121 121
126 126 126
126 126 126
126 126 126
83 83 83
41 41 41
40 40 40
35 35 35
36 36 36
37 37 37
36 36 36
39 39 39
35 35 35
39 39 39
38 38 38
33 33 33
39 39 39
70 70 70
91 91 91
91 91 91
83 83 83
88 88 88
101 101 101
102 102 102
103 103 103
107 107 107
128 128 128
90 90 90
99 99 99
99 99 99
100 100 100
96 96 96
96 96 96
98 98 98
99 99 99
124 124 124
150 150 150
148 148 148
146 146 146
80 80 80
17 17 17
15 15 15
16 16 16
16 16 16
16 16 16
16 16 16
16 16 16
16 16 16
16 16 16
16 16 16
16 16 16
17 17 17
16 16 16
15 15 15
15 15 15
15 15 15
14 14 14
89 89 89
93 93 93
94 94 94
92 92 92
94 94 94
94 94 94
92 92 92
86 86 86
84 84 84
79 79 79
78 78 78
89 89 89
97 97 97
96 96 96
99 99 99
101 101 101
103 103 103
103 103 103
101 101 101
98 98 98
97 97 97
100 100 100
101 101 101
105 105 105
133 133 133
180 180 180
181 181 181
180 180 180
180 180 180
180 180 180
179 179 179
140 140 140
179 179 179
179 179 179
179 179 179
178 178 178
177 177 177
178 178 178
178 178 178
177 177 177
177 177 177
177 177 177
177 177 177
177 177 177
177 177 177
177 177 177
177 177 177
178 178 178
178 178 178
177 177 177
175 175 175
173 173 173
117 117 117
118 118 118
121 121 121
123 123 123
123 123 123
122 122 122
125 125 125
164 164 164
177 177 177
177 177 177
177 177 177
178 178 178
177 177 177
177 177 177
177 177 177
177 177 177
177 177 177
177 177 177
176 176 176
176 176 176
176 176 176
175 175 175
175 175 175
176 176 176
176 176 176
175 175 175
175 175 175
172 172 172
163 163 163
104 104 104
120 120 120
151 151 151
172 172 172
172 172 172
173 173 173
173 173 173
171 171 171
172 172 172
172 172 172
171 171 171
168 168 168
164 164 164
147 147 147
93 93 93
104 104 104
100 100 100
83 83 83
60 60 60
56 56 56
55 55 55
54 54 54
56 56 56
54 54 54
54 54 54
55 55 55
48 48 48
76 76 76
85 85 85
87 87 87
72 72 72
121 121 121
126 126 126
125 125 125
126 126 126
101 101 101
36 36 36
39 39 39
37 37 37
38 38 38
36 36 36
38 38 38
38 38 38
35 35 35
39 39 39
39 39 39
36 36 36
41 41 41
49 49 49
90 90 90
80 80 80
87 87 87
99 99 99
100 100 100
101 101 101
103 103 103
115 115 115
119 119 119
97 97 97
100 100 100
99 99 99
100 100 100
96 96 96
96 96 96
99 99 99
100 100 100
109 109 109
147 147 147
148 148 148
149 149 149
101 101 101
16 16 16
15 15 15
16 16 16
17 17 17
17 17 17
17 17 17
17 17 17
18 18 18
18 18 18
18 18 18
18 18 18
18 18 18
17 17 17
16 16 16
15 15 15
16 16 16
17 17 17
102 102 102
99 99 99
97 97 97
100 100 100
103 103 103
104 104 104
102 102 102
100 100 100
105 105 105
106 106 106
103 103 103
98 98 98
88 88 88
77 77 77
89 89 89
94 94 94
103 103 103
107 107 107
101 101 101
96 96 96
96 96 96
96 96 96
95 95 95
95 95 95
141 141 141
179 179 179
180 180 180
180 180 180
180 180 180
180 180 180
178 178 178
142 142 142
179 179 179
178 178 178
180 180 180
178 178 178
176 176 176
177 177 177
177 177 177
177 177 177
178 178 178
177 177 177
178 178 178
178 178 178
177 177 177
177 177 177
178 178 178
178 178 178
177 177 177
177 177 177
176 176 176
175 175 175
166 166 166
105 105 105
119 119 119
121 121 121
121 121 121
122 122 122
123 123 123
131 131 131
171 171 171
175 175 175
176 176 176
177 177 177
177 177 177
177 177 177
177 177 177
177 177 177
177 177 177
177 177 177
176 176 176
177 177 177
177 177 177
176 176 176
176 176 176
177 177 177
177 177 177
176 176 176
175 175 175
173 173 173
172 172 172
130 130 130
119 119 119
126 126 126
168 168 168
173 173 173
173 173 173
174 174 174
171 171 171
171 171 171
171 171 171
170 170 170
169 169 169
166 166 166
162 162 162
126 126 126
96 96 96
87 87 87
60 60 60
56 56 56
55 55 55
55 55 55
55 55 55
55 55 55
55 55 55
55 55 55
54 54 54
52 52 52
56 56 56
87 87 87
86 86 86
84 84 84
99 99 99
127 127 127
127 127 127
125 125 125
87 87 87
32 32 32
37 37 37
38 38 38
41 41 41
39 39 39
40 40 40
38 38 38
35 35 35
38 38 38
37 37 37
37 37 37
42 42 42
40 40 40
70 70 70
93 93 93
102 102 102
101 101 101
100 100 100
100 100 100
103 103 103
124 124 124
108 108 108
101 101 101
100 100 100
98 98 98
97 97 97
96 96 96
96 96 96
97 97 97
98 98 98
102 102 102
142 142 142
148 148 148
149 149 149
118 118 118
17 17 17
15 15 15
15 15 15
16 16 16
16 16 16
17 17 17
18 18 18
18 18 18
18 18 18
18 18 18
18 18 18
17 17 17
16 16 16
17 17 17
16 16 16
18 18 18
18 18 18
104 104 104
105 105 105
105 105 105
107 107 107
110 110 110
112 112 112
108 108 108
105 105 105
106 106 106
106 106 106
108 108 108
113 113 113
114 114 114
103 103 103
97 97 97
88 88 88
80 80 80
87 87 87
94 94 94
92 92 92
91 91 91
92 92 92
97 97 97
94 94 94
150 150 150
177 177 177
181 181 181
181 181 181
181 181 181
180 180 180
179 179 179
144 144 144
177 177 177
179 179 179
182 182 182
179 179 179
175 175 175
177 177 177
178 178 178
178 178 178
178 178 178
178 178 178
178 178 178
178 178 178
177 177 177
177 177 177
178 178 178
178 178 178
177 177 177
177 177 177
176 176 176
175 175 175
176 176 176
145 145 145
111 111 111
118 118 118
119 119 119
121 121 121
122 122 122
121 121 121
139 139 139
173 173 173
177 177 177
177 177 177
177 177 177
177 177 177
177 177 177
177 177 177
178 178 178
178 178 178
177 177 177
177 177 177
177 177 177
175 175 175
176 176 176
177 177 177
177 177 177
176 176 176
174 174 174
174 174 174
172 172 172
160 160 160
102 102 102
120 120 120
147 147 147
172 172 172
172 172 172
173 173 173
171 171 171
172 172 172
171 171 171
171 171 171
168 168 168
166 166 166
163 163 163
159 159 159
94 94 94
60 60 60
58 58 58
57 57 57
54 54 54
55 55 55
55 55 55
56 56 56
56 56 56
55 55 55
55 55 55
54 54 54
48 48 48
74 74 74
88 88 88
85 85 85
76 76 76
126 126 126
126 126 126
102 102 102
85 85 85
38 38 38
38 38 38
39 39 39
44 44 44
42 42 42
40 40 40
39 39 39
36 36 36
37 37 37
35 35 35
38 38 38
43 43 43
39 39 39
83 83 83
101 101 101
104 104 104
102 102 102
103 103 103
102 102 102
103 103 103
130 130 130
94 94 94
100 100 100
99 99 99
98 98 98
96 96 96
94 94 94
95 95 95
95 95 95
97 97 97
100 100 100
130 130 130
148 148 148
148 148 148
130 130 130
20 20 20
16 16 16
16 16 16
16 16 16
16 16 16
16 16 16
18 18 18
18 18 18
18 18 18
18 18 18
18 18 18
16 16 16
15 15 15
16 16 16
16 16 16
18 18 18
19 19 19
116 116 116
115 115 115
116 116 116
116 116 116
113 113 113
111 111 111
108 108 108
106 106 106
106 106 106
106 106 106
106 106 106
112 112 112
118 118 118
124 124 124
117 117 117
107 107 107
98 98 98
90 90 90
76 76 76
71 71 71
80 80 80
90 90 90
103 103 103
106 106 106
144 144 144
178 178 178
181 181 181
181 181 181
180 180 180
179 179 179
179 179 179
147 147 147
177 177 177
178 178 178
181 181 181
179 179 179
176 176 176
178 178 178
178 178 178
178 178 178
179 179 179
178 178 178
178 178 178
177 177 177
177 177 177
177 177 177
178 178 178
178 178 178
177 177 177
177 177 177
177 177 177
176 176 176
175 175 175
175 175 175
122 122 122
117 117 117
120 120 120
122 122 122
122 122 122
121 121 121
121 121 121
148 148 148
176 176 176
176 176 176
176 176 176
176 176 176
177 177 177
177 177 177
178 178 178
178 178 178
177 177 177
177 177 177
176 176 176
175 175 175
176 176 176
176 176 176
176 176 176
176 176 176
174 174 174
175 175 175
174 174 174
172 172 172
123 123 123
118 118 118
123 123 123
163 163 163
171 171 171
172 172 172
172 172 172
172 172 172
171 171 171
170 170 170
168 168 168
167 167 167
163 163 163
152 152 152
106 106 106
58 58 58
58 58 58
57 57 57
54 54 54
55 55 55
55 55 55
56 56 56
56 56 56
56 56 56
56 56 56
56 56 56
54 54 54
52 52 52
86 86 86
83 83 83
80 80 80
124 124 124
103 103 103
93 93 93
97 97 97
42 42 42
37 37 37
38 38 38
42 42 42
39 39 39
36 36 36
32 32 32
35 35 35
34 34 34
37 37 37
41 41 41
43 43 43
36 36 36
84 84 84
102 102 102
104 104 104
103 103 103
104 104 104
103 103 103
101 101 101
133 133 133
89 89 89
98 98 98
97 97 97
96 96 96
95 95 95
94 94 94
95 95 95
95 95 95
97 97 97
98 98 98
117 117 117
148 148 148
148 148 148
139 139 139
31 31 31
17 17 17
17 17 17
18 18 18
18 18 18
18 18 18
18 18 18
18 18 18
18 18 18
18 18 18
18 18 18
16 16 16
16 16 16
16 16 16
16 16 16
16 16 16
17 17 17
120 120 120
115 115 115
112 112 112
114 114 114
114 114 114
113 113 113
109 109 109
107 107 107
104 104 104
108 108 108
110 110 110
112 112 112
119 119 119
128 128 128
121 121 121
112 112 112
105 105 105
102 102 102
94 94 94
85 85 85
79 79 79
73 73 73
79 79 79
92 92 92
126 126 126
178 178 178
179 179 179
180 180 180
179 179 179
180 180 180
179 179 179
145 145 145
176 176 176
178 178 178
179 179 179
179 179 179
179 179 179
179 179 179
178 178 178
178 178 178
178 178 178
178 178 178
177 177 177
177 177 177
177 177 177
177 177 177
177 177 177
177 177 177
177 177 177
177 177 177
177 177 177
175 175 175
174 174 174
175 175 175
168 168 168
106 106 106
119 119 119
121 121 121
123 123 123
121 121 121
122 122 122
122 122 122
154 154 154
175 175 175
175 175 175
177 177 177
178 178 178
178 178 178
178 178 178
177 177 177
178 178 178
177 177 177
177 177 177
177 177 177
177 177 177
176 176 176
176 176 176
177 177 177
177 177 177
176 176 176
174 174 174
171 171 171
157 157 157
102 102 102
117 117 117
140 140 140
172 172 172
171 171 171
171 171 171
171 171 171
170 170 170
169 169 169
168 168 168
165 165 165
158 158 158
120 120 120
106 106 106
84 84 84
53 53 53
56 56 56
55 55 55
55 55 55
56 56 56
56 56 56
56 56 56
56 56 56
54 54 54
54 54 54
53 53 53
47 47 47
74 74 74
85 85 85
73 73 73
95 95 95
99 99 99
103 103 103
100 100 100
50 50 50
39 39 39
37 37 37
44 44 44
41 41 41
42 42 42
35 35 35
29 29 29
34 34 34
39 39 39
43 43 43
40 40 40
33 33 33
91 91 91
102 102 102
102 102 102
102 102 102
103 103 103
102 102 102
101 101 101
126 126 126
91 91 91
99 99 99
97 97 97
95 95 95
94 94 94
95 95 95
95 95 95
95 95 95
95 95 95
95 95 95
105 105 105
147 147 147
147 147 147
145 145 145
47 47 47
17 17 17
18 18 18
18 18 18
17 17 17
18 18 18
18 18 18
18 18 18
18 18 18
18 18 18
18 18 18
18 18 18
17 17 17
18 18 18
17 17 17
17 17 17
17 17 17
112 112 112
112 112 112
112 112 112
114 114 114
115 115 115
114 114 114
109 109 109
102 102 102
98 98 98
110 110 110
114 114 114
115 115 115
118 118 118
121 121 121
112 112 112
105 105 105
102 102 102
99 99 99
92 92 92
89 89 89
93 93 93
93 93 93
88 88 88
82 82 82
87 87 87
176 176 176
177 177 177
179 179 179
179 179 179
179 179 179
178 178 178
153 153 153
171 171 171
178 178 178
179 179 179
178 178 178
179 179 179
180 180 180
179 179 179
178 178 178
178 178 178
179 179 179
178 178 178
178 178 178
177 177 177
177 177 177
177 177 177
177 177 177
177 177 177
177 177 177
177 177 177
176 176 176
176 176 176
175 175 175
175 175 175
159 159 159
104 104 104
120 120 120
121 121 121
121 121 121
122 122 122
122 122 122
124 124 124
164 164 164
175 175 175
176 176 176
176 176 176
177 177 177
177 177 177
176 176 176
177 177 177
176 176 176
176 176 176
176 176 176
177 177 177
177 177 177
177 177 177
177 177 177
177 177 177
175 175 175
174 174 174
171 171 171
169 169 169
120 120 120
115 115 115
121 121 121
162 162 162
171 171 171
171 171 171
172 172 172
169 169 169
168 168 168
167 167 167
165 165 165
130 130 130
108 108 108
107 107 107
104 104 104
65 65 65
55 55 55
56 56 56
55 55 55
56 56 56
57 57 57
57 57 57
56 56 56
55 55 55
54 54 54
53 53 53
49 49 49
72 72 72
86 86 86
68 68 68
99 99 99
105 105 105
103 103 103
101 101 101
57 57 57
42 42 42
35 35 35
40 40 40
42 42 42
42 42 42
41 41 41
38 38 38
33 33 33
35 35 35
40 40 40
35 35 35
38 38 38
95 95 95
101 101 101
103 103 103
101 101 101
101 101 101
102 102 102
104 104 104
113 113 113
98 98 98
98 98 98
99 99 99
98 98 98
95 95 95
95 95 95
95 95 95
95 95 95
94 94 94
96 96 96
98 98 98
140 140 140
146 146 146
146 146 146
72 72 72
17 17 17
17 17 17
18 18 18
17 17 17
18 18 18
18 18 18
18 18 18
18 18 18
18 18 18
17 17 17
17 17 17
17 17 17
18 18 18
17 17 17
17 17 17
17 17 17
109 109 109
107 107 107
110 110 110
118 118 118
119 119 119
117 117 117
112 112 112
104 104 104
103 103 103
109 109 109
108 108 108
111 111 111
112 112 112
114 114 114
112 112 112
106 106 106
104 104 104
98 98 98
91 91 91
90 90 90
96 96 96
101 101 101
99 99 99
92 92 92
84 84 84
151 151 151
178 178 178
178 178 178
179 179 179
178 178 178
179 179 179
153 153 153
169 169 169
179 179 179
178 178 178
179 179 179
179 179 179
180 180 180
180 180 180
181 181 181
179 179 179
179 179 179
178 178 178
178 178 178
177 177 177
177 177 177
177 177 177
177 177 177
177 177 177
177 177 177
178 178 178
177 177 177
177 177 177
176 176 176
175 175 175
174 174 174
146 146 146
109 109 109
118 118 118
121 121 121
123 123 123
123 123 123
123 123 123
133 133 133
170 170 170
175 175 175
175 175 175
176 176 176
177 177 177
176 176 176
177 177 177
177 177 177
177 177 177
177 177 177
177 177 177
177 177 177
177 177 177
176 176 176
176 176 176
175 175 175
173 173 173
172 172 172
169 169 169
157 157 157
106 106 106
119 119 119
136 136 136
168 168 168
171 171 171
171 171 171
169 169 169
167 167 167
166 166 166
143 143 143
108 108 108
107 107 107
107 107 107
106 106 106
95 95 95
56 56 56
54 54 54
55 55 55
55 55 55
55 55 55
56 56 56
56 56 56
55 55 55
54 54 54
52 52 52
45 45 45
81 81 81
81 81 81
95 95 95
103 103 103
105 105 105
102 102 102
95 95 95
39 39 39
40 40 40
37 37 37
36 36 36
43 43 43
44 44 44
40 40 40
34 34 34
29 29 29
32 32 32
35 35 35
36 36 36
51 51 51
99 99 99
102 102 102
104 104 104
101 101 101
99 99 99
100 100 100
108 108 108
98 98 98
98 98 98
99 99 99
99 99 99
99 99 99
96 96 96
95 95 95
95 95 95
95 95 95
95 95 95
95 95 95
96 96 96
132 132 132
147 147 147
148 148 148
103 103 103
17 17 17
18 18 18
17 17 17
17 17 17
17 17 17
16 16 16
17 17 17
17 17 17
17 17 17
17 17 17
17 17 17
17 17 17
18 18 18
18 18 18
18 18 18
18 18 18
102 102 102
106 106 106
116 116 116
121 121 121
124 124 124
120 120 120
109 109 109
110 110 110
112 112 112
114 114 114
113 113 113
116 116 116
116 116 116
109 109 109
108 108 108
107 107 107
109 109 109
110 110 110
108 108 108
104 104 104
106 106 106
106 106 106
108 108 108
100 100 100
90 90 90
96 96 96
175 175 175
177 177 177
178 178 178
180 180 180
180 180 180
162 162 162
159 159 159
179 179 179
180 180 180
178 178 178
177 177 177
179 179 179
179 179 179
181 181 181
178 178 178
178 178 178
178 178 178
178 178 178
177 177 177
177 177 177
177 177 177
177 177 177
177 177 177
177 177 177
178 178 178
177 177 177
176 176 176
176 176 176
176 176 176
174 174 174
173 173 173
137 137 137
113 113 113
122 122 122
124 124 124
124 124 124
122 122 122
120 120 120
142 142 142
174 174 174
174 174 174
175 175 175
174 174 174
174 174 174
177 177 177
177 177 177
177 177 177
177 177 177
177 177 177
177 177 177
177 177 177
175 175 175
175 175 175
174 174 174
173 173 173
172 172 172
171 171 171
172 172 172
113 113 113
118 118 118
119 119 119
159 159 159
171 171 171
172 172 172
170 170 170
167 167 167
156 156 156
113 113 113
111 111 111
108 108 108
108 108 108
106 106 106
104 104 104
79 79 79
54 54 54
54 54 54
54 54 54
55 55 55
56 56 56
56 56 56
55 55 55
55 55 55
51 51 51
58 58 58
82 82 82
81 81 81
104 104 104
105 105 105
106 106 106
101 101 101
62 62 62
29 29 29
37 37 37
41 41 41
34 34 34
36 36 36
37 37 37
36 36 36
35 35 35
34 34 34
35 35 35
40 40 40
40 40 40
76 76 76
100 100 100
101 101 101
101 101 101
101 101 101
99 99 99
100 100 100
107 107 107
88 88 88
100 100 100
97 97 97
96 96 96
97 97 97
95 95 95
94 94 94
95 95 95
95 95 95
95 95 95
94 94 94
97 97 97
123 123 123
147 147 147
149 149 149
130 130 130
28 28 28
18 18 18
17 17 17
17 17 17
17 17 17
17 17 17
18 18 18
18 18 18
19 19 19
18 18 18
18 18 18
18 18 18
19 19 19
19 19 19
19 19 19
19 19 19
116 116 116
120 120 120
124 124 124
122 122 122
122 122 122
121 121 121
116 116 116
115 115 115
120 120 120
124 124 124
126 126 126
122 122 122
111 111 111
105 105 105
101 101 101
101 101 101
102 102 102
108 108 108
115 115 115
117 117 117
119 119 119
119 119 119
119 119 119
113 113 113
101 101 101
90 90 90
135 135 135
176 176 176
177 177 177
178 178 178
178 178 178
167 167 167
153 153 153
178 178 178
178 178 178
177 177 177
177 177 177
178 178 178
178 178 178
177 177 177
177 177 177
177 177 177
177 177 177
177 177 177
177 177 177
177 177 177
177 177 177
177 177 177
177 177 177
177 177 177
177 177 177
177 177 177
177 177 177
176 176 176
176 176 176
175 175 175
175 175 175
174 174 174
126 126 126
116 116 116
121 121 121
123 123 123
122 122 122
123 123 123
121 121 121
156 156 156
175 175 175
177 177 177
177 177 177
176 176 176
176 176 176
177 177 177
177 177 177
177 177 177
177 177 177
176 176 176
177 177 177
176 176 176
175 175 175
175 175 175
174 174 174
172 172 172
172 172 172
169 169 169
151 151 151
103 103 103
114 114 114
138 138 138
169 169 169
169 169 169
167 167 167
162 162 162
121 121 121
113 113 113
111 111 111
108 108 108
107 107 107
107 107 107
105 105 105
99 99 99
59 59 59
55 55 55
55 55 55
55 55 55
55 55 55
54 54 54
54 54 54
54 54 54
44 44 44
75 75 75
77 77 77
102 102 102
105 105 105
104 104 104
102 102 102
70 70 70
32 32 32
33 33 33
33 33 33
41 41 41
40 40 40
38 38 38
37 37 37
38 38 38
40 40 40
34 34 34
37 37 37
40 40 40
70 70 70
100 100 100
103 103 103
99 99 99
102 102 102
99 99 99
100 100 100
100 100 100
90 90 90
91 91 91
100 100 100
97 97 97
97 97 97
96 96 96
96 96 96
95 95 95
95 95 95
95 95 95
95 95 95
95 95 95
96 96 96
115 115 115
149 149 149
148 148 148
147 147 147
71 71 71
18 18 18
17 17 17
17 17 17
17 17 17
17 17 17
17 17 17
17 17 17
17 17 17
17 17 17
17 17 17
17 17 17
16 16 16
16 16 16
17 17 17
17 17 17
119 119 119
118 118 118
123 123 123
120 120 120
122 122 122
123 123 123
118 118 118
113 113 113
112 112 112
116 116 116
126 126 126
121 121 121
112 112 112
105 105 105
102 102 102
99 99 99
99 99 99
103 103 103
105 105 105
112 112 112
120 120 120
122 122 122
117 117 117
117 117 117
112 112 112
107 107 107
94 94 94
161 161 161
176 176 176
176 176 176
177 177 177
176 176 176
145 145 145
178 178 178
178 178 178
178 178 178
178 178 178
178 178 178
177 177 177
177 177 177
177 177 177
177 177 177
177 177 177
177 177 177
177 177 177
177 177 177
177 177 177
177 177 177
177 177 177
177 177 177
177 177 177
177 177 177
177 177 177
176 176 176
176 176 176
176 176 176
176 176 176
176 176 176
173 173 173
120 120 120
115 115 115
122 122 122
122 122 122
121 121 121
121 121 121
123 123 123
163 163 163
176 176 176
177 177 177
176 176 176
176 176 176
177 177 177
177 177 177
177 177 177
177 177 177
177 177 177
178 178 178
176 176 176
176 176 176
175 175 175
174 174 174
172 172 172
172 172 172
170 170 170
169 169 169
114 114 114
115 115 115
117 117 117
157 157 157
168 168 168
166 166 166
130 130 130
111 111 111
111 111 111
109 109 109
108 108 108
108 108 108
107 107 107
105 105 105
102 102 102
76 76 76
55 55 55
55 55 55
55 55 55
55 55 55
54 54 54
56 56 56
52 52 52
49 49 49
78 78 78
100 100 100
103 103 103
106 106 106
104 104 104
74 74 74
31 31 31
33 33 33
35 35 35
31 31 31
35 35 35
39 39 39
42 42 42
41 41 41
41 41 41
39 39 39
46 46 46
64 64 64
87 87 87
100 100 100
101 101 101
104 104 104
101 101 101
102 102 102
101 101 101
101 101 101
100 100 100
79 79 79
97 97 97
97 97 97
99 99 99
98 98 98
97 97 97
96 96 96
95 95 95
95 95 95
95 95 95
95 95 95
95 95 95
96 96 96
113 113 113
149 149 149
148 148 148
146 146 146
96 96 96
17 17 17
17 17 17
18 18 18
18 18 18
18 18 18
18 18 18
18 18 18
18 18 18
18 18 18
18 18 18
18 18 18
17 17 17
17 17 17
18 18 18
18 18 18
109 109 109
116 116 116
127 127 127
127 127 127
128 128 128
130 130 130
124 124 124
114 114 114
107 107 107
112 112 112
126 126 126
133 133 133
123 123 123
114 114 114
108 108 108
102 102 102
106 106 106
110 110 110
111 111 111
114 114 114
116 116 116
116 116 116
112 112 112
114 114 114
113 113 113
108 108 108
99 99 99
107 107 107
177 177 177
177 177 177
178 178 178
177 177 177
142 142 142
179 179 179
179 179 179
179 179 179
178 178 178
177 177 177
177 177 177
177 177 177
177 177 177
177 177 177
177 177 177
177 177 177
177 177 177
177 177 177
177 177 177
177 177 177
177 177 177
177 177 177
177 177 177
177 177 177
177 177 177
177 177 177
177 177 177
177 177 177
177 177 177
175 175 175
174 174 174
170 170 170
120 120 120
116 116 116
121 121 121
122 122 122
120 120 120
119 119 119
128 128 128
169 169 169
176 176 176
177 177 177
177 177 177
177 177 177
177 177 177
177 177 177
177 177 177
176 176 176
176 176 176
176 176 176
176 176 176
175 175 175
174 174 174
172 172 172
171 171 171
171 171 171
170 170 170
151 151 151
105 105 105
114 114 114
122 122 122
148 148 148
126 126 126
113 113 113
112 112 112
108 108 108
108 108 108
108 108 108
109 109 109
107 107 107
106 106 106
101 101 101
74 74 74
55 55 55
55 55 55
54 54 54
54 54 54
54 54 54
52 52 52
49 49 49
86 86 86
103 103 103
104 104 104
105 105 105
105 105 105
72 72 72
32 32 32
34 34 34
34 34 34
35 35 35
33 33 33
30 30 30
32 32 32
34 34 34
34 34 34
31 31 31
84 84 84
100 100 100
100 100 100
100 100 100
100 100 100
102 102 102
104 104 104
102 102 102
101 101 101
101 101 101
99 99 99
98 98 98
78 78 78
97 97 97
99 99 99
99 99 99
96 96 96
97 97 97
95 95 95
95 95 95
95 95 95
96 96 96
96 96 96
95 95 95
96 96 96
120 120 120
147 147 147
148 148 148
146 146 146
100 100 100
18 18 18
17 17 17
18 18 18
18 18 18
17 17 17
16 16 16
17 17 17
17 17 17
17 17 17
17 17 17
18 18 18
18 18 18
18 18 18
18 18 18
18 18 18
97 97 97
108 108 108
126 126 126
129 129 129
131 131 131
133 133 133
129 129 129
121 121 121
115 115 115
121 121 121
132 132 132
137 137 137
132 132 132
126 126 126
120 120 120
111 111 111
115 115 115
114 114 114
102 102 102
101 101 101
103 103 103
102 102 102
100 100 100
103 103 103
108 108 108
106 106 106
101 101 101
90 90 90
142 142 142
178 178 178
178 178 178
177 177 177
136 136 136
177 177 177
178 178 178
178 178 178
179 179 179
178 178 178
178 178 178
177 177 177
177 177 177
177 177 177
177 177 177
177 177 177
177 177 177
177 177 177
177 177 177
177 177 177
177 177 177
177 177 177
177 177 177
177 177 177
177 177 177
177 177 177
177 177 177
178 178 178
177 177 177
176 176 176
175 175 175
175 175 175
173 173 173
119 119 119
117 117 117
120 120 120
120 120 120
121 121 121
120 120 120
137 137 137
173 173 173
176 176 176
176 176 176
177 177 177
176 176 176
177 177 177
177 177 177
177 177 177
176 176 176
177 177 177
177 177 177
175 175 175
175 175 175
171 171 171
171 171 171
171 171 171
171 171 171
169 169 169
106 106 106
113 113 113
111 111 111
112 112 112
114 114 114
113 113 113
112 112 112
109 109 109
107 107 107
108 108 108
108 108 108
107 107 107
106 106 106
103 103 103
67 67 67
54 54 54
54 54 54
54 54 54
54 54 54
49 49 49
65 65 65
100 100 100
106 106 106
105 105 105
107 107 107
102 102 102
68 68 68
33 33 33
36 36 36
36 36 36
35 35 35
33 33 33
33 33 33
32 32 32
31 31 31
32 32 32
31 31 31
54 54 54
101 101 101
102 102 102
103 103 103
105 105 105
104 104 104
104 104 104
105 105 105
104 104 104
101 101 101
100 100 100
98 98 98
96 96 96
80 80 80
97 97 97
98 98 98
98 98 98
97 97 97
97 97 97
95 95 95
95 95 95
95 95 95
96 96 96
96 96 96
96 96 96
98 98 98
133 133 133
148 148 148
149 149 149
145 145 145
89 89 89
18 18 18
17 17 17
16 16 16
17 17 17
17 17 17
16 16 16
16 16 16
16 16 16
16 16 16
17 17 17
18 18 18
18 18 18
18 18 18
18 18 18
18 18 18
92 92 92
98 98 98
115 115 115
121 121 121
126 126 126
130 130 130
130 130 130
130 130 130
130 130 130
133 133 133
130 130 130
132 132 132
129 129 129
123 123 123
120 120 120
113 113 113
116 116 116
111 111 111
100 100 100
101 101 101
100 100 100
97 97 97
98 98 98
96 96 96
100 100 100
104 104 104
106 106 106
103 103 103
97 97 97
168 168 168
176 176 176
177 177 177
150 150 150
171 171 171
177 177 177
177 177 177
178 178 178
178 178 178
178 178 178
177 177 177
177 177 177
177 177 177
177 177 177
177 177 177
177 177 177
177 177 177
177 177 177
177 177 177
177 177 177
177 177 177
177 177 177
177 177 177
177 177 177
177 177 177
177 177 177
178 178 178
177 177 177
177 177 177
177 177 177
176 176 176
176 176 176
172 172 172
118 118 118
115 115 115
119 119 119
121 121 121
122 122 122
120 120 120
144 144 144
174 174 174
174 174 174
174 174 174
175 175 175
177 177 177
177 177 177
177 177 177
177 177 177
177 177 177
177 177 177
177 177 177
176 176 176
172 172 172
171 171 171
170 170 170
171 171 171
169 169 169
144 144 144
102 102 102
111 111 111
113 113 113
113 113 113
112 112 112
111 111 111
110 110 110
108 108 108
108 108 108
108 108 108
107 107 107
105 105 105
99 99 99
57 57 57
54 54 54
54 54 54
52 52 52
59 59 59
89 89 89
105 105 105
108 108 108
107 107 107
107 107 107
100 100 100
59 59 59
32 32 32
35 35 35
38 38 38
38 38 38
35 35 35
33 33 33
31 31 31
37 37 37
30 30 30
34 34 34
33 33 33
86 86 86
104 104 104
105 105 105
103 103 103
104 104 104
104 104 104
104 104 104
105 105 105
103 103 103
102 102 102
101 101 101
99 99 99
97 97 97
78 78 78
97 97 97
97 97 97
99 99 99
99 99 99
98 98 98
95 95 95
95 95 95
95 95 95
96 96 96
96 96 96
95 95 95
105 105 105
145 145 145
148 148 148
147 147 147
137 137 137
47 47 47
18 18 18
16 16 16
15 15 15
17 17 17
18 18 18
18 18 18
17 17 17
16 16 16
16 16 16
17 17 17
18 18 18
18 18 18
18 18 18
18 18 18
18 18 18
90 90 90
101 101 101
114 114 114
116 116 116
119 119 119
127 127 127
129 129 129
125 125 125
130 130 130
139 139 139
136 136 136
133 133 133
127 127 127
117 117 117
112 112 112
108 108 108
108 108 108
104 104 104
101 101 101
96 96 96
95 95 95
99 99 99
103 103 103
102 102 102
101 101 101
101 101 101
104 104 104
104 104 104
101 101 101
123 123 123
178 178 178
177 177 177
163 163 163
157 157 157
176 176 176
177 177 177
177 177 177
178 178 178
177 177 177
177 177 177
177 177 177
177 177 177
177 177 177
177 177 177
177 177 177
177 177 177
177 177 177
177 177 177
177 177 177
177 177 177
177 177 177
177 177 177
177 177 177
177 177 177
177 177 177
177 177 177
176 176 176
178 178 178
177 177 177
177 177 177
177 177 177
175 175 175
170 170 170
118 118 118
114 114 114
120 120 120
119 119 119
120 120 120
120 120 120
145 145 145
172 172 172
175 175 175
175 175 175
176 176 176
176 176 176
177 177 177
177 177 177
177 177 177
177 177 177
177 177 177
177 177 177
175 175 175
173 173 173
172 172 172
171 171 171
169 169 169
167 167 167
102 102 102
112 112 112
113 113 113
112 112 112
111 111 111
111 111 111
110 110 110
109 109 109
108 108 108
107 107 107
106 106 106
104 104 104
89 89 89
53 53 53
55 55 55
54 54 54
81 81 81
106 106 106
107 107 107
107 107 107
106 106 106
105 105 105
96 96 96
50 50 50
32 32 32
36 36 36
37 37 37
36 36 36
36 36 36
34 34 34
33 33 33
32 32 32
72 72 72
60 60 60
30 30 30
35 35 35
97 97 97
103 103 103
103 103 103
102 102 102
104 104 104
103 103 103
104 104 104
105 105 105
104 104 104
101 101 101
101 101 101
100 100 100
97 97 97
76 76 76
94 94 94
96 96 96
99 99 99
99 99 99
97 97 97
95 95 95
95 95 95
95 95 95
95 95 95
94 94 94
97 97 97
133 133 133
148 148 148
147 147 147
143 143 143
84 84 84
18 18 18
16 16 16
17 17 17
16 16 16
17 17 17
17 17 17
18 18 18
18 18 18
17 17 17
16 16 16
17 17 17
18 18 18
18 18 18
18 18 18
17 17 17
17 17 17
89 89 89
104 104 104
111 111 111
119 119 119
119 119 119
121 121 121
120 120 120
122 122 122
129 129 129
129 129 129
129 129 129
124 124 124
109 109 109
103 103 103
100 100 100
101 101 101
107 107 107
103 103 103
102 102 102
96 96 96
100 100 100
104 104 104
103 103 103
100 100 100
101 101 101
102 102 102
103 103 103
104 104 104
99 99 99
82 82 82
156 156 156
177 177 177
172 172 172
145 145 145
176 176 176
177 177 177
177 177 177
177 177 177
177 177 177
177 177 177
177 177 177
177 177 177
177 177 177
177 177 177
177 177 177
177 177 177
177 177 177
177 177 177
177 177 177
177 177 177
177 177 177
177 177 177
177 177 177
177 177 177
177 177 177
178 178 178
178 178 178
178 178 178
178 178 178
177 177 177
177 177 177
177 177 177
176 176 176
170 170 170
123 123 123
109 109 109
119 119 119
121 121 121
121 121 121
118 118 118
137 137 137
168 168 168
174 174 174
176 176 176
176 176 176
176 176 176
177 177 177
177 177 177
177 177 177
177 177 177
177 177 177
175 175 175
174 174 174
173 173 173
173 173 173
169 169 169
169 169 169
142 142 142
102 102 102
112 112 112
111 111 111
111 111 111
110 110 110
110 110 110
110 110 110
108 108 108
108 108 108
107 107 107
104 104 104
62 62 62
55 55 55
81 81 81
106 106 106
111 111 111
107 107 107
107 107 107
107 107 107
105 105 105
85 85 85
38 38 38
35 35 35
36 36 36
37 37 37
37 37 37
34 34 34
33 33 33
33 33 33
32 32 32
47 47 47
79 79 79
78 78 78
62 62 62
75 75 75
67 67 67
99 99 99
103 103 103
102 102 102
103 103 103
103 103 103
103 103 103
104 104 104
105 105 105
99 99 99
101 101 101
100 100 100
96 96 96
92 92 92
79 79 79
79 79 79
95 95 95
99 99 99
96 96 96
95 95 95
95 95 95
96 96 96
95 95 95
95 95 95
120 120 120
149 149 149
147 147 147
132 132 132
104 104 104
65 65 65
18 18 18
16 16 16
17 17 17
17 17 17
18 18 18
18 18 18
18 18 18
19 19 19
19 19 19
17 17 17
17 17 17
18 18 18
18 18 18
17 17 17
18 18 18
18 18 18
88 88 88
95 95 95
102 102 102
112 112 112
112 112 112
113 113 113
118 118 118
120 120 120
122 122 122
117 117 117
118 118 118
112 112 112
102 102 102
104 104 104
102 102 102
104 104 104
107 107 107
107 107 107
106 106 106
104 104 104
103 103 103
105 105 105
105 105 105
104 104 104
103 103 103
105 105 105
105 105 105
105 105 105
101 101 101
94 94 94
102 102 102
174 174 174
176 176 176
139 139 139
178 178 178
177 177 177
177 177 177
179 179 179
178 178 178
177 177 177
177 177 177
177 177 177
177 177 177
177 177 177
177 177 177
177 177 177
177 177 177
177 177 177
177 177 177
177 177 177
177 177 177
177 177 177
177 177 177
177 177 177
177 177 177
177 177 177
177 177 177
177 177 177
177 177 177
178 178 178
178 178 178
177 177 177
176 176 176
174 174 174
173 173 173
130 130 130
110 110 110
119 119 119
120 120 120
120 120 120
120 120 120
129 129 129
159 159 159
175 175 175
174 174 174
176 176 176
176 176 176
176 176 176
176 176 176
176 176 176
176 176 176
174 174 174
173 173 173
174 174 174
175 175 175
171 171 171
170 170 170
166 166 166
107 107 107
111 111 111
104 104 104
103 103 103
107 107 107
109 109 109
108 108 108
109 109 109
108 108 108
102 102 102
82 82 82
82 82 82
105 105 105
109 109 109
109 109 109
109 109 109
108 108 108
107 107 107
102 102 102
72 72 72
33 33 33
33 33 33
36 36 36
35 35 35
35 35 35
35 35 35
33 33 33
32 32 32
32 32 32
30 30 30
67 67 67
79 79 79
80 80 80
65 65 65
78 78 78
79 79 79
80 80 80
103 103 103
103 103 103
103 103 103
103 103 103
104 104 104
104 104 104
104 104 104
100 100 100
100 100 100
100 100 100
98 98 98
96 96 96
96 96 96
95 95 95
97 97 97
99 99 99
96 96 96
93 93 93
97 97 97
98 98 98
97 97 97
112 112 112
145 145 145
135 135 135
103 103 103
115 115 115
130 130 130
83 83 83
18 18 18
16 16 16
17 17 17
18 18 18
18 18 18
17 17 17
18 18 18
18 18 18
21 21 21
18 18 18
17 17 17
18 18 18
18 18 18
17 17 17
18 18 18
20 20 20
99 99 99
104 104 104
105 105 105
107 107 107
110 110 110
114 114 114
122 122 122
125 125 125
123 123 123
120 120 120
117 117 117
114 114 114
108 108 108
106 106 106
107 107 107
109 109 109
111 111 111
110 110 110
109 109 109
108 108 108
108 108 108
104 104 104
103 103 103
106 106 106
104 104 104
100 100 100
102 102 102
104 104 104
100 100 100
94 94 94
90 90 90
139 139 139
177 177 177
140 140 140
176 176 176
177 177 177
177 177 177
177 177 177
177 177 177
177 177 177
177 177 177
177 177 177
177 177 177
177 177 177
177 177 177
177 177 177
177 177 177
177 177 177
177 177 177
177 177 177
177 177 177
177 177 177
177 177 177
177 177 177
177 177 177
177 177 177
177 177 177
177 177 177
176 176 176
178 178 178
177 177 177
177 177 177
177 177 177
176 176 176
174 174 174
172 172 172
141 141 141
105 105 105
118 118 118
119 119 119
121 121 121
120 120 120
119 119 119
154 154 154
174 174 174
173 173 173
175 175 175
176 176 176
176 176 176
176 176 176
175 175 175
173 173 173
174 174 174
175 175 175
174 174 174
170 170 170
172 172 172
158 158 158
123 123 123
144 144 144
155 155 155
152 152 152
151 151 151
141 141 141
136 136 136
126 126 126
110 110 110
92 92 92
96 96 96
98 98 98
105 105 105
111 111 111
113 113 113
111 111 111
110 110 110
97 97 97
54 54 54
33 33 33
33 33 33
34 34 34
35 35 35
34 34 34
35 35 35
32 32 32
34 34 34
53 53 53
47 47 47
32 32 32
79 79 79
80 80 80
80 80 80
72 72 72
74 74 74
79 79 79
74 74 74
98 98 98
104 104 104
103 103 103
103 103 103
104 104 104
104 104 104
104 104 104
102 102 102
101 101 101
100 100 100
98 98 98
97 97 97
96 96 96
98 98 98
99 99 99
98 98 98
95 95 95
94 94 94
96 96 96
99 99 99
102 102 102
128 128 128
96 96 96
79 79 79
124 124 124
136 136 136
134 134 134
99 99 99
17 17 17
17 17 17
17 17 17
18 18 18
18 18 18
19 19 19
21 21 21
23 23 23
21 21 21
23 23 23
24 24 24
25 25 25
24 24 24
22 22 22
22 22 22
21 21 21
104 104 104
110 110 110
110 110 110
108 108 108
113 113 113
120 120 120
118 118 118
119 119 119
128 128 128
125 125 125
119 119 119
113 113 113
112 112 112
110 110 110
107 107 107
111 111 111
114 114 114
113 113 113
112 112 112
114 114 114
112 112 112
103 103 103
100 100 100
101 101 101
103 103 103
103 103 103
102 102 102
100 100 100
90 90 90
89 89 89
100 100 100
99 99 99
169 169 169
150 150 150
165 165 165
177 177 177
177 177 177
177 177 177
177 177 177
177 177 177
177 177 177
177 177 177
177 177 177
177 177 177
177 177 177
177 177 177
177 177 177
177 177 177
177 177 177
177 177 177
177 177 177
177 177 177
178 178 178
178 178 178
177 177 177
176 176 176
177 177 177
177 177 177
176 176 176
178 178 178
177 177 177
177 177 177
177 177 177
176 176 176
175 175 175
174 174 174
172 172 172
155 155 155
107 107 107
116 116 116
119 119 119
119 119 119
120 120 120
120 120 120
144 144 144
170 170 170
172 172 172
176 176 176
176 176 176
176 176 176
174 174 174
173 173 173
174 174 174
175 175 175
173 173 173
162 162 162
140 140 140
158 158 158
180 180 180
180 180 180
178 178 178
178 178 178
179 179 179
179 179 179
177 177 177
175 175 175
176 176 176
175 175 175
172 172 172
164 164 164
149 149 149
135 135 135
114 114 114
99 99 99
86 86 86
42 42 42
36 36 36
37 37 37
35 35 35
35 35 35
34 34 34
35 35 35
32 32 32
36 36 36
77 77 77
82 82 82
82 82 82
78 78 78
81 81 81
81 81 81
79 79 79
77 77 77
70 70 70
79 79 79
79 79 79
76 76 76
102 102 102
103 103 103
103 103 103
104 104 104
105 105 105
104 104 104
102 102 102
100 100 100
100 100 100
98 98 98
98 98 98
98 98 98
98 98 98
98 98 98
96 96 96
94 94 94
95 95 95
96 96 96
91 91 91
81 81 81
78 78 78
89 89 89
105 105 105
134 134 134
136 136 136
135 135 135
114 114 114
20 20 20
17 17 17
17 17 17
17 17 17
16 16 16
18 18 18
19 19 19
20 20 20
18 18 18
20 20 20
22 22 22
25 25 25
24 24 24
25 25 25
23 23 23
24 24 24
120 120 120
116 116 116
111 111 111
111 111 111
114 114 114
118 118 118
119 119 119
119 119 119
124 124 124
123 123 123
120 120 120
119 119 119
115 115 115
110 110 110
108 108 108
108 108 108
113 113 113
111 111 111
109 109 109
115 115 115
114 114 114
106 106 106
93 93 93
87 87 87
89 89 89
103 103 103
111 111 111
112 112 112
109 109 109
107 107 107
118 118 118
120 120 120
131 131 131
168 168 168
148 148 148
177 177 177
176 176 176
177 177 177
177 177 177
177 177 177
177 177 177
177 177 177
177 177 177
177 177 177
177 177 177
177 177 177
177 177 177
177 177 177
177 177 177
177 177 177
176 176 176
177 177 177
178 178 178
178 178 178
177 177 177
176 176 176
177 177 177
177 177 177
176 176 176
178 178 178
177 177 177
177 177 177
177 177 177
176 176 176
176 176 176
174 174 174
172 172 172
173 173 173
165 165 165
115 115 115
111 111 111
119 119 119
121 121 121
121 121 121
118 118 118
127 127 127
148 148 148
162 162 162
170 170 170
171 171 171
173 173 173
175 175 175
173 173 173
169 169 169
143 143 143
151 151 151
182 182 182
183 183 183
182 182 182
181 181 181
180 180 180
180 180 180
180 180 180
180 180 180
178 178 178
177 177 177
176 176 176
177 177 177
176 176 176
174 174 174
172 172 172
173 173 173
169 169 169
163 163 163
140 140 140
83 83 83
37 37 37
38 38 38
36 36 36
36 36 36
36 36 36
38 38 38
33 33 33
65 65 65
81 81 81
80 80 80
81 81 81
80 80 80
80 80 80
83 83 83
81 81 81
79 79 79
67 67 67
80 80 80
80 80 80
72 72 72
93 93 93
104 104 104
104 104 104
104 104 104
105 105 105
104 104 104
102 102 102
100 100 100
99 99 99
98 98 98
101 101 101
100 100 100
99 99 99
96 96 96
95 95 95
95 95 95
92 92 92
75 75 75
78 78 78
85 85 85
88 88 88
89 89 89
127 127 127
136 136 136
137 137 137
136 136 136
121 121 121
26 26 26
18 18 18
17 17 17
17 17 17
16 16 16
18 18 18
18 18 18
18 18 18
20 20 20
21 21 21
23 23 23
25 25 25
24 24 24
24 24 24
23 23 23
24 24 24
131 131 131
126 126 126
126 126 126
122 122 122
120 120 120
123 123 123
123 123 123
121 121 121
120 120 120
121 121 121
120 120 120
118 118 118
114 114 114
108 108 108
104 104 104
105 105 105
112 112 112
111 111 111
108 108 108
115 115 115
114 114 114
109 109 109
97 97 97
87 87 87
88 88 88
94 94 94
102 102 102
113 113 113
127 127 127
127 127 127
129 129 129
132 132 132
120 120 120
164 164 164
140 140 140
176 176 176
176 176 176
178 178 178
178 178 178
177 177 177
177 177 177
177 177 177
177 177 177
177 177 177
177 177 177
177 177 177
177 177 177
177 177 177
177 177 177
177 177 177
177 177 177
177 177 177
177 177 177
177 177 177
177 177 177
176 176 176
177 177 177
177 177 177
176 176 176
177 177 177
176 176 176
176 176 176
177 177 177
177 177 177
177 177 177
176 176 176
174 174 174
173 173 173
172 172 172
170 170 170
137 137 137
105 105 105
117 117 117
119 119 119
118 118 118
117 117 117
116 116 116
116 116 116
119 119 119
124 124 124
132 132 132
131 131 131
124 124 124
130 130 130
174 174 174
182 182 182
182 182 182
183 183 183
183 183 183
181 181 181
180 180 180
181 181 181
180 180 180
180 180 180
180 180 180
180 180 180
177 177 177
177 177 177
178 178 178
174 174 174
174 174 174
174 174 174
173 173 173
171 171 171
169 169 169
165 165 165
109 109 109
40 40 40
38 38 38
35 35 35
35 35 35
37 37 37
33 33 33
80 80 80
80 80 80
82 82 82
81 81 81
83 83 83
77 77 77
83 83 83
81 81 81
81 81 81
65 65 65
80 80 80
81 81 81
83 83 83
74 74 74
102 102 102
104 104 104
105 105 105
106 106 106
106 106 106
104 104 104
99 99 99
100 100 100
99 99 99
104 104 104
102 102 102
100 100 100
98 98 98
96 96 96
82 82 82
76 76 76
87 87 87
88 88 88
88 88 88
89 89 89
95 95 95
133 133 133
136 136 136
137 137 137
136 136 136
128 128 128
40 40 40
17 17 17
17 17 17
17 17 17
16 16 16
17 17 17
16 16 16
21 21 21
22 22 22
23 23 23
25 25 25
26 26 26
26 26 26
23 23 23
24 24 24
26 26 26
132 132 132
134 134 134
137 137 137
128 128 128
118 118 118
120 120 120
121 121 121
121 121 121
120 120 120
119 119 119
120 120 120
118 118 118
112 112 112
104 104 104
102 102 102
104 104 104
110 110 110
117 117 117
114 114 114
106 106 106
109 109 109
118 118 118
118 118 118
114 114 114
108 108 108
102 102 102
109 109 109
121 121 121
133 133 133
134 134 134
133 133 133
136 136 136
139 139 139
125 125 125
137 137 137
178 178 178
178 178 178
178 178 178
178 178 178
177 177 177
177 177 177
177 177 177
177 177 177
177 177 177
177 177 177
177 177 177
177 177 177
177 177 177
177 177 177
177 177 177
177 177 177
177 177 177
177 177 177
176 176 176
175 175 175
175 175 175
176 176 176
177 177 177
176 176 176
177 177 177
176 176 176
176 176 176
177 177 177
177 177 177
177 177 177
176 176 176
174 174 174
174 174 174
173 173 173
172 172 172
172 172 172
156 156 156
112 112 112
112 112 112
115 115 115
115 115 115
117 117 117
116 116 116
115 115 115
115 115 115
116 116 116
106 106 106
153 153 153
184 184 184
184 184 184
185 185 185
185 185 185
184 184 184
182 182 182
181 181 181
180 180 180
178 178 178
176 176 176
176 176 176
176 176 176
176 176 176
176 176 176
178 178 178
177 177 177
176 176 176
176 176 176
176 176 176
173 173 173
173 173 173
170 170 170
168 168 168
166 166 166
100 100 100
37 37 37
36 36 36
36 36 36
35 35 35
41 41 41
84 84 84
82 82 82
82 82 82
81 81 81
82 82 82
63 63 63
82 82 82
81 81 81
81 81 81
58 58 58
80 80 80
81 81 81
80 80 80
76 76 76
91 91 91
102 102 102
105 105 105
106 106 106
106 106 106
104 104 104
103 103 103
102 102 102
100 100 100
103 103 103
99 99 99
96 96 96
85 85 85
75 75 75
86 86 86
88 88 88
86 86 86
86 86 86
88 88 88
89 89 89
95 95 95
135 135 135
136 136 136
136 136 136
136 136 136
132 132 132
62 62 62
19 19 19
17 17 17
17 17 17
18 18 18
18 18 18
16 16 16
18 18 18
20 20 20
24 24 24
25 25 25
26 26 26
26 26 26
24 24 24
26 26 26
27 27 27
137 137 137
135 135 135
134 134 134
126 126 126
117 117 117
112 112 112
117 117 117
121 121 121
123 123 123
119 119 119
117 117 117
112 112 112
109 109 109
107 107 107
105 105 105
100 100 100
101 101 101
114 114 114
116 116 116
114 114 114
122 122 122
130 130 130
133 133 133
130 130 130
125 125 125
124 124 124
130 130 130
135 135 135
140 140 140
139 139 139
139 139 139
138 138 138
138 138 138
103 103 103
120 120 120
173 173 173
178 178 178
178 178 178
178 178 178
177 177 177
177 177 177
177 177 177
177 177 177
177 177 177
177 177 177
177 177 177
177 177 177
177 177 177
177 177 177
177 177 177
177 177 177
177 177 177
177 177 177
176 176 176
176 176 176
177 177 177
177 177 177
177 177 177
176 176 176
178 178 178
177 177 177
178 178 178
177 177 177
177 177 177
177 177 177
177 177 177
176 176 176
175 175 175
173 173 173
172 172 172
171 171 171
171 171 171
168 168 168
129 129 129
101 101 101
114 114 114
117 117 117
116 116 116
117 117 117
114 114 114
117 117 117
172 172 172
185 185 185
187 187 187
188 188 188
187 187 187
186 186 186
182 182 182
182 182 182
183 183 183
182 182 182
178 178 178
176 176 176
176 176 176
176 176 176
175 175 175
177 177 177
179 179 179
178 178 178
177 177 177
176 176 176
176 176 176
175 175 175
174 174 174
173 173 173
171 171 171
168 168 168
160 160 160
63 63 63
38 38 38
36 36 36
32 32 32
42 42 42
68 68 68
67 67 67
81 81 81
81 81 81
82 82 82
65 65 65
80 80 80
80 80 80
82 82 82
48 48 48
71 71 71
78 78 78
78 78 78
81 81 81
69 69 69
101 101 101
104 104 104
105 105 105
104 104 104
102 102 102
101 101 101
99 99 99
99 99 99
100 100 100
96 96 96
75 75 75
83 83 83
89 89 89
89 89 89
88 88 88
87 87 87
89 89 89
90 90 90
88 88 88
92 92 92
134 134 134
136 136 136
136 136 136
137 137 137
133 133 133
79 79 79
21 21 21
19 19 19
18 18 18
18 18 18
17 17 17
17 17 17
16 16 16
17 17 17
21 21 21
25 25 25
25 25 25
26 26 26
25 25 25
26 26 26
26 26 26
139 139 139
138 138 138
135 135 135
134 134 134
132 132 132
130 130 130
129 129 129
128 128 128
123 123 123
119 119 119
119 119 119
119 119 119
116 116 116
113 113 113
112 112 112
103 103 103
99 99 99
103 103 103
107 107 107
114 114 114
118 118 118
120 120 120
130 130 130
129 129 129
125 125 125
125 125 125
128 128 128
133 133 133
137 137 137
139 139 139
141 141 141
139 139 139
123 123 123
172 172 172
111 111 111
165 165 165
178 178 178
178 178 178
177 177 177
177 177 177
177 177 177
177 177 177
177 177 177
177 177 177
177 177 177
177 177 177
177 177 177
177 177 177
177 177 177
177 177 177
177 177 177
176 176 176
175 175 175
177 177 177
177 177 177
177 177 177
177 177 177
177 177 177
176 176 176
177 177 177
176 176 176
177 177 177
177 177 177
177 177 177
177 177 177
177 177 177
176 176 176
176 176 176
174 174 174
173 173 173
173 173 173
173 173 173
173 173 173
170 170 170
160 160 160
116 116 116
108 108 108
116 116 116
109 109 109
128 128 128
181 181 181
184 184 184
187 187 187
188 188 188
188 188 188
187 187 187
186 186 186
185 185 185
184 184 184
184 184 184
183 183 183
179 179 179
177 177 177
178 178 178
177 177 177
176 176 176
178 178 178
180 180 180
180 180 180
176 176 176
177 177 177
176 176 176
176 176 176
175 175 175
173 173 173
173 173 173
169 169 169
165 165 165
118 118 118
37 37 37
31 31 31
57 57 57
75 75 75
80 80 80
80 80 80
62 62 62
81 81 81
83 83 83
67 67 67
78 78 78
80 80 80
80 80 80
67 67 67
72 72 72
66 66 66
79 79 79
78 78 78
78 78 78
88 88 88
104 104 104
105 105 105
103 103 103
105 105 105
100 100 100
99 99 99
100 100 100
83 83 83
77 77 77
89 89 89
89 89 89
91 91 91
91 91 91
89 89 89
90 90 90
91 91 91
89 89 89
88 88 88
89 89 89
125 125 125
136 136 136
136 136 136
138 138 138
134 134 134
97 97 97
21 21 21
19 19 19
19 19 19
20 20 20
20 20 20
21 21 21
20 20 20
20 20 20
22 22 22
25 25 25
25 25 25
26 26 26
25 25 25
25 25 25
25 25 25
144 144 144
144 144 144
142 142 142
137 137 137
134 134 134
135 135 135
133 133 133
126 126 126
112 112 112
102 102 102
103 103 103
111 111 111
119 119 119
120 120 120
119 119 119
114 114 114
108 108 108
110 110 110
110 110 110
106 106 106
104 104 104
107 107 107
118 118 118
120 120 120
122 122 122
124 124 124
126 126 126
128 128 128
131 131 131
134 134 134
141 141 141
140 140 140
135 135 135
188 188 188
125 125 125
159 159 159
175 175 175
176 176 176
177 177 177
177 177 177
177 177 177
177 177 177
177 177 177
177 177 177
177 177 177
177 177 177
177 177 177
177 177 177
177 177 177
177 177 177
176 176 176
176 176 176
177 177 177
178 178 178
178 178 178
177 177 177
177 177 177
177 177 177
176 176 176
177 177 177
177 177 177
177 177 177
177 177 177
177 177 177
177 177 177
177 177 177
177 177 177
176 176 176
175 175 175
175 175 175
174 174 174
174 174 174
173 173 173
172 172 172
172 172 172
172 172 172
147 147 147
96 96 96
141 141 141
184 184 184
187 187 187
187 187 187
186 186 186
185 185 185
183 183 183
183 183 183
184 184 184
184 184 184
185 185 185
184 184 184
183 183 183
184 184 184
178 178 178
182 182 182
180 180 180
176 176 176
177 177 177
178 178 178
177 177 177
175 175 175
176 176 176
176 176 176
175 175 175
175 175 175
176 176 176
173 173 173
171 171 171
166 166 166
154 154 154
44 44 44
59 59 59
84 84 84
81 81 81
81 81 81
84 84 84
77 77 77
73 73 73
83 83 83
67 67 67
77 77 77
82 82 82
73 73 73
74 74 74
79 79 79
73 73 73
72 72 72
81 81 81
81 81 81
69 69 69
101 101 101
104 104 104
103 103 103
104 104 104
101 101 101
93 93 93
76 76 76
85 85 85
92 92 92
92 92 92
93 93 93
93 93 93
93 93 93
90 90 90
90 90 90
91 91 91
89 89 89
89 89 89
90 90 90
110 110 110
135 135 135
135 135 135
136 136 136
135 135 135
109 109 109
25 25 25
22 22 22
22 22 22
23 23 23
25 25 25
25 25 25
24 24 24
23 23 23
23 23 23
25 25 25
25 25 25
25 25 25
24 24 24
24 24 24
25 25 25
142 142 142
144 144 144
144 144 144
141 141 141
135 135 135
131 131 131
121 121 121
110 110 110
108 108 108
111 111 111
115 115 115
116 116 116
117 117 117
124 124 124
122 122 122
116 116 116
115 115 115
111 111 111
101 101 101
92 92 92
91 91 91
102 102 102
108 108 108
113 113 113
116 116 116
117 117 117
119 119 119
117 117 117
120 120 120
126 126 126
140 140 140
124 124 124
179 179 179
170 170 170
129 129 129
147 147 147
175 175 175
177 177 177
177 177 177
177 177 177
177 177 177
177 177 177
177 177 177
177 177 177
177 177 177
177 177 177
177 177 177
177 177 177
177 177 177
177 177 177
176 176 176
176 176 176
177 177 177
178 178 178
178 178 178
177 177 177
176 176 176
175 175 175
175 175 175
177 177 177
177 177 177
177 177 177
177 177 177
177 177 177
177 177 177
177 177 177
176 176 176
176 176 176
175 175 175
175 175 175
175 175 175
174 174 174
173 173 173
172 172 172
172 172 172
173 173 173
152 152 152
154 154 154
184 184 184
185 185 185
187 187 187
186 186 186
187 187 187
186 186 186
184 184 184
184 184 184
184 184 184
183 183 183
184 184 184
184 184 184
185 185 185
183 183 183
183 183 183
182 182 182
180 180 180
176 176 176
177 177 177
178 178 178
178 178 178
177 177 177
177 177 177
176 176 176
176 176 176
176 176 176
177 177 177
173 173 173
173 173 173
168 168 168
164 164 164
82 82 82
86 86 86
83 83 83
83 83 83
76 76 76
79 79 79
83 83 83
64 64 64
82 82 82
65 65 65
77 77 77
80 80 80
64 64 64
79 79 79
80 80 80
78 78 78
68 68 68
80 80 80
77 77 77
74 74 74
84 84 84
102 102 102
102 102 102
102 102 102
87 87 87
77 77 77
90 90 90
92 92 92
90 90 90
91 91 91
92 92 92
93 93 93
92 92 92
91 91 91
90 90 90
90 90 90
90 90 90
90 90 90
89 89 89
95 95 95
132 132 132
135 135 135
136 136 136
136 136 136
121 121 121
30 30 30
27 27 27
28 28 28
27 27 27
25 25 25
25 25 25
24 24 24
22 22 22
23 23 23
24 24 24
24 24 24
25 25 25
25 25 25
24 24 24
24 24 24
143 143 143
142 142 142
141 141 141
141 141 141
136 136 136
130 130 130
125 125 125
112 112 112
104 104 104
107 107 107
107 107 107
109 109 109
113 113 113
116 116 116
116 116 116
114 114 114
112 112 112
102 102 102
92 92 92
91 91 91
86 86 86
80 80 80
86 86 86
96 96 96
104 104 104
105 105 105
108 108 108
107 107 107
110 110 110
121 121 121
127 127 127
152 152 152
186 186 186
142 142 142
134 134 134
130 130 130
176 176 176
177 177 177
177 177 177
177 177 177
177 177 177
177 177 177
177 177 177
177 177 177
177 177 177
177 177 177
177 177 177
177 177 177
177 177 177
177 177 177
176 176 176
176 176 176
176 176 176
177 177 177
177 177 177
176 176 176
175 175 175
175 175 175
175 175 175
177 177 177
177 177 177
177 177 177
176 176 176
176 176 176
176 176 176
175 175 175
173 173 173
173 173 173
174 174 174
175 175 175
175 175 175
174 174 174
173 173 173
171 171 171
173 173 173
152 152 152
161 161 161
186 186 186
186 186 186
187 187 187
188 188 188
187 187 187
184 184 184
183 183 183
185 185 185
185 185 185
183 183 183
182 182 182
184 184 184
185 185 185
185 185 185
185 185 185
183 183 183
181 181 181
176 176 176
176 176 176
178 178 178
179 179 179
179 179 179
178 178 178
177 177 177
176 176 176
176 176 176
176 176 176
176 176 176
173 173 173
173 173 173
170 170 170
167 167 167
114 114 114
90 90 90
86 86 86
85 85 85
67 67 67
83 83 83
84 84 84
61 61 61
82 82 82
67 67 67
80 80 80
80 80 80
64 64 64
81 81 81
80 80 80
80 80 80
66 66 66
79 79 79
78 78 78
80 80 80
67 67 67
98 98 98
100 100 100
85 85 85
80 80 80
91 91 91
90 90 90
92 92 92
93 93 93
92 92 92
90 90 90
90 90 90
91 91 91
91 91 91
91 91 91
91 91 91
91 91 91
91 91 91
90 90 90
89 89 89
120 120 120
135 135 135
136 136 136
135 135 135
130 130 130
41 41 41
26 26 26
27 27 27
25 25 25
23 23 23
24 24 24
23 23 23
20 20 20
21 21 21
22 22 22
22 22 22
25 25 25
26 26 26
26 26 26
26 26 26
139 139 139
130 130 130
127 127 127
129 129 129
131 131 131
136 136 136
138 138 138
132 132 132
120 120 120
111 111 111
97 97 97
93 93 93
90 90 90
91 91 91
93 93 93
101 101 101
111 111 111
114 114 114
113 113 113
105 105 105
88 88 88
78 78 78
83 83 83
83 83 83
85 85 85
86 86 86
87 87 87
90 90 90
96 96 96
113 113 113
125 125 125
189 189 189
160 160 160
133 133 133
134 134 134
119 119 119
174 174 174
176 176 176
177 177 177
177 177 177
178 178 178
178 178 178
178 178 178
178 178 178
177 177 177
177 177 177
177 177 177
176 176 176
177 177 177
177 177 177
177 177 177
177 177 177
177 177 177
177 177 177
177 177 177
176 176 176
176 176 176
176 176 176
176 176 176
177 177 177
177 177 177
177 177 177
177 177 177
176 176 176
176 176 176
174 174 174
168 168 168
156 156 156
149 149 149
151 151 151
165 165 165
173 173 173
172 172 172
174 174 174
146 146 146
168 168 168
187 187 187
187 187 187
188 188 188
188 188 188
188 188 188
186 186 186
184 184 184
183 183 183
182 182 182
157 157 157
141 141 141
178 178 178
184 184 184
185 185 185
186 186 186
186 186 186
183 183 183
179 179 179
178 178 178
178 178 178
178 178 178
179 179 179
179 179 179
178 178 178
177 177 177
176 176 176
175 175 175
176 176 176
177 177 177
173 173 173
172 172 172
172 172 172
170 170 170
133 133 133
86 86 86
86 86 86
84 84 84
66 66 66
85 85 85
82 82 82
67 67 67
82 82 82
64 64 64
81 81 81
76 76 76
70 70 70
79 79 79
78 78 78
80 80 80
63 63 63
79 79 79
80 80 80
80 80 80
75 75 75
82 82 82
85 85 85
85 85 85
94 94 94
91 91 91
92 92 92
93 93 93
93 93 93
93 93 93
93 93 93
91 91 91
90 90 90
91 91 91
91 91 91
91 91 91
90 90 90
90 90 90
87 87 87
88 88 88
103 103 103
134 134 134
137 137 137
135 135 135
132 132 132
61 61 61
25 25 25
26 26 26
25 25 25
24 24 24
26 26 26
28 28 28
28 28 28
27 27 27
27 27 27
28 28 28
27 27 27
27 27 27
29 29 29
30 30 30
112 112 112
108 108 108
116 116 116
120 120 120
126 126 126
136 136 136
136 136 136
135 135 135
132 132 132
114 114 114
100 100 100
97 97 97
97 97 97
96 96 96
99 99 99
105 105 105
111 111 111
122 122 122
128 128 128
121 121 121
106 106 106
85 85 85
76 76 76
74 74 74
76 76 76
79 79 79
77 77 77
77 77 77
80 80 80
88 88 88
175 175 175
178 178 178
134 134 134
133 133 133
135 135 135
117 117 117
167 167 167
177 177 177
177 177 177
177 177 177
178 178 178
178 178 178
178 178 178
178 178 178
177 177 177
177 177 177
176 176 176
176 176 176
177 177 177
177 177 177
177 177 177
177 177 177
177 177 177
176 176 176
176 176 176
176 176 176
178 178 178
177 177 177
177 177 177
177 177 177
177 177 177
177 177 177
176 176 176
175 175 175
174 174 174
157 157 157
124 124 124
118 118 118
118 118 118
118 118 118
116 116 116
137 137 137
168 168 168
141 141 141
166 166 166
186 186 186
187 187 187
188 188 188
188 188 188
188 188 188
188 188 188
186 186 186
184 184 184
180 180 180
147 147 147
126 126 126
146 146 146
182 182 182
184 184 184
186 186 186
186 186 186
186 186 186
183 183 183
178 178 178
178 178 178
178 178 178
179 179 179
179 179 179
179 179 179
178 178 178
178 178 178
176 176 176
174 174 174
178 178 178
177 177 177
173 173 173
172 172 172
171 171 171
169 169 169
144 144 144
82 82 82
86 86 86
78 78 78
75 75 75
81 81 81
82 82 82
73 73 73
77 77 77
66 66 66
82 82 82
67 67 67
78 78 78
79 79 79
77 77 77
79 79 79
63 63 63
80 80 80
80 80 80
79 79 79
79 79 79
63 63 63
80 80 80
92 92 92
94 94 94
92 92 92
93 93 93
94 94 94
94 94 94
93 93 93
93 93 93
91 91 91
89 89 89
91 91 91
91 91 91
91 91 91
90 90 90
90 90 90
87 87 87
89 89 89
88 88 88
127 127 127
136 136 136
136 136 136
134 134 134
81 81 81
27 27 27
27 27 27
28 28 28
27 27 27
29 29 29
31 31 31
33 33 33
32 32 32
32 32 32
35 35 35
40 40 40
41 41 41
41 41 41
44 44 44
100 100 100
102 102 102
109 109 109
111 111 111
121 121 121
133 133 133
127 127 127
119 119 119
121 121 121
117 117 117
112 112 112
110 110 110
116 116 116
116 116 116
117 117 117
118 118 118
120 120 120
124 124 124
129 129 129
127 127 127
118 118 118
100 100 100
85 85 85
76 76 76
73 73 73
73 73 73
73 73 73
73 73 73
75 75 75
149 149 149
186 186 186
148 148 148
131 131 131
133 133 133
134 134 134
127 127 127
152 152 152
178 178 178
177 177 177
177 177 177
176 176 176
177 177 177
177 177 177
177 177 177
176 176 176
176 176 176
177 177 177
177 177 177
177 177 177
177 177 177
177 177 177
176 176 176
177 177 177
177 177 177
176 176 176
178 178 178
177 177 177
176 176 176
176 176 176
177 177 177
177 177 177
177 177 177
175 175 175
174 174 174
158 158 158
121 121 121
119 119 119
119 119 119
117 117 117
116 116 116
119 119 119
119 119 119
111 111 111
169 169 169
187 187 187
186 186 186
187 187 187
187 187 187
187 187 187
185 185 185
185 185 185
184 184 184
179 179 179
143 143 143
127 127 127
128 128 128
175 175 175
185 185 185
185 185 185
186 186 186
186 186 186
186 186 186
184 184 184
178 178 178
177 177 177
177 177 177
179 179 179
179 179 179
179 179 179
178 178 178
178 178 178
176 176 176
176 176 176
178 178 178
177 177 177
173 173 173
172 172 172
171 171 171
170 170 170
159 159 159
82 82 82
86 86 86
65 65 65
82 82 82
81 81 81
82 82 82
78 78 78
72 72 72
65 65 65
82 82 82
63 63 63
80 80 80
81 81 81
79 79 79
79 79 79
64 64 64
78 78 78
78 78 78
78 78 78
79 79 79
73 73 73
81 81 81
91 91 91
92 92 92
93 93 93
94 94 94
94 94 94
94 94 94
93 93 93
93 93 93
91 91 91
90 90 90
91 91 91
91 91 91
91 91 91
91 91 91
91 91 91
89 89 89
91 91 91
90 90 90
108 108 108
134 134 134
136 136 136
133 133 133
100 100 100
33 33 33
32 32 32
33 33 33
39 39 39
40 40 40
42 42 42
43 43 43
46 46 46
49 49 49
50 50 50
55 55 55
57 57 57
58 58 58
59 59 59
121 121 121
120 120 120
122 122 122
121 121 121
129 129 129
130 130 130
133 133 133
133 133 133
137 137 137
133 133 133
130 130 130
132 132 132
135 135 135
135 135 135
136 136 136
135 135 135
127 127 127
124 124 124
116 116 116
117 117 117
117 117 117
104 104 104
98 98 98
91 91 91
84 84 84
77 77 77
75 75 75
76 76 76
113 113 113
184 184 184
163 163 163
133 133 133
133 133 133
133 133 133
133 133 133
133 133 133
131 131 131
178 178 178
177 177 177
176 176 176
176 176 176
176 176 176
177 177 177
177 177 177
176 176 176
175 175 175
177 177 177
177 177 177
177 177 177
177 177 177
176 176 176
175 175 175
177 177 177
178 178 178
178 178 178
179 179 179
177 177 177
176 176 176
176 176 176
177 177 177
176 176 176
175 175 175
174 174 174
164 164 164
123 123 123
119 119 119
117 117 117
118 118 118
117 117 117
116 116 116
118 118 118
105 105 105
167 167 167
187 187 187
187 187 187
187 187 187
187 187 187
185 185 185
185 185 185
184 184 184
184 184 184
176 176 176
137 137 137
126 126 126
127 127 127
153 153 153
183 183 183
185 185 185
185 185 185
186 186 186
186 186 186
186 186 186
185 185 185
180 180 180
179 179 179
178 178 178
179 179 179
179 179 179
179 179 179
178 178 178
177 177 177
176 176 176
176 176 176
177 177 177
176 176 176
173 173 173
173 173 173
172 172 172
170 170 170
168 168 168
106 106 106
85 85 85
70 70 70
85 85 85
86 86 86
84 84 84
82 82 82
66 66 66
76 76 76
79 79 79
54 54 54
79 79 79
79 79 79
80 80 80
80 80 80
70 70 70
73 73 73
78 78 78
78 78 78
78 78 78
81 81 81
72 72 72
92 92 92
94 94 94
94 94 94
94 94 94
94 94 94
94 94 94
95 95 95
94 94 94
92 92 92
91 91 91
92 92 92
91 91 91
91 91 91
91 91 91
91 91 91
90 90 90
90 90 90
88 88 88
90 90 90
131 131 131
137 137 137
135 135 135
113 113 113
49 49 49
51 51 51
53 53 53
59 59 59
59 59 59
59 59 59
60 60 60
62 62 62
62 62 62
62 62 62
66 66 66
68 68 68
68 68 68
63 63 63
123 123 123
126 126 126
128 128 128
127 127 127
131 131 131
133 133 133
139 139 139
143 143 143
142 142 142
135 135 135
125 125 125
126 126 126
125 125 125
124 124 124
125 125 125
132 132 132
136 136 136
120 120 120
103 103 103
101 101 101
104 104 104
114 114 114
123 123 123
111 111 111
95 95 95
85 85 85
82 82 82
90 90 90
181 181 181
179 179 179
138 138 138
133 133 133
133 133 133
131 131 131
133 133 133
131 131 131
117 117 117
175 175 175
178 178 178
176 176 176
177 177 177
177 177 177
177 177 177
176 176 176
176 176 176
176 176 176
176 176 176
176 176 176
177 177 177
176 176 176
175 175 175
174 174 174
175 175 175
176 176 176
176 176 176
177 177 177
177 177 177
176 176 176
175 175 175
176 176 176
175 175 175
172 172 172
170 170 170
129 129 129
118 118 118
117 117 117
117 117 117
117 117 117
116 116 116
116 116 116
108 108 108
164 164 164
187 187 187
187 187 187
188 188 188
187 187 187
185 185 185
184 184 184
185 185 185
183 183 183
176 176 176
134 134 134
125 125 125
125 125 125
134 134 134
178 178 178
184 184 184
184 184 184
185 185 185
187 187 187
186 186 186
185 185 185
183 183 183
182 182 182
179 179 179
177 177 177
179 179 179
179 179 179
179 179 179
178 178 178
177 177 177
176 176 176
175 175 175
176 176 176
176 176 176
176 176 176
173 173 173
173 173 173
173 173 173
168 168 168
142 142 142
65 65 65
83 83 83
85 85 85
85 85 85
83 83 83
82 82 82
62 62 62
81 81 81
62 62 62
34 34 34
78 78 78
78 78 78
80 80 80
80 80 80
73 73 73
69 69 69
79 79 79
78 78 78
78 78 78
82 82 82
70 70 70
92 92 92
94 94 94
95 95 95
95 95 95
95 95 95
95 95 95
95 95 95
95 95 95
93 93 93
90 90 90
90 90 90
90 90 90
90 90 90
91 91 91
91 91 91
90 90 90
88 88 88
85 85 85
86 86 86
118 118 118
136 136 136
134 134 134
124 124 124
60 60 60
68 68 68
70 70 70
74 74 74
73 73 73
70 70 70
69 69 69
67 67 67
67 67 67
65 65 65
61 61 61
60 60 60
59 59 59
60 60 60
129 129 129
131 131 131
133 133 133
131 131 131
128 128 128
133 133 133
137 137 137
139 139 139
139 139 139
141 141 141
135 135 135
130 130 130
121 121 121
118 118 118
118 118 118
123 123 123
127 127 127
121 121 121
113 113 113
110 110 110
105 105 105
108 108 108
107 107 107
94 94 94
88 88 88
85 85 85
78 78 78
164 164 164
187 187 187
149 149 149
132 132 132
133 133 133
130 130 130
130 130 130
131 131 131
131 131 131
113 113 113
169 169 169
177 177 177
176 176 176
177 177 177
176 176 176
177 177 177
176 176 176
176 176 176
176 176 176
176 176 176
176 176 176
177 177 177
177 177 177
176 176 176
175 175 175
176 176 176
175 175 175
175 175 175
175 175 175
176 176 176
176 176 176
175 175 175
174 174 174
174 174 174
172 172 172
149 149 149
118 118 118
117 117 117
115 115 115
117 117 117
117 117 117
116 116 116
104 104 104
161 161 161
186 186 186
187 187 187
188 188 188
188 188 188
186 186 186
186 186 186
185 185 185
183 183 183
175 175 175
135 135 135
127 127 127
125 125 125
126 126 126
164 164 164
184 184 184
187 187 187
185 185 185
184 184 184
185 185 185
186 186 186
185 185 185
183 183 183
182 182 182
181 181 181
179 179 179
178 178 178
179 179 179
178 178 178
176 176 176
175 175 175
175 175 175
176 176 176
171 171 171
169 169 169
170 170 170
172 172 172
173 173 173
173 173 173
171 171 171
167 167 167
94 94 94
90 90 90
84 84 84
85 85 85
83 83 83
83 83 83
61 61 61
65 65 65
32 32 32
28 28 28
72 72 72
79 79 79
81 81 81
81 81 81
79 79 79
71 71 71
80 80 80
79 79 79
80 80 80
83 83 83
69 69 69
93 93 93
94 94 94
95 95 95
95 95 95
95 95 95
95 95 95
95 95 95
95 95 95
93 93 93
90 90 90
90 90 90
90 90 90
90 90 90
91 91 91
91 91 91
91 91 91
90 90 90
88 88 88
86 86 86
98 98 98
133 133 133
134 134 134
130 130 130
74 74 74
85 85 85
86 86 86
84 84 84
76 76 76
75 75 75
74 74 74
70 70 70
66 66 66
64 64 64
60 60 60
53 53 53
52 52 52
53 53 53
129 129 129
129 129 129
130 130 130
131 131 131
134 134 134
140 140 140
140 140 140
140 140 140
143 143 143
142 142 142
138 138 138
137 137 137
135 135 135
128 128 128
124 124 124
126 126 126
124 124 124
117 117 117
112 112 112
110 110 110
106 106 106
97 97 97
99 99 99
93 93 93
89 89 89
84 84 84
148 148 148
186 186 186
170 170 170
132 132 132
133 133 133
134 134 134
130 130 130
130 130 130
130 130 130
130 130 130
122 122 122
153 153 153
176 176 176
177 177 177
177 177 177
177 177 177
177 177 177
177 177 177
177 177 177
177 177 177
176 176 176
176 176 176
177 177 177
177 177 177
177 177 177
177 177 177
177 177 177
177 177 177
176 176 176
176 176 176
176 176 176
177 177 177
176 176 176
174 174 174
174 174 174
166 166 166
124 124 124
119 119 119
116 116 116
116 116 116
117 117 117
116 116 116
108 108 108
150 150 150
186 186 186
185 185 185
188 188 188
188 188 188
188 188 188
186 186 186
186 186 186
185 185 185
177 177 177
137 137 137
125 125 125
126 126 126
127 127 127
143 143 143
182 182 182
183 183 183
187 187 187
186 186 186
184 184 184
183 183 183
186 186 186
186 186 186
184 184 184
184 184 184
181 181 181
180 180 180
178 178 178
177 177 177
176 176 176
175 175 175
172 172 172
157 157 157
136 136 136
124 124 124
119 119 119
122 122 122
128 128 128
144 144 144
163 163 163
169 169 169
169 169 169
143 143 143
83 83 83
89 89 89
87 87 87
83 83 83
82 82 82
54 54 54
28 28 28
35 35 35
31 31 31
61 61 61
80 80 80
80 80 80
82 82 82
79 79 79
70 70 70
79 79 79
79 79 79
79 79 79
83 83 83
69 69 69
93 93 93
94 94 94
95 95 95
95 95 95
95 95 95
95 95 95
95 95 95
95 95 95
93 93 93
91 91 91
91 91 91
91 91 91
91 91 91
91 91 91
91 91 91
90 90 90
90 90 90
90 90 90
88 88 88
88 88 88
122 122 122
134 134 134
135 135 135
88 88 88
99 99 99
93 93 93
81 81 81
75 75 75
76 76 76
76 76 76
72 72 72
67 67 67
64 64 64
61 61 61
50 50 50
52 52 52
58 58 58
128 128 128
125 125 125
128 128 128
130 130 130
139 139 139
149 149 149
149 149 149
146 146 146
149 149 149
149 149 149
146 146 146
146 146 146
143 143 143
137 137 137
135 135 135
137 137 137
127 127 127
114 114 114
105 105 105
106 106 106
105 105 105
98 98 98
106 106 106
109 109 109
100 100 100
136 136 136
189 189 189
181 181 181
136 136 136
132 132 132
133 133 133
135 135 135
132 132 132
130 130 130
130 130 130
130 130 130
132 132 132
135 135 135
177 177 177
175 175 175
176 176 176
177 177 177
177 177 177
175 175 175
176 176 176
177 177 177
176 176 176
176 176 176
177 177 177
177 177 177
177 177 177
177 177 177
177 177 177
176 176 176
177 177 177
177 177 177
177 177 177
177 177 177
177 177 177
174 174 174
173 173 173
147 147 147
122 122 122
115 115 115
117 117 117
118 118 118
115 115 115
109 109 109
139 139 139
187 187 187
186 186 186
186 186 186
187 187 187
188 188 188
188 188 188
187 187 187
184 184 184
182 182 182
144 144 144
125 125 125
125 125 125
125 125 125
130 130 130
174 174 174
182 182 182
183 183 183
187 187 187
186 186 186
186 186 186
184 184 184
186 186 186
186 186 186
185 185 185
185 185 185
180 180 180
177 177 177
177 177 177
177 177 177
175 175 175
159 159 159
127 127 127
116 116 116
117 117 117
117 117 117
115 115 115
115 115 115
117 117 117
118 118 118
118 118 118
138 138 138
162 162 162
166 166 166
111 111 111
86 86 86
86 86 86
83 83 83
82 82 82
59 59 59
31 31 31
34 34 34
31 31 31
50 50 50
81 81 81
80 80 80
82 82 82
79 79 79
70 70 70
79 79 79
79 79 79
79 79 79
82 82 82
69 69 69
92 92 92
94 94 94
95 95 95
94 94 94
95 95 95
95 95 95
95 95 95
95 95 95
93 93 93
91 91 91
90 90 90
91 91 91
91 91 91
91 91 91
91 91 91
90 90 90
91 91 91
90 90 90
89 89 89
89 89 89
102 102 102
135 135 135
134 134 134
97 97 97
99 99 99
90 90 90
77 77 77
78 78 78
77 77 77
76 76 76
76 76 76
70 70 70
65 65 65
58 58 58
49 49 49
53 53 53
63 63 63
134 134 134
131 131 131
131 131 131
137 137 137
146 146 146
152 152 152
152 152 152
151 151 151
151 151 151
150 150 150
146 146 146
142 142 142
140 140 140
135 135 135
126 126 126
125 125 125
115 115 115
109 109 109
105 105 105
102 102 102
96 96 96
103 103 103
113 113 113
111 111 111
130 130 130
186 186 186
187 187 187
150 150 150
133 133 133
132 132 132
132 132 132
134 134 134
133 133 133
131 131 131
130 130 130
131 131 131
133 133 133
120 120 120
176 176 176
176 176 176
177 177 177
178 178 178
177 177 177
176 176 176
175 175 175
176 176 176
176 176 176
176 176 176
178 178 178
178 178 178
178 178 178
178 178 178
178 178 178
178 178 178
177 177 177
177 177 177
177 177 177
177 177 177
177 177 177
173 173 173
166 166 166
125 125 125
121 121 121
116 116 116
115 115 115
118 118 118
116 116 116
122 122 122
186 186 186
186 186 186
187 187 187
187 187 187
187 187 187
187 187 187
187 187 187
186 186 186
185 185 185
155 155 155
125 125 125
126 126 126
127 127 127
127 127 127
157 157 157
185 185 185
183 183 183
184 184 184
187 187 187
188 188 188
185 185 185
184 184 184
185 185 185
186 186 186
184 184 184
182 182 182
179 179 179
176 176 176
176 176 176
169 169 169
136 136 136
119 119 119
117 117 117
116 116 116
117 117 117
117 117 117
116 116 116
115 115 115
115 115 115
116 116 116
116 116 116
114 114 114
128 128 128
164 164 164
159 159 159
84 84 84
88 88 88
85 85 85
83 83 83
61 61 61
31 31 31
32 32 32
32 32 32
35 35 35
81 81 81
78 78 78
75 75 75
72 72 72
70 70 70
78 78 78
79 79 79
80 80 80
81 81 81
71 71 71
92 92 92
94 94 94
94 94 94
93 93 93
95 95 95
95 95 95
94 94 94
95 95 95
93 93 93
91 91 91
90 90 90
91 91 91
91 91 91
91 91 91
91 91 91
91 91 91
91 91 91
91 91 91
90 90 90
89 89 89
89 89 89
128 128 128
133 133 133
104 104 104
77 77 77
76 76 76
76 76 76
85 85 85
81 81 81
78 78 78
76 76 76
74 74 74
72 72 72
68 68 68
57 57 57
51 51 51
52 52 52
139 139 139
139 139 139
138 138 138
144 144 144
150 150 150
152 152 152
151 151 151
151 151 151
149 149 149
148 148 148
143 143 143
135 135 135
136 136 136
133 133 133
124 124 124
117 117 117
109 109 109
107 107 107
105 105 105
101 101 101
97 97 97
100 100 100
94 94 94
118 118 118
186 186 186
189 189 189
168 168 168
132 132 132
132 132 132
130 130 130
131 131 131
131 131 131
131 131 131
131 131 131
130 130 130
131 131 131
132 132 132
111 111 111
172 172 172
176 176 176
178 178 178
178 178 178
176 176 176
174 174 174
175 175 175
177 177 177
177 177 177
177 177 177
178 178 178
178 178 178
178 178 178
178 178 178
178 178 178
178 178 178
177 177 177
177 177 177
177 177 177
177 177 177
177 177 177
174 174 174
151 151 151
120 120 120
120 120 120
115 115 115
115 115 115
117 117 117
110 110 110
179 179 179
184 184 184
188 188 188
190 190 190
189 189 189
187 187 187
187 187 187
184 184 184
184 184 184
150 150 150
125 125 125
124 124 124
125 125 125
128 128 128
141 141 141
183 183 183
184 184 184
185 185 185
186 186 186
187 187 187
188 188 188
186 186 186
183 183 183
184 184 184
185 185 185
183 183 183
178 178 178
176 176 176
174 174 174
153 153 153
123 123 123
118 118 118
119 119 119
115 115 115
116 116 116
116 116 116
116 116 116
116 116 116
116 116 116
114 114 114
113 113 113
115 115 115
114 114 114
114 114 114
143 143 143
165 165 165
140 140 140
80 80 80
85 85 85
82 82 82
66 66 66
32 32 32
30 30 30
32 32 32
27 27 27
75 75 75
80 80 80
78 78 78
54 54 54
74 74 74
79 79 79
80 80 80
81 81 81
79 79 79
76 76 76
93 93 93
96 96 96
95 95 95
94 94 94
95 95 95
94 94 94
94 94 94
94 94 94
93 93 93
92 92 92
90 90 90
91 91 91
91 91 91
91 91 91
91 91 91
91 91 91
91 91 91
91 91 91
91 91 91
88 88 88
85 85 85
110 110 110
132 132 132
117 117 117
68 68 68
73 73 73
79 79 79
86 86 86
85 85 85
81 81 81
77 77 77
75 75 75
73 73 73
71 71 71
69 69 69
60 60 60
48 48 48
136 136 136
136 136 136
138 138 138
142 142 142
145 145 145
150 150 150
151 151 151
149 149 149
147 147 147
146 146 146
147 147 147
145 145 145
140 140 140
135 135 135
130 130 130
124 124 124
115 115 115
110 110 110
116 116 116
117 117 117
119 119 119
111 111 111
125 125 125
185 185 185
189 189 189
181 181 181
137 137 137
132 132 132
131 131 131
132 132 132
132 132 132
131 131 131
131 131 131
131 131 131
131 131 131
132 132 132
132 132 132
121 121 121
157 157 157
176 176 176
179 179 179
176 176 176
175 175 175
175 175 175
176 176 176
177 177 177
177 177 177
178 178 178
178 178 178
178 178 178
178 178 178
178 178 178
178 178 178
178 178 178
177 177 177
177 177 177
177 177 177
177 177 177
177 177 177
172 172 172
131 131 131
117 117 117
117 117 117
116 116 116
115 115 115
105 105 105
163 163 163
185 185 185
188 188 188
190 190 190
190 190 190
190 190 190
187 187 187
186 186 186
184 184 184
165 165 165
110 110 110
124 124 124
126 126 126
125 125 125
129 129 129
175 175 175
184 184 184
185 185 185
187 187 187
187 187 187
187 187 187
187 187 187
186 186 186
184 184 184
184 184 184
185 185 185
183 183 183
178 178 178
174 174 174
142 142 142
118 118 118
118 118 118
120 120 120
119 119 119
117 117 117
116 116 116
115 115 115
113 113 113
104 104 104
103 103 103
99 99 99
100 100 100
101 101 101
101 101 101
111 111 111
122 122 122
166 166 166
167 167 167
148 148 148
94 94 94
83 83 83
69 69 69
31 31 31
32 32 32
32 32 32
28 28 28
67 67 67
79 79 79
81 81 81
75 75 75
81 81 81
80 80 80
80 80 80
81 81 81
72 72 72
85 85 85
93 93 93
96 96 96
97 97 97
96 96 96
95 95 95
95 95 95
96 96 96
94 94 94
94 94 94
92 92 92
90 90 90
90 90 90
90 90 90
91 91 91
91 91 91
91 91 91
91 91 91
91 91 91
91 91 91
89 89 89
85 85 85
93 93 93
130 130 130
128 128 128
65 65 65
72 72 72
79 79 79
90 90 90
87 87 87
81 81 81
77 77 77
75 75 75
73 73 73
68 68 68
66 66 66
66 66 66
60 60 60
133 133 133
133 133 133
136 136 136
140 140 140
143 143 143
146 146 146
149 149 149
151 151 151
151 151 151
151 151 151
152 152 152
147 147 147
145 145 145
138 138 138
139 139 139
137 137 137
128 128 128
126 126 126
137 137 137
140 140 140
137 137 137
136 136 136
189 189 189
189 189 189
188 188 188
144 144 144
131 131 131
131 131 131
132 132 132
133 133 133
133 133 133
132 132 132
132 132 132
130 130 130
131 131 131
131 131 131
131 131 131
129 129 129
138 138 138
176 176 176
178 178 178
175 175 175
176 176 176
176 176 176
176 176 176
177 177 177
177 177 177
178 178 178
177 177 177
177 177 177
177 177 177
177 177 177
177 177 177
177 177 177
177 177 177
176 176 176
176 176 176
176 176 176
174 174 174
166 166 166
119 119 119
117 117 117
116 116 116
115 115 115
114 114 114
137 137 137
186 186 186
187 187 187
189 189 189
190 190 190
189 189 189
189 189 189
186 186 186
184 184 184
177 177 177
110 110 110
125 125 125
123 123 123
125 125 125
128 128 128
161 161 161
185 185 185
186 186 186
185 185 185
187 187 187
186 186 186
186 186 186
186 186 186
187 187 187
186 186 186
183 183 183
183 183 183
180 180 180
171 171 171
131 131 131
118 118 118
119 119 119
119 119 119
119 119 119
118 118 118
118 118 118
111 111 111
100 100 100
131 131 131
158 158 158
171 171 171
173 173 173
172 172 172
170 170 170
159 159 159
132 132 132
109 109 109
169 169 169
171 171 171
167 167 167
161 161 161
115 115 115
59 59 59
31 31 31
30 30 30
32 32 32
31 31 31
54 54 54
79 79 79
80 80 80
82 82 82
80 80 80
79 79 79
79 79 79
81 81 81
68 68 68
90 90 90
94 94 94
97 97 97
97 97 97
97 97 97
97 97 97
95 95 95
95 95 95
94 94 94
93 93 93
93 93 93
91 91 91
90 90 90
91 91 91
91 91 91
91 91 91
91 91 91
91 91 91
91 91 91
90 90 90
89 89 89
84 84 84
87 87 87
121 121 121
130 130 130
72 72 72
73 73 73
76 76 76
85 85 85
87 87 87
81 81 81
76 76 76
72 72 72
71 71 71
69 69 69
67 67 67
66 66 66
65 65 65
131 131 131
133 133 133
134 134 134
140 140 140
145 145 145
147 147 147
149 149 149
153 153 153
153 153 153
153 153 153
153 153 153
152 152 152
148 148 148
148 148 148
147 147 147
145 145 145
137 137 137
136 136 136
138 138 138
136 136 136
136 136 136
186 186 186
189 189 189
190 190 190
164 164 164
132 132 132
131 131 131
132 132 132
132 132 132
133 133 133
133 133 133
131 131 131
131 131 131
130 130 130
130 130 130
131 131 131
131 131 131
132 132 132
123 123 123
177 177 177
176 176 176
175 175 175
176 176 176
176 176 176
176 176 176
177 177 177
178 178 178
178 178 178
177 177 177
175 175 175
175 175 175
175 175 175
176 176 176
176 176 176
176 176 176
176 176 176
176 176 176
174 174 174
172 172 172
151 151 151
117 117 117
116 116 116
116 116 116
117 117 117
115 115 115
186 186 186
187 187 187
189 189 189
190 190 190
190 190 190
188 188 188
185 185 185
184 184 184
182 182 182
124 124 124
122 122 122
123 123 123
124 124 124
124 124 124
145 145 145
183 183 183
186 186 186
185 185 185
183 183 183
186 186 186
186 186 186
184 184 184
185 185 185
186 186 186
184 184 184
184 184 184
178 178 178
169 169 169
130 130 130
117 117 117
118 118 118
120 120 120
120 120 120
119 119 119
116 116 116
100 100 100
134 134 134
169 169 169
175 175 175
176 176 176
175 175 175
175 175 175
175 175 175
175 175 175
173 173 173
173 173 173
168 168 168
172 172 172
170 170 170
171 171 171
165 165 165
163 163 163
138 138 138
95 95 95
38 38 38
33 33 33
35 35 35
43 43 43
81 81 81
80 80 80
83 83 83
80 80 80
79 79 79
78 78 78
82 82 82
70 70 70
93 93 93
95 95 95
97 97 97
98 98 98
98 98 98
98 98 98
95 95 95
94 94 94
94 94 94
94 94 94
94 94 94
92 92 92
91 91 91
91 91 91
91 91 91
91 91 91
91 91 91
91 91 91
90 90 90
89 89 89
89 89 89
84 84 84
87 87 87
107 107 107
132 132 132
86 86 86
79 79 79
79 79 79
87 87 87
89 89 89
85 85 85
79 79 79
72 72 72
71 71 71
71 71 71
68 68 68
67 67 67
69 69 69
127 127 127
124 124 124
139 139 139
151 151 151
153 153 153
154 154 154
155 155 155
154 154 154
151 151 151
148 148 148
150 150 150
152 152 152
151 151 151
152 152 152
150 150 150
150 150 150
148 148 148
144 144 144
140 140 140
130 130 130
188 188 188
189 189 189
189 189 189
176 176 176
133 133 133
131 131 131
132 132 132
132 132 132
132 132 132
132 132 132
132 132 132
131 131 131
129 129 129
129 129 129
130 130 130
129 129 129
130 130 130
132 132 132
113 113 113
171 171 171
174 174 174
175 175 175
177 177 177
177 177 177
176 176 176
176 176 176
177 177 177
177 177 177
176 176 176
176 176 176
176 176 176
176 176 176
177 177 177
177 177 177
177 177 177
176 176 176
176 176 176
173 173 173
172 172 172
134 134 134
118 118 118
116 116 116
115 115 115
107 107 107
173 173 173
187 187 187
188 188 188
189 189 189
190 190 190
189 189 189
186 186 186
185 185 185
184 184 184
144 144 144
114 114 114
122 122 122
125 125 125
126 126 126
132 132 132
176 176 176
187 187 187
186 186 186
185 185 185
183 183 183
186 186 186
186 186 186
184 184 184
184 184 184
184 184 184
184 184 184
181 181 181
171 171 171
132 132 132
119 119 119
120 120 120
119 119 119
119 119 119
118 118 118
111 111 111
121 121 121
167 167 167
175 175 175
175 175 175
176 176 176
178 178 178
177 177 177
177 177 177
176 176 176
177 177 177
176 176 176
175 175 175
173 173 173
173 173 173
169 169 169
171 171 171
169 169 169
168 168 168
164 164 164
163 163 163
144 144 144
98 98 98
49 49 49
33 33 33
84 84 84
81 81 81
81 81 81
80 80 80
79 79 79
80 80 80
78 78 78
80 80 80
93 93 93
95 95 95
97 97 97
97 97 97
97 97 97
96 96 96
94 94 94
94 94 94
94 94 94
95 95 95
93 93 93
91 91 91
91 91 91
91 91 91
91 91 91
91 91 91
91 91 91
91 91 91
90 90 90
88 88 88
87 87 87
85 85 85
86 86 86
92 92 92
131 131 131
99 99 99
86 86 86
94 94 94
103 103 103
96 96 96
92 92 92
89 89 89
83 83 83
77 77 77
72 72 72
72 72 72
72 72 72
73 73 73
138 138 138
140 140 140
150 150 150
157 157 157
159 159 159
159 159 159
158 158 158
154 154 154
151 151 151
150 150 150
150 150 150
151 151 151
148 148 148
154 154 154
151 151 151
151 151 151
151 151 151
148 148 148
126 126 126
187 187 187
190 190 190
190 190 190
183 183 183
139 139 139
130 130 130
131 131 131
132 132 132
132 132 132
132 132 132
132 132 132
132 132 132
130 130 130
128 128 128
130 130 130
130 130 130
130 130 130
132 132 132
133 133 133
124 124 124
148 148 148
173 173 173
175 175 175
177 177 177
177 177 177
177 177 177
177 177 177
177 177 177
177 177 177
176 176 176
176 176 176
176 176 176
176 176 176
177 177 177
177 177 177
177 177 177
176 176 176
176 176 176
173 173 173
166 166 166
120 120 120
116 116 116
116 116 116
109 109 109
158 158 158
188 188 188
190 190 190
188 188 188
189 189 189
190 190 190
188 188 188
185 185 185
185 185 185
165 165 165
110 110 110
123 123 123
124 124 124
126 126 126
127 127 127
167 167 167
185 185 185
187 187 187
186 186 186
184 184 184
183 183 183
186 186 186
186 186 186
184 184 184
184 184 184
185 185 185
184 184 184
175 175 175
131 131 131
120 120 120
119 119 119
121 121 121
119 119 119
118 118 118
103 103 103
141 141 141
176 176 176
175 175 175
175 175 175
176 176 176
177 177 177
177 177 177
177 177 177
177 177 177
177 177 177
177 177 177
177 177 177
176 176 176
174 174 174
173 173 173
172 172 172
172 172 172
171 171 171
171 171 171
168 168 168
164 164 164
164 164 164
162 162 162
155 155 155
130 130 130
98 98 98
79 79 79
82 82 82
81 81 81
80 80 80
82 82 82
66 66 66
92 92 92
94 94 94
95 95 95
97 97 97
97 97 97
97 97 97
96 96 96
94 94 94
94 94 94
94 94 94
94 94 94
92 92 92
91 91 91
90 90 90
90 90 90
91 91 91
91 91 91
92 92 92
91 91 91
90 90 90
88 88 88
86 86 86
85 85 85
86 86 86
85 85 85
121 121 121
110 110 110
90 90 90
105 105 105
108 108 108
103 103 103
96 96 96
89 89 89
83 83 83
77 77 77
75 75 75
79 79 79
82 82 82
82 82 82
148 148 148
148 148 148
145 145 145
150 150 150
155 155 155
154 154 154
151 151 151
152 152 152
152 152 152
150 150 150
149 149 149
152 152 152
152 152 152
153 153 153
153 153 153
151 151 151
152 152 152
132 132 132
185 185 185
191 191 191
190 190 190
186 186 186
147 147 147
129 129 129
130 130 130
131 131 131
130 130 130
128 128 128
130 130 130
128 128 128
128 128 128
130 130 130
130 130 130
129 129 129
130 130 130
131 131 131
134 134 134
131 131 131
121 121 121
122 122 122
175 175 175
178 178 178
175 175 175
176 176 176
176 176 176
176 176 176
177 177 177
177 177 177
177 177 177
176 176 176
177 177 177
177 177 177
177 177 177
177 177 177
176 176 176
175 175 175
176 176 176
172 172 172
154 154 154
118 118 118
117 117 117
112 112 112
139 139 139
188 188 188
188 188 188
192 192 192
191 191 191
189 189 189
187 187 187
186 186 186
183 183 183
178 178 178
113 113 113
124 124 124
123 123 123
124 124 124
125 125 125
153 153 153
186 186 186
185 185 185
186 186 186
186 186 186
185 185 185
185 185 185
185 185 185
184 184 184
184 184 184
184 184 184
181 181 181
179 179 179
136 136 136
120 120 120
120 120 120
119 119 119
119 119 119
115 115 115
113 113 113
163 163 163
179 179 179
176 176 176
176 176 176
176 176 176
178 178 178
178 178 178
178 178 178
177 177 177
177 177 177
177 177 177
177 177 177
176 176 176
176 176 176
174 174 174
173 173 173
173 173 173
170 170 170
173 173 173
171 171 171
170 170 170
169 169 169
167 167 167
166 166 166
164 164 164
162 162 162
160 160 160
139 139 139
84 84 84
83 83 83
79 79 79
82 82 82
73 73 73
93 93 93
95 95 95
96 96 96
97 97 97
97 97 97
96 96 96
96 96 96
94 94 94
93 93 93
91 91 91
90 90 90
91 91 91
91 91 91
89 89 89
90 90 90
91 91 91
91 91 91
90 90 90
90 90 90
90 90 90
88 88 88
86 86 86
86 86 86
85 85 85
84 84 84
111 111 111
122 122 122
91 91 91
110 110 110
106 106 106
103 103 103
91 91 91
85 85 85
81 81 81
74 74 74
75 75 75
87 87 87
92 92 92
95 95 95
146 146 146
142 142 142
135 135 135
136 136 136
140 140 140
144 144 144
145 145 145
145 145 145
143 143 143
140 140 140
144 144 144
153 153 153
153 153 153
153 153 153
152 152 152
153 153 153
131 131 131
182 182 182
190 190 190
190 190 190
189 189 189
160 160 160
131 131 131
128 128 128
130 130 130
128 128 128
128 128 128
128 128 128
128 128 128
128 128 128
130 130 130
130 130 130
130 130 130
128 128 128
130 130 130
131 131 131
133 133 133
132 132 132
116 116 116
137 137 137
174 174 174
178 178 178
176 176 176
176 176 176
175 175 175
175 175 175
177 177 177
177 177 177
177 177 177
176 176 176
177 177 177
177 177 177
177 177 177
177 177 177
176 176 176
175 175 175
176 176 176
173 173 173
134 134 134
118 118 118
117 117 117
116 116 116
184 184 184
189 189 189
190 190 190
193 193 193
190 190 190
188 188 188
186 186 186
184 184 184
183 183 183
136 136 136
119 119 119
123 123 123
124 124 124
126 126 126
138 138 138
181 181 181
184 184 184
186 186 186
186 186 186
186 186 186
185 185 185
185 185 185
185 185 185
185 185 185
184 184 184
184 184 184
176 176 176
142 142 142
121 121 121
120 120 120
120 120 120
119 119 119
111 111 111
126 126 126
176 176 176
178 178 178
178 178 178
177 177 177
177 177 177
177 177 177
179 179 179
179 179 179
178 178 178
177 177 177
177 177 177
177 177 177
176 176 176
175 175 175
175 175 175
172 172 172
172 172 172
173 173 173
170 170 170
171 171 171
170 170 170
169 169 169
168 168 168
169 169 169
168 168 168
166 166 166
165 165 165
164 164 164
161 161 161
144 144 144
79 79 79
83 83 83
72 72 72
85 85 85
94 94 94
96 96 96
97 97 97
97 97 97
98 98 98
97 97 97
97 97 97
96 96 96
92 92 92
90 90 90
90 90 90
92 92 92
92 92 92
90 90 90
90 90 90
91 91 91
91 91 91
90 90 90
90 90 90
90 90 90
88 88 88
87 87 87
85 85 85
85 85 85
85 85 85
96 96 96
131 131 131
79 79 79
94 94 94
92 92 92
98 98 98
95 95 95
85 85 85
79 79 79
73 73 73
73 73 73
79 79 79
85 85 85
95 95 95
142 142 142
139 139 139
134 134 134
130 130 130
124 124 124
126 126 126
130 130 130
135 135 135
137 137 137
136 136 136
143 143 143
149 149 149
151 151 151
147 147 147
139 139 139
125 125 125
175 175 175
190 190 190
191 191 191
188 188 188
169 169 169
133 133 133
132 132 132
131 131 131
127 127 127
113 113 113
128 128 128
128 128 128
128 128 128
129 129 129
130 130 130
129 129 129
129 129 129
127 127 127
130 130 130
131 131 131
131 131 131
130 130 130
132 132 132
150 150 150
163 163 163
176 176 176
175 175 175
176 176 176
178 178 178
178 178 178
177 177 177
177 177 177
177 177 177
176 176 176
176 176 176
177 177 177
177 177 177
177 177 177
176 176 176
175 175 175
176 176 176
168 168 168
121 121 121
118 118 118
106 106 106
178 178 178
189 189 189
191 191 191
191 191 191
192 192 192
191 191 191
189 189 189
186 186 186
183 183 183
160 160 160
113 113 113
125 125 125
127 127 127
127 127 127
129 129 129
171 171 171
185 185 185
185 185 185
187 187 187
187 187 187
186 186 186
186 186 186
185 185 185
185 185 185
184 184 184
183 183 183
181 181 181
151 151 151
122 122 122
125 125 125
123 123 123
120 120 120
109 109 109
139 139 139
178 178 178
180 180 180
179 179 179
181 181 181
178 178 178
180 180 180
180 180 180
179 179 179
178 178 178
179 179 179
178 178 178
176 176 176
175 175 175
175 175 175
174 174 174
172 172 172
171 171 171
171 171 171
170 170 170
169 169 169
163 163 163
166 166 166
167 167 167
168 168 168
166 166 166
164 164 164
164 164 164
164 164 164
164 164 164
165 165 165
162 162 162
130 130 130
82 82 82
71 71 71
95 95 95
96 96 96
96 96 96
96 96 96
97 97 97
97 97 97
97 97 97
96 96 96
95 95 95
92 92 92
90 90 90
90 90 90
90 90 90
91 91 91
91 91 91
91 91 91
90 90 90
90 90 90
90 90 90
90 90 90
89 89 89
88 88 88
88 88 88
87 87 87
85 85 85
85 85 85
86 86 86
127 127 127
83 83 83
88 88 88
93 93 93
102 102 102
102 102 102
91 91 91
82 82 82
72 72 72
71 71 71
73 73 73
79 79 79
88 88 88
142 142 142
146 146 146
144 144 144
139 139 139
135 135 135
134 134 134
139 139 139
141 141 141
140 140 140
133 133 133
132 132 132
129 129 129
127 127 127
122 122 122
104 104 104
164 164 164
189 189 189
190 190 190
188 188 188
177 177 177
134 134 134
129 129 129
131 131 131
131 131 131
102 102 102
124 124 124
129 129 129
129 129 129
128 128 128
129 129 129
129 129 129
128 128 128
128 128 128
126 126 126
129 129 129
130 130 130
132 132 132
116 116 116
163 163 163
165 165 165
142 142 142
177 177 177
175 175 175
177 177 177
177 177 177
176 176 176
177 177 177
177 177 177
177 177 177
177 177 177
177 177 177
177 177 177
177 177 177
177 177 177
176 176 176
174 174 174
175 175 175
158 158 158
118 118 118
113 113 113
156 156 156
187 187 187
191 191 191
191 191 191
191 191 191
192 192 192
190 190 190
189 189 189
185 185 185
177 177 177
112 112 112
125 125 125
125 125 125
126 126 126
126 126 126
155 155 155
186 186 186
187 187 187
185 185 185
187 187 187
186 186 186
186 186 186
185 185 185
184 184 184
185 185 185
182 182 182
181 181 181
158 158 158
124 124 124
121 121 121
123 123 123
124 124 124
108 108 108
137 137 137
177 177 177
178 178 178
183 183 183
183 183 183
184 184 184
183 183 183
179 179 179
179 179 179
179 179 179
178 178 178
179 179 179
178 178 178
175 175 175
175 175 175
175 175 175
171 171 171
169 169 169
170 170 170
156 156 156
133 133 133
106 106 106
92 92 92
94 94 94
104 104 104
115 115 115
130 130 130
142 142 142
154 154 154
162 162 162
164 164 164
165 165 165
162 162 162
156 156 156
87 87 87
87 87 87
97 97 97
95 95 95
96 96 96
96 96 96
97 97 97
97 97 97
96 96 96
96 96 96
95 95 95
91 91 91
90 90 90
89 89 89
88 88 88
85 85 85
84 84 84
84 84 84
87 87 87
88 88 88
89 89 89
88 88 88
88 88 88
87 87 87
87 87 87
87 87 87
86 86 86
87 87 87
84 84 84
116 116 116
96 96 96
100 100 100
103 103 103
103 103 103
106 106 106
107 107 107
96 96 96
80 80 80
70 70 70
70 70 70
73 73 73
81 81 81
137 137 137
141 141 141
144 144 144
144 144 144
144 144 144
144 144 144
142 142 142
142 142 142
137 137 137
126 126 126
120 120 120
120 120 120
117 117 117
106 106 106
150 150 150
192 192 192
191 191 191
190 190 190
184 184 184
141 141 141
131 131 131
130 130 130
130 130 130
117 117 117
112 112 112
128 128 128
130 130 130
130 130 130
130 130 130
129 129 129
129 129 129
127 127 127
126 126 126
127 127 127
129 129 129
129 129 129
131 131 131
116 116 116
173 173 173
171 171 171
137 137 137
177 177 177
176 176 176
177 177 177
175 175 175
175 175 175
177 177 177
177 177 177
177 177 177
177 177 177
177 177 177
177 177 177
177 177 177
177 177 177
176 176 176
175 175 175
172 172 172
143 143 143
117 117 117
134 134 134
188 188 188
187 187 187
190 190 190
191 191 191
192 192 192
192 192 192
187 187 187
185 185 185
183 183 183
126 126 126
125 125 125
125 125 125
124 124 124
125 125 125
139 139 139
184 184 184
188 188 188
187 187 187
186 186 186
186 186 186
186 186 186
185 185 185
184 184 184
183 183 183
184 184 184
181 181 181
166 166 166
126 126 126
123 123 123
120 120 120
120 120 120
109 109 109
140 140 140
179 179 179
177 177 177
181 181 181
185 185 185
186 186 186
186 186 186
185 185 185
178 178 178
177 177 177
177 177 177
177 177 177
177 177 177
177 177 177
176 176 176
174 174 174
174 174 174
168 168 168
135 135 135
107 107 107
97 97 97
104 104 104
107 107 107
105 105 105
105 105 105
104 104 104
104 104 104
102 102 102
95 95 95
90 90 90
97 97 97
110 110 110
131 131 131
153 153 153
158 158 158
129 129 129
94 94 94
97 97 97
97 97 97
97 97 97
96 96 96
96 96 96
96 96 96
94 94 94
92 92 92
94 94 94
90 90 90
84 84 84
72 72 72
68 68 68
64 64 64
65 65 65
65 65 65
66 66 66
70 70 70
85 85 85
87 87 87
89 89 89
88 88 88
85 85 85
86 86 86
87 87 87
86 86 86
84 84 84
100 100 100
109 109 109
94 94 94
101 101 101
101 101 101
105 105 105
108 108 108
103 103 103
88 88 88
78 78 78
75 75 75
79 79 79
82 82 82
136 136 136
138 138 138
142 142 142
143 143 143
146 146 146
145 145 145
144 144 144
140 140 140
132 132 132
122 122 122
122 122 122
124 124 124
122 122 122
138 138 138
192 192 192
189 189 189
191 191 191
188 188 188
152 152 152
129 129 129
129 129 129
129 129 129
128 128 128
96 96 96
128 128 128
129 129 129
130 130 130
130 130 130
130 130 130
129 129 129
129 129 129
128 128 128
129 129 129
129 129 129
129 129 129
129 129 129
118 118 118
143 143 143
173 173 173
174 174 174
138 138 138
175 175 175
176 176 176
177 177 177
178 178 178
178 178 178
177 177 177
177 177 177
177 177 177
177 177 177
177 177 177
177 177 177
177 177 177
177 177 177
177 177 177
174 174 174
173 173 173
132 132 132
115 115 115
184 184 184
189 189 189
189 189 189
190 190 190
192 192 192
192 192 192
191 191 191
184 184 184
183 183 183
154 154 154
116 116 116
126 126 126
124 124 124
125 125 125
129 129 129
173 173 173
186 186 186
187 187 187
187 187 187
186 186 186
185 185 185
185 185 185
185 185 185
185 185 185
184 184 184
183 183 183
181 181 181
136 136 136
123 123 123
122 122 122
121 121 121
109 109 109
147 147 147
179 179 179
181 181 181
183 183 183
184 184 184
186 186 186
186 186 186
186 186 186
185 185 185
183 183 183
176 176 176
177 177 177
179 179 179
178 178 178
175 175 175
173 173 173
164 164 164
122 122 122
95 95 95
103 103 103
106 106 106
107 107 107
103 103 103
102 102 102
103 103 103
103 103 103
104 104 104
104 104 104
103 103 103
102 102 102
102 102 102
104 104 104
103 103 103
96 96 96
85 85 85
131 131 131
144 144 144
85 85 85
97 97 97
97 97 97
97 97 97
97 97 97
96 96 96
96 96 96
95 95 95
91 91 91
85 85 85
69 69 69
68 68 68
75 75 75
75 75 75
76 76 76
75 75 75
76 76 76
77 77 77
75 75 75
65 65 65
78 78 78
88 88 88
87 87 87
86 86 86
86 86 86
87 87 87
85 85 85
84 84 84
88 88 88
116 116 116
86 86 86
93 93 93
92 92 92
95 95 95
99 99 99
95 95 95
87 87 87
83 83 83
80 80 80
84 84 84
86 86 86
141 141 141
142 142 142
143 143 143
144 144 144
146 146 146
145 145 145
144 144 144
141 141 141
131 131 131
124 124 124
127 127 127
130 130 130
120 120 120
186 186 186
190 190 190
190 190 190
189 189 189
163 163 163
132 132 132
130 130 130
129 129 129
128 128 128
111 111 111
111 111 111
127 127 127
128 128 128
130 130 130
130 130 130
130 130 130
129 129 129
129 129 129
128 128 128
129 129 129
129 129 129
129 129 129
122 122 122
82 82 82
166 166 166
176 176 176
176 176 176
147 147 147
166 166 166
176 176 176
176 176 176
177 177 177
177 177 177
177 177 177
177 177 177
177 177 177
177 177 177
177 177 177
177 177 177
177 177 177
177 177 177
177 177 177
174 174 174
168 168 168
115 115 115
167 167 167
188 188 188
189 189 189
191 191 191
192 192 192
192 192 192
191 191 191
187 187 187
185 185 185
179 179 179
108 108 108
125 125 125
125 125 125
126 126 126
126 126 126
157 157 157
185 185 185
187 187 187
186 186 186
187 187 187
186 186 186
186 186 186
184 184 184
185 185 185
185 185 185
184 184 184
183 183 183
154 154 154
122 122 122
122 122 122
122 122 122
109 109 109
150 150 150
182 182 182
181 181 181
184 184 184
185 185 185
185 185 185
186 186 186
186 186 186
187 187 187
185 185 185
181 181 181
176 176 176
177 177 177
175 175 175
173 173 173
169 169 169
132 132 132
94 94 94
105 105 105
107 107 107
106 106 106
105 105 105
105 105 105
104 104 104
102 102 102
98 98 98
89 89 89
107 107 107
112 112 112
114 114 114
112 112 112
105 105 105
104 104 104
101 101 101
100 100 100
98 98 98
88 88 88
133 133 133
85 85 85
96 96 96
96 96 96
97 97 97
97 97 97
94 94 94
93 93 93
91 91 91
77 77 77
66 66 66
78 78 78
77 77 77
75 75 75
75 75 75
74 74 74
75 75 75
76 76 76
75 75 75
75 75 75
76 76 76
63 63 63
79 79 79
86 86 86
86 86 86
86 86 86
87 87 87
85 85 85
85 85 85
84 84 84
117 117 117
78 78 78
83 83 83
80 80 80
78 78 78
82 82 82
89 89 89
94 94 94
90 90 90
86 86 86
83 83 83
81 81 81
147 147 147
145 145 145
145 145 145
146 146 146
145 145 145
145 145 145
146 146 146
144 144 144
136 136 136
137 137 137
140 140 140
122 122 122
177 177 177
188 188 188
190 190 190
191 191 191
173 173 173
132 132 132
130 130 130
129 129 129
128 128 128
127 127 127
96 96 96
125 125 125
127 127 127
128 128 128
130 130 130
130 130 130
129 129 129
129 129 129
128 128 128
127 127 127
128 128 128
127 127 127
121 121 121
95 95 95
118 118 118
174 174 174
176 176 176
176 176 176
161 161 161
152 152 152
174 174 174
176 176 176
176 176 176
177 177 177
177 177 177
177 177 177
177 177 177
177 177 177
177 177 177
176 176 176
175 175 175
177 177 177
177 177 177
176 176 176
159 159 159
142 142 142
192 192 192
190 190 190
191 191 191
192 192 192
192 192 192
192 192 192
188 188 188
185 185 185
183 183 183
127 127 127
120 120 120
125 125 125
126 126 126
128 128 128
139 139 139
183 183 183
185 185 185
186 186 186
186 186 186
187 187 187
187 187 187
186 186 186
183 183 183
184 184 184
184 184 184
183 183 183
170 170 170
125 125 125
123 123 123
122 122 122
110 110 110
149 149 149
180 180 180
184 184 184
184 184 184
185 185 185
185 185 185
186 186 186
186 186 186
187 187 187
185 185 185
182 182 182
177 177 177
175 175 175
176 176 176
175 175 175
151 151 151
102 102 102
105 105 105
107 107 107
105 105 105
106 106 106
105 105 105
104 104 104
103 103 103
102 102 102
92 92 92
105 105 105
141 141 141
150 150 150
153 153 153
154 154 154
153 153 153
148 148 148
121 121 121
101 101 101
100 100 100
98 98 98
99 99 99
86 86 86
67 67 67
95 95 95
95 95 95
96 96 96
95 95 95
91 91 91
89 89 89
69 69 69
72 72 72
78 78 78
77 77 77
76 76 76
77 77 77
77 77 77
76 76 76
76 76 76
78 78 78
77 77 77
76 76 76
74 74 74
78 78 78
61 61 61
84 84 84
86 86 86
86 86 86
86 86 86
87 87 87
87 87 87
86 86 86
115 115 115
83 83 83
87 87 87
85 85 85
80 80 80
79 79 79
83 83 83
91 91 91
95 95 95
91 91 91
81 81 81
77 77 77
152 152 152
149 149 149
148 148 148
146 146 146
145 145 145
143 143 143
143 143 143
144 144 144
147 147 147
148 148 148
133 133 133
160 160 160
190 190 190
190 190 190
191 191 191
183 183 183
138 138 138
129 129 129
130 130 130
128 128 128
126 126 126
113 113 113
113 113 113
128 128 128
130 130 130
127 127 127
130 130 130
130 130 130
128 128 128
128 128 128
127 127 127
128 128 128
128 128 128
122 122 122
92 92 92
103 103 103
144 144 144
175 175 175
177 177 177
176 176 176
170 170 170
140 140 140
175 175 175
175 175 175
176 176 176
177 177 177
177 177 177
177 177 177
177 177 177
177 177 177
177 177 177
176 176 176
175 175 175
175 175 175
176 176 176
176 176 176
145 145 145
187 187 187
191 191 191
192 192 192
191 191 191
192 192 192
192 192 192
190 190 190
188 188 188
186 186 186
160 160 160
114 114 114
123 123 123
125 125 125
125 125 125
129 129 129
176 176 176
186 186 186
188 188 188
188 188 188
187 187 187
187 187 187
187 187 187
187 187 187
183 183 183
184 184 184
184 184 184
178 178 178
133 133 133
123 123 123
122 122 122
109 109 109
152 152 152
181 181 181
184 184 184
183 183 183
184 184 184
186 186 186
186 186 186
185 185 185
185 185 185
184 184 184
181 181 181
181 181 181
178 178 178
176 176 176
171 171 171
126 126 126
101 101 101
108 108 108
107 107 107
107 107 107
107 107 107
108 108 108
108 108 108
106 106 106
105 105 105
92 92 92
126 126 126
155 155 155
156 156 156
158 158 158
155 155 155
153 153 153
154 154 154
154 154 154
155 155 155
137 137 137
105 105 105
99 99 99
97 97 97
95 95 95
85 85 85
77 77 77
94 94 94
96 96 96
94 94 94
88 88 88
68 68 68
78 78 78
77 77 77
76 76 76
76 76 76
77 77 77
78 78 78
78 78 78
76 76 76
76 76 76
77 77 77
77 77 77
76 76 76
74 74 74
74 74 74
76 76 76
63 63 63
84 84 84
85 85 85
86 86 86
86 86 86
86 86 86
87 87 87
103 103 103
90 90 90
85 85 85
99 99 99
104 104 104
98 98 98
90 90 90
85 85 85
88 88 88
90 90 90
82 82 82
78 78 78
156 156 156
152 152 152
149 149 149
146 146 146
145 145 145
145 145 145
146 146 146
148 148 148
149 149 149
148 148 148
130 130 130
191 191 191
189 189 189
189 189 189
187 187 187
149 149 149
131 131 131
129 129 129
129 129 129
128 128 128
127 127 127
98 98 98
125 125 125
127 127 127
129 129 129
129 129 129
130 130 130
130 130 130
128 128 128
128 128 128
126 126 126
126 126 126
125 125 125
92 92 92
109 109 109
100 100 100
167 167 167
177 177 177
176 176 176
177 177 177
174 174 174
139 139 139
175 175 175
175 175 175
177 177 177
177 177 177
177 177 177
177 177 177
177 177 177
177 177 177
176 176 176
176 176 176
174 174 174
174 174 174
175 175 175
158 158 158
174 174 174
190 190 190
192 192 192
192 192 192
191 191 191
192 192 192
192 192 192
189 189 189
185 185 185
179 179 179
111 111 111
124 124 124
125 125 125
126 126 126
125 125 125
155 155 155
185 185 185
188 188 188
189 189 189
189 189 189
189 189 189
189 189 189
189 189 189
187 187 187
185 185 185
184 184 184
182 182 182
146 146 146
123 123 123
124 124 124
107 107 107
153 153 153
183 183 183
184 184 184
184 184 184
183 183 183
185 185 185
187 187 187
186 186 186
186 186 186
184 184 184
181 181 181
178 178 178
179 179 179
177 177 177
163 163 163
107 107 107
104 104 104
107 107 107
107 107 107
106 106 106
109 109 109
108 108 108
108 108 108
107 107 107
104 104 104
92 92 92
137 137 137
158 158 158
160 160 160
160 160 160
159 159 159
155 155 155
155 155 155
155 155 155
154 154 154
153 153 153
152 152 152
147 147 147
124 124 124
99 99 99
97 97 97
96 96 96
86 86 86
79 79 79
95 95 95
91 91 91
69 69 69
77 77 77
78 78 78
78 78 78
76 76 76
76 76 76
78 78 78
78 78 78
78 78 78
77 77 77
78 78 78
78 78 78
77 77 77
77 77 77
76 76 76
76 76 76
74 74 74
74 74 74
64 64 64
82 82 82
86 86 86
86 86 86
85 85 85
86 86 86
90 90 90
101 101 101
65 65 65
80 80 80
97 97 97
106 106 106
111 111 111
104 104 104
96 96 96
91 91 91
84 84 84
79 79 79
151 151 151
149 149 149
150 150 150
149 149 149
149 149 149
150 150 150
149 149 149
150 150 150
151 151 151
128 128 128
176 176 176
189 189 189
192 192 192
190 190 190
163 163 163
130 130 130
129 129 129
127 127 127
126 126 126
127 127 127
121 121 121
103 103 103
127 127 127
128 128 128
128 128 128
128 128 128
130 130 130
130 130 130
128 128 128
126 126 126
126 126 126
127 127 127
104 104 104
112 112 112
118 118 118
121 121 121
173 173 173
176 176 176
175 175 175
177 177 177
173 173 173
138 138 138
174 174 174
175 175 175
177 177 177
177 177 177
177 177 177
177 177 177
177 177 177
177 177 177
176 176 176
175 175 175
175 175 175
175 175 175
170 170 170
152 152 152
191 191 191
192 192 192
192 192 192
191 191 191
190 190 190
192 192 192
191 191 191
187 187 187
186 186 186
137 137 137
121 121 121
125 125 125
126 126 126
125 125 125
138 138 138
184 184 184
189 189 189
190 190 190
189 189 189
190 190 190
190 190 190
189 189 189
189 189 189
188 188 188
185 185 185
184 184 184
161 161 161
126 126 126
122 122 122
107 107 107
151 151 151
183 183 183
184 184 184
185 185 185
184 184 184
184 184 184
185 185 185
187 187 187
186 186 186
185 185 185
182 182 182
179 179 179
178 178 178
176 176 176
156 156 156
100 100 100
110 110 110
109 109 109
107 107 107
107 107 107
108 108 108
109 109 109
108 108 108
107 107 107
99 99 99
107 107 107
149 149 149
155 155 155
160 160 160
161 161 161
161 161 161
161 161 161
158 158 158
157 157 157
156 156 156
155 155 155
154 154 154
154 154 154
153 153 153
153 153 153
138 138 138
105 105 105
97 97 97
99 99 99
84 84 84
77 77 77
69 69 69
74 74 74
72 72 72
80 80 80
78 78 78
76 76 76
76 76 76
78 78 78
78 78 78
78 78 78
77 77 77
77 77 77
77 77 77
77 77 77
77 77 77
77 77 77
76 76 76
74 74 74
73 73 73
68 68 68
70 70 70
86 86 86
85 85 85
85 85 85
85 85 85
86 86 86
114 114 114
70 70 70
77 77 77
72 72 72
65 65 65
74 74 74
90 90 90
99 99 99
102 102 102
97 97 97
89 89 89
133 133 133
136 136 136
142 142 142
144 144 144
147 147 147
149 149 149
148 148 148
148 148 148
143 143 143
154 154 154
189 189 189
191 191 191
190 190 190
176 176 176
131 131 131
128 128 128
127 127 127
128 128 128
129 129 129
125 125 125
104 104 104
121 121 121
125 125 125
127 127 127
128 128 128
127 127 127
128 128 128
128 128 128
128 128 128
126 126 126
128 128 128
112 112 112
115 115 115
131 131 131
123 123 123
150 150 150
173 173 173
176 176 176
176 176 176
176 176 176
173 173 173
140 140 140
172 172 172
175 175 175
177 177 177
177 177 177
177 177 177
177 177 177
177 177 177
177 177 177
177 177 177
175 175 175
173 173 173
174 174 174
141 141 141
187 187 187
190 190 190
192 192 192
192 192 192
192 192 192
191 191 191
189 189 189
187 187 187
184 184 184
169 169 169
113 113 113
127 127 127
126 126 126
124 124 124
127 127 127
171 171 171
188 188 188
189 189 189
190 190 190
190 190 190
189 189 189
189 189 189
188 188 188
190 190 190
186 186 186
184 184 184
176 176 176
130 130 130
122 122 122
112 112 112
151 151 151
182 182 182
183 183 183
184 184 184
188 188 188
187 187 187
184 184 184
182 182 182
184 184 184
184 184 184
185 185 185
182 182 182
179 179 179
179 179 179
154 154 154
100 100 100
110 110 110
109 109 109
109 109 109
110 110 110
109 109 109
108 108 108
108 108 108
105 105 105
92 92 92
127 127 127
158 158 158
160 160 160
161 161 161
160 160 160
160 160 160
160 160 160
160 160 160
159 159 159
158 158 158
155 155 155
155 155 155
154 154 154
152 152 152
152 152 152
152 152 152
152 152 152
136 136 136
98 98 98
97 97 97
95 95 95
78 78 78
72 72 72
84 84 84
80 80 80
75 75 75
73 73 73
82 82 82
78 78 78
76 76 76
76 76 76
78 78 78
79 79 79
79 79 79
78 78 78
77 77 77
77 77 77
77 77 77
76 76 76
75 75 75
74 74 74
75 75 75
64 64 64
78 78 78
85 85 85
85 85 85
85 85 85
84 84 84
115 115 115
65 65 65
75 75 75
75 75 75
74 74 74
68 68 68
65 65 65
66 66 66
77 77 77
86 86 86
97 97 97
131 131 131
135 135 135
141 141 141
142 142 142
146 146 146
149 149 149
147 147 147
148 148 148
126 126 126
186 186 186
188 188 188
192 192 192
184 184 184
138 138 138
127 127 127
128 128 128
128 128 128
128 128 128
127 127 127
124 124 124
97 97 97
126 126 126
127 127 127
128 128 128
128 128 128
127 127 127
128 128 128
128 128 128
128 128 128
126 126 126
121 121 121
104 104 104
137 137 137
138 138 138
115 115 115
170 170 170
174 174 174
176 176 176
176 176 176
176 176 176
174 174 174
150 150 150
164 164 164
175 175 175
177 177 177
177 177 177
177 177 177
177 177 177
177 177 177
177 177 177
177 177 177
175 175 175
176 176 176
162 162 162
166 166 166
189 189 189
190 190 190
191 191 191
192 192 192
192 192 192
191 191 191
187 187 187
184 184 184
184 184 184
122 122 122
126 126 126
127 127 127
128 128 128
130 130 130
152 152 152
186 186 186
189 189 189
189 189 189
189 189 189
190 190 190
190 190 190
190 190 190
188 188 188
189 189 189
186 186 186
184 184 184
145 145 145
124 124 124
113 113 113
147 147 147
184 184 184
184 184 184
183 183 183
185 185 185
186 186 186
186 186 186
186 186 186
185 185 185
184 184 184
183 183 183
183 183 183
179 179 179
179 179 179
149 149 149
99 99 99
110 110 110
108 108 108
107 107 107
108 108 108
109 109 109
108 108 108
108 108 108
97 97 97
106 106 106
152 152 152
160 160 160
159 159 159
161 161 161
162 162 162
163 163 163
160 160 160
160 160 160
160 160 160
159 159 159
158 158 158
155 155 155
154 154 154
155 155 155
154 154 154
154 154 154
152 152 152
152 152 152
143 143 143
101 101 101
98 98 98
97 97 97
98 98 98
96 96 96
95 95 95
109 109 109
139 139 139
126 126 126
88 88 88
76 76 76
78 78 78
77 77 77
78 78 78
78 78 78
78 78 78
78 78 78
77 77 77
77 77 77
77 77 77
76 76 76
76 76 76
75 75 75
73 73 73
75 75 75
62 62 62
82 82 82
82 82 82
85 85 85
84 84 84
110 110 110
74 74 74
77 77 77
79 79 79
81 81 81
80 80 80
79 79 79
76 76 76
71 71 71
65 65 65
64 64 64
142 142 142
142 142 142
143 143 143
143 143 143
149 149 149
152 152 152
145 145 145
129 129 129
170 170 170
189 189 189
191 191 191
188 188 188
155 155 155
131 131 131
130 130 130
129 129 129
129 129 129
129 129 129
128 128 128
116 116 116
108 108 108
127 127 127
128 128 128
128 128 128
127 127 127
126 126 126
128 128 128
128 128 128
127 127 127
125 125 125
100 100 100
130 130 130
136 136 136
140 140 140
132 132 132
175 175 175
175 175 175
176 176 176
176 176 176
177 177 177
174 174 174
158 158 158
156 156 156
174 174 174
175 175 175
177 177 177
177 177 177
177 177 177
177 177 177
177 177 177
176 176 176
176 176 176
173 173 173
146 146 146
191 191 191
191 191 191
191 191 191
191 191 191
191 191 191
192 192 192
190 190 190
186 186 186
184 184 184
150 150 150
117 117 117
125 125 125
126 126 126
128 128 128
137 137 137
182 182 182
188 188 188
189 189 189
189 189 189
189 189 189
189 189 189
189 189 189
189 189 189
187 187 187
185 185 185
185 185 185
166 166 166
125 125 125
118 118 118
136 136 136
183 183 183
185 185 185
185 185 185
186 186 186
187 187 187
187 187 187
185 185 185
184 184 184
183 183 183
183 183 183
182 182 182
180 180 180
180 180 180
144 144 144
101 101 101
109 109 109
109 109 109
109 109 109
109 109 109
108 108 108
108 108 108
103 103 103
98 98 98
139 139 139
161 161 161
160 160 160
160 160 160
161 161 161
161 161 161
162 162 162
162 162 162
160 160 160
160 160 160
160 160 160
159 159 159
156 156 156
156 156 156
155 155 155
155 155 155
154 154 154
154 154 154
153 153 153
147 147 147
109 109 109
98 98 98
97 97 97
98 98 98
98 98 98
96 96 96
111 111 111
142 142 142
145 145 145
146 146 146
142 142 142
123 123 123
82 82 82
77 77 77
78 78 78
76 76 76
76 76 76
77 77 77
78 78 78
78 78 78
78 78 78
78 78 78
76 76 76
76 76 76
73 73 73
71 71 71
74 74 74
66 66 66
83 83 83
84 84 84
83 83 83
102 102 102
90 90 90
87 87 87
90 90 90
91 91 91
85 85 85
81 81 81
79 79 79
78 78 78
80 80 80
78 78 78
150 150 150
152 152 152
153 153 153
150 150 150
153 153 153
155 155 155
154 154 154
138 138 138
187 187 187
189 189 189
190 190 190
171 171 171
131 131 131
130 130 130
130 130 130
130 130 130
129 129 129
129 129 129
128 128 128
100 100 100
123 123 123
127 127 127
127 127 127
127 127 127
127 127 127
127 127 127
128 128 128
127 127 127
127 127 127
111 111 111
128 128 128
133 133 133
135 135 135
128 128 128
155 155 155
174 174 174
176 176 176
176 176 176
176 176 176
177 177 177
175 175 175
166 166 166
146 146 146
173 173 173
175 175 175
177 177 177
177 177 177
177 177 177
177 177 177
176 176 176
176 176 176
176 176 176
152 152 152
176 176 176
190 190 190
192 192 192
192 192 192
191 191 191
191 191 191
191 191 191
189 189 189
184 184 184
177 177 177
109 109 109
124 124 124
124 124 124
126 126 126
128 128 128
169 169 169
188 188 188
191 191 191
190 190 190
190 190 190
190 190 190
189 189 189
189 189 189
189 189 189
188 188 188
185 185 185
181 181 181
136 136 136
125 125 125
124 124 124
183 183 183
183 183 183
183 183 183
186 186 186
186 186 186
185 185 185
185 185 185
184 184 184
184 184 184
183 183 183
182 182 182
180 180 180
180 180 180
141 141 141
105 105 105
108 108 108
109 109 109
109 109 109
108 108 108
108 108 108
105 105 105
97 97 97
127 127 127
157 157 157
162 162 162
163 163 163
162 162 162
163 163 163
161 161 161
161 161 161
162 162 162
162 162 162
160 160 160
160 160 160
159 159 159
159 159 159
157 157 157
156 156 156
155 155 155
155 155 155
154 154 154
154 154 154
148 148 148
109 109 109
100 100 100
98 98 98
98 98 98
98 98 98
98 98 98
114 114 114
145 145 145
149 149 149
147 147 147
146 146 146
145 145 145
145 145 145
140 140 140
116 116 116
78 78 78
78 78 78
78 78 78
77 77 77
78 78 78
79 79 79
78 78 78
78 78 78
78 78 78
76 76 76
75 75 75
72 72 72
74 74 74
65 65 65
77 77 77
84 84 84
83 83 83
89 89 89
106 106 106
90 90 90
95 95 95
96 96 96
91 91 91
87 87 87
83 83 83
74 74 74
76 76 76
79 79 79
160 160 160
161 161 161
163 163 163
159 159 159
158 158 158
159 159 159
131 131 131
182 182 182
188 188 188
190 190 190
183 183 183
136 136 136
129 129 129
128 128 128
128 128 128
128 128 128
128 128 128
126 126 126
122 122 122
95 95 95
126 126 126
127 127 127
128 128 128
128 128 128
127 127 127
126 126 126
127 127 127
127 127 127
122 122 122
110 110 110
148 148 148
144 144 144
136 136 136
115 115 115
173 173 173
176 176 176
176 176 176
177 177 177
177 177 177
177 177 177
175 175 175
171 171 171
138 138 138
172 172 172
176 176 176
177 177 177
177 177 177
177 177 177
175 175 175
174 174 174
177 177 177
174 174 174
148 148 148
191 191 191
190 190 190
192 192 192
192 192 192
193 193 193
192 192 192
191 191 191
189 189 189
184 184 184
135 135 135
121 121 121
125 125 125
125 125 125
127 127 127
147 147 147
187 187 187
189 189 189
190 190 190
190 190 190
189 189 189
190 190 190
190 190 190
190 190 190
190 190 190
187 187 187
185 185 185
157 157 157
123 123 123
111 111 111
178 178 178
185 185 185
184 184 184
183 183 183
186 186 186
185 185 185
184 184 184
184 184 184
183 183 183
183 183 183
182 182 182
181 181 181
180 180 180
135 135 135
104 104 104
112 112 112
110 110 110
112 112 112
111 111 111
106 106 106
97 97 97
121 121 121
157 157 157
163 163 163
164 164 164
163 163 163
164 164 164
164 164 164
163 163 163
162 162 162
161 161 161
160 160 160
161 161 161
161 161 161
158 158 158
158 158 158
159 159 159
158 158 158
156 156 156
154 154 154
154 154 154
155 155 155
149 149 149
112 112 112
100 100 100
99 99 99
99 99 99
98 98 98
96 96 96
120 120 120
144 144 144
149 149 149
150 150 150
150 150 150
149 149 149
148 148 148
146 146 146
144 144 144
143 143 143
131 131 131
87 87 87
75 75 75
77 77 77
77 77 77
78 78 78
79 79 79
79 79 79
78 78 78
77 77 77
76 76 76
73 73 73
73 73 73
70 70 70
54 54 54
83 83 83
85 85 85
85 85 85
106 106 106
82 82 82
92 92 92
91 91 91
90 90 90
89 89 89
87 87 87
82 82 82
82 82 82
85 85 85
168 168 168
166 166 166
160 160 160
159 159 159
156 156 156
148 148 148
155 155 155
188 188 188
190 190 190
190 190 190
157 157 157
130 130 130
128 128 128
128 128 128
129 129 129
128 128 128
128 128 128
126 126 126
112 112 112
109 109 109
125 125 125
128 128 128
126 126 126
126 126 126
127 127 127
126 126 126
125 125 125
125 125 125
103 103 103
144 144 144
147 147 147
143 143 143
129 129 129
130 130 130
174 174 174
175 175 175
176 176 176
177 177 177
177 177 177
177 177 177
175 175 175
174 174 174
139 139 139
173 173 173
176 176 176
177 177 177
177 177 177
176 176 176
176 176 176
175 175 175
176 176 176
145 145 145
181 181 181
190 190 190
192 192 192
192 192 192
191 191 191
193 193 193
193 193 193
189 189 189
185 185 185
168 168 168
110 110 110
124 124 124
125 125 125
125 125 125
131 131 131
178 178 178
188 188 188
188 188 188
190 190 190
191 191 191
190 190 190
190 190 190
190 190 190
190 190 190
190 190 190
188 188 188
178 178 178
127 127 127
110 110 110
169 169 169
186 186 186
184 184 184
185 185 185
183 183 183
186 186 186
184 184 184
186 186 186
185 185 185
185 185 185
184 184 184
180 180 180
180 180 180
131 131 131
107 107 107
112 112 112
111 111 111
109 109 109
107 107 107
93 93 93
122 122 122
156 156 156
164 164 164
167 167 167
168 168 168
167 167 167
164 164 164
164 164 164
165 165 165
165 165 165
165 165 165
165 165 165
164 164 164
162 162 162
161 161 161
159 159 159
159 159 159
159 159 159
159 159 159
156 156 156
153 153 153
153 153 153
145 145 145
110 110 110
100 100 100
99 99 99
99 99 99
99 99 99
100 100 100
125 125 125
149 149 149
152 152 152
152 152 152
150 150 150
150 150 150
148 148 148
147 147 147
145 145 145
144 144 144
144 144 144
142 142 142
139 139 139
92 92 92
78 78 78
76 76 76
77 77 77
79 79 79
79 79 79
78 78 78
77 77 77
74 74 74
73 73 73
73 73 73
75 75 75
50 50 50
74 74 74
84 84 84
83 83 83
110 110 110
74 74 74
90 90 90
91 91 91
92 92 92
91 91 91
90 90 90
88 88 88
87 87 87
88 88 88
163 163 163
158 158 158
151 151 151
150 150 150
154 154 154
133 133 133
189 189 189
189 189 189
189 189 189
173 173 173
130 130 130
130 130 130
130 130 130
129 129 129
129 129 129
129 129 129
128 128 128
125 125 125
98 98 98
122 122 122
124 124 124
127 127 127
129 129 129
129 129 129
127 127 127
126 126 126
125 125 125
116 116 116
126 126 126
149 149 149
148 148 148
145 145 145
129 129 129
156 156 156
173 173 173
175 175 175
176 176 176
177 177 177
177 177 177
177 177 177
176 176 176
174 174 174
131 131 131
172 172 172
175 175 175
177 177 177
176 176 176
175 175 175
175 175 175
176 176 176
166 166 166
158 158 158
191 191 191
192 192 192
193 193 193
192 192 192
192 192 192
193 193 193
193 193 193
189 189 189
187 187 187
125 125 125
124 124 124
126 126 126
125 125 125
126 126 126
163 163 163
187 187 187
189 189 189
189 189 189
191 191 191
192 192 192
191 191 191
190 190 190
190 190 190
190 190 190
189 189 189
187 187 187
147 147 147
115 115 115
158 158 158
185 185 185
186 186 186
186 186 186
184 184 184
185 185 185
185 185 185
184 184 184
186 186 186
187 187 187
186 186 186
184 184 184
180 180 180
131 131 131
107 107 107
110 110 110
108 108 108
110 110 110
97 97 97
114 114 114
154 154 154
167 167 167
164 164 164
166 166 166
168 168 168
170 170 170
168 168 168
164 164 164
165 165 165
165 165 165
165 165 165
165 165 165
165 165 165
164 164 164
163 163 163
160 160 160
158 158 158
159 159 159
157 157 157
157 157 157
157 157 157
154 154 154
136 136 136
106 106 106
101 101 101
100 100 100
100 100 100
98 98 98
101 101 101
130 130 130
150 150 150
151 151 151
152 152 152
153 153 153
149 149 149
150 150 150
149 149 149
148 148 148
146 146 146
144 144 144
143 143 143
144 144 144
142 142 142
131 131 131
69 69 69
77 77 77
77 77 77
78 78 78
78 78 78
77 77 77
76 76 76
74 74 74
74 74 74
74 74 74
74 74 74
60 60 60
65 65 65
79 79 79
82 82 82
106 106 106
78 78 78
89 89 89
89 89 89
92 92 92
96 96 96
99 99 99
92 92 92
88 88 88
87 87 87
155 155 155
153 153 153
151 151 151
149 149 149
144 144 144
167 167 167
189 189 189
189 189 189
186 186 186
143 143 143
131 131 131
129 129 129
128 128 128
129 129 129
129 129 129
129 129 129
127 127 127
127 127 127
96 96 96
125 125 125
125 125 125
126 126 126
127 127 127
128 128 128
127 127 127
125 125 125
125 125 125
103 103 103
146 146 146
144 144 144
149 149 149
147 147 147
117 117 117
172 172 172
175 175 175
176 176 176
176 176 176
177 177 177
177 177 177
177 177 177
175 175 175
174 174 174
135 135 135
172 172 172
175 175 175
177 177 177
176 176 176
175 175 175
173 173 173
175 175 175
137 137 137
192 192 192
191 191 191
192 192 192
192 192 192
192 192 192
192 192 192
191 191 191
191 191 191
187 187 187
162 162 162
113 113 113
124 124 124
126 126 126
128 128 128
140 140 140
186 186 186
188 188 188
189 189 189
191 191 191
192 192 192
192 192 192
191 191 191
189 189 189
190 190 190
189 189 189
186 186 186
168 168 168
119 119 119
145 145 145
185 185 185
185 185 185
185 185 185
185 185 185
186 186 186
186 186 186
187 187 187
188 188 188
187 187 187
187 187 187
185 185 185
183 183 183
131 131 131
109 109 109
111 111 111
107 107 107
94 94 94
125 125 125
159 159 159
167 167 167
167 167 167
169 169 169
169 169 169
170 170 170
170 170 170
170 170 170
169 169 169
165 165 165
165 165 165
165 165 165
165 165 165
165 165 165
165 165 165
165 165 165
163 163 163
161 161 161
158 158 158
158 158 158
157 157 157
157 157 157
157 157 157
138 138 138
102 102 102
99 99 99
101 101 101
101 101 101
100 100 100
102 102 102
133 133 133
154 154 154
153 153 153
154 154 154
152 152 152
152 152 152
149 149 149
150 150 150
149 149 149
149 149 149
147 147 147
145 145 145
143 143 143
143 143 143
142 142 142
137 137 137
74 74 74
77 77 77
77 77 77
78 78 78
78 78 78
77 77 77
75 75 75
75 75 75
75 75 75
73 73 73
73 73 73
64 64 64
73 73 73
70 70 70
83 83 83
97 97 97
92 92 92
87 87 87
87 87 87
88 88 88
89 89 89
93 93 93
92 92 92
87 87 87
87 87 87
152 152 152
151 151 151
151 151 151
153 153 153
130 130 130
189 189 189
190 190 190
188 188 188
164 164 164
130 130 130
129 129 129
127 127 127
127 127 127
129 129 129
128 128 128
127 127 127
125 125 125
117 117 117
113 113 113
126 126 126
126 126 126
127 127 127
127 127 127
126 126 126
125 125 125
125 125 125
110 110 110
133 133 133
143 143 143
143 143 143
150 150 150
148 148 148
130 130 130
174 174 174
175 175 175
176 176 176
176 176 176
177 177 177
177 177 177
177 177 177
175 175 175
174 174 174
136 136 136
171 171 171
175 175 175
177 177 177
176 176 176
176 176 176
173 173 173
155 155 155
173 173 173
191 191 191
194 194 194
193 193 193
191 191 191
191 191 191
192 192 192
190 190 190
190 190 190
186 186 186
117 117 117
127 127 127
125 125 125
127 127 127
129 129 129
173 173 173
188 188 188
188 188 188
189 189 189
191 191 191
192 192 192
193 193 193
191 191 191
189 189 189
189 189 189
188 188 188
182 182 182
131 131 131
140 140 140
184 184 184
185 185 185
186 186 186
186 186 186
187 187 187
187 187 187
187 187 187
188 188 188
188 188 188
187 187 187
186 186 186
184 184 184
136 136 136
110 110 110
108 108 108
101 101 101
130 130 130
161 161 161
168 168 168
170 170 170
169 169 169
170 170 170
170 170 170
170 170 170
171 171 171
171 171 171
170 170 170
169 169 169
166 166 166
166 166 166
164 164 164
165 165 165
165 165 165
165 165 165
165 165 165
164 164 164
161 161 161
160 160 160
156 156 156
155 155 155
156 156 156
138 138 138
104 104 104
102 102 102
100 100 100
101 101 101
101 101 101
111 111 111
142 142 142
154 154 154
153 153 153
154 154 154
154 154 154
153 153 153
152 152 152
150 150 150
150 150 150
149 149 149
150 150 150
148 148 148
146 146 146
144 144 144
144 144 144
143 143 143
139 139 139
73 73 73
77 77 77
78 78 78
78 78 78
78 78 78
77 77 77
75 75 75
74 74 74
75 75 75
75 75 75
72 72 72
70 70 70
74 74 74
64 64 64
82 82 82
88 88 88
101 101 101
83 83 83
85 85 85
87 87 87
87 87 87
88 88 88
88 88 88
84 84 84
83 83 83
150 150 150
150 150 150
149 149 149
136 136 136
168 168 168
189 189 189
191 191 191
179 179 179
132 132 132
129 129 129
129 129 129
128 128 128
128 128 128
129 129 129
127 127 127
124 124 124
124 124 124
101 101 101
121 121 121
125 125 125
126 126 126
128 128 128
126 126 126
127 127 127
124 124 124
123 123 123
97 97 97
147 147 147
151 151 151
143 143 143
145 145 145
136 136 136
154 154 154
173 173 173
175 175 175
176 176 176
177 177 177
177 177 177
177 177 177
177 177 177
175 175 175
174 174 174
146 146 146
167 167 167
175 175 175
177 177 177
177 177 177
176 176 176
174 174 174
144 144 144
192 192 192
192 192 192
193 193 193
192 192 192
193 193 193
193 193 193
193 193 193
191 191 191
188 188 188
160 160 160
117 117 117
126 126 126
128 128 128
129 129 129
150 150 150
189 189 189
188 188 188
188 188 188
189 189 189
190 190 190
192 192 192
191 191 191
191 191 191
189 189 189
188 188 188
185 185 185
157 157 157
132 132 132
183 183 183
185 185 185
185 185 185
186 186 186
187 187 187
188 188 188
187 187 187
187 187 187
187 187 187
189 189 189
186 186 186
184 184 184
140 140 140
160 160 160
163 163 163
151 151 151
164 164 164
167 167 167
169 169 169
170 170 170
169 169 169
170 170 170
170 170 170
170 170 170
170 170 170
171 171 171
171 171 171
171 171 171
170 170 170
166 166 166
165 165 165
165 165 165
165 165 165
165 165 165
165 165 165
165 165 165
164 164 164
162 162 162
162 162 162
156 156 156
156 156 156
133 133 133
105 105 105
104 104 104
102 102 102
102 102 102
105 105 105
130 130 130
153 153 153
154 154 154
153 153 153
153 153 153
153 153 153
153 153 153
153 153 153
152 152 152
150 150 150
150 150 150
150 150 150
150 150 150
149 149 149
147 147 147
144 144 144
144 144 144
145 145 145
141 141 141
76 76 76
78 78 78
77 77 77
78 78 78
78 78 78
76 76 76
74 74 74
74 74 74
76 76 76
76 76 76
72 72 72
73 73 73
64 64 64
76 76 76
71 71 71
84 84 84
113 113 113
79 79 79
87 87 87
91 91 91
94 94 94
94 94 94
87 87 87
82 82 82
81 81 81
152 152 152
152 152 152
151 151 151
137 137 137
189 189 189
189 189 189
188 188 188
147 147 147
130 130 130
129 129 129
129 129 129
128 128 128
128 128 128
129 129 129
126 126 126
124 124 124
124 124 124
97 97 97
124 124 124
125 125 125
125 125 125
127 127 127
125 125 125
127 127 127
124 124 124
106 106 106
102 102 102
130 130 130
135 135 135
127 127 127
136 136 136
120 120 120
169 169 169
174 174 174
175 175 175
176 176 176
177 177 177
177 177 177
177 177 177
177 177 177
175 175 175
175 175 175
156 156 156
163 163 163
176 176 176
177 177 177
177 177 177
176 176 176
147 147 147
183 183 183
192 192 192
190 190 190
190 190 190
191 191 191
193 193 193
193 193 193
193 193 193
189 189 189
182 182 182
113 113 113
127 127 127
127 127 127
129 129 129
134 134 134
179 179 179
188 188 188
188 188 188
189 189 189
191 191 191
190 190 190
189 189 189
189 189 189
190 190 190
189 189 189
188 188 188
178 178 178
132 132 132
184 184 184
185 185 185
186 186 186
187 187 187
188 188 188
187 187 187
187 187 187
188 188 188
187 187 187
187 187 187
186 186 186
186 186 186
142 142 142
161 161 161
169 169 169
169 169 169
168 168 168
168 168 168
168 168 168
169 169 169
170 170 170
171 171 171
170 170 170
170 170 170
170 170 170
170 170 170
171 171 171
171 171 171
171 171 171
169 169 169
165 165 165
165 165 165
165 165 165
165 165 165
165 165 165
165 165 165
165 165 165
164 164 164
162 162 162
163 163 163
157 157 157
154 154 154
107 107 107
105 105 105
105 105 105
105 105 105
122 122 122
148 148 148
154 154 154
153 153 153
153 153 153
154 154 154
153 153 153
153 153 153
153 153 153
152 152 152
152 152 152
151 151 151
150 150 150
150 150 150
149 149 149
149 149 149
148 148 148
145 145 145
145 145 145
144 144 144
140 140 140
66 66 66
77 77 77
77 77 77
78 78 78
78 78 78
77 77 77
75 75 75
74 74 74
76 76 76
74 74 74
73 73 73
74 74 74
62 62 62
81 81 81
63 63 63
83 83 83
122 122 122
74 74 74
90 90 90
92 92 92
89 89 89
85 85 85
81 81 81
76 76 76
74 74 74
157 157 157
155 155 155
132 132 132
172 172 172
189 189 189
188 188 188
170 170 170
128 128 128
129 129 129
128 128 128
128 128 128
129 129 129
129 129 129
128 128 128
128 128 128
126 126 126
116 116 116
106 106 106
124 124 124
125 125 125
125 125 125
126 126 126
126 126 126
127 127 127
124 124 124
86 86 86
106 106 106
111 111 111
130 130 130
138 138 138
137 137 137
130 130 130
172 172 172
175 175 175
176 176 176
177 177 177
177 177 177
177 177 177
177 177 177
177 177 177
175 175 175
174 174 174
160 160 160
164 164 164
174 174 174
176 176 176
175 175 175
172 172 172
148 148 148
192 192 192
193 193 193
192 192 192
192 192 192
191 191 191
191 191 191
192 192 192
191 191 191
186 186 186
153 153 153
119 119 119
124 124 124
127 127 127
128 128 128
161 161 161
187 187 187
188 188 188
190 190 190
190 190 190
191 191 191
190 190 190
190 190 190
190 190 190
190 190 190
188 188 188
186 186 186
139 139 139
182 182 182
188 188 188
188 188 188
188 188 188
189 189 189
190 190 190
187 187 187
185 185 185
186 186 186
187 187 187
187 187 187
186 186 186
147 147 147
159 159 159
171 171 171
170 170 170
171 171 171
169 169 169
169 169 169
169 169 169
169 169 169
169 169 169
170 170 170
170 170 170
170 170 170
170 170 170
170 170 170
171 171 171
170 170 170
169 169 169
167 167 167
164 164 164
165 165 165
165 165 165
165 165 165
165 165 165
166 166 166
166 166 166
164 164 164
162 162 162
160 160 160
157 157 157
157 157 157
131 131 131
118 118 118
131 131 131
146 146 146
155 155 155
154 154 154
153 153 153
151 151 151
153 153 153
154 154 154
154 154 154
153 153 153
153 153 153
154 154 154
154 154 154
150 150 150
150 150 150
150 150 150
149 149 149
147 147 147
147 147 147
146 146 146
144 144 144
144 144 144
141 141 141
84 84 84
69 69 69
77 77 77
75 75 75
76 76 76
75 75 75
73 73 73
74 74 74
76 76 76
74 74 74
73 73 73
72 72 72
64 64 64
82 82 82
73 73 73
80 80 80
125 125 125
78 78 78
90 90 90
88 88 88
82 82 82
78 78 78
75 75 75
73 73 73
73 73 73
158 158 158
157 157 157
138 138 138
189 189 189
190 190 190
183 183 183
138 138 138
130 130 130
129 129 129
128 128 128
128 128 128
129 129 129
128 128 128
125 125 125
125 125 125
124 124 124
102 102 102
121 121 121
126 126 126
126 126 126
127 127 127
127 127 127
126 126 126
126 126 126
105 105 105
115 115 115
134 134 134
130 130 130
127 127 127
131 131 131
125 125 125
155 155 155
173 173 173
176 176 176
177 177 177
177 177 177
177 177 177
177 177 177
177 177 177
177 177 177
176 176 176
174 174 174
153 153 153
163 163 163
175 175 175
175 175 175
173 173 173
141 141 141
189 189 189
192 192 192
192 192 192
192 192 192
192 192 192
191 191 191
190 190 190
190 190 190
185 185 185
183 183 183
115 115 115
126 126 126
125 125 125
128 128 128
139 139 139
184 184 184
189 189 189
190 190 190
191 191 191
192 192 192
191 191 191
190 190 190
190 190 190
190 190 190
190 190 190
188 188 188
152 152 152
178 178 178
184 184 184
188 188 188
189 189 189
189 189 189
190 190 190
190 190 190
190 190 190
187 187 187
187 187 187
189 189 189
187 187 187
150 150 150
156 156 156
170 170 170
169 169 169
171 171 171
170 170 170
172 172 172
171 171 171
169 169 169
169 169 169
169 169 169
169 169 169
170 170 170
170 170 170
170 170 170
170 170 170
171 171 171
170 170 170
168 168 168
166 166 166
164 164 164
165 165 165
165 165 165
165 165 165
165 165 165
166 166 166
166 166 166
165 165 165
163 163 163
160 160 160
158 158 158
157 157 157
159 159 159
157 157 157
156 156 156
156 156 156
157 157 157
156 156 156
152 152 152
151 151 151
152 152 152
154 154 154
154 154 154
153 153 153
153 153 153
154 154 154
154 154 154
150 150 150
151 151 151
151 151 151
150 150 150
148 148 148
148 148 148
146 146 146
144 144 144
144 144 144
138 138 138
109 109 109
96 96 96
74 74 74
76 76 76
77 77 77
76 76 76
74 74 74
74 74 74
74 74 74
72 72 72
72 72 72
71 71 71
65 65 65
77 77 77
81 81 81
76 76 76
130 130 130
84 84 84
84 84 84
86 86 86
83 83 83
81 81 81
78 78 78
76 76 76
79 79 79
158 158 158
138 138 138
173 173 173
189 189 189
188 188 188
161 161 161
128 128 128
128 128 128
128 128 128
129 129 129
129 129 129
128 128 128
124 124 124
124 124 124
125 125 125
124 124 124
95 95 95
124 124 124
126 126 126
126 126 126
126 126 126
126 126 126
123 123 123
124 124 124
100 100 100
136 136 136
145 145 145
144 144 144
140 140 140
137 137 137
115 115 115
170 170 170
174 174 174
177 177 177
177 177 177
177 177 177
177 177 177
177 177 177
177 177 177
177 177 177
176 176 176
173 173 173
144 144 144
163 163 163
175 175 175
174 174 174
167 167 167
159 159 159
191 191 191
191 191 191
192 192 192
191 191 191
191 191 191
191 191 191
190 190 190
188 188 188
185 185 185
146 146 146
119 119 119
126 126 126
125 125 125
129 129 129
168 168 168
187 187 187
190 190 190
191 191 191
192 192 192
193 193 193
191 191 191
189 189 189
189 189 189
188 188 188
188 188 188
157 157 157
174 174 174
189 189 189
186 186 186
188 188 188
188 188 188
188 188 188
189 189 189
188 188 188
187 187 187
185 185 185
184 184 184
186 186 186
152 152 152
156 156 156
171 171 171
169 169 169
169 169 169
170 170 170
170 170 170
171 171 171
170 170 170
169 169 169
169 169 169
169 169 169
169 169 169
169 169 169
169 169 169
170 170 170
170 170 170
171 171 171
170 170 170
168 168 168
164 164 164
164 164 164
165 165 165
165 165 165
165 165 165
165 165 165
166 166 166
166 166 166
165 165 165
163 163 163
161 161 161
161 161 161
156 156 156
159 159 159
157 157 157
156 156 156
156 156 156
157 157 157
155 155 155
155 155 155
155 155 155
155 155 155
154 154 154
154 154 154
153 153 153
153 153 153
153 153 153
151 151 151
149 149 149
150 150 150
151 151 151
149 149 149
148 148 148
148 148 148
146 146 146
145 145 145
145 145 145
136 136 136
107 107 107
131 131 131
73 73 73
67 67 67
64 64 64
65 65 65
72 72 72
74 74 74
74 74 74
71 71 71
72 72 72
71 71 71
71 71 71
71 71 71
82 82 82
89 89 89
131 131 131
98 98 98
84 84 84
87 87 87
88 88 88
86 86 86
85 85 85
84 84 84
84 84 84
158 158 158
140 140 140
190 190 190
190 190 190
184 184 184
136 136 136
129 129 129
128 128 128
128 128 128
129 129 129
129 129 129
127 127 127
124 124 124
124 124 124
125 125 125
118 118 118
103 103 103
125 125 125
126 126 126
125 125 125
126 126 126
126 126 126
124 124 124
110 110 110
133 133 133
144 144 144
148 148 148
148 148 148
146 146 146
146 146 146
130 130 130
173 173 173
175 175 175
177 177 177
177 177 177
177 177 177
177 177 177
177 177 177
177 177 177
177 177 177
175 175 175
173 173 173
141 141 141
165 165 165
176 176 176
174 174 174
141 141 141
188 188 188
191 191 191
192 192 192
191 191 191
190 190 190
190 190 190
190 190 190
189 189 189
187 187 187
181 181 181
107 107 107
124 124 124
126 126 126
128 128 128
142 142 142
186 186 186
189 189 189
190 190 190
191 191 191
192 192 192
192 192 192
191 191 191
190 190 190
190 190 190
187 187 187
163 163 163
164 164 164
189 189 189
189 189 189
190 190 190
189 189 189
186 186 186
188 188 188
189 189 189
187 187 187
189 189 189
188 188 188
186 186 186
159 159 159
153 153 153
171 171 171
172 172 172
168 168 168
169 169 169
169 169 169
169 169 169
168 168 168
168 168 168
169 169 169
169 169 169
169 169 169
169 169 169
169 169 169
169 169 169
170 170 170
170 170 170
170 170 170
171 171 171
169 169 169
167 167 167
164 164 164
164 164 164
165 165 165
165 165 165
165 165 165
166 166 166
166 166 166
165 165 165
163 163 163
161 161 161
161 161 161
159 159 159
156 156 156
156 156 156
156 156 156
155 155 155
156 156 156
156 156 156
155 155 155
155 155 155
154 154 154
153 153 153
154 154 154
153 153 153
153 153 153
153 153 153
152 152 152
149 149 149
148 148 148
149 149 149
148 148 148
147 147 147
148 148 148
146 146 146
144 144 144
144 144 144
130 130 130
121 121 121
133 133 133
122 122 122
78 78 78
91 91 91
87 87 87
75 75 75
63 63 63
70 70 70
70 70 70
73 73 73
71 71 71
72 72 72
64 64 64
84 84 84
105 105 105
132 132 132
109 109 109
81 81 81
89 89 89
90 90 90
89 89 89
89 89 89
87 87 87
86 86 86
143 143 143
168 168 168
188 188 188
190 190 190
161 161 161
128 128 128
130 130 130
129 129 129
129 129 129
129 129 129
129 129 129
126 126 126
125 125 125
126 126 126
126 126 126
109 109 109
114 114 114
125 125 125
126 126 126
126 126 126
127 127 127
127 127 127
124 124 124
93 93 93
139 139 139
146 146 146
147 147 147
148 148 148
151 151 151
141 141 141
150 150 150
174 174 174
175 175 175
177 177 177
177 177 177
177 177 177
177 177 177
177 177 177
177 177 177
177 177 177
175 175 175
173 173 173
142 142 142
168 168 168
173 173 173
165 165 165
156 156 156
190 190 190
191 191 191
192 192 192
191 191 191
190 190 190
190 190 190
190 190 190
187 187 187
186 186 186
149 149 149
120 120 120
126 126 126
126 126 126
128 128 128
172 172 172
187 187 187
190 190 190
192 192 192
192 192 192
191 191 191
192 192 192
191 191 191
189 189 189
189 189 189
174 174 174
157 157 157
188 188 188
190 190 190
190 190 190
189 189 189
190 190 190
188 188 188
188 188 188
187 187 187
187 187 187
187 187 187
187 187 187
165 165 165
150 150 150
172 172 172
172 172 172
173 173 173
173 173 173
171 171 171
169 169 169
169 169 169
169 169 169
170 170 170
170 170 170
170 170 170
169 169 169
169 169 169
169 169 169
168 168 168
168 168 168
166 166 166
167 167 167
168 168 168
170 170 170
169 169 169
165 165 165
164 164 164
164 164 164
166 166 166
166 166 166
166 166 166
166 166 166
164 164 164
163 163 163
161 161 161
162 162 162
158 158 158
156 156 156
156 156 156
156 156 156
156 156 156
156 156 156
156 156 156
154 154 154
155 155 155
153 153 153
153 153 153
154 154 154
153 153 153
153 153 153
153 153 153
153 153 153
152 152 152
147 147 147
149 149 149
147 147 147
146 146 146
146 146 146
146 146 146
144 144 144
143 143 143
122 122 122
125 125 125
132 132 132
133 133 133
105 105 105
88 88 88
92 92 92
94 94 94
85 85 85
45 45 45
71 71 71
71 71 71
72 72 72
74 74 74
60 60 60
83 83 83
110 110 110
133 133 133
119 119 119
76 76 76
89 89 89
90 90 90
91 91 91
89 89 89
87 87 87
89 89 89
135 135 135
188 188 188
187 187 187
183 183 183
132 132 132
128 128 128
130 130 130
129 129 129
129 129 129
129 129 129
128 128 128
126 126 126
125 125 125
125 125 125
125 125 125
98 98 98
122 122 122
125 125 125
126 126 126
126 126 126
126 126 126
126 126 126
115 115 115
94 94 94
114 114 114
118 118 118
134 134 134
149 149 149
154 154 154
123 123 123
170 170 170
174 174 174
175 175 175
177 177 177
177 177 177
177 177 177
177 177 177
177 177 177
177 177 177
177 177 177
175 175 175
173 173 173
144 144 144
166 166 166
173 173 173
137 137 137
187 187 187
191 191 191
191 191 191
191 191 191
191 191 191
191 191 191
189 189 189
190 190 190
187 187 187
181 181 181
107 107 107
125 125 125
125 125 125
126 126 126
143 143 143
188 188 188
190 190 190
191 191 191
191 191 191
192 192 192
191 191 191
191 191 191
190 190 190
189 189 189
180 180 180
151 151 151
189 189 189
188 188 188
191 191 191
191 191 191
190 190 190
190 190 190
189 189 189
189 189 189
188 188 188
186 186 186
187 187 187
170 170 170
147 147 147
172 172 172
170 170 170
172 172 172
172 172 172
173 173 173
171 171 171
169 169 169
169 169 169
169 169 169
170 170 170
170 170 170
170 170 170
170 170 170
169 169 169
169 169 169
168 168 168
169 169 169
166 166 166
167 167 167
168 168 168
169 169 169
169 169 169
167 167 167
163 163 163
164 164 164
166 166 166
166 166 166
166 166 166
166 166 166
163 163 163
163 163 163
161 161 161
162 162 162
157 157 157
157 157 157
156 156 156
156 156 156
156 156 156
156 156 156
156 156 156
154 154 154
155 155 155
153 153 153
153 153 153
154 154 154
154 154 154
153 153 153
153 153 153
153 153 153
154 154 154
150 150 150
148 148 148
147 147 147
146 146 146
146 146 146
146 146 146
144 144 144
143 143 143
115 115 115
132 132 132
134 134 134
133 133 133
132 132 132
85 85 85
92 92 92
93 93 93
87 87 87
56 56 56
58 58 58
70 70 70
73 73 73
74 74 74
64 64 64
80 80 80
112 112 112
133 133 133
127 127 127
75 75 75
89 89 89
90 90 90
90 90 90
88 88 88
89 89 89
91 91 91
160 160 160
186 186 186
188 188 188
163 163 163
127 127 127
128 128 128
130 130 130
129 129 129
129 129 129
127 127 127
125 125 125
125 125 125
124 124 124
125 125 125
122 122 122
96 96 96
124 124 124
125 125 125
126 126 126
126 126 126
126 126 126
126 126 126
99 99 99
129 129 129
121 121 121
100 100 100
113 113 113
148 148 148
153 153 153
128 128 128
173 173 173
174 174 174
175 175 175
177 177 177
177 177 177
177 177 177
177 177 177
177 177 177
177 177 177
177 177 177
177 177 177
173 173 173
147 147 147
166 166 166
163 163 163
155 155 155
191 191 191
191 191 191
190 190 190
190 190 190
191 191 191
191 191 191
190 190 190
189 189 189
187 187 187
149 149 149
121 121 121
125 125 125
125 125 125
127 127 127
167 167 167
187 187 187
189 189 189
191 191 191
191 191 191
191 191 191
190 190 190
189 189 189
189 189 189
184 184 184
148 148 148
188 188 188
187 187 187
189 189 189
190 190 190
190 190 190
190 190 190
189 189 189
190 190 190
188 188 188
188 188 188
187 187 187
174 174 174
143 143 143
171 171 171
171 171 171
171 171 171
174 174 174
172 172 172
172 172 172
170 170 170
169 169 169
169 169 169
169 169 169
170 170 170
170 170 170
170 170 170
170 170 170
170 170 170
169 169 169
168 168 168
170 170 170
166 166 166
167 167 167
167 167 167
168 168 168
168 168 168
168 168 168
163 163 163
164 164 164
166 166 166
166 166 166
166 166 166
166 166 166
164 164 164
159 159 159
158 158 158
160 160 160
156 156 156
157 157 157
156 156 156
156 156 156
157 157 157
156 156 156
156 156 156
155 155 155
155 155 155
153 153 153
153 153 153
154 154 154
154 154 154
153 153 153
153 153 153
153 153 153
153 153 153
151 151 151
147 147 147
147 147 147
146 146 146
146 146 146
145 145 145
144 144 144
143 143 143
110 110 110
136 136 136
132 132 132
134 134 134
133 133 133
120 120 120
82 82 82
92 92 92
89 89 89
63 63 63
59 59 59
71 71 71
71 71 71
71 71 71
68 68 68
77 77 77
113 113 113
133 133 133
130 130 130
80 80 80
90 90 90
89 89 89
88 88 88
89 89 89
89 89 89
90 90 90
187 187 187
186 186 186
183 183 183
136 136 136
129 129 129
129 129 129
129 129 129
129 129 129
128 128 128
125 125 125
124 124 124
125 125 125
125 125 125
124 124 124
112 112 112
107 107 107
123 123 123
126 126 126
126 126 126
126 126 126
125 125 125
117 117 117
121 121 121
153 153 153
147 147 147
128 128 128
119 119 119
141 141 141
145 145 145
144 144 144
174 174 174
176 176 176
176 176 176
177 177 177
177 177 177
177 177 177
177 177 177
177 177 177
177 177 177
177 177 177
176 176 176
175 175 175
157 157 157
160 160 160
137 137 137
191 191 191
191 191 191
191 191 191
191 191 191
191 191 191
190 190 190
190 190 190
190 190 190
187 187 187
185 185 185
113 113 113
125 125 125
125 125 125
126 126 126
137 137 137
185 185 185
189 189 189
190 190 190
190 190 190
190 190 190
190 190 190
190 190 190
190 190 190
186 186 186
148 148 148
184 184 184
190 190 190
189 189 189
190 190 190
190 190 190
190 190 190
189 189 189
189 189 189
190 190 190
188 188 188
185 185 185
178 178 178
138 138 138
172 172 172
173 173 173
173 173 173
174 174 174
174 174 174
172 172 172
171 171 171
170 170 170
169 169 169
169 169 169
169 169 169
170 170 170
170 170 170
170 170 170
170 170 170
170 170 170
169 169 169
167 167 167
170 170 170
167 167 167
167 167 167
167 167 167
168 168 168
168 168 168
168 168 168
164 164 164
163 163 163
165 165 165
166 166 166
165 165 165
165 165 165
162 162 162
160 160 160
158 158 158
159 159 159
156 156 156
155 155 155
156 156 156
156 156 156
157 157 157
155 155 155
155 155 155
155 155 155
154 154 154
153 153 153
153 153 153
154 154 154
154 154 154
153 153 153
153 153 153
153 153 153
153 153 153
151 151 151
147 147 147
145 145 145
146 146 146
146 146 146
144 144 144
144 144 144
144 144 144
108 108 108
139 139 139
133 133 133
133 133 133
133 133 133
131 131 131
96 96 96
90 90 90
90 90 90
61 61 61
68 68 68
62 62 62
69 69 69
72 72 72
71 71 71
69 69 69
114 114 114
132 132 132
132 132 132
87 87 87
81 81 81
78 78 78
75 75 75
78 78 78
80 80 80
83 83 83
187 187 187
187 187 187
167 167 167
128 128 128
129 129 129
128 128 128
129 129 129
127 127 127
125 125 125
126 126 126
126 126 126
126 126 126
126 126 126
124 124 124
101 101 101
118 118 118
124 124 124
126 126 126
126 126 126
126 126 126
123 123 123
106 106 106
147 147 147
160 160 160
152 152 152
144 144 144
146 146 146
148 148 148
130 130 130
164 164 164
173 173 173
177 177 177
177 177 177
177 177 177
177 177 177
177 177 177
177 177 177
177 177 177
177 177 177
177 177 177
176 176 176
176 176 176
164 164 164
143 143 143
156 156 156
192 192 192
192 192 192
190 190 190
192 192 192
191 191 191
191 191 191
191 191 191
190 190 190
185 185 185
161 161 161
118 118 118
125 125 125
125 125 125
125 125 125
162 162 162
188 188 188
189 189 189
190 190 190
190 190 190
190 190 190
190 190 190
188 188 188
190 190 190
154 154 154
178 178 178
187 187 187
191 191 191
190 190 190
190 190 190
191 191 191
190 190 190
188 188 188
189 189 189
188 188 188
187 187 187
181 181 181
127 127 127
171 171 171
173 173 173
173 173 173
174 174 174
175 175 175
175 175 175
172 172 172
171 171 171
169 169 169
169 169 169
169 169 169
169 169 169
170 170 170
170 170 170
170 170 170
170 170 170
170 170 170
170 170 170
167 167 167
168 168 168
168 168 168
167 167 167
167 167 167
168 168 168
168 168 168
167 167 167
164 164 164
164 164 164
165 165 165
165 165 165
165 165 165
163 163 163
162 162 162
160 160 160
158 158 158
156 156 156
155 155 155
156 156 156
156 156 156
156 156 156
156 156 156
155 155 155
154 154 154
154 154 154
154 154 154
153 153 153
153 153 153
154 154 154
153 153 153
153 153 153
153 153 153
153 153 153
152 152 152
149 149 149
149 149 149
146 146 146
146 146 146
146 146 146
144 144 144
143 143 143
141 141 141
109 109 109
140 140 140
136 136 136
135 135 135
132 132 132
130 130 130
129 129 129
83 83 83
91 91 91
61 61 61
72 72 72
55 55 55
74 74 74
71 71 71
72 72 72
66 66 66
117 117 117
132 132 132
132 132 132
94 94 94
79 79 79
74 74 74
67 67 67
71 71 71
74 74 74
78 78 78
185 185 185
184 184 184
142 142 142
129 129 129
129 129 129
127 127 127
127 127 127
125 125 125
125 125 125
126 126 126
126 126 126
125 125 125
126 126 126
124 124 124
98 98 98
123 123 123
124 124 124
126 126 126
125 125 125
125 125 125
123 123 123
111 111 111
160 160 160
163 163 163
153 153 153
146 146 146
153 153 153
155 155 155
124 124 124
174 174 174
175 175 175
177 177 177
177 177 177
177 177 177
177 177 177
177 177 177
177 177 177
177 177 177
177 177 177
177 177 177
176 176 176
175 175 175
169 169 169
112 112 112
187 187 187
190 190 190
192 192 192
191 191 191
191 191 191
191 191 191
191 191 191
190 190 190
189 189 189
188 188 188
120 120 120
126 126 126
127 127 127
129 129 129
132 132 132
180 180 180
188 188 188
189 189 189
190 190 190
190 190 190
190 190 190
189 189 189
189 189 189
162 162 162
167 167 167
188 188 188
188 188 188
190 190 190
191 191 191
189 189 189
190 190 190
190 190 190
188 188 188
188 188 188
186 186 186
183 183 183
118 118 118
148 148 148
171 171 171
173 173 173
172 172 172
173 173 173
173 173 173
172 172 172
172 172 172
172 172 172
172 172 172
170 170 170
170 170 170
170 170 170
170 170 170
170 170 170
170 170 170
170 170 170
170 170 170
170 170 170
169 169 169
169 169 169
168 168 168
167 167 167
167 167 167
169 169 169
169 169 169
165 165 165
163 163 163
164 164 164
165 165 165
165 165 165
163 163 163
162 162 162
161 161 161
160 160 160
160 160 160
157 157 157
155 155 155
155 155 155
156 156 156
156 156 156
156 156 156
155 155 155
154 154 154
157 157 157
155 155 155
154 154 154
154 154 154
154 154 154
152 152 152
153 153 153
153 153 153
153 153 153
153 153 153
148 148 148
150 150 150
147 147 147
147 147 147
146 146 146
144 144 144
143 143 143
138 138 138
112 112 112
138 138 138
138 138 138
136 136 136
134 134 134
131 131 131
130 130 130
100 100 100
90 90 90
66 66 66
72 72 72
62 62 62
66 66 66
71 71 71
74 74 74
63 63 63
117 117 117
132 132 132
130 130 130
102 102 102
78 78 78
72 72 72
70 70 70
74 74 74
76 76 76
76 76 76
186 186 186
171 171 171
126 126 126
126 126 126
128 128 128
126 126 126
124 124 124
125 125 125
125 125 125
126 126 126
126 126 126
125 125 125
125 125 125
122 122 122
97 97 97
121 121 121
123 123 123
126 126 126
125 125 125
125 125 125
111 111 111
136 136 136
155 155 155
157 157 157
155 155 155
152 152 152
151 151 151
148 148 148
135 135 135
174 174 174
175 175 175
177 177 177
177 177 177
177 177 177
177 177 177
177 177 177
177 177 177
177 177 177
177 177 177
177 177 177
176 176 176
174 174 174
167 167 167
147 147 147
191 191 191
189 189 189
192 192 192
192 192 192
192 192 192
191 191 191
191 191 191
189 189 189
187 187 187
172 172 172
109 109 109
124 124 124
126 126 126
127 127 127
149 149 149
187 187 187
189 189 189
190 190 190
190 190 190
190 190 190
190 190 190
189 189 189
171 171 171
158 158 158
188 188 188
187 187 187
190 190 190
189 189 189
190 190 190
191 191 191
191 191 191
189 189 189
188 188 188
187 187 187
185 185 185
125 125 125
120 120 120
167 167 167
172 172 172
171 171 171
172 172 172
171 171 171
170 170 170
170 170 170
172 172 172
172 172 172
170 170 170
169 169 169
170 170 170
170 170 170
170 170 170
170 170 170
170 170 170
170 170 170
170 170 170
169 169 169
170 170 170
168 168 168
167 167 167
167 167 167
168 168 168
169 169 169
169 169 169
165 165 165
163 163 163
164 164 164
165 165 165
165 165 165
162 162 162
161 161 161
161 161 161
160 160 160
149 149 149
149 149 149
155 155 155
156 156 156
156 156 156
156 156 156
156 156 156
155 155 155
154 154 154
157 157 157
156 156 156
155 155 155
156 156 156
153 153 153
152 152 152
153 153 153
153 153 153
153 153 153
153 153 153
148 148 148
148 148 148
146 146 146
146 146 146
145 145 145
143 143 143
142 142 142
129 129 129
123 123 123
136 136 136
137 137 137
138 138 138
135 135 135
132 132 132
131 131 131
116 116 116
80 80 80
65 65 65
72 72 72
71 71 71
57 57 57
72 72 72
74 74 74
64 64 64
118 118 118
132 132 132
130 130 130
108 108 108
71 71 71
71 71 71
75 75 75
80 80 80
84 84 84
83 83 83
184 184 184
146 146 146
128 128 128
127 127 127
126 126 126
125 125 125
124 124 124
125 125 125
125 125 125
126 126 126
126 126 126
126 126 126
124 124 124
115 115 115
106 106 106
122 122 122
125 125 125
128 128 128
127 127 127
125 125 125
105 105 105
152 152 152
155 155 155
156 156 156
160 160 160
160 160 160
158 158 158
137 137 137
159 159 159
172 172 172
175 175 175
177 177 177
177 177 177
177 177 177
177 177 177
177 177 177
177 177 177
177 177 177
177 177 177
176 176 176
174 174 174
174 174 174
147 147 147
185 185 185
190 190 190
190 190 190
192 192 192
191 191 191
190 190 190
191 191 191
190 190 190
189 189 189
187 187 187
136 136 136
123 123 123
125 125 125
126 126 126
126 126 126
174 174 174
187 187 187
189 189 189
190 190 190
190 190 190
190 190 190
188 188 188
182 182 182
146 146 146
188 188 188
189 189 189
189 189 189
189 189 189
190 190 190
190 190 190
190 190 190
189 189 189
187 187 187
186 186 186
185 185 185
136 136 136
113 113 113
147 147 147
172 172 172
172 172 172
170 170 170
170 170 170
171 171 171
172 172 172
172 172 172
173 173 173
173 173 173
170 170 170
169 169 169
170 170 170
170 170 170
170 170 170
170 170 170
170 170 170
170 170 170
170 170 170
170 170 170
168 168 168
167 167 167
165 165 165
166 166 166
168 168 168
170 170 170
171 171 171
166 166 166
163 163 163
164 164 164
165 165 165
163 163 163
161 161 161
157 157 157
151 151 151
121 121 121
106 106 106
117 117 117
156 156 156
156 156 156
156 156 156
157 157 157
156 156 156
155 155 155
154 154 154
155 155 155
154 154 154
155 155 155
154 154 154
154 154 154
153 153 153
153 153 153
153 153 153
153 153 153
153 153 153
147 147 147
146 146 146
147 147 147
148 148 148
145 145 145
145 145 145
144 144 144
116 116 116
134 134 134
137 137 137
137 137 137
137 137 137
135 135 135
134 134 134
132 132 132
124 124 124
77 77 77
69 69 69
71 71 71
73 73 73
57 57 57
72 72 72
73 73 73
69 69 69
117 117 117
133 133 133
130 130 130
117 117 117
67 67 67
80 80 80
88 88 88
90 90 90
91 91 91
91 91 91
174 174 174
128 128 128
128 128 128
128 128 128
126 126 126
125 125 125
125 125 125
125 125 125
125 125 125
126 126 126
126 126 126
126 126 126
124 124 124
102 102 102
117 117 117
123 123 123
127 127 127
127 127 127
125 125 125
119 119 119
124 124 124
163 163 163
163 163 163
165 165 165
166 166 166
166 166 166
165 165 165
126 126 126
170 170 170
172 172 172
175 175 175
177 177 177
177 177 177
177 177 177
177 177 177
177 177 177
177 177 177
177 177 177
177 177 177
176 176 176
175 175 175
171 171 171
149 149 149
188 188 188
190 190 190
190 190 190
192 192 192
191 191 191
189 189 189
191 191 191
190 190 190
188 188 188
181 181 181
109 109 109
125 125 125
126 126 126
126 126 126
139 139 139
187 187 187
190 190 190
191 191 191
191 191 191
191 191 191
190 190 190
187 187 187
147 147 147
187 187 187
188 188 188
190 190 190
190 190 190
189 189 189
190 190 190
190 190 190
190 190 190
188 188 188
186 186 186
186 186 186
145 145 145
108 108 108
122 122 122
167 167 167
171 171 171
173 173 173
172 172 172
171 171 171
172 172 172
172 172 172
172 172 172
173 173 173
173 173 173
170 170 170
169 169 169
170 170 170
170 170 170
170 170 170
170 170 170
170 170 170
170 170 170
170 170 170
170 170 170
167 167 167
167 167 167
164 164 164
166 166 166
168 168 168
170 170 170
169 169 169
166 166 166
164 164 164
165 165 165
164 164 164
162 162 162
158 158 158
147 147 147
113 113 113
107 107 107
108 108 108
128 128 128
158 158 158
157 157 157
157 157 157
157 157 157
156 156 156
155 155 155
153 153 153
155 155 155
154 154 154
154 154 154
153 153 153
152 152 152
152 152 152
153 153 153
153 153 153
153 153 153
152 152 152
147 147 147
148 148 148
148 148 148
148 148 148
144 144 144
145 145 145
144 144 144
107 107 107
137 137 137
136 136 136
137 137 137
137 137 137
134 134 134
134 134 134
131 131 131
128 128 128
74 74 74
72 72 72
70 70 70
72 72 72
64 64 64
65 65 65
72 72 72
73 73 73
112 112 112
131 131 131
129 129 129
121 121 121
76 76 76
88 88 88
96 96 96
96 96 96
95 95 95
89 89 89
151 151 151
127 127 127
129 129 129
126 126 126
125 125 125
125 125 125
126 126 126
126 126 126
126 126 126
126 126 126
126 126 126
124 124 124
123 123 123
96 96 96
123 123 123
124 124 124
123 123 123
124 124 124
124 124 124
108 108 108
153 153 153
164 164 164
165 165 165
165 165 165
164 164 164
164 164 164
162 162 162
131 131 131
171 171 171
173 173 173
175 175 175
177 177 177
177 177 177
177 177 177
177 177 177
177 177 177
177 177 177
177 177 177
177 177 177
177 177 177
177 177 177
149 149 149
181 181 181
189 189 189
191 191 191
191 191 191
191 191 191
191 191 191
191 191 191
192 192 192
189 189 189
186 186 186
153 153 153
118 118 118
124 124 124
125 125 125
126 126 126
165 165 165
187 187 187
189 189 189
190 190 190
190 190 190
189 189 189
191 191 191
148 148 148
180 180 180
188 188 188
190 190 190
190 190 190
189 189 189
190 190 190
191 191 191
190 190 190
189 189 189
186 186 186
184 184 184
156 156 156
105 105 105
115 115 115
144 144 144
169 169 169
171 171 171
172 172 172
172 172 172
172 172 172
172 172 172
173 173 173
173 173 173
172 172 172
172 172 172
170 170 170
170 170 170
170 170 170
170 170 170
170 170 170
170 170 170
170 170 170
170 170 170
170 170 170
169 169 169
169 169 169
167 167 167
164 164 164
168 168 168
169 169 169
169 169 169
167 167 167
165 165 165
165 165 165
165 165 165
164 164 164
161 161 161
149 149 149
111 111 111
109 109 109
108 108 108
107 107 107
151 151 151
158 158 158
156 156 156
156 156 156
157 157 157
156 156 156
155 155 155
153 153 153
156 156 156
153 153 153
153 153 153
153 153 153
152 152 152
154 154 154
153 153 153
152 152 152
152 152 152
152 152 152
146 146 146
147 147 147
147 147 147
149 149 149
145 145 145
143 143 143
142 142 142
105 105 105
135 135 135
136 136 136
136 136 136
136 136 136
134 134 134
133 133 133
131 131 131
128 128 128
73 73 73
76 76 76
66 66 66
71 71 71
71 71 71
58 58 58
73 73 73
73 73 73
98 98 98
130 130 130
129 129 129
119 119 119
77 77 77
89 89 89
92 92 92
97 97 97
91 91 91
71 71 71
132 132 132
127 127 127
129 129 129
126 126 126
125 125 125
125 125 125
126 126 126
126 126 126
126 126 126
126 126 126
126 126 126
124 124 124
121 121 121
100 100 100
124 124 124
124 124 124
123 123 123
125 125 125
125 125 125
104 104 104
165 165 165
164 164 164
163 163 163
163 163 163
165 165 165
165 165 165
154 154 154
147 147 147
174 174 174
173 173 173
176 176 176
177 177 177
177 177 177
177 177 177
177 177 177
177 177 177
177 177 177
175 175 175
175 175 175
175 175 175
174 174 174
143 143 143
192 192 192
191 191 191
192 192 192
191 191 191
191 191 191
191 191 191
191 191 191
191 191 191
188 188 188
187 187 187
120 120 120
124 124 124
125 125 125
125 125 125
131 131 131
183 183 183
189 189 189
189 189 189
189 189 189
189 189 189
190 190 190
158 158 158
171 171 171
187 187 187
190 190 190
190 190 190
190 190 190
189 189 189
190 190 190
189 189 189
187 187 187
188 188 188
186 186 186
163 163 163
103 103 103
115 115 115
119 119 119
164 164 164
170 170 170
171 171 171
172 172 172
172 172 172
172 172 172
172 172 172
173 173 173
173 173 173
172 172 172
171 171 171
170 170 170
170 170 170
170 170 170
170 170 170
170 170 170
170 170 170
170 170 170
169 169 169
170 170 170
170 170 170
168 168 168
165 165 165
165 165 165
168 168 168
169 169 169
168 168 168
164 164 164
165 165 165
164 164 164
163 163 163
161 161 161
147 147 147
110 110 110
108 108 108
109 109 109
108 108 108
136 136 136
159 159 159
157 157 157
155 155 155
155 155 155
156 156 156
156 156 156
155 155 155
153 153 153
155 155 155
153 153 153
153 153 153
154 154 154
153 153 153
155 155 155
154 154 154
152 152 152
152 152 152
152 152 152
146 146 146
146 146 146
147 147 147
148 148 148
145 145 145
144 144 144
138 138 138
114 114 114
134 134 134
136 136 136
134 134 134
134 134 134
133 133 133
134 134 134
132 132 132
127 127 127
73 73 73
81 81 81
62 62 62
70 70 70
71 71 71
56 56 56
71 71 71
72 72 72
88 88 88
129 129 129
130 130 130
115 115 115
83 83 83
89 89 89
95 95 95
90 90 90
68 68 68
59 59 59
129 129 129
129 129 129
127 127 127
125 125 125
125 125 125
125 125 125
126 126 126
126 126 126
126 126 126
126 126 126
125 125 125
122 122 122
120 120 120
104 104 104
121 121 121
125 125 125
125 125 125
125 125 125
120 120 120
131 131 131
162 162 162
161 161 161
162 162 162
163 163 163
166 166 166
167 167 167
137 137 137
165 165 165
176 176 176
177 177 177
177 177 177
177 177 177
177 177 177
177 177 177
177 177 177
177 177 177
177 177 177
175 175 175
172 172 172
176 176 176
156 156 156
174 174 174
191 191 191
193 193 193
192 192 192
191 191 191
192 192 192
192 192 192
191 191 191
191 191 191
187 187 187
170 170 170
110 110 110
125 125 125
126 126 126
127 127 127
152 152 152
189 189 189
190 190 190
189 189 189
189 189 189
189 189 189
171 171 171
157 157 157
187 187 187
187 187 187
188 188 188
189 189 189
190 190 190
190 190 190
190 190 190
188 188 188
186 186 186
186 186 186
173 173 173
106 106 106
114 114 114
113 113 113
141 141 141
169 169 169
170 170 170
172 172 172
173 173 173
172 172 172
172 172 172
172 172 172
173 173 173
173 173 173
172 172 172
169 169 169
169 169 169
170 170 170
170 170 170
170 170 170
170 170 170
170 170 170
169 169 169
169 169 169
167 167 167
168 168 168
166 166 166
166 166 166
167 167 167
166 166 166
168 168 168
166 166 166
163 163 163
163 163 163
162 162 162
159 159 159
145 145 145
111 111 111
108 108 108
108 108 108
108 108 108
120 120 120
158 158 158
158 158 158
156 156 156
156 156 156
156 156 156
156 156 156
156 156 156
156 156 156
154 154 154
156 156 156
155 155 155
153 153 153
152 152 152
153 153 153
153 153 153
153 153 153
151 151 151
152 152 152
150 150 150
147 147 147
146 146 146
147 147 147
147 147 147
144 144 144
143 143 143
124 124 124
124 124 124
133 133 133
136 136 136
134 134 134
135 135 135
133 133 133
133 133 133
129 129 129
127 127 127
75 75 75
87 87 87
61 61 61
70 70 70
69 69 69
62 62 62
65 65 65
71 71 71
77 77 77
130 130 130
130 130 130
107 107 107
90 90 90
94 94 94
86 86 86
64 64 64
59 59 59
79 79 79
129 129 129
129 129 129
126 126 126
126 126 126
125 125 125
125 125 125
125 125 125
126 126 126
126 126 126
125 125 125
124 124 124
123 123 123
110 110 110
112 112 112
122 122 122
125 125 125
124 124 124
123 123 123
106 106 106
156 156 156
162 162 162
163 163 163
164 164 164
167 167 167
170 170 170
171 171 171
127 127 127
172 172 172
176 176 176
176 176 176
177 177 177
177 177 177
177 177 177
177 177 177
177 177 177
177 177 177
177 177 177
175 175 175
172 172 172
176 176 176
146 146 146
189 189 189
190 190 190
192 192 192
191 191 191
192 192 192
192 192 192
192 192 192
190 190 190
188 188 188
186 186 186
138 138 138
122 122 122
126 126 126
126 126 126
126 126 126
175 175 175
188 188 188
189 189 189
189 189 189
188 188 188
181 181 181
147 147 147
188 188 188
187 187 187
188 188 188
189 189 189
189 189 189
190 190 190
190 190 190
190 190 190
188 188 188
186 186 186
177 177 177
109 109 109
114 114 114
114 114 114
117 117 117
164 164 164
169 169 169
171 171 171
172 172 172
172 172 172
172 172 172
172 172 172
172 172 172
173 173 173
173 173 173
171 171 171
169 169 169
169 169 169
170 170 170
170 170 170
170 170 170
170 170 170
170 170 170
169 169 169
169 169 169
168 168 168
168 168 168
167 167 167
166 166 166
167 167 167
167 167 167
166 166 166
165 165 165
162 162 162
162 162 162
162 162 162
143 143 143
111 111 111
108 108 108
108 108 108
107 107 107
110 110 110
151 151 151
159 159 159
158 158 158
156 156 156
156 156 156
156 156 156
156 156 156
156 156 156
156 156 156
153 153 153
155 155 155
155 155 155
154 154 154
152 152 152
152 152 152
153 153 153
153 153 153
151 151 151
149 149 149
148 148 148
147 147 147
146 146 146
147 147 147
146 146 146
144 144 144
144 144 144
108 108 108
135 135 135
136 136 136
135 135 135
134 134 134
135 135 135
133 133 133
132 132 132
132 132 132
124 124 124
76 76 76
88 88 88
62 62 62
71 71 71
70 70 70
69 69 69
57 57 57
72 72 72
68 68 68
129 129 129
131 131 131
99 99 99
107 107 107
93 93 93
64 64 64
53 53 53
79 79 79
98 98 98
128 128 128
127 127 127
126 126 126
126 126 126
125 125 125
125 125 125
125 125 125
125 125 125
125 125 125
124 124 124
124 124 124
123 123 123
101 101 101
117 117 117
122 122 122
123 123 123
121 121 121
123 123 123
109 109 109
166 166 166
168 168 168
170 170 170
171 171 171
173 173 173
175 175 175
172 172 172
139 139 139
170 170 170
175 175 175
176 176 176
177 177 177
177 177 177
177 177 177
177 177 177
177 177 177
177 177 177
177 177 177
175 175 175
173 173 173
168 168 168
164 164 164
191 191 191
191 191 191
191 191 191
191 191 191
192 192 192
192 192 192
192 192 192
190 190 190
188 188 188
186 186 186
112 112 112
126 126 126
126 126 126
127 127 127
138 138 138
185 185 185
188 188 188
190 190 190
189 189 189
187 187 187
140 140 140
185 185 185
188 188 188
189 189 189
189 189 189
188 188 188
189 189 189
190 190 190
189 189 189
188 188 188
186 186 186
182 182 182
117 117 117
113 113 113
113 113 113
114 114 114
142 142 142
169 169 169
169 169 169
170 170 170
172 172 172
172 172 172
171 171 171
172 172 172
173 173 173
173 173 173
173 173 173
172 172 172
169 169 169
170 170 170
170 170 170
170 170 170
170 170 170
170 170 170
170 170 170
169 169 169
169 169 169
167 167 167
168 168 168
166 166 166
166 166 166
167 167 167
168 168 168
164 164 164
164 164 164
163 163 163
162 162 162
143 143 143
109 109 109
109 109 109
109 109 109
106 106 106
96 96 96
135 135 135
157 157 157
160 160 160
156 156 156
157 157 157
157 157 157
157 157 157
156 156 156
156 156 156
156 156 156
153 153 153
154 154 154
153 153 153
153 153 153
153 153 153
153 153 153
153 153 153
153 153 153
152 152 152
149 149 149
148 148 148
145 145 145
146 146 146
146 146 146
144 144 144
144 144 144
140 140 140
109 109 109
137 137 137
134 134 134
136 136 136
134 134 134
134 134 134
135 135 135
134 134 134
131 131 131
114 114 114
80 80 80
88 88 88
63 63 63
71 71 71
70 70 70
69 69 69
55 55 55
70 70 70
83 83 83
120 120 120
133 133 133
95 95 95
98 98 98
70 70 70
54 54 54
75 75 75
90 90 90
97 97 97
127 127 127
126 126 126
125 125 125
125 125 125
125 125 125
125 125 125
125 125 125
125 125 125
124 124 124
124 124 124
124 124 124
121 121 121
95 95 95
122 122 122
123 123 123
123 123 123
121 121 121
116 116 116
131 131 131
167 167 167
170 170 170
170 170 170
172 172 172
174 174 174
176 176 176
156 156 156
159 159 159
170 170 170
174 174 174
176 176 176
177 177 177
177 177 177
177 177 177
177 177 177
177 177 177
177 177 177
177 177 177
176 176 176
175 175 175
140 140 140
191 191 191
192 192 192
192 192 192
190 190 190
191 191 191
192 192 192
191 191 191
190 190 190
188 188 188
187 187 187
162 162 162
114 114 114
125 125 125
126 126 126
127 127 127
159 159 159
188 188 188
189 189 189
189 189 189
189 189 189
149 149 149
177 177 177
186 186 186
188 188 188
191 191 191
191 191 191
189 189 189
188 188 188
189 189 189
186 186 186
184 184 184
186 186 186
126 126 126
111 111 111
114 114 114
115 115 115
120 120 120
162 162 162
169 169 169
171 171 171
170 170 170
171 171 171
172 172 172
171 171 171
172 172 172
173 173 173
173 173 173
172 172 172
171 171 171
169 169 169
170 170 170
170 170 170
170 170 170
170 170 170
170 170 170
169 169 169
169 169 169
170 170 170
167 167 167
167 167 167
164 164 164
164 164 164
166 166 166
166 166 166
163 163 163
163 163 163
163 163 163
141 141 141
109 109 109
109 109 109
109 109 109
108 108 108
97 97 97
122 122 122
157 157 157
156 156 156
159 159 159
157 157 157
157 157 157
157 157 157
157 157 157
156 156 156
156 156 156
155 155 155
153 153 153
154 154 154
154 154 154
153 153 153
153 153 153
153 153 153
153 153 153
153 153 153
153 153 153
150 150 150
148 148 148
145 145 145
147 147 147
144 144 144
143 143 143
144 144 144
125 125 125
124 124 124
136 136 136
135 135 135
135 135 135
134 134 134
135 135 135
134 134 134
132 132 132
130 130 130
104 104 104
88 88 88
87 87 87
65 65 65
71 71 71
68 68 68
68 68 68
60 60 60
70 70 70
107 107 107
108 108 108
130 130 130
81 81 81
74 74 74
57 57 57
78 78 78
95 95 95
96 96 96
94 94 94
126 126 126
125 125 125
126 126 126
126 126 126
125 125 125
125 125 125
125 125 125
126 126 126
123 123 123
124 124 124
124 124 124
120 120 120
94 94 94
122 122 122
124 124 124
124 124 124
121 121 121
103 103 103
150 150 150
169 169 169
170 170 170
169 169 169
171 171 171
172 172 172
174 174 174
139 139 139
172 172 172
173 173 173
174 174 174
177 177 177
177 177 177
177 177 177
177 177 177
177 177 177
177 177 177
177 177 177
177 177 177
176 176 176
171 171 171
154 154 154
191 191 191
191 191 191
191 191 191
191 191 191
192 192 192
192 192 192
190 190 190
189 189 189
187 187 187
187 187 187
131 131 131
123 123 123
126 126 126
125 125 125
128 128 128
178 178 178
190 190 190
188 188 188
188 188 188
166 166 166
166 166 166
187 187 187
186 186 186
189 189 189
191 191 191
191 191 191
189 189 189
187 187 187
186 186 186
185 185 185
185 185 185
143 143 143
108 108 108
115 115 115
116 116 116
116 116 116
140 140 140
169 169 169
172 172 172
172 172 172
169 169 169
171 171 171
172 172 172
172 172 172
173 173 173
173 173 173
172 172 172
172 172 172
170 170 170
169 169 169
170 170 170
170 170 170
170 170 170
170 170 170
169 169 169
168 168 168
168 168 168
169 169 169
167 167 167
166 166 166
164 164 164
164 164 164
166 166 166
165 165 165
162 162 162
162 162 162
136 136 136
109 109 109
107 107 107
108 108 108
107 107 107
101 101 101
117 117 117
156 156 156
158 158 158
160 160 160
159 159 159
156 156 156
156 156 156
156 156 156
156 156 156
156 156 156
156 156 156
155 155 155
153 153 153
154 154 154
154 154 154
153 153 153
153 153 153
153 153 153
153 153 153
153 153 153
151 151 151
148 148 148
147 147 147
146 146 146
147 147 147
143 143 143
142 142 142
143 143 143
108 108 108
136 136 136
135 135 135
135 135 135
134 134 134
134 134 134
135 135 135
135 135 135
131 131 131
130 130 130
91 91 91
90 90 90
87 87 87
70 70 70
70 70 70
68 68 68
69 69 69
66 66 66
72 72 72
121 121 121
101 101 101
122 122 122
61 61 61
59 59 59
80 80 80
101 101 101
102 102 102
96 96 96
92 92 92
126 126 126
125 125 125
127 127 127
127 127 127
126 126 126
126 126 126
125 125 125
124 124 124
123 123 123
123 123 123
123 123 123
120 120 120
97 97 97
123 123 123
124 124 124
125 125 125
123 123 123
98 98 98
151 151 151
165 165 165
170 170 170
170 170 170
172 172 172
169 169 169
173 173 173
135 135 135
174 174 174
174 174 174
176 176 176
177 177 177
177 177 177
177 177 177
177 177 177
177 177 177
177 177 177
177 177 177
176 176 176
175 175 175
151 151 151
182 182 182
189 189 189
193 193 193
191 191 191
192 192 192
192 192 192
192 192 192
191 191 191
190 190 190
188 188 188
182 182 182
112 112 112
124 124 124
126 126 126
125 125 125
143 143 143
189 189 189
188 188 188
187 187 187
177 177 177
150 150 150
186 186 186
187 187 187
188 188 188
189 189 189
190 190 190
190 190 190
188 188 188
186 186 186
186 186 186
183 183 183
152 152 152
105 105 105
113 113 113
115 115 115
115 115 115
118 118 118
162 162 162
171 171 171
173 173 173
170 170 170
170 170 170
170 170 170
171 171 171
172 172 172
173 173 173
173 173 173
172 172 172
171 171 171
170 170 170
170 170 170
170 170 170
170 170 170
170 170 170
170 170 170
170 170 170
169 169 169
169 169 169
170 170 170
166 166 166
167 167 167
166 166 166
164 164 164
163 163 163
165 165 165
161 161 161
132 132 132
107 107 107
110 110 110
108 108 108
107 107 107
101 101 101
114 114 114
157 157 157
159 159 159
160 160 160
158 158 158
158 158 158
157 157 157
156 156 156
156 156 156
156 156 156
156 156 156
156 156 156
154 154 154
153 153 153
153 153 153
153 153 153
153 153 153
153 153 153
154 154 154
153 153 153
153 153 153
150 150 150
147 147 147
148 148 148
146 146 146
146 146 146
144 144 144
143 143 143
137 137 137
115 115 115
136 136 136
136 136 136
135 135 135
133 133 133
122 122 122
113 113 113
123 123 123
129 129 129
130 130 130
80 80 80
91 91 91
88 88 88
65 65 65
72 72 72
69 69 69
69 69 69
69 69 69
83 83 83
127 127 127
95 95 95
106 106 106
52 52 52
79 79 79
104 104 104
106 106 106
102 102 102
96 96 96
91 91 91
126 126 126
126 126 126
127 127 127
127 127 127
126 126 126
126 126 126
125 125 125
124 124 124
123 123 123
123 123 123
123 123 123
114 114 114
102 102 102
122 122 122
123 123 123
124 124 124
119 119 119
121 121 121
151 151 151
161 161 161
169 169 169
170 170 170
167 167 167
164 164 164
154 154 154
150 150 150
174 174 174
176 176 176
176 176 176
177 177 177
177 177 177
177 177 177
177 177 177
177 177 177
177 177 177
176 176 176
175 175 175
174 174 174
143 143 143
193 193 193
191 191 191
193 193 193
191 191 191
192 192 192
189 189 189
191 191 191
191 191 191
190 190 190
186 186 186
163 163 163
115 115 115
124 124 124
126 126 126
126 126 126
163 163 163
190 190 190
188 188 188
185 185 185
144 144 144
185 185 185
187 187 187
188 188 188
189 189 189
190 190 190
190 190 190
190 190 190
188 188 188
185 185 185
186 186 186
166 166 166
103 103 103
114 114 114
115 115 115
114 114 114
113 113 113
138 138 138
168 168 168
171 171 171
173 173 173
171 171 171
171 171 171
172 172 172
173 173 173
172 172 172
173 173 173
173 173 173
172 172 172
171 171 171
170 170 170
170 170 170
170 170 170
170 170 170
170 170 170
170 170 170
170 170 170
170 170 170
170 170 170
170 170 170
166 166 166
167 167 167
165 165 165
163 163 163
165 165 165
158 158 158
126 126 126
106 106 106
108 108 108
110 110 110
108 108 108
102 102 102
106 106 106
156 156 156
159 159 159
161 161 161
160 160 160
159 159 159
159 159 159
157 157 157
156 156 156
156 156 156
156 156 156
156 156 156
156 156 156
153 153 153
152 152 152
153 153 153
153 153 153
153 153 153
153 153 153
154 154 154
153 153 153
153 153 153
150 150 150
148 148 148
148 148 148
145 145 145
145 145 145
145 145 145
142 142 142
110 110 110
133 133 133
133 133 133
132 132 132
126 126 126
98 98 98
77 77 77
76 76 76
82 82 82
124 124 124
117 117 117
77 77 77
90 90 90
89 89 89
62 62 62
71 71 71
69 69 69
69 69 69
68 68 68
74 74 74
126 126 126
99 99 99
75 75 75
74 74 74
101 101 101
103 103 103
97 97 97
96 96 96
95 95 95
90 90 90
126 126 126
126 126 126
126 126 126
126 126 126
126 126 126
126 126 126
125 125 125
122 122 122
122 122 122
123 123 123
124 124 124
111 111 111
108 108 108
121 121 121
121 121 121
122 122 122
107 107 107
148 148 148
163 163 163
166 166 166
168 168 168
168 168 168
167 167 167
163 163 163
135 135 135
164 164 164
176 176 176
175 175 175
175 175 175
176 176 176
177 177 177
177 177 177
177 177 177
177 177 177
177 177 177
176 176 176
174 174 174
159 159 159
168 168 168
191 191 191
193 193 193
193 193 193
192 192 192
193 193 193
190 190 190
189 189 189
188 188 188
186 186 186
186 186 186
132 132 132
124 124 124
125 125 125
125 125 125
128 128 128
178 178 178
188 188 188
188 188 188
148 148 148
181 181 181
187 187 187
188 188 188
190 190 190
190 190 190
189 189 189
188 188 188
187 187 187
186 186 186
184 184 184
174 174 174
106 106 106
115 115 115
115 115 115
114 114 114
114 114 114
119 119 119
162 162 162
172 172 172
172 172 172
172 172 172
172 172 172
172 172 172
172 172 172
172 172 172
172 172 172
172 172 172
172 172 172
171 171 171
170 170 170
170 170 170
170 170 170
170 170 170
170 170 170
169 169 169
170 170 170
169 169 169
168 168 168
168 168 168
168 168 168
168 168 168
164 164 164
163 163 163
162 162 162
155 155 155
119 119 119
108 108 108
108 108 108
108 108 108
109 109 109
104 104 104
106 106 106
156 156 156
156 156 156
159 159 159
159 159 159
159 159 159
160 160 160
158 158 158
157 157 157
157 157 157
156 156 156
156 156 156
157 157 157
156 156 156
152 152 152
153 153 153
153 153 153
153 153 153
153 153 153
153 153 153
154 154 154
152 152 152
153 153 153
151 151 151
148 148 148
147 147 147
145 145 145
145 145 145
145 145 145
140 140 140
108 108 108
134 134 134
134 134 134
116 116 116
83 83 83
75 75 75
76 76 76
75 75 75
74 74 74
113 113 113
101 101 101
72 72 72
87 87 87
82 82 82
62 62 62
71 71 71
70 70 70
69 69 69
69 69 69
62 62 62
120 120 120
87 87 87
68 68 68
90 90 90
97 97 97
94 94 94
94 94 94
96 96 96
95 95 95
89 89 89
126 126 126
126 126 126
126 126 126
126 126 126
126 126 126
125 125 125
124 124 124
124 124 124
122 122 122
124 124 124
125 125 125
106 106 106
111 111 111
121 121 121
120 120 120
121 121 121
104 104 104
165 165 165
169 169 169
168 168 168
168 168 168
168 168 168
165 165 165
161 161 161
129 129 129
172 172 172
176 176 176
176 176 176
176 176 176
177 177 177
177 177 177
177 177 177
177 177 177
177 177 177
177 177 177
175 175 175
176 176 176
141 141 141
189 189 189
192 192 192
192 192 192
192 192 192
192 192 192
193 193 193
190 190 190
189 189 189
188 188 188
186 186 186
178 178 178
107 107 107
125 125 125
126 126 126
125 125 125
143 143 143
187 187 187
188 188 188
163 163 163
167 167 167
187 187 187
187 187 187
188 188 188
189 189 189
189 189 189
189 189 189
188 188 188
187 187 187
186 186 186
180 180 180
113 113 113
113 113 113
114 114 114
114 114 114
116 116 116
114 114 114
139 139 139
169 169 169
170 170 170
172 172 172
172 172 172
173 173 173
173 173 173
172 172 172
172 172 172
172 172 172
172 172 172
171 171 171
169 169 169
169 169 169
170 170 170
170 170 170
170 170 170
170 170 170
168 168 168
168 168 168
167 167 167
167 167 167
167 167 167
167 167 167
167 167 167
164 164 164
162 162 162
151 151 151
114 114 114
107 107 107
107 107 107
108 108 108
108 108 108
103 103 103
106 106 106
156 156 156
160 160 160
161 161 161
161 161 161
159 159 159
159 159 159
157 157 157
155 155 155
157 157 157
157 157 157
156 156 156
156 156 156
156 156 156
154 154 154
152 152 152
153 153 153
153 153 153
153 153 153
153 153 153
153 153 153
154 154 154
153 153 153
151 151 151
148 148 148
148 148 148
146 146 146
145 145 145
145 145 145
143 143 143
113 113 113
128 128 128
129 129 129
100 100 100
76 76 76
74 74 74
75 75 75
74 74 74
74 74 74
73 73 73
113 113 113
84 84 84
72 72 72
85 85 85
66 66 66
72 72 72
71 71 71
71 71 71
69 69 69
69 69 69
65 65 65
104 104 104
93 93 93
91 91 91
96 96 96
90 90 90
91 91 91
89 89 89
92 92 92
96 96 96
94 94 94
126 126 126
126 126 126
125 125 125
125 125 125
125 125 125
124 124 124
122 122 122
124 124 124
123 123 123
124 124 124
124 124 124
101 101 101
115 115 115
121 121 121
119 119 119
121 121 121
122 122 122
162 162 162
164 164 164
165 165 165
164 164 164
164 164 164
163 163 163
161 161 161
137 137 137
172 172 172
175 175 175
175 175 175
176 176 176
177 177 177
177 177 177
177 177 177
177 177 177
177 177 177
176 176 176
176 176 176
172 172 172
152 152 152
188 188 188
194 194 194
193 193 193
192 192 192
192 192 192
192 192 192
191 191 191
189 189 189
189 189 189
188 188 188
161 161 161
113 113 113
123 123 123
124 124 124
124 124 124
159 159 159
187 187 187
177 177 177
151 151 151
187 187 187
187 187 187
189 189 189
188 188 188
188 188 188
187 187 187
188 188 188
188 188 188
186 186 186
183 183 183
125 125 125
111 111 111
112 112 112
114 114 114
114 114 114
115 115 115
117 117 117
163 163 163
170 170 170
171 171 171
172 172 172
172 172 172
173 173 173
173 173 173
173 173 173
173 173 173
172 172 172
171 171 171
170 170 170
169 169 169
169 169 169
170 170 170
170 170 170
169 169 169
169 169 169
170 170 170
168 168 168
165 165 165
166 166 166
167 167 167
166 166 166
164 164 164
162 162 162
142 142 142
112 112 112
108 108 108
110 110 110
109 109 109
108 108 108
104 104 104
106 106 106
154 154 154
159 159 159
161 161 161
162 162 162
161 161 161
161 161 161
159 159 159
155 155 155
155 155 155
156 156 156
156 156 156
156 156 156
156 156 156
157 157 157
151 151 151
151 151 151
152 152 152
153 153 153
153 153 153
153 153 153
153 153 153
154 154 154
153 153 153
149 149 149
147 147 147
146 146 146
145 145 145
146 146 146
143 143 143
138 138 138
101 101 101
126 126 126
87 87 87
76 76 76
77 77 77
77 77 77
75 75 75
74 74 74
73 73 73
73 73 73
112 112 112
73 73 73
68 68 68
80 80 80
62 62 62
71 71 71
70 70 70
68 68 68
68 68 68
68 68 68
69 69 69
89 89 89
101 101 101
95 95 95
100 100 100
93 93 93
86 86 86
79 79 79
81 81 81
84 84 84
88 88 88
126 126 126
126 126 126
125 125 125
125 125 125
124 124 124
123 123 123
122 122 122
124 124 124
124 124 124
124 124 124
124 124 124
100 100 100
118 118 118
122 122 122
121 121 121
110 110 110
144 144 144
157 157 157
156 156 156
153 153 153
155 155 155
158 158 158
160 160 160
144 144 144
151 151 151
173 173 173
175 175 175
176 176 176
176 176 176
177 177 177
177 177 177
177 177 177
177 177 177
175 175 175
174 174 174
174 174 174
150 150 150
181 181 181
188 188 188
193 193 193
193 193 193
193 193 193
192 192 192
191 191 191
191 191 191
190 190 190
187 187 187
187 187 187
133 133 133
123 123 123
124 124 124
125 125 125
125 125 125
172 172 172
182 182 182
142 142 142
187 187 187
186 186 186
188 188 188
190 190 190
188 188 188
187 187 187
187 187 187
187 187 187
185 185 185
186 186 186
136 136 136
107 107 107
111 111 111
112 112 112
114 114 114
114 114 114
115 115 115
141 141 141
170 170 170
171 171 171
171 171 171
172 172 172
172 172 172
173 173 173
173 173 173
173 173 173
172 172 172
172 172 172
171 171 171
170 170 170
169 169 169
169 169 169
170 170 170
170 170 170
169 169 169
169 169 169
170 170 170
168 168 168
166 166 166
165 165 165
165 165 165
165 165 165
161 161 161
132 132 132
110 110 110
108 108 108
107 107 107
109 109 109
107 107 107
105 105 105
107 107 107
157 157 157
159 159 159
161 161 161
163 163 163
161 161 161
158 158 158
160 160 160
157 157 157
154 154 154
155 155 155
156 156 156
156 156 156
156 156 156
156 156 156
156 156 156
150 150 150
151 151 151
152 152 152
153 153 153
153 153 153
153 153 153
153 153 153
153 153 153
152 152 152
149 149 149
147 147 147
146 146 146
145 145 145
144 144 144
143 143 143
112 112 112
111 111 111
79 79 79
76 76 76
76 76 76
77 77 77
77 77 77
75 75 75
73 73 73
75 75 75
72 72 72
95 95 95
83 83 83
68 68 68
68 68 68
68 68 68
68 68 68
69 69 69
69 69 69
69 69 69
69 69 69
70 70 70
76 76 76
106 106 106
93 93 93
109 109 109
104 104 104
91 91 91
84 84 84
78 78 78
73 73 73
71 71 71
126 126 126
126 126 126
125 125 125
124 124 124
123 123 123
123 123 123
123 123 123
124 124 124
125 125 125
123 123 123
122 122 122
96 96 96
120 120 120
123 123 123
122 122 122
101 101 101
152 152 152
149 149 149
146 146 146
147 147 147
149 149 149
150 150 150
151 151 151
128 128 128
167 167 167
172 172 172
176 176 176
177 177 177
177 177 177
177 177 177
177 177 177
177 177 177
177 177 177
174 174 174
174 174 174
173 173 173
141 141 141
191 191 191
190 190 190
191 191 191
192 192 192
192 192 192
191 191 191
191 191 191
192 192 192
189 189 189
186 186 186
182 182 182
109 109 109
124 124 124
124 124 124
125 125 125
135 135 135
182 182 182
150 150 150
180 180 180
189 189 189
189 189 189
190 190 190
189 189 189
188 188 188
187 187 187
185 185 185
184 184 184
184 184 184
153 153 153
103 103 103
113 113 113
111 111 111
111 111 111
114 114 114
115 115 115
118 118 118
162 162 162
170 170 170
172 172 172
172 172 172
173 173 173
173 173 173
173 173 173
173 173 173
172 172 172
170 170 170
171 171 171
169 169 169
169 169 169
169 169 169
169 169 169
168 168 168
169 169 169
168 168 168
167 167 167
166 166 166
166 166 166
165 165 165
164 164 164
163 163 163
153 153 153
120 120 120
107 107 107
107 107 107
107 107 107
108 108 108
106 106 106
103 103 103
109 109 109
157 157 157
161 161 161
162 162 162
164 164 164
163 163 163
160 160 160
158 158 158
158 158 158
155 155 155
156 156 156
156 156 156
156 156 156
156 156 156
156 156 156
155 155 155
155 155 155
151 151 151
153 153 153
153 153 153
153 153 153
153 153 153
153 153 153
152 152 152
152 152 152
152 152 152
148 148 148
147 147 147
145 145 145
143 143 143
143 143 143
135 135 135
73 73 73
79 79 79
77 77 77
78 78 78
78 78 78
77 77 77
77 77 77
73 73 73
70 70 70
72 72 72
76 76 76
73 73 73
88 88 88
61 61 61
60 60 60
70 70 70
69 69 69
69 69 69
68 68 68
68 68 68
67 67 67
69 69 69
65 65 65
112 112 112
89 89 89
111 111 111
110 110 110
104 104 104
100 100 100
93 93 93
84 84 84
78 78 78
127 127 127
126 126 126
125 125 125
124 124 124
123 123 123
122 122 122
122 122 122
124 124 124
125 125 125
122 122 122
120 120 120
94 94 94
121 121 121
123 123 123
120 120 120
113 113 113
153 153 153
154 154 154
159 159 159
158 158 158
153 153 153
147 147 147
145 145 145
124 124 124
175 175 175
175 175 175
176 176 176
177 177 177
177 177 177
177 177 177
177 177 177
177 177 177
177 177 177
176 176 176
175 175 175
161 161 161
169 169 169
190 190 190
191 191 191
189 189 189
191 191 191
192 192 192
191 191 191
191 191 191
190 190 190
188 188 188
185 185 185
164 164 164
111 111 111
124 124 124
125 125 125
125 125 125
154 154 154
165 165 165
162 162 162
188 188 188
189 189 189
190 190 190
190 190 190
189 189 189
188 188 188
187 187 187
184 184 184
184 184 184
165 165 165
99 99 99
113 113 113
112 112 112
110 110 110
111 111 111
114 114 114
114 114 114
141 141 141
169 169 169
171 171 171
173 173 173
172 172 172
173 173 173
173 173 173
173 173 173
172 172 172
171 171 171
170 170 170
171 171 171
170 170 170
169 169 169
170 170 170
169 169 169
168 168 168
170 170 170
168 168 168
166 166 166
165 165 165
165 165 165
163 163 163
162 162 162
142 142 142
113 113 113
107 107 107
107 107 107
107 107 107
107 107 107
109 109 109
103 103 103
109 109 109
156 156 156
160 160 160
163 163 163
165 165 165
166 166 166
164 164 164
162 162 162
159 159 159
157 157 157
156 156 156
156 156 156
156 156 156
156 156 156
156 156 156
156 156 156
155 155 155
154 154 154
152 152 152
153 153 153
153 153 153
153 153 153
153 153 153
153 153 153
153 153 153
152 152 152
151 151 151
149 149 149
147 147 147
145 145 145
143 143 143
142 142 142
99 99 99
79 79 79
76 76 76
78 78 78
79 79 79
78 78 78
76 76 76
74 74 74
70 70 70
71 71 71
70 70 70
67 67 67
51 51 51
85 85 85
54 54 54
71 71 71
71 71 71
69 69 69
69 69 69
69 69 69
69 69 69
68 68 68
69 69 69
60 60 60
110 110 110
78 78 78
93 93 93
94 94 94
97 97 97
104 104 104
103 103 103
89 89 89
85 85 85
127 127 127
126 126 126
123 123 123
124 124 124
125 125 125
125 125 125
124 124 124
125 125 125
126 126 126
124 124 124
120 120 120
93 93 93
121 121 121
119 119 119
117 117 117
131 131 131
157 157 157
162 162 162
167 167 167
166 166 166
162 162 162
153 153 153
149 149 149
131 131 131
172 172 172
175 175 175
177 177 177
177 177 177
177 177 177
177 177 177
177 177 177
176 176 176
177 177 177
176 176 176
174 174 174
142 142 142
190 190 190
191 191 191
192 192 192
190 190 190
191 191 191
192 192 192
191 191 191
190 190 190
189 189 189
188 188 188
185 185 185
137 137 137
122 122 122
127 127 127
125 125 125
125 125 125
165 165 165
144 144 144
185 185 185
188 188 188
189 189 189
191 191 191
190 190 190
188 188 188
186 186 186
185 185 185
182 182 182
175 175 175
105 105 105
113 113 113
113 113 113
110 110 110
111 111 111
111 111 111
114 114 114
118 118 118
165 165 165
169 169 169
172 172 172
173 173 173
173 173 173
173 173 173
173 173 173
172 172 172
172 172 172
170 170 170
170 170 170
170 170 170
170 170 170
170 170 170
170 170 170
170 170 170
169 169 169
169 169 169
167 167 167
165 165 165
164 164 164
164 164 164
160 160 160
132 132 132
110 110 110
112 112 112
109 109 109
108 108 108
107 107 107
108 108 108
100 100 100
116 116 116
159 159 159
159 159 159
161 161 161
164 164 164
165 165 165
166 166 166
161 161 161
162 162 162
158 158 158
156 156 156
156 156 156
156 156 156
156 156 156
156 156 156
156 156 156
155 155 155
155 155 155
153 153 153
152 152 152
152 152 152
152 152 152
154 154 154
154 154 154
153 153 153
153 153 153
151 151 151
147 147 147
147 147 147
147 147 147
144 144 144
142 142 142
126 126 126
71 71 71
77 77 77
76 76 76
80 80 80
79 79 79
78 78 78
75 75 75
72 72 72
71 71 71
72 72 72
75 75 75
61 61 61
75 75 75
76 76 76
60 60 60
70 70 70
70 70 70
68 68 68
68 68 68
69 69 69
69 69 69
70 70 70
69 69 69
62 62 62
102 102 102
64 64 64
77 77 77
80 80 80
88 88 88
101 101 101
104 104 104
94 94 94
92 92 92
127 127 127
125 125 125
123 123 123
123 123 123
124 124 124
124 124 124
124 124 124
125 125 125
125 125 125
124 124 124
121 121 121
93 93 93
121 121 121
120 120 120
105 105 105
157 157 157
165 165 165
166 166 166
167 167 167
172 172 172
168 168 168
158 158 158
138 138 138
152 152 152
171 171 171
175 175 175
177 177 177
177 177 177
177 177 177
177 177 177
177 177 177
176 176 176
177 177 177
173 173 173
167 167 167
151 151 151
190 190 190
192 192 192
192 192 192
191 191 191
192 192 192
193 193 193
192 192 192
191 191 191
189 189 189
187 187 187
184 184 184
113 113 113
126 126 126
128 128 128
124 124 124
129 129 129
132 132 132
182 182 182
185 185 185
189 189 189
189 189 189
189 189 189
189 189 189
186 186 186
185 185 185
183 183 183
179 179 179
110 110 110
111 111 111
113 113 113
112 112 112
112 112 112
111 111 111
111 111 111
113 113 113
139 139 139
169 169 169
171 171 171
173 173 173
173 173 173
173 173 173
173 173 173
173 173 173
172 172 172
171 171 171
170 170 170
170 170 170
170 170 170
170 170 170
170 170 170
170 170 170
170 170 170
170 170 170
169 169 169
166 166 166
165 165 165
163 163 163
149 149 149
116 116 116
109 109 109
109 109 109
110 110 110
107 107 107
107 107 107
106 106 106
98 98 98
119 119 119
159 159 159
161 161 161
161 161 161
162 162 162
164 164 164
164 164 164
163 163 163
160 160 160
160 160 160
157 157 157
155 155 155
156 156 156
156 156 156
156 156 156
156 156 156
156 156 156
156 156 156
155 155 155
153 153 153
153 153 153
153 153 153
153 153 153
153 153 153
153 153 153
152 152 152
152 152 152
152 152 152
150 150 150
148 148 148
145 145 145
144 144 144
136 136 136
85 85 85
79 79 79
76 76 76
76 76 76
77 77 77
78 78 78
77 77 77
74 74 74
72 72 72
71 71 71
72 72 72
68 68 68
73 73 73
84 84 84
63 63 63
63 63 63
69 69 69
68 68 68
68 68 68
69 69 69
70 70 70
70 70 70
70 70 70
69 69 69
67 67 67
90 90 90
54 54 54
63 63 63
64 64 64
76 76 76
95 95 95
103 103 103
101 101 101
102 102 102
126 126 126
124 124 124
124 124 124
124 124 124
124 124 124
123 123 123
124 124 124
125 125 125
124 124 124
122 122 122
122 122 122
91 91 91
120 120 120
120 120 120
107 107 107
169 169 169
167 167 167
169 169 169
172 172 172
173 173 173
166 166 166
156 156 156
129 129 129
168 168 168
173 173 173
176 176 176
177 177 177
177 177 177
177 177 177
177 177 177
177 177 177
176 176 176
176 176 176
175 175 175
148 148 148
183 183 183
189 189 189
193 193 193
192 192 192
192 192 192
192 192 192
193 193 193
192 192 192
191 191 191
189 189 189
186 186 186
171 171 171
112 112 112
124 124 124
126 126 126
126 126 126
109 109 109
171 171 171
186 186 186
188 188 188
189 189 189
189 189 189
188 188 188
186 186 186
184 184 184
184 184 184
182 182 182
127 127 127
110 110 110
114 114 114
114 114 114
114 114 114
114 114 114
113 113 113
114 114 114
119 119 119
162 162 162
167 167 167
172 172 172
173 173 173
173 173 173
173 173 173
173 173 173
173 173 173
172 172 172
171 171 171
170 170 170
170 170 170
170 170 170
170 170 170
170 170 170
169 169 169
168 168 168
168 168 168
168 168 168
168 168 168
162 162 162
136 136 136
110 110 110
111 111 111
108 108 108
107 107 107
107 107 107
105 105 105
109 109 109
95 95 95
127 127 127
161 161 161
161 161 161
165 165 165
164 164 164
164 164 164
164 164 164
164 164 164
160 160 160
157 157 157
157 157 157
156 156 156
156 156 156
156 156 156
156 156 156
156 156 156
157 157 157
157 157 157
155 155 155
154 154 154
153 153 153
153 153 153
153 153 153
153 153 153
153 153 153
152 152 152
151 151 151
152 152 152
150 150 150
147 147 147
145 145 145
143 143 143
128 128 128
78 78 78
75 75 75
77 77 77
78 78 78
78 78 78
78 78 78
78 78 78
77 77 77
73 73 73
71 71 71
70 70 70
71 71 71
54 54 54
83 83 83
87 87 87
52 52 52
68 68 68
69 69 69
69 69 69
70 70 70
70 70 70
70 70 70
70 70 70
70 70 70
67 67 67
66 66 66
74 74 74
55 55 55
64 64 64
65 65 65
81 81 81
100 100 100
106 106 106
108 108 108
110 110 110
126 126 126
124 124 124
124 124 124
124 124 124
124 124 124
123 123 123
123 123 123
124 124 124
124 124 124
122 122 122
123 123 123
93 93 93
119 119 119
118 118 118
122 122 122
171 171 171
163 163 163
162 162 162
166 166 166
164 164 164
155 155 155
151 151 151
123 123 123
172 172 172
173 173 173
175 175 175
177 177 177
177 177 177
177 177 177
177 177 177
177 177 177
176 176 176
176 176 176
173 173 173
143 143 143
191 191 191
190 190 190
192 192 192
192 192 192
192 192 192
192 192 192
192 192 192
192 192 192
191 191 191
188 188 188
186 186 186
147 147 147
120 120 120
123 123 123
122 122 122
117 117 117
147 147 147
185 185 185
188 188 188
189 189 189
188 188 188
188 188 188
186 186 186
186 186 186
184 184 184
181 181 181
136 136 136
108 108 108
113 113 113
112 112 112
111 111 111
111 111 111
113 113 113
113 113 113
111 111 111
144 144 144
170 170 170
171 171 171
172 172 172
172 172 172
172 172 172
172 172 172
173 173 173
172 172 172
171 171 171
170 170 170
170 170 170
170 170 170
169 169 169
169 169 169
169 169 169
169 169 169
166 166 166
166 166 166
164 164 164
150 150 150
119 119 119
110 110 110
111 111 111
109 109 109
107 107 107
106 106 106
106 106 106
105 105 105
91 91 91
137 137 137
160 160 160
162 162 162
163 163 163
163 163 163
162 162 162
164 164 164
163 163 163
163 163 163
159 159 159
158 158 158
155 155 155
156 156 156
156 156 156
156 156 156
156 156 156
156 156 156
157 157 157
157 157 157
155 155 155
153 153 153
153 153 153
153 153 153
153 153 153
153 153 153
152 152 152
152 152 152
151 151 151
150 150 150
147 147 147
145 145 145
143 143 143
125 125 125
84 84 84
66 66 66
77 77 77
76 76 76
78 78 78
78 78 78
78 78 78
77 77 77
76 76 76
73 73 73
71 71 71
72 72 72
70 70 70
58 58 58
79 79 79
87 87 87
58 58 58
74 74 74
68 68 68
70 70 70
70 70 70
69 69 69
69 69 69
69 69 69
68 68 68
65 65 65
66 66 66
56 56 56
67 67 67
77 77 77
77 77 77
87 87 87
99 99 99
105 105 105
107 107 107
110 110 110
126 126 126
124 124 124
123 123 123
123 123 123
124 124 124
123 123 123
123 123 123
124 124 124
124 124 124
123 123 123
121 121 121
93 93 93
119 119 119
113 113 113
149 149 149
174 174 174
164 164 164
162 162 162
167 167 167
158 158 158
150 150 150
152 152 152
132 132 132
172 172 172
172 172 172
175 175 175
177 177 177
177 177 177
177 177 177
177 177 177
177 177 177
176 176 176
175 175 175
156 156 156
170 170 170
189 189 189
192 192 192
192 192 192
191 191 191
192 192 192
192 192 192
192 192 192
191 191 191
189 189 189
186 186 186
186 186 186
121 121 121
123 123 123
122 122 122
122 122 122
121 121 121
185 185 185
186 186 186
188 188 188
189 189 189
188 188 188
187 187 187
185 185 185
185 185 185
183 183 183
151 151 151
102 102 102
114 114 114
114 114 114
113 113 113
111 111 111
110 110 110
111 111 111
113 113 113
119 119 119
166 166 166
169 169 169
170 170 170
172 172 172
172 172 172
172 172 172
172 172 172
172 172 172
171 171 171
170 170 170
170 170 170
169 169 169
169 169 169
169 169 169
169 169 169
168 168 168
167 167 167
167 167 167
161 161 161
134 134 134
111 111 111
109 109 109
110 110 110
109 109 109
108 108 108
107 107 107
107 107 107
106 106 106
97 97 97
148 148 148
160 160 160
161 161 161
162 162 162
163 163 163
163 163 163
162 162 162
162 162 162
162 162 162
162 162 162
158 158 158
156 156 156
155 155 155
156 156 156
156 156 156
156 156 156
156 156 156
156 156 156
156 156 156
155 155 155
155 155 155
154 154 154
153 153 153
153 153 153
153 153 153
153 153 153
152 152 152
153 153 153
153 153 153
150 150 150
147 147 147
144 144 144
121 121 121
90 90 90
65 65 65
79 79 79
76 76 76
76 76 76
78 78 78
78 78 78
78 78 78
77 77 77
74 74 74
72 72 72
70 70 70
72 72 72
64 64 64
77 77 77
78 78 78
87 87 87
60 60 60
72 72 72
68 68 68
70 70 70
70 70 70
69 69 69
68 68 68
68 68 68
67 67 67
65 65 65
67 67 67
57 57 57
72 72 72
80 80 80
79 79 79
81 81 81
86 86 86
102 102 102
112 112 112
111 111 111
126 126 126
124 124 124
124 124 124
122 122 122
122 122 122
122 122 122
122 122 122
124 124 124
124 124 124
123 123 123
122 122 122
95 95 95
120 120 120
100 100 100
162 162 162
168 168 168
169 169 169
171 171 171
166 166 166
156 156 156
155 155 155
148 148 148
145 145 145
172 172 172
172 172 172
176 176 176
177 177 177
177 177 177
177 177 177
175 175 175
176 176 176
175 175 175
175 175 175
140 140 140
190 190 190
190 190 190
192 192 192
191 191 191
192 192 192
193 193 193
193 193 193
191 191 191
190 190 190
188 188 188
189 189 189
178 178 178
108 108 108
122 122 122
122 122 122
110 110 110
177 177 177
185 185 185
189 189 189
189 189 189
188 188 188
188 188 188
185 185 185
184 184 184
182 182 182
160 160 160
100 100 100
111 111 111
114 114 114
113 113 113
112 112 112
111 111 111
110 110 110
109 109 109
113 113 113
146 146 146
169 169 169
170 170 170
170 170 170
171 171 171
172 172 172
173 173 173
173 173 173
171 171 171
170 170 170
169 169 169
169 169 169
169 169 169
170 170 170
169 169 169
165 165 165
167 167 167
166 166 166
145 145 145
118 118 118
110 110 110
111 111 111
111 111 111
110 110 110
108 108 108
107 107 107
108 108 108
103 103 103
108 108 108
158 158 158
161 161 161
161 161 161
162 162 162
164 164 164
161 161 161
162 162 162
162 162 162
162 162 162
161 161 161
160 160 160
157 157 157
156 156 156
156 156 156
156 156 156
156 156 156
156 156 156
156 156 156
155 155 155
155 155 155
152 152 152
152 152 152
153 153 153
153 153 153
153 153 153
153 153 153
153 153 153
152 152 152
152 152 152
149 149 149
145 145 145
143 143 143
121 121 121
90 90 90
73 73 73
73 73 73
76 76 76
77 77 77
78 78 78
78 78 78
77 77 77
76 76 76
75 75 75
73 73 73
71 71 71
70 70 70
69 69 69
74 74 74
83 83 83
77 77 77
86 86 86
61 61 61
70 70 70
68 68 68
69 69 69
70 70 70
69 69 69
69 69 69
69 69 69
68 68 68
66 66 66
67 67 67
57 57 57
70 70 70
75 75 75
74 74 74
73 73 73
71 71 71
80 80 80
100 100 100
107 107 107
126 126 126
124 124 124
125 125 125
125 125 125
124 124 124
124 124 124
123 123 123
123 123 123
125 125 125
123 123 123
122 122 122
93 93 93
120 120 120
100 100 100
155 155 155
150 150 150
145 145 145
152 152 152
159 159 159
161 161 161
159 159 159
139 139 139
162 162 162
172 172 172
173 173 173
174 174 174
177 177 177
177 177 177
176 176 176
175 175 175
175 175 175
175 175 175
164 164 164
162 162 162
190 190 190
191 191 191
192 192 192
192 192 192
192 192 192
193 193 193
193 193 193
191 191 191
189 189 189
188 188 188
186 186 186
158 158 158
114 114 114
124 124 124
115 115 115
154 154 154
185 185 185
186 186 186
188 188 188
189 189 189
187 187 187
186 186 186
184 184 184
182 182 182
170 170 170
103 103 103
112 112 112
111 111 111
112 112 112
113 113 113
112 112 112
112 112 112
110 110 110
109 109 109
113 113 113
148 148 148
169 169 169
170 170 170
170 170 170
171 171 171
171 171 171
172 172 172
172 172 172
171 171 171
170 170 170
169 169 169
169 169 169
169 169 169
169 169 169
167 167 167
166 166 166
152 152 152
124 124 124
111 111 111
110 110 110
110 110 110
110 110 110
110 110 110
110 110 110
108 108 108
107 107 107
98 98 98
122 122 122
160 160 160
164 164 164
162 162 162
162 162 162
163 163 163
165 165 165
163 163 163
162 162 162
162 162 162
162 162 162
161 161 161
160 160 160
159 159 159
156 156 156
156 156 156
156 156 156
156 156 156
156 156 156
156 156 156
156 156 156
154 154 154
153 153 153
153 153 153
152 152 152
152 152 152
153 153 153
153 153 153
153 153 153
150 150 150
147 147 147
145 145 145
139 139 139
111 111 111
91 91 91
80 80 80
69 69 69
78 78 78
76 76 76
77 77 77
78 78 78
78 78 78
77 77 77
74 74 74
72 72 72
70 70 70
71 71 71
74 74 74
62 62 62
86 86 86
83 83 83
74 74 74
80 80 80
64 64 64
69 69 69
68 68 68
69 69 69
69 69 69
70 70 70
70 70 70
69 69 69
68 68 68
66 66 66
67 67 67
55 55 55
72 72 72
73 73 73
72 72 72
70 70 70
71 71 71
71 71 71
80 80 80
95 95 95
125 125 125
123 123 123
124 124 124
124 124 124
124 124 124
126 126 126
122 122 122
124 124 124
126 126 126
123 123 123
123 123 123
98 98 98
118 118 118
111 111 111
154 154 154
151 151 151
141 141 141
140 140 140
152 152 152
165 165 165
168 168 168
133 133 133
170 170 170
173 173 173
175 175 175
176 176 176
176 176 176
177 177 177
176 176 176
176 176 176
176 176 176
174 174 174
143 143 143
185 185 185
191 191 191
193 193 193
192 192 192
192 192 192
190 190 190
192 192 192
191 191 191
191 191 191
191 191 191
187 187 187
184 184 184
137 137 137
121 121 121
125 125 125
122 122 122
186 186 186
188 188 188
189 189 189
188 188 188
189 189 189
187 187 187
184 184 184
183 183 183
178 178 178
111 111 111
111 111 111
111 111 111
110 110 110
111 111 111
111 111 111
111 111 111
112 112 112
111 111 111
109 109 109
112 112 112
128 128 128
167 167 167
168 168 168
169 169 169
171 171 171
172 172 172
172 172 172
172 172 172
169 169 169
168 168 168
169 169 169
169 169 169
169 169 169
166 166 166
161 161 161
132 132 132
112 112 112
110 110 110
111 111 111
109 109 109
110 110 110
111 111 111
110 110 110
108 108 108
106 106 106
97 97 97
136 136 136
162 162 162
160 160 160
162 162 162
163 163 163
164 164 164
165 165 165
165 165 165
164 164 164
163 163 163
162 162 162
162 162 162
161 161 161
159 159 159
158 158 158
156 156 156
156 156 156
156 156 156
156 156 156
156 156 156
156 156 156
157 157 157
157 157 157
155 155 155
153 153 153
152 152 152
153 153 153
153 153 153
153 153 153
151 151 151
148 148 148
146 146 146
131 131 131
100 100 100
92 92 92
86 86 86
64 64 64
77 77 77
78 78 78
77 77 77
78 78 78
78 78 78
78 78 78
76 76 76
74 74 74
71 71 71
71 71 71
72 72 72
62 62 62
77 77 77
90 90 90
85 85 85
69 69 69
68 68 68
67 67 67
69 69 69
69 69 69
70 70 70
71 71 71
71 71 71
70 70 70
68 68 68
68 68 68
67 67 67
70 70 70
53 53 53
68 68 68
71 71 71
70 70 70
65 65 65
63 63 63
66 66 66
84 84 84
94 94 94
125 125 125
123 123 123
124 124 124
124 124 124
122 122 122
124 124 124
122 122 122
124 124 124
125 125 125
124 124 124
124 124 124
99 99 99
115 115 115
121 121 121
153 153 153
151 151 151
148 148 148
147 147 147
154 154 154
165 165 165
167 167 167
126 126 126
172 172 172
174 174 174
175 175 175
175 175 175
176 176 176
177 177 177
177 177 177
176 176 176
175 175 175
171 171 171
150 150 150
190 190 190
191 191 191
193 193 193
191 191 191
192 192 192
190 190 190
192 192 192
190 190 190
190 190 190
189 189 189
186 186 186
184 184 184
111 111 111
125 125 125
109 109 109
177 177 177
187 187 187
188 188 188
190 190 190
190 190 190
188 188 188
186 186 186
184 184 184
182 182 182
122 122 122
111 111 111
112 112 112
111 111 111
111 111 111
111 111 111
111 111 111
111 111 111
110 110 110
110 110 110
110 110 110
111 111 111
112 112 112
143 143 143
168 168 168
169 169 169
170 170 170
168 168 168
169 169 169
169 169 169
169 169 169
168 168 168
168 168 168
168 168 168
161 161 161
133 133 133
115 115 115
111 111 111
113 113 113
111 111 111
109 109 109
108 108 108
110 110 110
110 110 110
111 111 111
102 102 102
109 109 109
154 154 154
162 162 162
163 163 163
162 162 162
164 164 164
164 164 164
165 165 165
166 166 166
165 165 165
164 164 164
163 163 163
162 162 162
162 162 162
161 161 161
159 159 159
157 157 157
156 156 156
155 155 155
156 156 156
156 156 156
156 156 156
156 156 156
156 156 156
156 156 156
154 154 154
153 153 153
152 152 152
153 153 153
152 152 152
152 152 152
149 149 149
144 144 144
114 114 114
95 95 95
93 93 93
88 88 88
65 65 65
77 77 77
76 76 76
77 77 77
77 77 77
78 78 78
78 78 78
78 78 78
77 77 77
74 74 74
71 71 71
72 72 72
70 70 70
54 54 54
78 78 78
90 90 90
88 88 88
66 66 66
61 61 61
69 69 69
69 69 69
70 70 70
70 70 70
71 71 71
71 71 71
70 70 70
68 68 68
68 68 68
67 67 67
66 66 66
62 62 62
81 81 81
84 84 84
83 83 83
75 75 75
70 70 70
71 71 71
85 85 85
96 96 96
126 126 126
124 124 124
124 124 124
124 124 124
123 123 123
123 123 123
123 123 123
123 123 123
124 124 124
123 123 123
122 122 122
105 105 105
106 106 106
118 118 118
144 144 144
142 142 142
145 145 145
154 154 154
162 162 162
166 166 166
161 161 161
135 135 135
172 172 172
173 173 173
174 174 174
174 174 174
175 175 175
176 176 176
176 176 176
175 175 175
173 173 173
152 152 152
181 181 181
191 191 191
192 192 192
192 192 192
191 191 191
193 193 193
192 192 192
192 192 192
190 190 190
189 189 189
188 188 188
185 185 185
171 171 171
111 111 111
114 114 114
152 152 152
186 186 186
186 186 186
189 189 189
190 190 190
187 187 187
186 186 186
185 185 185
181 181 181
137 137 137
108 108 108
113 113 113
111 111 111
111 111 111
111 111 111
111 111 111
112 112 112
111 111 111
111 111 111
110 110 110
110 110 110
110 110 110
112 112 112
112 112 112
145 145 145
166 166 166
168 168 168
167 167 167
168 168 168
169 169 169
169 169 169
166 166 166
163 163 163
141 141 141
118 118 118
111 111 111
110 110 110
109 109 109
110 110 110
112 112 112
109 109 109
108 108 108
110 110 110
110 110 110
97 97 97
128 128 128
160 160 160
163 163 163
164 164 164
164 164 164
165 165 165
165 165 165
164 164 164
165 165 165
164 164 164
164 164 164
162 162 162
163 163 163
162 162 162
161 161 161
161 161 161
158 158 158
157 157 157
156 156 156
156 156 156
156 156 156
156 156 156
156 156 156
156 156 156
156 156 156
154 154 154
153 153 153
153 153 153
151 151 151
152 152 152
150 150 150
149 149 149
131 131 131
101 101 101
94 94 94
94 94 94
92 92 92
71 71 71
76 76 76
76 76 76
76 76 76
76 76 76
76 76 76
78 78 78
78 78 78
79 79 79
74 74 74
72 72 72
71 71 71
72 72 72
62 62 62
77 77 77
78 78 78
89 89 89
84 84 84
44 44 44
66 66 66
69 69 69
69 69 69
71 71 71
70 70 70
70 70 70
71 71 71
70 70 70
68 68 68
68 68 68
67 67 67
62 62 62
86 86 86
90 90 90
94 94 94
92 92 92
79 79 79
76 76 76
80 80 80
89 89 89
96 96 96
126 126 126
124 124 124
124 124 124
124 124 124
124 124 124
123 123 123
121 121 121
123 123 123
124 124 124
122 122 122
121 121 121
111 111 111
94 94 94
131 131 131
151 151 151
146 146 146
141 141 141
155 155 155
169 169 169
171 171 171
154 154 154
152 152 152
172 172 172
173 173 173
174 174 174
174 174 174
175 175 175
176 176 176
176 176 176
176 176 176
175 175 175
143 143 143
191 191 191
192 192 192
192 192 192
192 192 192
191 191 191
193 193 193
191 191 191
191 191 191
189 189 189
189 189 189
188 188 188
186 186 186
151 151 151
122 122 122
136 136 136
185 185 185
186 186 186
189 189 189
189 189 189
189 189 189
187 187 187
186 186 186
185 185 185
156 156 156
135 135 135
96 96 96
112 112 112
112 112 112
112 112 112
112 112 112
111 111 111
111 111 111
111 111 111
110 110 110
110 110 110
110 110 110
111 111 111
111 111 111
112 112 112
112 112 112
123 123 123
139 139 139
150 150 150
151 151 151
151 151 151
144 144 144
130 130 130
114 114 114
110 110 110
111 111 111
111 111 111
112 112 112
112 112 112
112 112 112
112 112 112
110 110 110
111 111 111
106 106 106
95 95 95
141 141 141
163 163 163
164 164 164
164 164 164
165 165 165
165 165 165
166 166 166
166 166 166
164 164 164
165 165 165
164 164 164
163 163 163
162 162 162
163 163 163
162 162 162
160 160 160
160 160 160
156 156 156
156 156 156
157 157 157
156 156 156
156 156 156
156 156 156
155 155 155
156 156 156
154 154 154
153 153 153
152 152 152
150 150 150
150 150 150
151 151 151
146 146 146
115 115 115
95 95 95
94 94 94
94 94 94
90 90 90
74 74 74
74 74 74
79 79 79
76 76 76
77 77 77
77 77 77
77 77 77
78 78 78
78 78 78
77 77 77
73 73 73
72 72 72
74 74 74
58 58 58
84 84 84
83 83 83
79 79 79
88 88 88
72 72 72
64 64 64
71 71 71
69 69 69
70 70 70
69 69 69
70 70 70
70 70 70
70 70 70
68 68 68
68 68 68
68 68 68
68 68 68
70 70 70
105 105 105
94 94 94
84 84 84
81 81 81
76 76 76
79 79 79
87 87 87
92 92 92
96 96 96
126 126 126
124 124 124
124 124 124
124 124 124
124 124 124
124 124 124
124 124 124
124 124 124
124 124 124
124 124 124
123 123 123
117 117 117
88 88 88
141 141 141
163 163 163
163 163 163
154 154 154
159 159 159
170 170 170
174 174 174
144 144 144
164 164 164
172 172 172
173 173 173
174 174 174
174 174 174
175 175 175
175 175 175
176 176 176
174 174 174
159 159 159
167 167 167
190 190 190
193 193 193
193 193 193
193 193 193
193 193 193
192 192 192
191 191 191
191 191 191
189 189 189
189 189 189
188 188 188
187 187 187
127 127 127
134 134 134
182 182 182
186 186 186
185 185 185
188 188 188
189 189 189
188 188 188
190 190 190
187 187 187
172 172 172
142 142 142
169 169 169
135 135 135
103 103 103
112 112 112
111 111 111
110 110 110
111 111 111
110 110 110
111 111 111
109 109 109
110 110 110
110 110 110
111 111 111
110 110 110
110 110 110
111 111 111
112 112 112
112 112 112
112 112 112
112 112 112
110 110 110
111 111 111
111 111 111
112 112 112
113 113 113
112 112 112
112 112 112
112 112 112
113 113 113
111 111 111
108 108 108
110 110 110
101 101 101
103 103 103
152 152 152
163 163 163
163 163 163
164 164 164
164 164 164
165 165 165
166 166 166
166 166 166
166 166 166
164 164 164
164 164 164
164 164 164
162 162 162
162 162 162
163 163 163
162 162 162
161 161 161
159 159 159
157 157 157
157 157 157
156 156 156
156 156 156
156 156 156
156 156 156
156 156 156
155 155 155
153 153 153
151 151 151
150 150 150
151 151 151
149 149 149
138 138 138
105 105 105
94 94 94
95 95 95
94 94 94
93 93 93
77 77 77
68 68 68
79 79 79
77 77 77
77 77 77
77 77 77
78 78 78
78 78 78
78 78 78
78 78 78
74 74 74
73 73 73
73 73 73
60 60 60
79 79 79
90 90 90
88 88 88
76 76 76
87 87 87
59 59 59
71 71 71
69 69 69
70 70 70
71 71 71
68 68 68
69 69 69
71 71 71
70 70 70
68 68 68
67 67 67
67 67 67
65 65 65
91 91 91
113 113 113
113 113 113
102 102 102
93 93 93
88 88 88
89 89 89
93 93 93
95 95 95
96 96 96
125 125 125
123 123 123
124 124 124
124 124 124
125 125 125
124 124 124
124 124 124
124 124 124
124 124 124
124 124 124
124 124 124
119 119 119
72 72 72
143 143 143
166 166 166
166 166 166
155 155 155
159 159 159
168 168 168
171 171 171
133 133 133
171 171 171
173 173 173
173 173 173
173 173 173
173 173 173
175 175 175
176 176 176
176 176 176
175 175 175
141 141 141
192 192 192
191 191 191
192 192 192
193 193 193
193 193 193
193 193 193
193 193 193
192 192 192
191 191 191
190 190 190
189 189 189
190 190 190
185 185 185
114 114 114
169 169 169
188 188 188
189 189 189
189 189 189
189 189 189
189 189 189
189 189 189
191 191 191
185 185 185
134 134 134
169 169 169
169 169 169
169 169 169
118 118 118
108 108 108
108 108 108
110 110 110
110 110 110
110 110 110
110 110 110
109 109 109
110 110 110
110 110 110
110 110 110
110 110 110
109 109 109
111 111 111
111 111 111
110 110 110
111 111 111
111 111 111
110 110 110
109 109 109
110 110 110
109 109 109
110 110 110
112 112 112
112 112 112
112 112 112
113 113 113
111 111 111
107 107 107
95 95 95
119 119 119
161 161 161
163 163 163
163 163 163
164 164 164
163 163 163
165 165 165
165 165 165
166 166 166
166 166 166
166 166 166
165 165 165
163 163 163
162 162 162
162 162 162
162 162 162
162 162 162
161 161 161
160 160 160
159 159 159
157 157 157
157 157 157
156 156 156
156 156 156
156 156 156
156 156 156
155 155 155
152 152 152
152 152 152
151 151 151
154 154 154
148 148 148
123 123 123
98 98 98
95 95 95
93 93 93
93 93 93
93 93 93
85 85 85
63 63 63
78 78 78
76 76 76
76 76 76
77 77 77
77 77 77
78 78 78
78 78 78
77 77 77
76 76 76
75 75 75
72 72 72
58 58 58
55 55 55
87 87 87
91 91 91
87 87 87
72 72 72
82 82 82
60 60 60
68 68 68
67 67 67
70 70 70
72 72 72
69 69 69
70 70 70
71 71 71
70 70 70
67 67 67
67 67 67
67 67 67
51 51 51
102 102 102
115 115 115
120 120 120
117 117 117
105 105 105
99 99 99
97 97 97
97 97 97
98 98 98
97 97 97
126 126 126
123 123 123
122 122 122
124 124 124
125 125 125
125 125 125
124 124 124
124 124 124
124 124 124
124 124 124
124 124 124
120 120 120
80 80 80
144 144 144
166 166 166
164 164 164
160 160 160
170 170 170
173 173 173
176 176 176
130 130 130
173 173 173
173 173 173
173 173 173
173 173 173
173 173 173
174 174 174
176 176 176
177 177 177
168 168 168
158 158 158
192 192 192
191 191 191
192 192 192
192 192 192
193 193 193
193 193 193
193 193 193
193 193 193
192 192 192
191 191 191
188 188 188
186 186 186
168 168 168
147 147 147
188 188 188
190 190 190
188 188 188
189 189 189
189 189 189
189 189 189
188 188 188
188 188 188
142 142 142
171 171 171
169 169 169
170 170 170
170 170 170
164 164 164
105 105 105
109 109 109
110 110 110
110 110 110
110 110 110
110 110 110
110 110 110
110 110 110
110 110 110
110 110 110
110 110 110
110 110 110
110 110 110
111 111 111
110 110 110
110 110 110
110 110 110
110 110 110
109 109 109
109 109 109
109 109 109
109 109 109
112 112 112
112 112 112
112 112 112
111 111 111
107 107 107
96 96 96
143 143 143
164 164 164
164 164 164
167 167 167
166 166 166
165 165 165
165 165 165
166 166 166
166 166 166
166 166 166
166 166 166
166 166 166
165 165 165
163 163 163
162 162 162
162 162 162
163 163 163
162 162 162
160 160 160
158 158 158
157 157 157
157 157 157
157 157 157
156 156 156
156 156 156
155 155 155
155 155 155
154 154 154
153 153 153
152 152 152
150 150 150
140 140 140
106 106 106
93 93 93
95 95 95
94 94 94
94 94 94
92 92 92
86 86 86
65 65 65
78 78 78
75 75 75
76 76 76
76 76 76
77 77 77
77 77 77
78 78 78
77 77 77
75 75 75
75 75 75
73 73 73
55 55 55
70 70 70
66 66 66
81 81 81
91 91 91
85 85 85
70 70 70
73 73 73
68 68 68
71 71 71
71 71 71
70 70 70
70 70 70
69 69 69
71 71 71
71 71 71
68 68 68
66 66 66
65 65 65
68 68 68
42 42 42
106 106 106
114 114 114
116 116 116
116 116 116
108 108 108
104 104 104
101 101 101
101 101 101
100 100 100
102 102 102
137 137 137
127 127 127
124 124 124
124 124 124
125 125 125
124 124 124
124 124 124
124 124 124
124 124 124
124 124 124
124 124 124
121 121 121
98 98 98
142 142 142
155 155 155
155 155 155
161 161 161
172 172 172
170 170 170
169 169 169
136 136 136
172 172 172
173 173 173
173 173 173
173 173 173
172 172 172
174 174 174
175 175 175
176 176 176
144 144 144
187 187 187
189 189 189
190 190 190
192 192 192
191 191 191
192 192 192
192 192 192
192 192 192
192 192 192
191 191 191
190 190 190
188 188 188
188 188 188
146 146 146
182 182 182
186 186 186
190 190 190
190 190 190
189 189 189
188 188 188
188 188 188
188 188 188
144 144 144
165 165 165
169 169 169
169 169 169
169 169 169
170 170 170
170 170 170
159 159 159
98 98 98
108 108 108
109 109 109
110 110 110
110 110 110
110 110 110
110 110 110
110 110 110
110 110 110
110 110 110
110 110 110
110 110 110
110 110 110
110 110 110
110 110 110
111 111 111
110 110 110
110 110 110
110 110 110
110 110 110
110 110 110
112 112 112
111 111 111
111 111 111
103 103 103
110 110 110
160 160 160
166 166 166
167 167 167
167 167 167
167 167 167
166 166 166
165 165 165
166 166 166
166 166 166
166 166 166
166 166 166
166 166 166
166 166 166
165 165 165
162 162 162
163 163 163
163 163 163
162 162 162
161 161 161
159 159 159
157 157 157
157 157 157
157 157 157
157 157 157
156 156 156
156 156 156
156 156 156
153 153 153
153 153 153
152 152 152
148 148 148
120 120 120
97 97 97
96 96 96
95 95 95
95 95 95
94 94 94
94 94 94
89 89 89
64 64 64
79 79 79
76 76 76
75 75 75
77 77 77
77 77 77
77 77 77
78 78 78
77 77 77
76 76 76
74 74 74
70 70 70
53 53 53
72 72 72
72 72 72
69 69 69
72 72 72
87 87 87
79 79 79
68 68 68
61 61 61
71 71 71
70 70 70
71 71 71
70 70 70
68 68 68
69 69 69
71 71 71
70 70 70
67 67 67
66 66 66
66 66 66
53 53 53
60 60 60
110 110 110
114 114 114
114 114 114
116 116 116
113 113 113
110 110 110
105 105 105
106 106 106
108 108 108
111 111 111
