P3
113 200
255
233 233 233
233 233 233
235 235 235
234 234 234
233 233 233
234 234 234
232 232 232
231 231 231
231 231 231
229 229 229
225 225 225
168 168 168
123 123 123
113 113 113
106 106 106
100 100 100
95 95 95
88 88 88
87 87 87
85 85 85
83 83 83
83 83 83
83 83 83
81 81 81
81 81 81
70 70 70
58 58 58
58 58 58
60 60 60
63 63 63
66 66 66
71 71 71
76 76 76
85 85 85
117 117 117
212 212 212
233 233 233
237 237 237
239 239 239
238 238 238
240 240 240
240 240 240
239 239 239
239 239 239
236 236 236
236 236 236
237 237 237
237 237 237
237 237 237
238 238 238
235 235 235
234 234 234
234 234 234
233 233 233
234 234 234
234 234 234
236 236 236
238 238 238
239 239 239
235 235 235
235 235 235
238 238 238
237 237 237
235 235 235
236 236 236
239 239 239
237 237 237
236 236 236
237 237 237
237 237 237
239 239 239
241 241 241
239 239 239
238 238 238
238 238 238
238 238 238
236 236 236
223 223 223
170 170 170
149 149 149
143 143 143
134 134 134
129 129 129
124 124 124
119 119 119
122 122 122
117 117 117
114 114 114
113 113 113
110 110 110
106 106 106
109 109 109
115 115 115
108 108 108
111 111 111
94 94 94
44 44 44
41 41 41
41 41 41
41 41 41
40 40 40
40 40 40
41 41 41
40 40 40
44 44 44
37 37 37
25 25 25
25 25 25
26 26 26
26 26 26
26 26 26
26 26 26
26 26 26
231 231 231
231 231 231
231 231 231
231 231 231
231 231 231
233 233 233
231 231 231
227 227 227
224 224 224
223 223 223
223 223 223
171 171 171
122 122 122
113 113 113
106 106 106
100 100 100
94 94 94
88 88 88
86 86 86
85 85 85
83 83 83
83 83 83
82 82 82
81 81 81
80 80 80
70 70 70
58 58 58
57 57 57
60 60 60
63 63 63
67 67 67
73 73 73
76 76 76
87 87 87
118 118 118
211 211 211
232 232 232
233 233 233
236 236 236
236 236 236
236 236 236
236 236 236
235 235 235
235 235 235
232 232 232
232 232 232
233 233 233
233 233 233
234 234 234
234 234 234
232 232 232
231 231 231
231 231 231
231 231 231
232 232 232
232 232 232
233 233 233
234 234 234
235 235 235
233 233 233
234 234 234
237 237 237
237 237 237
234 234 234
235 235 235
238 238 238
237 237 237
237 237 237
238 238 238
238 238 238
239 239 239
239 239 239
236 236 236
237 237 237
239 239 239
238 238 238
234 234 234
208 208 208
158 158 158
145 145 145
140 140 140
130 130 130
123 123 123
116 116 116
113 113 113
113 113 113
115 115 115
117 117 117
113 113 113
112 112 112
112 112 112
112 112 112
113 113 113
109 109 109
114 114 114
78 78 78
41 41 41
42 42 42
43 43 43
41 41 41
40 40 40
39 39 39
41 41 41
41 41 41
45 45 45
28 28 28
23 23 23
25 25 25
26 26 26
26 26 26
26 26 26
26 26 26
26 26 26
229 229 229
229 229 229
230 230 230
231 231 231
231 231 231
232 232 232
233 233 233
230 230 230
230 230 230
230 230 230
227 227 227
174 174 174
122 122 122
112 112 112
106 106 106
98 98 98
94 94 94
89 89 89
87 87 87
84 84 84
84 84 84
82 82 82
82 82 82
80 80 80
79 79 79
71 71 71
58 58 58
59 59 59
60 60 60
63 63 63
67 67 67
71 71 71
76 76 76
87 87 87
117 117 117
209 209 209
232 232 232
232 232 232
234 234 234
234 234 234
233 233 233
231 231 231
230 230 230
229 229 229
231 231 231
232 232 232
231 231 231
229 229 229
230 230 230
231 231 231
229 229 229
228 228 228
223 223 223
215 215 215
217 217 217
219 219 219
224 224 224
229 229 229
231 231 231
231 231 231
232 232 232
234 234 234
236 236 236
234 234 234
233 233 233
233 233 233
233 233 233
235 235 235
235 235 235
236 236 236
235 235 235
237 237 237
236 236 236
236 236 236
238 238 238
237 237 237
231 231 231
188 188 188
152 152 152
143 143 143
136 136 136
128 128 128
120 120 120
114 114 114
113 113 113
114 114 114
118 118 118
113 113 113
112 112 112
112 112 112
112 112 112
111 111 111
113 113 113
111 111 111
109 109 109
60 60 60
43 43 43
43 43 43
42 42 42
41 41 41
40 40 40
40 40 40
41 41 41
42 42 42
42 42 42
25 25 25
24 24 24
24 24 24
26 26 26
26 26 26
26 26 26
26 26 26
26 26 26
224 224 224
228 228 228
230 230 230
230 230 230
230 230 230
230 230 230
231 231 231
227 227 227
226 226 226
226 226 226
225 225 225
175 175 175
123 123 123
112 112 112
105 105 105
98 98 98
94 94 94
90 90 90
87 87 87
84 84 84
83 83 83
82 82 82
82 82 82
81 81 81
80 80 80
72 72 72
57 57 57
58 58 58
58 58 58
62 62 62
67 67 67
70 70 70
74 74 74
86 86 86
113 113 113
206 206 206
229 229 229
230 230 230
232 232 232
232 232 232
233 233 233
231 231 231
230 230 230
228 228 228
229 229 229
230 230 230
230 230 230
227 227 227
226 226 226
226 226 226
220 220 220
189 189 189
167 167 167
155 155 155
151 151 151
156 156 156
164 164 164
175 175 175
203 203 203
228 228 228
232 232 232
233 233 233
234 234 234
233 233 233
233 233 233
233 233 233
232 232 232
232 232 232
233 233 233
233 233 233
233 233 233
233 233 233
232 232 232
233 233 233
233 233 233
232 232 232
217 217 217
169 169 169
150 150 150
140 140 140
137 137 137
132 132 132
126 126 126
121 121 121
119 119 119
117 117 117
118 118 118
115 115 115
114 114 114
113 113 113
113 113 113
110 110 110
112 112 112
113 113 113
99 99 99
45 45 45
44 44 44
41 41 41
41 41 41
41 41 41
40 40 40
40 40 40
41 41 41
41 41 41
38 38 38
24 24 24
26 26 26
25 25 25
25 25 25
26 26 26
26 26 26
26 26 26
26 26 26
225 225 225
228 228 228
228 228 228
226 226 226
225 225 225
226 226 226
224 224 224
224 224 224
223 223 223
222 222 222
218 218 218
176 176 176
123 123 123
112 112 112
106 106 106
98 98 98
94 94 94
89 89 89
87 87 87
84 84 84
82 82 82
81 81 81
82 82 82
82 82 82
82 82 82
74 74 74
57 57 57
60 60 60
59 59 59
62 62 62
66 66 66
69 69 69
75 75 75
86 86 86
112 112 112
205 205 205
227 227 227
228 228 228
227 227 227
226 226 226
227 227 227
228 228 228
229 229 229
227 227 227
227 227 227
226 226 226
226 226 226
224 224 224
222 222 222
196 196 196
151 151 151
138 138 138
121 121 121
102 102 102
95 95 95
95 95 95
109 109 109
126 126 126
134 134 134
152 152 152
200 200 200
219 219 219
227 227 227
229 229 229
231 231 231
231 231 231
233 233 233
232 232 232
232 232 232
232 232 232
233 233 233
232 232 232
231 231 231
230 230 230
229 229 229
227 227 227
201 201 201
157 157 157
147 147 147
138 138 138
137 137 137
132 132 132
126 126 126
122 122 122
117 117 117
114 114 114
114 114 114
112 112 112
115 115 115
113 113 113
112 112 112
110 110 110
112 112 112
111 111 111
76 76 76
40 40 40
43 43 43
43 43 43
43 43 43
43 43 43
41 41 41
40 40 40
39 39 39
42 42 42
32 32 32
24 24 24
25 25 25
26 26 26
26 26 26
26 26 26
26 26 26
26 26 26
26 26 26
226 226 226
226 226 226
226 226 226
226 226 226
226 226 226
224 224 224
218 218 218
218 218 218
220 220 220
221 221 221
215 215 215
176 176 176
124 124 124
113 113 113
105 105 105
99 99 99
94 94 94
90 90 90
88 88 88
85 85 85
84 84 84
82 82 82
82 82 82
83 83 83
83 83 83
75 75 75
58 58 58
60 60 60
58 58 58
61 61 61
66 66 66
70 70 70
75 75 75
84 84 84
112 112 112
203 203 203
226 226 226
226 226 226
224 224 224
225 225 225
225 225 225
225 225 225
225 225 225
226 226 226
226 226 226
225 225 225
223 223 223
219 219 219
174 174 174
143 143 143
115 115 115
95 95 95
85 85 85
83 83 83
83 83 83
82 82 82
82 82 82
81 81 81
85 85 85
99 99 99
116 116 116
151 151 151
184 184 184
223 223 223
225 225 225
226 226 226
229 229 229
231 231 231
230 230 230
230 230 230
231 231 231
231 231 231
230 230 230
228 228 228
226 226 226
222 222 222
184 184 184
152 152 152
146 146 146
137 137 137
133 133 133
129 129 129
125 125 125
121 121 121
118 118 118
116 116 116
114 114 114
112 112 112
111 111 111
109 109 109
110 110 110
109 109 109
113 113 113
107 107 107
55 55 55
39 39 39
41 41 41
43 43 43
46 46 46
44 44 44
42 42 42
40 40 40
40 40 40
44 44 44
28 28 28
24 24 24
25 25 25
26 26 26
26 26 26
26 26 26
26 26 26
26 26 26
26 26 26
224 224 224
224 224 224
223 223 223
221 221 221
219 219 219
217 217 217
213 213 213
213 213 213
215 215 215
216 216 216
213 213 213
178 178 178
122 122 122
111 111 111
105 105 105
99 99 99
94 94 94
90 90 90
88 88 88
85 85 85
83 83 83
82 82 82
83 83 83
83 83 83
83 83 83
74 74 74
58 58 58
60 60 60
58 58 58
62 62 62
67 67 67
69 69 69
74 74 74
82 82 82
109 109 109
202 202 202
227 227 227
226 226 226
225 225 225
225 225 225
226 226 226
226 226 226
227 227 227
226 226 226
224 224 224
219 219 219
214 214 214
168 168 168
134 134 134
99 99 99
81 81 81
80 80 80
78 78 78
77 77 77
79 79 79
77 77 77
77 77 77
78 78 78
76 76 76
79 79 79
85 85 85
99 99 99
129 129 129
171 171 171
218 218 218
223 223 223
227 227 227
227 227 227
229 229 229
229 229 229
230 230 230
230 230 230
227 227 227
226 226 226
224 224 224
213 213 213
170 170 170
150 150 150
143 143 143
136 136 136
131 131 131
125 125 125
124 124 124
120 120 120
120 120 120
119 119 119
117 117 117
115 115 115
110 110 110
107 107 107
109 109 109
111 111 111
112 112 112
96 96 96
45 45 45
40 40 40
41 41 41
42 42 42
41 41 41
40 40 40
41 41 41
40 40 40
42 42 42
43 43 43
24 24 24
25 25 25
25 25 25
26 26 26
26 26 26
26 26 26
25 25 25
25 25 25
26 26 26
221 221 221
220 220 220
218 218 218
217 217 217
216 216 216
212 212 212
209 209 209
210 210 210
212 212 212
213 213 213
212 212 212
180 180 180
120 120 120
110 110 110
102 102 102
98 98 98
93 93 93
90 90 90
87 87 87
83 83 83
83 83 83
83 83 83
83 83 83
83 83 83
82 82 82
75 75 75
58 58 58
60 60 60
58 58 58
63 63 63
66 66 66
69 69 69
73 73 73
83 83 83
106 106 106
198 198 198
224 224 224
224 224 224
224 224 224
224 224 224
223 223 223
223 223 223
224 224 224
222 222 222
222 222 222
215 215 215
167 167 167
131 131 131
88 88 88
79 79 79
76 76 76
73 73 73
68 68 68
71 71 71
77 77 77
74 74 74
73 73 73
74 74 74
75 75 75
71 71 71
78 78 78
81 81 81
90 90 90
111 111 111
171 171 171
219 219 219
223 223 223
224 224 224
227 227 227
230 230 230
229 229 229
227 227 227
224 224 224
224 224 224
222 222 222
201 201 201
160 160 160
149 149 149
142 142 142
135 135 135
129 129 129
123 123 123
122 122 122
115 115 115
113 113 113
119 119 119
119 119 119
114 114 114
115 115 115
111 111 111
111 111 111
110 110 110
111 111 111
82 82 82
40 40 40
40 40 40
39 39 39
40 40 40
40 40 40
41 41 41
42 42 42
40 40 40
43 43 43
38 38 38
23 23 23
25 25 25
26 26 26
26 26 26
25 25 25
25 25 25
25 25 25
25 25 25
25 25 25
218 218 218
216 216 216
215 215 215
215 215 215
213 213 213
211 211 211
209 209 209
208 208 208
210 210 210
211 211 211
208 208 208
178 178 178
118 118 118
108 108 108
103 103 103
98 98 98
94 94 94
90 90 90
87 87 87
83 83 83
83 83 83
83 83 83
83 83 83
83 83 83
82 82 82
75 75 75
57 57 57
59 59 59
59 59 59
62 62 62
65 65 65
69 69 69
72 72 72
82 82 82
105 105 105
192 192 192
221 221 221
221 221 221
221 221 221
221 221 221
220 220 220
218 218 218
217 217 217
216 216 216
216 216 216
184 184 184
137 137 137
94 94 94
77 77 77
76 76 76
73 73 73
72 72 72
72 72 72
66 66 66
70 70 70
74 74 74
74 74 74
71 71 71
70 70 70
66 66 66
68 68 68
71 71 71
74 74 74
79 79 79
105 105 105
187 187 187
218 218 218
221 221 221
223 223 223
226 226 226
225 225 225
219 219 219
216 216 216
220 220 220
217 217 217
185 185 185
153 153 153
147 147 147
141 141 141
134 134 134
129 129 129
124 124 124
121 121 121
114 114 114
113 113 113
117 117 117
115 115 115
111 111 111
114 114 114
114 114 114
111 111 111
110 110 110
109 109 109
61 61 61
39 39 39
42 42 42
41 41 41
41 41 41
40 40 40
41 41 41
41 41 41
40 40 40
44 44 44
33 33 33
24 24 24
24 24 24
26 26 26
26 26 26
25 25 25
25 25 25
25 25 25
25 25 25
24 24 24
213 213 213
213 213 213
212 212 212
212 212 212
210 210 210
209 209 209
210 210 210
209 209 209
210 210 210
210 210 210
209 209 209
180 180 180
118 118 118
108 108 108
104 104 104
97 97 97
89 89 89
87 87 87
87 87 87
83 83 83
82 82 82
83 83 83
83 83 83
82 82 82
81 81 81
75 75 75
58 58 58
60 60 60
61 61 61
64 64 64
66 66 66
69 69 69
71 71 71
82 82 82
103 103 103
189 189 189
217 217 217
217 217 217
216 216 216
216 216 216
212 212 212
199 199 199
185 185 185
173 173 173
160 160 160
127 127 127
109 109 109
75 75 75
67 67 67
65 65 65
67 67 67
70 70 70
70 70 70
92 92 92
134 134 134
131 131 131
104 104 104
68 68 68
55 55 55
48 48 48
47 47 47
50 50 50
54 54 54
60 60 60
83 83 83
135 135 135
214 214 214
222 222 222
221 221 221
221 221 221
219 219 219
218 218 218
219 219 219
218 218 218
209 209 209
171 171 171
151 151 151
146 146 146
138 138 138
132 132 132
128 128 128
125 125 125
121 121 121
119 119 119
116 116 116
115 115 115
116 116 116
113 113 113
116 116 116
118 118 118
112 112 112
112 112 112
100 100 100
45 45 45
40 40 40
40 40 40
40 40 40
41 41 41
41 41 41
42 42 42
40 40 40
40 40 40
40 40 40
25 25 25
26 26 26
25 25 25
26 26 26
26 26 26
25 25 25
25 25 25
26 26 26
25 25 25
25 25 25
209 209 209
208 208 208
208 208 208
208 208 208
207 207 207
210 210 210
211 211 211
212 212 212
207 207 207
206 206 206
206 206 206
182 182 182
118 118 118
108 108 108
103 103 103
97 97 97
90 90 90
87 87 87
86 86 86
83 83 83
81 81 81
83 83 83
83 83 83
82 82 82
82 82 82
77 77 77
57 57 57
60 60 60
61 61 61
63 63 63
66 66 66
68 68 68
69 69 69
80 80 80
102 102 102
185 185 185
210 210 210
205 205 205
186 186 186
161 161 161
136 136 136
128 128 128
124 124 124
114 114 114
100 100 100
88 88 88
79 79 79
73 73 73
71 71 71
68 68 68
65 65 65
61 61 61
62 62 62
82 82 82
135 135 135
118 118 118
106 106 106
102 102 102
53 53 53
43 43 43
45 45 45
46 46 46
48 48 48
52 52 52
63 63 63
92 92 92
200 200 200
220 220 220
219 219 219
218 218 218
218 218 218
218 218 218
218 218 218
217 217 217
199 199 199
160 160 160
150 150 150
142 142 142
136 136 136
133 133 133
126 126 126
121 121 121
121 121 121
117 117 117
114 114 114
114 114 114
117 117 117
112 112 112
113 113 113
112 112 112
108 108 108
111 111 111
85 85 85
41 41 41
41 41 41
41 41 41
40 40 40
40 40 40
41 41 41
41 41 41
41 41 41
40 40 40
35 35 35
24 24 24
26 26 26
26 26 26
26 26 26
26 26 26
25 25 25
25 25 25
26 26 26
25 25 25
26 26 26
208 208 208
207 207 207
206 206 206
205 205 205
209 209 209
212 212 212
213 213 213
208 208 208
200 200 200
198 198 198
199 199 199
180 180 180
117 117 117
106 106 106
100 100 100
95 95 95
91 91 91
88 88 88
88 88 88
86 86 86
82 82 82
82 82 82
82 82 82
82 82 82
82 82 82
81 81 81
59 59 59
60 60 60
59 59 59
62 62 62
64 64 64
69 69 69
71 71 71
81 81 81
98 98 98
169 169 169
171 171 171
142 142 142
129 129 129
124 124 124
99 99 99
87 87 87
80 80 80
78 78 78
75 75 75
74 74 74
70 70 70
67 67 67
67 67 67
67 67 67
66 66 66
67 67 67
66 66 66
65 65 65
67 67 67
85 85 85
89 89 89
77 77 77
75 75 75
56 56 56
43 43 43
43 43 43
43 43 43
50 50 50
57 57 57
77 77 77
181 181 181
216 216 216
217 217 217
217 217 217
216 216 216
217 217 217
217 217 217
215 215 215
183 183 183
153 153 153
148 148 148
140 140 140
135 135 135
134 134 134
127 127 127
121 121 121
118 118 118
113 113 113
113 113 113
112 112 112
115 115 115
114 114 114
109 109 109
106 106 106
103 103 103
106 106 106
65 65 65
43 43 43
43 43 43
40 40 40
40 40 40
40 40 40
41 41 41
41 41 41
41 41 41
40 40 40
30 30 30
22 22 22
25 25 25
25 25 25
26 26 26
26 26 26
25 25 25
26 26 26
26 26 26
26 26 26
26 26 26
203 203 203
207 207 207
207 207 207
208 208 208
210 210 210
213 213 213
211 211 211
206 206 206
200 200 200
197 197 197
196 196 196
177 177 177
116 116 116
104 104 104
100 100 100
94 94 94
91 91 91
89 89 89
87 87 87
86 86 86
81 81 81
81 81 81
82 82 82
82 82 82
82 82 82
84 84 84
59 59 59
60 60 60
59 59 59
63 63 63
67 67 67
77 77 77
86 86 86
97 97 97
111 111 111
118 118 118
123 123 123
123 123 123
117 117 117
110 110 110
108 108 108
103 103 103
97 97 97
89 89 89
81 81 81
68 68 68
56 56 56
47 47 47
51 51 51
58 58 58
62 62 62
65 65 65
65 65 65
64 64 64
63 63 63
62 62 62
61 61 61
60 60 60
59 59 59
65 65 65
62 62 62
65 65 65
46 46 46
48 48 48
54 54 54
69 69 69
181 181 181
213 213 213
212 212 212
211 211 211
210 210 210
213 213 213
215 215 215
209 209 209
171 171 171
153 153 153
147 147 147
139 139 139
133 133 133
130 130 130
125 125 125
120 120 120
118 118 118
115 115 115
116 116 116
118 118 118
118 118 118
118 118 118
115 115 115
108 108 108
107 107 107
105 105 105
52 52 52
43 43 43
43 43 43
41 41 41
41 41 41
41 41 41
41 41 41
41 41 41
40 40 40
39 39 39
26 26 26
23 23 23
25 25 25
26 26 26
26 26 26
26 26 26
26 26 26
26 26 26
26 26 26
26 26 26
26 26 26
158 158 158
163 163 163
171 171 171
177 177 177
183 183 183
190 190 190
193 193 193
195 195 195
197 197 197
203 203 203
199 199 199
180 180 180
115 115 115
103 103 103
99 99 99
94 94 94
90 90 90
90 90 90
88 88 88
86 86 86
82 82 82
81 81 81
81 81 81
81 81 81
83 83 83
86 86 86
59 59 59
60 60 60
61 61 61
76 76 76
101 101 101
107 107 107
102 102 102
95 95 95
88 88 88
85 85 85
83 83 83
83 83 83
83 83 83
84 84 84
86 86 86
87 87 87
90 90 90
96 96 96
101 101 101
105 105 105
103 103 103
93 93 93
68 68 68
44 44 44
45 45 45
55 55 55
62 62 62
62 62 62
62 62 62
62 62 62
63 63 63
62 62 62
62 62 62
61 61 61
59 59 59
60 60 60
48 48 48
46 46 46
52 52 52
79 79 79
196 196 196
212 212 212
210 210 210
207 207 207
208 208 208
210 210 210
210 210 210
198 198 198
162 162 162
150 150 150
147 147 147
141 141 141
134 134 134
128 128 128
126 126 126
125 125 125
119 119 119
118 118 118
119 119 119
119 119 119
116 116 116
115 115 115
115 115 115
111 111 111
115 115 115
93 93 93
44 44 44
43 43 43
42 42 42
40 40 40
41 41 41
41 41 41
40 40 40
39 39 39
41 41 41
36 36 36
24 24 24
23 23 23
25 25 25
25 25 25
26 26 26
26 26 26
26 26 26
26 26 26
25 25 25
25 25 25
25 25 25
138 138 138
140 140 140
140 140 140
139 139 139
138 138 138
138 138 138
140 140 140
144 144 144
151 151 151
160 160 160
168 168 168
161 161 161
113 113 113
102 102 102
99 99 99
95 95 95
92 92 92
89 89 89
88 88 88
86 86 86
83 83 83
82 82 82
82 82 82
83 83 83
85 85 85
91 91 91
62 62 62
73 73 73
95 95 95
105 105 105
90 90 90
71 71 71
68 68 68
70 70 70
70 70 70
69 69 69
69 69 69
69 69 69
68 68 68
67 67 67
68 68 68
68 68 68
66 66 66
64 64 64
63 63 63
65 65 65
75 75 75
92 92 92
102 102 102
95 95 95
67 67 67
46 46 46
50 50 50
59 59 59
61 61 61
62 62 62
61 61 61
62 62 62
62 62 62
62 62 62
60 60 60
60 60 60
48 48 48
45 45 45
51 51 51
124 124 124
194 194 194
206 206 206
210 210 210
210 210 210
207 207 207
205 205 205
202 202 202
184 184 184
156 156 156
148 148 148
142 142 142
137 137 137
133 133 133
127 127 127
127 127 127
127 127 127
122 122 122
122 122 122
123 123 123
118 118 118
116 116 116
116 116 116
114 114 114
111 111 111
116 116 116
72 72 72
40 40 40
43 43 43
43 43 43
42 42 42
43 43 43
41 41 41
41 41 41
39 39 39
41 41 41
32 32 32
23 23 23
23 23 23
23 23 23
24 24 24
26 26 26
25 25 25
26 26 26
26 26 26
25 25 25
25 25 25
24 24 24
100 100 100
105 105 105
109 109 109
113 113 113
118 118 118
122 122 122
122 122 122
121 121 121
120 120 120
115 115 115
113 113 113
118 118 118
110 110 110
102 102 102
99 99 99
94 94 94
91 91 91
88 88 88
86 86 86
85 85 85
82 82 82
82 82 82
83 83 83
85 85 85
85 85 85
87 87 87
98 98 98
110 110 110
86 86 86
69 69 69
66 66 66
66 66 66
67 67 67
68 68 68
67 67 67
67 67 67
67 67 67
67 67 67
67 67 67
65 65 65
64 64 64
64 64 64
63 63 63
63 63 63
63 63 63
61 61 61
61 61 61
61 61 61
66 66 66
72 72 72
77 77 77
64 64 64
41 41 41
47 47 47
59 59 59
60 60 60
60 60 60
60 60 60
59 59 59
59 59 59
60 60 60
60 60 60
59 59 59
56 56 56
91 91 91
122 122 122
142 142 142
168 168 168
202 202 202
208 208 208
206 206 206
206 206 206
202 202 202
172 172 172
153 153 153
146 146 146
137 137 137
132 132 132
130 130 130
129 129 129
125 125 125
121 121 121
119 119 119
117 117 117
118 118 118
118 118 118
117 117 117
115 115 115
111 111 111
113 113 113
107 107 107
48 48 48
37 37 37
40 40 40
42 42 42
42 42 42
42 42 42
41 41 41
41 41 41
40 40 40
41 41 41
27 27 27
25 25 25
23 23 23
23 23 23
25 25 25
25 25 25
24 24 24
24 24 24
25 25 25
26 26 26
25 25 25
24 24 24
88 88 88
87 87 87
87 87 87
87 87 87
85 85 85
86 86 86
87 87 87
88 88 88
91 91 91
95 95 95
96 96 96
108 108 108
108 108 108
100 100 100
97 97 97
92 92 92
88 88 88
88 88 88
84 84 84
83 83 83
82 82 82
82 82 82
81 81 81
83 83 83
88 88 88
107 107 107
117 117 117
110 110 110
98 98 98
76 76 76
64 64 64
64 64 64
64 64 64
65 65 65
64 64 64
62 62 62
63 63 63
63 63 63
63 63 63
64 64 64
63 63 63
61 61 61
62 62 62
62 62 62
61 61 61
61 61 61
60 60 60
60 60 60
61 61 61
60 60 60
60 60 60
58 58 58
56 56 56
43 43 43
48 48 48
58 58 58
58 58 58
59 59 59
58 58 58
57 57 57
58 58 58
59 59 59
59 59 59
61 61 61
67 67 67
72 72 72
78 78 78
98 98 98
123 123 123
176 176 176
200 200 200
202 202 202
195 195 195
163 163 163
151 151 151
142 142 142
134 134 134
130 130 130
129 129 129
125 125 125
124 124 124
121 121 121
119 119 119
114 114 114
114 114 114
115 115 115
113 113 113
108 108 108
110 110 110
114 114 114
89 89 89
41 41 41
39 39 39
40 40 40
42 42 42
41 41 41
41 41 41
40 40 40
41 41 41
42 42 42
39 39 39
23 23 23
23 23 23
23 23 23
24 24 24
25 25 25
25 25 25
26 26 26
24 24 24
24 24 24
24 24 24
23 23 23
22 22 22
88 88 88
86 86 86
86 86 86
85 85 85
84 84 84
81 81 81
78 78 78
75 75 75
72 72 72
70 70 70
66 66 66
87 87 87
106 106 106
98 98 98
94 94 94
90 90 90
88 88 88
85 85 85
74 74 74
70 70 70
69 69 69
70 70 70
68 68 68
66 66 66
76 76 76
104 104 104
119 119 119
158 158 158
159 159 159
112 112 112
62 62 62
62 62 62
62 62 62
62 62 62
61 61 61
60 60 60
61 61 61
62 62 62
62 62 62
62 62 62
60 60 60
61 61 61
61 61 61
60 60 60
61 61 61
61 61 61
60 60 60
60 60 60
59 59 59
58 58 58
58 58 58
58 58 58
57 57 57
55 55 55
49 49 49
50 50 50
58 58 58
58 58 58
58 58 58
58 58 58
57 57 57
57 57 57
58 58 58
57 57 57
57 57 57
58 58 58
62 62 62
69 69 69
79 79 79
110 110 110
147 147 147
191 191 191
178 178 178
156 156 156
150 150 150
140 140 140
134 134 134
132 132 132
129 129 129
124 124 124
123 123 123
122 122 122
119 119 119
117 117 117
113 113 113
114 114 114
109 109 109
106 106 106
113 113 113
114 114 114
67 67 67
39 39 39
40 40 40
41 41 41
42 42 42
43 43 43
41 41 41
40 40 40
39 39 39
42 42 42
32 32 32
23 23 23
22 22 22
24 24 24
24 24 24
25 25 25
25 25 25
24 24 24
25 25 25
25 25 25
24 24 24
23 23 23
23 23 23
91 91 91
91 91 91
89 89 89
90 90 90
87 87 87
83 83 83
80 80 80
79 79 79
76 76 76
71 71 71
66 66 66
82 82 82
106 106 106
98 98 98
93 93 93
90 90 90
86 86 86
77 77 77
66 66 66
65 65 65
59 59 59
58 58 58
59 59 59
61 61 61
63 63 63
59 59 59
132 132 132
158 158 158
130 130 130
133 133 133
74 74 74
61 61 61
62 62 62
62 62 62
60 60 60
61 61 61
61 61 61
60 60 60
61 61 61
60 60 60
59 59 59
59 59 59
60 60 60
59 59 59
59 59 59
59 59 59
57 57 57
58 58 58
59 59 59
58 58 58
59 59 59
58 58 58
57 57 57
56 56 56
55 55 55
53 53 53
55 55 55
58 58 58
58 58 58
58 58 58
57 57 57
57 57 57
58 58 58
58 58 58
59 59 59
58 58 58
58 58 58
61 61 61
68 68 68
73 73 73
108 108 108
139 139 139
160 160 160
151 151 151
147 147 147
140 140 140
134 134 134
132 132 132
127 127 127
122 122 122
123 123 123
122 122 122
119 119 119
118 118 118
119 119 119
115 115 115
110 110 110
109 109 109
114 114 114
110 110 110
52 52 52
42 42 42
42 42 42
42 42 42
43 43 43
44 44 44
42 42 42
38 38 38
38 38 38
42 42 42
28 28 28
25 25 25
24 24 24
23 23 23
24 24 24
24 24 24
25 25 25
24 24 24
25 25 25
23 23 23
22 22 22
23 23 23
22 22 22
80 80 80
79 79 79
80 80 80
81 81 81
82 82 82
82 82 82
83 83 83
85 85 85
82 82 82
79 79 79
73 73 73
84 84 84
107 107 107
97 97 97
95 95 95
100 100 100
77 77 77
67 67 67
65 65 65
64 64 64
63 63 63
62 62 62
56 56 56
46 46 46
46 46 46
49 49 49
88 88 88
138 138 138
131 131 131
116 116 116
75 75 75
67 67 67
61 61 61
60 60 60
60 60 60
60 60 60
59 59 59
60 60 60
60 60 60
59 59 59
59 59 59
58 58 58
58 58 58
60 60 60
58 58 58
57 57 57
55 55 55
57 57 57
56 56 56
57 57 57
56 56 56
56 56 56
56 56 56
55 55 55
56 56 56
55 55 55
56 56 56
55 55 55
56 56 56
56 56 56
54 54 54
54 54 54
56 56 56
58 58 58
58 58 58
58 58 58
59 59 59
64 64 64
91 91 91
76 76 76
75 75 75
105 105 105
130 130 130
149 149 149
145 145 145
142 142 142
134 134 134
127 127 127
123 123 123
122 122 122
120 120 120
120 120 120
117 117 117
116 116 116
119 119 119
116 116 116
111 111 111
112 112 112
117 117 117
97 97 97
44 44 44
42 42 42
43 43 43
41 41 41
43 43 43
43 43 43
42 42 42
40 40 40
38 38 38
38 38 38
25 25 25
25 25 25
25 25 25
24 24 24
24 24 24
23 23 23
25 25 25
24 24 24
24 24 24
23 23 23
22 22 22
23 23 23
21 21 21
92 92 92
86 86 86
82 82 82
78 78 78
75 75 75
73 73 73
73 73 73
72 72 72
71 71 71
72 72 72
71 71 71
84 84 84
107 107 107
99 99 99
103 103 103
71 71 71
65 65 65
64 64 64
63 63 63
62 62 62
62 62 62
54 54 54
43 43 43
40 40 40
40 40 40
43 43 43
84 84 84
98 98 98
107 107 107
68 68 68
71 71 71
59 59 59
58 58 58
59 59 59
59 59 59
59 59 59
58 58 58
57 57 57
57 57 57
57 57 57
57 57 57
57 57 57
57 57 57
65 65 65
72 72 72
70 70 70
53 53 53
55 55 55
55 55 55
54 54 54
55 55 55
55 55 55
55 55 55
55 55 55
54 54 54
54 54 54
55 55 55
54 54 54
53 53 53
54 54 54
53 53 53
49 49 49
54 54 54
55 55 55
56 56 56
56 56 56
57 57 57
58 58 58
73 73 73
103 103 103
74 74 74
75 75 75
108 108 108
135 135 135
142 142 142
137 137 137
131 131 131
125 125 125
120 120 120
120 120 120
118 118 118
118 118 118
118 118 118
119 119 119
115 115 115
114 114 114
113 113 113
115 115 115
121 121 121
72 72 72
42 42 42
42 42 42
43 43 43
42 42 42
42 42 42
42 42 42
42 42 42
39 39 39
40 40 40
33 33 33
23 23 23
24 24 24
25 25 25
25 25 25
24 24 24
23 23 23
24 24 24
24 24 24
23 23 23
23 23 23
22 22 22
23 23 23
23 23 23
155 155 155
143 143 143
130 130 130
117 117 117
105 105 105
93 93 93
85 85 85
78 78 78
72 72 72
68 68 68
63 63 63
78 78 78
104 104 104
100 100 100
70 70 70
64 64 64
64 64 64
72 72 72
76 76 76
73 73 73
48 48 48
38 38 38
38 38 38
40 40 40
41 41 41
78 78 78
129 129 129
109 109 109
70 70 70
63 63 63
59 59 59
56 56 56
57 57 57
57 57 57
57 57 57
56 56 56
56 56 56
58 58 58
58 58 58
57 57 57
58 58 58
71 71 71
94 94 94
102 102 102
93 93 93
68 68 68
55 55 55
54 54 54
54 54 54
55 55 55
55 55 55
54 54 54
54 54 54
54 54 54
53 53 53
52 52 52
53 53 53
53 53 53
52 52 52
49 49 49
53 53 53
52 52 52
50 50 50
55 55 55
55 55 55
55 55 55
56 56 56
57 57 57
60 60 60
95 95 95
106 106 106
71 71 71
80 80 80
116 116 116
137 137 137
135 135 135
128 128 128
123 123 123
118 118 118
116 116 116
115 115 115
114 114 114
115 115 115
119 119 119
115 115 115
112 112 112
114 114 114
117 117 117
111 111 111
47 47 47
42 42 42
42 42 42
43 43 43
43 43 43
41 41 41
43 43 43
42 42 42
40 40 40
41 41 41
28 28 28
22 22 22
24 24 24
25 25 25
25 25 25
24 24 24
24 24 24
23 23 23
24 24 24
23 23 23
22 22 22
22 22 22
22 22 22
23 23 23
171 171 171
175 175 175
176 176 176
172 172 172
167 167 167
161 161 161
153 153 153
140 140 140
125 125 125
112 112 112
97 97 97
86 86 86
109 109 109
76 76 76
80 80 80
96 96 96
101 101 101
86 86 86
64 64 64
48 48 48
40 40 40
39 39 39
39 39 39
38 38 38
40 40 40
66 66 66
113 113 113
102 102 102
73 73 73
58 58 58
56 56 56
55 55 55
56 56 56
57 57 57
56 56 56
55 55 55
55 55 55
56 56 56
57 57 57
59 59 59
83 83 83
107 107 107
103 103 103
83 83 83
57 57 57
53 53 53
53 53 53
53 53 53
54 54 54
54 54 54
53 53 53
53 53 53
52 52 52
51 51 51
51 51 51
51 51 51
51 51 51
53 53 53
53 53 53
48 48 48
53 53 53
52 52 52
46 46 46
49 49 49
51 51 51
51 51 51
54 54 54
55 55 55
69 69 69
92 92 92
121 121 121
101 101 101
70 70 70
96 96 96
121 121 121
134 134 134
131 131 131
125 125 125
118 118 118
118 118 118
118 118 118
115 115 115
114 114 114
118 118 118
117 117 117
116 116 116
116 116 116
120 120 120
91 91 91
38 38 38
43 43 43
42 42 42
43 43 43
43 43 43
41 41 41
41 41 41
40 40 40
42 42 42
43 43 43
25 25 25
23 23 23
25 25 25
27 27 27
26 26 26
25 25 25
24 24 24
24 24 24
23 23 23
24 24 24
22 22 22
21 21 21
22 22 22
23 23 23
169 169 169
173 173 173
178 178 178
178 178 178
174 174 174
174 174 174
174 174 174
174 174 174
172 172 172
168 168 168
154 154 154
116 116 116
99 99 99
104 104 104
104 104 104
83 83 83
65 65 65
59 59 59
46 46 46
40 40 40
40 40 40
41 41 41
39 39 39
39 39 39
42 42 42
61 61 61
78 78 78
82 82 82
69 69 69
58 58 58
55 55 55
55 55 55
55 55 55
55 55 55
55 55 55
56 56 56
54 54 54
53 53 53
58 58 58
92 92 92
110 110 110
102 102 102
70 70 70
54 54 54
48 48 48
50 50 50
53 53 53
49 49 49
50 50 50
51 51 51
51 51 51
51 51 51
52 52 52
50 50 50
47 47 47
49 49 49
50 50 50
50 50 50
50 50 50
46 46 46
49 49 49
49 49 49
50 50 50
44 44 44
52 52 52
54 54 54
51 51 51
54 54 54
74 74 74
114 114 114
127 127 127
124 124 124
81 81 81
72 72 72
108 108 108
125 125 125
127 127 127
123 123 123
118 118 118
118 118 118
120 120 120
117 117 117
116 116 116
117 117 117
118 118 118
117 117 117
117 117 117
116 116 116
65 65 65
38 38 38
40 40 40
43 43 43
43 43 43
43 43 43
41 41 41
39 39 39
38 38 38
42 42 42
35 35 35
24 24 24
25 25 25
24 24 24
23 23 23
22 22 22
22 22 22
22 22 22
23 23 23
24 24 24
24 24 24
22 22 22
23 23 23
23 23 23
23 23 23
150 150 150
152 152 152
159 159 159
165 165 165
165 165 165
165 165 165
165 165 165
166 166 166
166 166 166
166 166 166
134 134 134
114 114 114
110 110 110
94 94 94
65 65 65
62 62 62
60 60 60
49 49 49
40 40 40
40 40 40
41 41 41
41 41 41
39 39 39
39 39 39
66 66 66
137 137 137
106 106 106
66 66 66
54 54 54
56 56 56
54 54 54
55 55 55
56 56 56
56 56 56
56 56 56
56 56 56
55 55 55
54 54 54
87 87 87
111 111 111
101 101 101
66 66 66
53 53 53
50 50 50
46 46 46
50 50 50
48 48 48
50 50 50
51 51 51
49 49 49
50 50 50
50 50 50
49 49 49
47 47 47
48 48 48
50 50 50
51 51 51
51 51 51
50 50 50
49 49 49
45 45 45
51 51 51
57 57 57
45 45 45
46 46 46
85 85 85
65 65 65
51 51 51
58 58 58
90 90 90
124 124 124
126 126 126
112 112 112
67 67 67
88 88 88
113 113 113
124 124 124
122 122 122
118 118 118
117 117 117
120 120 120
118 118 118
116 116 116
116 116 116
118 118 118
117 117 117
117 117 117
104 104 104
46 46 46
41 41 41
41 41 41
42 42 42
40 40 40
42 42 42
39 39 39
38 38 38
38 38 38
41 41 41
27 27 27
24 24 24
25 25 25
23 23 23
23 23 23
23 23 23
23 23 23
23 23 23
24 24 24
23 23 23
24 24 24
22 22 22
22 22 22
23 23 23
27 27 27
125 125 125
126 126 126
139 139 139
146 146 146
148 148 148
145 145 145
148 148 148
150 150 150
151 151 151
146 146 146
115 115 115
115 115 115
82 82 82
64 64 64
62 62 62
60 60 60
55 55 55
41 41 41
40 40 40
40 40 40
41 41 41
39 39 39
37 37 37
37 37 37
49 49 49
84 84 84
71 71 71
66 66 66
55 55 55
55 55 55
55 55 55
54 54 54
55 55 55
55 55 55
55 55 55
55 55 55
54 54 54
74 74 74
109 109 109
98 98 98
62 62 62
51 51 51
50 50 50
46 46 46
50 50 50
55 55 55
53 53 53
51 51 51
51 51 51
49 49 49
51 51 51
51 51 51
49 49 49
46 46 46
53 53 53
60 60 60
53 53 53
50 50 50
50 50 50
50 50 50
45 45 45
49 49 49
58 58 58
56 56 56
40 40 40
83 83 83
90 90 90
51 51 51
52 52 52
60 60 60
105 105 105
115 115 115
111 111 111
87 87 87
64 64 64
97 97 97
119 119 119
119 119 119
121 121 121
120 120 120
118 118 118
115 115 115
115 115 115
116 116 116
118 118 118
117 117 117
118 118 118
79 79 79
38 38 38
42 42 42
40 40 40
41 41 41
39 39 39
38 38 38
39 39 39
38 38 38
39 39 39
38 38 38
26 26 26
25 25 25
26 26 26
23 23 23
23 23 23
23 23 23
23 23 23
24 24 24
23 23 23
24 24 24
24 24 24
25 25 25
32 32 32
42 42 42
44 44 44
115 115 115
114 114 114
123 123 123
125 125 125
125 125 125
122 122 122
122 122 122
127 127 127
127 127 127
116 116 116
116 116 116
81 81 81
64 64 64
62 62 62
61 61 61
60 60 60
54 54 54
38 38 38
38 38 38
37 37 37
36 36 36
36 36 36
36 36 36
45 45 45
55 55 55
67 67 67
70 70 70
55 55 55
54 54 54
55 55 55
54 54 54
54 54 54
54 54 54
53 53 53
54 54 54
53 53 53
60 60 60
100 100 100
104 104 104
67 67 67
52 52 52
50 50 50
49 49 49
47 47 47
57 57 57
69 69 69
51 51 51
50 50 50
50 50 50
49 49 49
51 51 51
51 51 51
49 49 49
49 49 49
71 71 71
98 98 98
63 63 63
66 66 66
52 52 52
49 49 49
48 48 48
47 47 47
51 51 51
58 58 58
40 40 40
61 61 61
101 101 101
62 62 62
47 47 47
51 51 51
67 67 67
99 99 99
76 76 76
97 97 97
64 64 64
83 83 83
101 101 101
116 116 116
118 118 118
117 117 117
113 113 113
113 113 113
116 116 116
117 117 117
117 117 117
116 116 116
110 110 110
53 53 53
41 41 41
41 41 41
41 41 41
42 42 42
39 39 39
37 37 37
39 39 39
39 39 39
43 43 43
34 34 34
25 25 25
24 24 24
24 24 24
23 23 23
23 23 23
24 24 24
23 23 23
23 23 23
23 23 23
31 31 31
40 40 40
48 48 48
53 53 53
50 50 50
44 44 44
120 120 120
118 118 118
121 121 121
120 120 120
121 121 121
117 117 117
114 114 114
113 113 113
110 110 110
116 116 116
88 88 88
64 64 64
62 62 62
60 60 60
57 57 57
58 58 58
50 50 50
37 37 37
38 38 38
38 38 38
39 39 39
40 40 40
38 38 38
48 48 48
48 48 48
36 36 36
52 52 52
53 53 53
54 54 54
55 55 55
55 55 55
53 53 53
52 52 52
52 52 52
51 51 51
54 54 54
78 78 78
110 110 110
77 77 77
52 52 52
49 49 49
50 50 50
47 47 47
51 51 51
89 89 89
62 62 62
50 50 50
50 50 50
51 51 51
54 54 54
51 51 51
50 50 50
52 52 52
70 70 70
101 101 101
109 109 109
88 88 88
93 93 93
54 54 54
48 48 48
48 48 48
45 45 45
50 50 50
60 60 60
47 47 47
39 39 39
84 84 84
74 74 74
47 47 47
47 47 47
52 52 52
77 77 77
62 62 62
79 79 79
75 75 75
67 67 67
99 99 99
113 113 113
117 117 117
118 118 118
116 116 116
119 119 119
121 121 121
119 119 119
117 117 117
118 118 118
94 94 94
40 40 40
42 42 42
41 41 41
41 41 41
40 40 40
37 37 37
38 38 38
40 40 40
37 37 37
44 44 44
30 30 30
25 25 25
25 25 25
22 22 22
22 22 22
24 24 24
23 23 23
26 26 26
34 34 34
49 49 49
53 53 53
52 52 52
48 48 48
43 43 43
42 42 42
43 43 43
98 98 98
102 102 102
104 104 104
102 102 102
105 105 105
108 108 108
110 110 110
111 111 111
104 104 104
110 110 110
66 66 66
63 63 63
60 60 60
58 58 58
54 54 54
44 44 44
38 38 38
38 38 38
39 39 39
39 39 39
36 36 36
39 39 39
40 40 40
52 52 52
45 45 45
36 36 36
44 44 44
54 54 54
54 54 54
54 54 54
52 52 52
51 51 51
51 51 51
51 51 51
52 52 52
54 54 54
102 102 102
94 94 94
56 56 56
51 51 51
50 50 50
49 49 49
50 50 50
81 81 81
87 87 87
54 54 54
52 52 52
59 59 59
75 75 75
74 74 74
51 51 51
51 51 51
85 85 85
99 99 99
121 121 121
124 124 124
121 121 121
93 93 93
53 53 53
48 48 48
48 48 48
44 44 44
49 49 49
58 58 58
49 49 49
35 35 35
48 48 48
56 56 56
47 47 47
42 42 42
48 48 48
59 59 59
55 55 55
52 52 52
83 83 83
53 53 53
91 91 91
106 106 106
117 117 117
119 119 119
122 122 122
120 120 120
122 122 122
122 122 122
117 117 117
117 117 117
69 69 69
39 39 39
44 44 44
42 42 42
40 40 40
38 38 38
39 39 39
38 38 38
37 37 37
39 39 39
40 40 40
26 26 26
24 24 24
25 25 25
21 21 21
24 24 24
30 30 30
38 38 38
46 46 46
51 51 51
50 50 50
44 44 44
41 41 41
42 42 42
40 40 40
42 42 42
43 43 43
80 80 80
78 78 78
79 79 79
82 82 82
83 83 83
84 84 84
87 87 87
87 87 87
106 106 106
90 90 90
62 62 62
60 60 60
56 56 56
45 45 45
40 40 40
41 41 41
41 41 41
40 40 40
39 39 39
36 36 36
37 37 37
37 37 37
47 47 47
54 54 54
51 51 51
38 38 38
37 37 37
44 44 44
52 52 52
51 51 51
50 50 50
51 51 51
49 49 49
50 50 50
54 54 54
72 72 72
107 107 107
72 72 72
51 51 51
50 50 50
49 49 49
47 47 47
63 63 63
106 106 106
70 70 70
58 58 58
71 71 71
103 103 103
107 107 107
62 62 62
51 51 51
56 56 56
107 107 107
105 105 105
129 129 129
134 134 134
124 124 124
82 82 82
52 52 52
45 45 45
47 47 47
44 44 44
47 47 47
60 60 60
49 49 49
37 37 37
37 37 37
48 48 48
47 47 47
41 41 41
41 41 41
46 46 46
47 47 47
46 46 46
57 57 57
62 62 62
67 67 67
103 103 103
119 119 119
121 121 121
121 121 121
118 118 118
118 118 118
116 116 116
115 115 115
110 110 110
50 50 50
40 40 40
44 44 44
43 43 43
39 39 39
37 37 37
39 39 39
37 37 37
36 36 36
42 42 42
34 34 34
24 24 24
23 23 23
23 23 23
32 32 32
43 43 43
48 48 48
49 49 49
46 46 46
42 42 42
42 42 42
41 41 41
43 43 43
42 42 42
41 41 41
41 41 41
41 41 41
108 108 108
103 103 103
96 96 96
91 91 91
87 87 87
81 81 81
77 77 77
71 71 71
108 108 108
82 82 82
60 60 60
55 55 55
40 40 40
39 39 39
41 41 41
41 41 41
42 42 42
40 40 40
37 37 37
34 34 34
36 36 36
37 37 37
54 54 54
54 54 54
53 53 53
43 43 43
34 34 34
36 36 36
39 39 39
45 45 45
48 48 48
48 48 48
48 48 48
49 49 49
54 54 54
95 95 95
96 96 96
54 54 54
50 50 50
49 49 49
48 48 48
52 52 52
100 100 100
120 120 120
83 83 83
95 95 95
122 122 122
126 126 126
92 92 92
53 53 53
50 50 50
71 71 71
110 110 110
104 104 104
128 128 128
129 129 129
118 118 118
65 65 65
50 50 50
44 44 44
48 48 48
43 43 43
45 45 45
50 50 50
48 48 48
38 38 38
31 31 31
44 44 44
45 45 45
50 50 50
44 44 44
44 44 44
44 44 44
46 46 46
47 47 47
44 44 44
51 51 51
91 91 91
117 117 117
119 119 119
117 117 117
117 117 117
113 113 113
113 113 113
118 118 118
93 93 93
40 40 40
41 41 41
42 42 42
40 40 40
40 40 40
36 36 36
38 38 38
39 39 39
36 36 36
43 43 43
31 31 31
34 34 34
38 38 38
40 40 40
53 53 53
51 51 51
43 43 43
41 41 41
41 41 41
40 40 40
41 41 41
39 39 39
42 42 42
41 41 41
41 41 41
41 41 41
41 41 41
108 108 108
109 109 109
109 109 109
110 110 110
109 109 109
107 107 107
104 104 104
94 94 94
106 106 106
80 80 80
58 58 58
48 48 48
37 37 37
40 40 40
39 39 39
41 41 41
41 41 41
38 38 38
35 35 35
39 39 39
34 34 34
37 37 37
54 54 54
55 55 55
54 54 54
52 52 52
43 43 43
35 35 35
35 35 35
34 34 34
34 34 34
35 35 35
36 36 36
38 38 38
56 56 56
108 108 108
77 77 77
51 51 51
50 50 50
50 50 50
50 50 50
79 79 79
127 127 127
133 133 133
129 129 129
132 132 132
133 133 133
122 122 122
68 68 68
50 50 50
50 50 50
78 78 78
96 96 96
101 101 101
112 112 112
96 96 96
99 99 99
52 52 52
49 49 49
42 42 42
46 46 46
41 41 41
37 37 37
46 46 46
46 46 46
40 40 40
29 29 29
41 41 41
44 44 44
45 45 45
64 64 64
37 37 37
44 44 44
45 45 45
42 42 42
32 32 32
42 42 42
71 71 71
114 114 114
122 122 122
117 117 117
116 116 116
109 109 109
112 112 112
114 114 114
64 64 64
40 40 40
42 42 42
42 42 42
42 42 42
41 41 41
37 37 37
37 37 37
39 39 39
39 39 39
47 47 47
53 53 53
54 54 54
49 49 49
49 49 49
46 46 46
44 44 44
40 40 40
41 41 41
41 41 41
41 41 41
41 41 41
40 40 40
40 40 40
41 41 41
40 40 40
41 41 41
42 42 42
107 107 107
105 105 105
105 105 105
108 108 108
105 105 105
105 105 105
108 108 108
109 109 109
104 104 104
86 86 86
53 53 53
50 50 50
37 37 37
39 39 39
39 39 39
39 39 39
38 38 38
35 35 35
38 38 38
38 38 38
35 35 35
39 39 39
54 54 54
55 55 55
54 54 54
50 50 50
51 51 51
44 44 44
37 37 37
34 34 34
35 35 35
35 35 35
35 35 35
38 38 38
77 77 77
109 109 109
61 61 61
51 51 51
50 50 50
51 51 51
56 56 56
108 108 108
136 136 136
139 139 139
136 136 136
128 128 128
126 126 126
103 103 103
57 57 57
48 48 48
47 47 47
73 73 73
74 74 74
95 95 95
73 73 73
73 73 73
71 71 71
49 49 49
46 46 46
39 39 39
43 43 43
44 44 44
38 38 38
44 44 44
45 45 45
40 40 40
30 30 30
37 37 37
44 44 44
42 42 42
73 73 73
35 35 35
42 42 42
38 38 38
30 30 30
30 30 30
34 34 34
63 63 63
101 101 101
125 125 125
120 120 120
115 115 115
112 112 112
116 116 116
101 101 101
43 43 43
40 40 40
42 42 42
41 41 41
40 40 40
41 41 41
41 41 41
41 41 41
40 40 40
43 43 43
44 44 44
43 43 43
43 43 43
42 42 42
44 44 44
45 45 45
42 42 42
40 40 40
41 41 41
40 40 40
41 41 41
42 42 42
40 40 40
40 40 40
40 40 40
39 39 39
40 40 40
42 42 42
139 139 139
129 129 129
119 119 119
116 116 116
108 108 108
108 108 108
109 109 109
109 109 109
101 101 101
108 108 108
59 59 59
54 54 54
37 37 37
36 36 36
37 37 37
38 38 38
38 38 38
44 44 44
48 48 48
43 43 43
37 37 37
38 38 38
54 54 54
54 54 54
54 54 54
49 49 49
52 52 52
51 51 51
49 49 49
45 45 45
38 38 38
34 34 34
35 35 35
40 40 40
103 103 103
97 97 97
58 58 58
50 50 50
50 50 50
53 53 53
71 71 71
128 128 128
138 138 138
136 136 136
122 122 122
80 80 80
103 103 103
81 81 81
51 51 51
47 47 47
68 68 68
54 54 54
54 54 54
61 61 61
52 52 52
51 51 51
50 50 50
48 48 48
47 47 47
38 38 38
41 41 41
51 51 51
54 54 54
40 40 40
44 44 44
41 41 41
30 30 30
34 34 34
42 42 42
42 42 42
64 64 64
56 56 56
31 31 31
29 29 29
27 27 27
29 29 29
28 28 28
53 53 53
84 84 84
122 122 122
121 121 121
118 118 118
114 114 114
117 117 117
77 77 77
39 39 39
42 42 42
42 42 42
41 41 41
40 40 40
43 43 43
43 43 43
43 43 43
41 41 41
46 46 46
42 42 42
41 41 41
42 42 42
41 41 41
44 44 44
44 44 44
43 43 43
41 41 41
40 40 40
40 40 40
42 42 42
40 40 40
40 40 40
40 40 40
41 41 41
39 39 39
38 38 38
39 39 39
158 158 158
159 159 159
163 163 163
161 161 161
152 152 152
144 144 144
132 132 132
121 121 121
108 108 108
111 111 111
101 101 101
71 71 71
51 51 51
46 46 46
45 45 45
47 47 47
53 53 53
55 55 55
50 50 50
41 41 41
35 35 35
35 35 35
52 52 52
54 54 54
54 54 54
52 52 52
44 44 44
51 51 51
51 51 51
49 49 49
49 49 49
49 49 49
51 51 51
67 67 67
114 114 114
86 86 86
53 53 53
48 48 48
49 49 49
52 52 52
83 83 83
133 133 133
138 138 138
128 128 128
82 82 82
56 56 56
84 84 84
64 64 64
49 49 49
49 49 49
80 80 80
46 46 46
48 48 48
48 48 48
47 47 47
48 48 48
48 48 48
47 47 47
46 46 46
37 37 37
39 39 39
52 52 52
67 67 67
37 37 37
44 44 44
41 41 41
30 30 30
31 31 31
31 31 31
30 30 30
47 47 47
74 74 74
29 29 29
28 28 28
27 27 27
27 27 27
27 27 27
42 42 42
75 75 75
114 114 114
116 116 116
117 117 117
116 116 116
112 112 112
54 54 54
39 39 39
42 42 42
41 41 41
41 41 41
40 40 40
42 42 42
42 42 42
42 42 42
41 41 41
47 47 47
40 40 40
42 42 42
41 41 41
39 39 39
44 44 44
42 42 42
42 42 42
41 41 41
41 41 41
41 41 41
42 42 42
41 41 41
41 41 41
41 41 41
39 39 39
39 39 39
39 39 39
37 37 37
108 108 108
120 120 120
138 138 138
149 149 149
155 155 155
161 161 161
164 164 164
157 157 157
137 137 137
130 130 130
117 117 117
98 98 98
61 61 61
60 60 60
58 58 58
56 56 56
55 55 55
51 51 51
51 51 51
40 40 40
36 36 36
34 34 34
46 46 46
55 55 55
54 54 54
54 54 54
43 43 43
42 42 42
50 50 50
50 50 50
50 50 50
51 51 51
56 56 56
91 91 91
116 116 116
76 76 76
52 52 52
45 45 45
47 47 47
47 47 47
79 79 79
129 129 129
127 127 127
88 88 88
53 53 53
51 51 51
59 59 59
51 51 51
48 48 48
71 71 71
73 73 73
46 46 46
47 47 47
47 47 47
48 48 48
48 48 48
47 47 47
47 47 47
45 45 45
35 35 35
36 36 36
52 52 52
78 78 78
32 32 32
39 39 39
32 32 32
27 27 27
29 29 29
29 29 29
30 30 30
38 38 38
82 82 82
31 31 31
28 28 28
29 29 29
28 28 28
26 26 26
40 40 40
71 71 71
107 107 107
118 118 118
119 119 119
123 123 123
101 101 101
43 43 43
39 39 39
39 39 39
41 41 41
42 42 42
43 43 43
41 41 41
38 38 38
37 37 37
40 40 40
44 44 44
42 42 42
41 41 41
39 39 39
39 39 39
42 42 42
40 40 40
42 42 42
41 41 41
41 41 41
40 40 40
40 40 40
41 41 41
39 39 39
40 40 40
38 38 38
36 36 36
37 37 37
37 37 37
69 69 69
69 69 69
74 74 74
81 81 81
89 89 89
105 105 105
123 123 123
132 132 132
139 139 139
147 147 147
153 153 153
145 145 145
125 125 125
85 85 85
71 71 71
80 80 80
92 92 92
70 70 70
50 50 50
36 36 36
36 36 36
34 34 34
40 40 40
52 52 52
51 51 51
54 54 54
49 49 49
36 36 36
36 36 36
45 45 45
48 48 48
51 51 51
60 60 60
105 105 105
115 115 115
65 65 65
53 53 53
45 45 45
48 48 48
42 42 42
66 66 66
109 109 109
89 89 89
45 45 45
48 48 48
49 49 49
48 48 48
48 48 48
49 49 49
89 89 89
61 61 61
47 47 47
47 47 47
47 47 47
47 47 47
47 47 47
46 46 46
46 46 46
44 44 44
35 35 35
33 33 33
54 54 54
84 84 84
27 27 27
31 31 31
29 29 29
25 25 25
28 28 28
29 29 29
30 30 30
35 35 35
84 84 84
38 38 38
27 27 27
27 27 27
26 26 26
33 33 33
43 43 43
66 66 66
106 106 106
120 120 120
120 120 120
124 124 124
77 77 77
41 41 41
40 40 40
38 38 38
40 40 40
43 43 43
41 41 41
40 40 40
37 37 37
34 34 34
41 41 41
43 43 43
41 41 41
41 41 41
38 38 38
39 39 39
41 41 41
40 40 40
42 42 42
41 41 41
41 41 41
41 41 41
41 41 41
40 40 40
37 37 37
39 39 39
37 37 37
35 35 35
36 36 36
37 37 37
125 125 125
107 107 107
87 87 87
75 75 75
68 68 68
66 66 66
68 68 68
74 74 74
82 82 82
88 88 88
96 96 96
102 102 102
126 126 126
104 104 104
90 90 90
107 107 107
107 107 107
69 69 69
47 47 47
35 35 35
36 36 36
35 35 35
37 37 37
51 51 51
50 50 50
52 52 52
51 51 51
46 46 46
35 35 35
34 34 34
36 36 36
41 41 41
62 62 62
115 115 115
113 113 113
59 59 59
51 51 51
44 44 44
46 46 46
39 39 39
52 52 52
62 62 62
52 52 52
38 38 38
48 48 48
50 50 50
50 50 50
48 48 48
53 53 53
96 96 96
53 53 53
46 46 46
47 47 47
48 48 48
47 47 47
47 47 47
46 46 46
45 45 45
43 43 43
31 31 31
30 30 30
59 59 59
88 88 88
24 24 24
27 27 27
26 26 26
24 24 24
30 30 30
30 30 30
29 29 29
35 35 35
90 90 90
43 43 43
28 28 28
38 38 38
26 26 26
30 30 30
42 42 42
62 62 62
103 103 103
119 119 119
123 123 123
114 114 114
47 47 47
40 40 40
40 40 40
38 38 38
39 39 39
41 41 41
38 38 38
39 39 39
38 38 38
37 37 37
42 42 42
43 43 43
42 42 42
40 40 40
40 40 40
40 40 40
41 41 41
40 40 40
39 39 39
41 41 41
41 41 41
42 42 42
41 41 41
38 38 38
38 38 38
37 37 37
36 36 36
34 34 34
34 34 34
34 34 34
145 145 145
148 148 148
144 144 144
142 142 142
137 137 137
128 128 128
110 110 110
94 94 94
82 82 82
71 71 71
62 62 62
52 52 52
99 99 99
104 104 104
94 94 94
111 111 111
107 107 107
64 64 64
47 47 47
36 36 36
34 34 34
33 33 33
35 35 35
47 47 47
51 51 51
51 51 51
50 50 50
50 50 50
46 46 46
37 37 37
33 33 33
37 37 37
69 69 69
123 123 123
107 107 107
56 56 56
49 49 49
45 45 45
46 46 46
36 36 36
47 47 47
49 49 49
44 44 44
37 37 37
48 48 48
49 49 49
49 49 49
47 47 47
55 55 55
99 99 99
51 51 51
45 45 45
46 46 46
46 46 46
45 45 45
44 44 44
44 44 44
43 43 43
39 39 39
36 36 36
31 31 31
65 65 65
89 89 89
26 26 26
30 30 30
28 28 28
25 25 25
28 28 28
28 28 28
30 30 30
37 37 37
98 98 98
49 49 49
68 68 68
95 95 95
26 26 26
28 28 28
42 42 42
56 56 56
102 102 102
122 122 122
125 125 125
89 89 89
37 37 37
39 39 39
40 40 40
39 39 39
39 39 39
40 40 40
38 38 38
40 40 40
38 38 38
40 40 40
40 40 40
43 43 43
42 42 42
40 40 40
41 41 41
41 41 41
41 41 41
41 41 41
41 41 41
41 41 41
42 42 42
42 42 42
40 40 40
37 37 37
37 37 37
37 37 37
34 34 34
31 31 31
36 36 36
38 38 38
156 156 156
160 160 160
157 157 157
150 150 150
146 146 146
143 143 143
143 143 143
146 146 146
143 143 143
137 137 137
126 126 126
107 107 107
113 113 113
105 105 105
96 96 96
117 117 117
105 105 105
59 59 59
47 47 47
35 35 35
35 35 35
34 34 34
35 35 35
44 44 44
50 50 50
51 51 51
50 50 50
50 50 50
50 50 50
48 48 48
39 39 39
39 39 39
87 87 87
126 126 126
99 99 99
54 54 54
49 49 49
45 45 45
45 45 45
32 32 32
47 47 47
48 48 48
39 39 39
36 36 36
45 45 45
46 46 46
47 47 47
46 46 46
61 61 61
99 99 99
48 48 48
39 39 39
36 36 36
38 38 38
38 38 38
37 37 37
35 35 35
32 32 32
33 33 33
52 52 52
32 32 32
71 71 71
91 91 91
26 26 26
30 30 30
29 29 29
25 25 25
29 29 29
30 30 30
30 30 30
55 55 55
112 112 112
100 100 100
114 114 114
107 107 107
31 31 31
28 28 28
41 41 41
50 50 50
100 100 100
122 122 122
121 121 121
62 62 62
38 38 38
39 39 39
40 40 40
41 41 41
42 42 42
40 40 40
40 40 40
39 39 39
39 39 39
43 43 43
40 40 40
40 40 40
40 40 40
40 40 40
41 41 41
40 40 40
41 41 41
41 41 41
43 43 43
41 41 41
41 41 41
40 40 40
38 38 38
37 37 37
36 36 36
35 35 35
34 34 34
30 30 30
46 46 46
39 39 39
156 156 156
164 164 164
173 173 173
169 169 169
160 160 160
151 151 151
138 138 138
124 124 124
124 124 124
138 138 138
145 145 145
146 146 146
143 143 143
109 109 109
97 97 97
120 120 120
101 101 101
57 57 57
47 47 47
36 36 36
34 34 34
33 33 33
35 35 35
39 39 39
50 50 50
50 50 50
50 50 50
50 50 50
50 50 50
50 50 50
50 50 50
49 49 49
106 106 106
126 126 126
88 88 88
52 52 52
47 47 47
45 45 45
43 43 43
30 30 30
46 46 46
46 46 46
34 34 34
35 35 35
43 43 43
36 36 36
43 43 43
44 44 44
73 73 73
96 96 96
41 41 41
29 29 29
30 30 30
30 30 30
30 30 30
30 30 30
29 29 29
29 29 29
36 36 36
64 64 64
31 31 31
76 76 76
91 91 91
27 27 27
29 29 29
29 29 29
26 26 26
30 30 30
38 38 38
75 75 75
116 116 116
122 122 122
126 126 126
144 144 144
163 163 163
33 33 33
29 29 29
40 40 40
47 47 47
96 96 96
122 122 122
113 113 113
46 46 46
40 40 40
40 40 40
40 40 40
41 41 41
40 40 40
39 39 39
37 37 37
38 38 38
40 40 40
43 43 43
39 39 39
40 40 40
39 39 39
42 42 42
42 42 42
40 40 40
40 40 40
42 42 42
42 42 42
41 41 41
40 40 40
38 38 38
37 37 37
36 36 36
36 36 36
40 40 40
43 43 43
38 38 38
41 41 41
34 34 34
128 128 128
148 148 148
159 159 159
148 148 148
135 135 135
135 135 135
150 150 150
162 162 162
164 164 164
162 162 162
159 159 159
149 149 149
141 141 141
109 109 109
98 98 98
122 122 122
95 95 95
56 56 56
49 49 49
38 38 38
32 32 32
32 32 32
34 34 34
34 34 34
48 48 48
50 50 50
50 50 50
50 50 50
50 50 50
50 50 50
51 51 51
56 56 56
120 120 120
125 125 125
75 75 75
50 50 50
47 47 47
45 45 45
40 40 40
29 29 29
43 43 43
36 36 36
27 27 27
32 32 32
33 33 33
31 31 31
32 32 32
32 32 32
90 90 90
89 89 89
33 33 33
30 30 30
31 31 31
32 32 32
31 31 31
29 29 29
30 30 30
31 31 31
43 43 43
72 72 72
32 32 32
83 83 83
92 92 92
28 28 28
30 30 30
32 32 32
32 32 32
58 58 58
105 105 105
120 120 120
126 126 126
145 145 145
171 171 171
184 184 184
170 170 170
24 24 24
27 27 27
38 38 38
46 46 46
91 91 91
125 125 125
90 90 90
40 40 40
41 41 41
42 42 42
40 40 40
40 40 40
40 40 40
40 40 40
40 40 40
39 39 39
43 43 43
41 41 41
42 42 42
41 41 41
40 40 40
42 42 42
40 40 40
38 38 38
39 39 39
41 41 41
41 41 41
40 40 40
39 39 39
38 38 38
39 39 39
39 39 39
38 38 38
38 38 38
39 39 39
37 37 37
35 35 35
33 33 33
73 73 73
78 78 78
88 88 88
89 89 89
104 104 104
131 131 131
147 147 147
157 157 157
162 162 162
167 167 167
168 168 168
157 157 157
148 148 148
111 111 111
102 102 102
124 124 124
89 89 89
56 56 56
50 50 50
40 40 40
32 32 32
34 34 34
34 34 34
33 33 33
40 40 40
49 49 49
50 50 50
50 50 50
50 50 50
49 49 49
52 52 52
68 68 68
124 124 124
120 120 120
64 64 64
49 49 49
46 46 46
44 44 44
36 36 36
28 28 28
38 38 38
30 30 30
27 27 27
30 30 30
31 31 31
31 31 31
31 31 31
28 28 28
101 101 101
82 82 82
30 30 30
29 29 29
31 31 31
31 31 31
29 29 29
29 29 29
29 29 29
29 29 29
72 72 72
75 75 75
35 35 35
94 94 94
90 90 90
34 34 34
48 48 48
88 88 88
135 135 135
150 150 150
145 145 145
156 156 156
166 166 166
162 162 162
158 158 158
162 162 162
147 147 147
21 21 21
28 28 28
36 36 36
44 44 44
86 86 86
119 119 119
57 57 57
41 41 41
39 39 39
41 41 41
40 40 40
42 42 42
41 41 41
40 40 40
40 40 40
40 40 40
45 45 45
43 43 43
43 43 43
42 42 42
40 40 40
39 39 39
37 37 37
37 37 37
35 35 35
34 34 34
35 35 35
36 36 36
38 38 38
40 40 40
37 37 37
35 35 35
37 37 37
37 37 37
36 36 36
35 35 35
35 35 35
32 32 32
87 87 87
71 71 71
63 63 63
62 62 62
65 65 65
72 72 72
79 79 79
91 91 91
104 104 104
121 121 121
132 132 132
131 131 131
132 132 132
109 109 109
107 107 107
125 125 125
84 84 84
56 56 56
50 50 50
43 43 43
33 33 33
32 32 32
34 34 34
33 33 33
34 34 34
46 46 46
48 48 48
49 49 49
48 48 48
48 48 48
52 52 52
79 79 79
125 125 125
116 116 116
62 62 62
49 49 49
46 46 46
43 43 43
33 33 33
29 29 29
31 31 31
29 29 29
27 27 27
31 31 31
30 30 30
30 30 30
31 31 31
31 31 31
109 109 109
77 77 77
30 30 30
28 28 28
29 29 29
30 30 30
29 29 29
30 30 30
30 30 30
30 30 30
106 106 106
66 66 66
43 43 43
120 120 120
110 110 110
102 102 102
102 102 102
143 143 143
189 189 189
169 169 169
174 174 174
161 161 161
125 125 125
106 106 106
112 112 112
122 122 122
109 109 109
22 22 22
27 27 27
35 35 35
40 40 40
80 80 80
93 93 93
39 39 39
40 40 40
39 39 39
40 40 40
39 39 39
41 41 41
41 41 41
39 39 39
39 39 39
45 45 45
45 45 45
45 45 45
44 44 44
42 42 42
38 38 38
36 36 36
37 37 37
36 36 36
33 33 33
38 38 38
41 41 41
38 38 38
37 37 37
37 37 37
37 37 37
36 36 36
35 35 35
33 33 33
33 33 33
34 34 34
34 34 34
34 34 34
169 169 169
151 151 151
133 133 133
114 114 114
97 97 97
80 80 80
68 68 68
60 60 60
58 58 58
61 61 61
63 63 63
62 62 62
94 94 94
105 105 105
115 115 115
126 126 126
81 81 81
56 56 56
52 52 52
47 47 47
34 34 34
30 30 30
33 33 33
33 33 33
33 33 33
40 40 40
48 48 48
49 49 49
48 48 48
48 48 48
51 51 51
81 81 81
123 123 123
112 112 112
58 58 58
48 48 48
45 45 45
41 41 41
32 32 32
29 29 29
30 30 30
29 29 29
27 27 27
31 31 31
31 31 31
29 29 29
28 28 28
41 41 41
112 112 112
72 72 72
29 29 29
28 28 28
29 29 29
30 30 30
31 31 31
31 31 31
37 37 37
74 74 74
124 124 124
117 117 117
119 119 119
153 153 153
134 134 134
120 120 120
128 128 128
175 175 175
165 165 165
159 159 159
156 156 156
76 76 76
27 27 27
59 59 59
76 76 76
97 97 97
84 84 84
23 23 23
28 28 28
35 35 35
39 39 39
68 68 68
56 56 56
36 36 36
40 40 40
41 41 41
41 41 41
39 39 39
40 40 40
40 40 40
39 39 39
40 40 40
46 46 46
42 42 42
43 43 43
43 43 43
41 41 41
36 36 36
36 36 36
37 37 37
39 39 39
43 43 43
42 42 42
39 39 39
37 37 37
37 37 37
38 38 38
38 38 38
38 38 38
35 35 35
32 32 32
32 32 32
33 33 33
37 37 37
33 33 33
167 167 167
170 170 170
166 166 166
166 166 166
164 164 164
160 160 160
151 151 151
133 133 133
114 114 114
95 95 95
74 74 74
55 55 55
84 84 84
105 105 105
127 127 127
128 128 128
79 79 79
57 57 57
54 54 54
47 47 47
39 39 39
32 32 32
31 31 31
31 31 31
33 33 33
34 34 34
45 45 45
49 49 49
48 48 48
48 48 48
50 50 50
81 81 81
119 119 119
109 109 109
53 53 53
46 46 46
42 42 42
41 41 41
30 30 30
29 29 29
31 31 31
28 28 28
26 26 26
30 30 30
30 30 30
30 30 30
31 31 31
50 50 50
101 101 101
60 60 60
31 31 31
31 31 31
32 32 32
32 32 32
39 39 39
71 71 71
106 106 106
126 126 126
138 138 138
180 180 180
142 142 142
166 166 166
155 155 155
161 161 161
173 173 173
173 173 173
182 182 182
96 96 96
46 46 46
29 29 29
23 23 23
18 18 18
47 47 47
93 93 93
72 72 72
24 24 24
27 27 27
34 34 34
39 39 39
59 59 59
44 44 44
38 38 38
39 39 39
40 40 40
41 41 41
40 40 40
40 40 40
39 39 39
38 38 38
43 43 43
45 45 45
42 42 42
42 42 42
43 43 43
40 40 40
37 37 37
38 38 38
38 38 38
36 36 36
36 36 36
37 37 37
37 37 37
38 38 38
38 38 38
38 38 38
38 38 38
37 37 37
37 37 37
33 33 33
33 33 33
34 34 34
36 36 36
33 33 33
135 135 135
134 134 134
135 135 135
146 146 146
165 165 165
169 169 169
168 168 168
164 164 164
166 166 166
163 163 163
150 150 150
131 131 131
122 122 122
112 112 112
130 130 130
128 128 128
80 80 80
56 56 56
54 54 54
49 49 49
41 41 41
33 33 33
31 31 31
32 32 32
31 31 31
31 31 31
34 34 34
46 46 46
48 48 48
48 48 48
50 50 50
80 80 80
118 118 118
106 106 106
49 49 49
46 46 46
42 42 42
41 41 41
28 28 28
31 31 31
31 31 31
28 28 28
26 26 26
28 28 28
30 30 30
31 31 31
32 32 32
45 45 45
78 78 78
67 67 67
60 60 60
66 66 66
79 79 79
99 99 99
120 120 120
130 130 130
135 135 135
145 145 145
168 168 168
188 188 188
155 155 155
196 196 196
202 202 202
200 200 200
172 172 172
174 174 174
94 94 94
30 30 30
35 35 35
98 98 98
119 119 119
53 53 53
29 29 29
70 70 70
76 76 76
26 26 26
27 27 27
32 32 32
37 37 37
55 55 55
45 45 45
38 38 38
40 40 40
40 40 40
40 40 40
39 39 39
38 38 38
39 39 39
37 37 37
43 43 43
44 44 44
42 42 42
40 40 40
43 43 43
41 41 41
40 40 40
35 35 35
36 36 36
37 37 37
37 37 37
38 38 38
38 38 38
38 38 38
38 38 38
38 38 38
37 37 37
35 35 35
36 36 36
35 35 35
35 35 35
33 33 33
34 34 34
33 33 33
100 100 100
110 110 110
122 122 122
135 135 135
155 155 155
161 161 161
162 162 162
163 163 163
159 159 159
158 158 158
153 153 153
148 148 148
134 134 134
123 123 123
131 131 131
126 126 126
81 81 81
57 57 57
54 54 54
51 51 51
45 45 45
36 36 36
32 32 32
28 28 28
29 29 29
30 30 30
31 31 31
36 36 36
46 46 46
48 48 48
50 50 50
76 76 76
115 115 115
104 104 104
45 45 45
46 46 46
43 43 43
39 39 39
28 28 28
30 30 30
29 29 29
29 29 29
29 29 29
30 30 30
30 30 30
37 37 37
63 63 63
97 97 97
127 127 127
156 156 156
129 129 129
127 127 127
130 130 130
121 121 121
135 135 135
167 167 167
189 189 189
197 197 197
205 205 205
203 203 203
198 198 198
206 206 206
204 204 204
194 194 194
174 174 174
98 98 98
41 41 41
50 50 50
54 54 54
126 126 126
179 179 179
114 114 114
59 59 59
103 103 103
94 94 94
27 27 27
25 25 25
33 33 33
37 37 37
51 51 51
46 46 46
38 38 38
40 40 40
40 40 40
39 39 39
40 40 40
39 39 39
38 38 38
36 36 36
43 43 43
40 40 40
41 41 41
41 41 41
44 44 44
40 40 40
37 37 37
36 36 36
37 37 37
37 37 37
36 36 36
38 38 38
38 38 38
38 38 38
37 37 37
37 37 37
37 37 37
35 35 35
33 33 33
33 33 33
34 34 34
32 32 32
33 33 33
32 32 32
71 71 71
75 75 75
93 93 93
122 122 122
133 133 133
140 140 140
141 141 141
150 150 150
147 147 147
137 137 137
135 135 135
136 136 136
113 113 113
127 127 127
127 127 127
116 116 116
97 97 97
51 51 51
53 53 53
52 52 52
47 47 47
42 42 42
32 32 32
30 30 30
28 28 28
28 28 28
29 29 29
30 30 30
32 32 32
40 40 40
45 45 45
72 72 72
112 112 112
103 103 103
42 42 42
44 44 44
43 43 43
39 39 39
30 30 30
31 31 31
39 39 39
55 55 55
66 66 66
84 84 84
103 103 103
119 119 119
128 128 128
130 130 130
136 136 136
174 174 174
152 152 152
157 157 157
162 162 162
151 151 151
138 138 138
184 184 184
207 207 207
208 208 208
207 207 207
208 208 208
207 207 207
207 207 207
205 205 205
199 199 199
139 139 139
110 110 110
91 91 91
69 69 69
65 65 65
137 137 137
207 207 207
164 164 164
90 90 90
116 116 116
104 104 104
29 29 29
25 25 25
32 32 32
36 36 36
48 48 48
44 44 44
39 39 39
40 40 40
40 40 40
40 40 40
39 39 39
39 39 39
38 38 38
44 44 44
41 41 41
40 40 40
41 41 41
41 41 41
41 41 41
38 38 38
36 36 36
34 34 34
35 35 35
34 34 34
34 34 34
37 37 37
37 37 37
37 37 37
37 37 37
37 37 37
36 36 36
34 34 34
33 33 33
33 33 33
32 32 32
31 31 31
32 32 32
30 30 30
70 70 70
72 72 72
77 77 77
78 78 78
78 78 78
80 80 80
82 82 82
85 85 85
91 91 91
104 104 104
115 115 115
111 111 111
120 120 120
119 119 119
113 113 113
113 113 113
111 111 111
65 65 65
45 45 45
51 51 51
49 49 49
46 46 46
37 37 37
30 30 30
29 29 29
27 27 27
28 28 28
30 30 30
30 30 30
30 30 30
33 33 33
64 64 64
109 109 109
103 103 103
42 42 42
41 41 41
43 43 43
40 40 40
76 76 76
98 98 98
111 111 111
120 120 120
124 124 124
128 128 128
129 129 129
131 131 131
139 139 139
157 157 157
175 175 175
187 187 187
177 177 177
175 175 175
182 182 182
196 196 196
195 195 195
203 203 203
207 207 207
208 208 208
208 208 208
207 207 207
207 207 207
207 207 207
206 206 206
199 199 199
126 126 126
189 189 189
146 146 146
79 79 79
73 73 73
141 141 141
211 211 211
178 178 178
133 133 133
135 135 135
111 111 111
32 32 32
26 26 26
32 32 32
33 33 33
42 42 42
38 38 38
38 38 38
41 41 41
41 41 41
40 40 40
40 40 40
39 39 39
40 40 40
46 46 46
41 41 41
42 42 42
40 40 40
42 42 42
40 40 40
36 36 36
35 35 35
34 34 34
34 34 34
32 32 32
31 31 31
36 36 36
36 36 36
34 34 34
36 36 36
37 37 37
34 34 34
32 32 32
34 34 34
32 32 32
29 29 29
26 26 26
31 31 31
30 30 30
44 44 44
47 47 47
53 53 53
59 59 59
68 68 68
73 73 73
74 74 74
74 74 74
70 70 70
68 68 68
68 68 68
104 104 104
115 115 115
79 79 79
71 71 71
105 105 105
105 105 105
103 103 103
58 58 58
40 40 40
44 44 44
43 43 43
42 42 42
32 32 32
31 31 31
31 31 31
28 28 28
28 28 28
30 30 30
30 30 30
32 32 32
53 53 53
107 107 107
105 105 105
45 45 45
39 39 39
44 44 44
40 40 40
130 130 130
138 138 138
138 138 138
138 138 138
139 139 139
134 134 134
135 135 135
153 153 153
168 168 168
173 173 173
170 170 170
191 191 191
198 198 198
180 180 180
176 176 176
189 189 189
205 205 205
208 208 208
208 208 208
208 208 208
208 208 208
208 208 208
207 207 207
207 207 207
204 204 204
195 195 195
88 88 88
123 123 123
74 74 74
65 65 65
90 90 90
159 159 159
213 213 213
181 181 181
158 158 158
151 151 151
120 120 120
36 36 36
25 25 25
32 32 32
33 33 33
32 32 32
36 36 36
36 36 36
40 40 40
40 40 40
39 39 39
39 39 39
39 39 39
43 43 43
45 45 45
42 42 42
42 42 42
40 40 40
41 41 41
40 40 40
35 35 35
34 34 34
34 34 34
33 33 33
32 32 32
34 34 34
36 36 36
35 35 35
34 34 34
36 36 36
33 33 33
32 32 32
32 32 32
31 31 31
29 29 29
27 27 27
34 34 34
39 39 39
34 34 34
44 44 44
42 42 42
41 41 41
42 42 42
43 43 43
46 46 46
50 50 50
55 55 55
61 61 61
69 69 69
86 86 86
117 117 117
86 86 86
60 60 60
57 57 57
66 66 66
92 92 92
100 100 100
93 93 93
56 56 56
36 36 36
35 35 35
31 31 31
31 31 31
31 31 31
31 31 31
30 30 30
30 30 30
28 28 28
28 28 28
31 31 31
41 41 41
103 103 103
106 106 106
54 54 54
36 36 36
43 43 43
41 41 41
169 169 169
172 172 172
159 159 159
153 153 153
151 151 151
140 140 140
136 136 136
127 127 127
116 116 116
109 109 109
94 94 94
130 130 130
142 142 142
175 175 175
198 198 198
191 191 191
207 207 207
208 208 208
208 208 208
208 208 208
208 208 208
208 208 208
207 207 207
206 206 206
204 204 204
185 185 185
131 131 131
77 77 77
84 84 84
74 74 74
166 166 166
202 202 202
212 212 212
175 175 175
174 174 174
160 160 160
120 120 120
38 38 38
24 24 24
32 32 32
33 33 33
32 32 32
37 37 37
38 38 38
40 40 40
39 39 39
38 38 38
37 37 37
39 39 39
45 45 45
42 42 42
41 41 41
42 42 42
41 41 41
41 41 41
39 39 39
34 34 34
34 34 34
35 35 35
35 35 35
36 36 36
38 38 38
38 38 38
37 37 37
36 36 36
35 35 35
34 34 34
33 33 33
31 31 31
30 30 30
31 31 31
33 33 33
37 37 37
36 36 36
31 31 31
41 41 41
41 41 41
41 41 41
40 40 40
41 41 41
40 40 40
40 40 40
41 41 41
41 41 41
44 44 44
106 106 106
119 119 119
73 73 73
57 57 57
54 54 54
55 55 55
57 57 57
73 73 73
85 85 85
81 81 81
45 45 45
33 33 33
32 32 32
31 31 31
32 32 32
31 31 31
30 30 30
29 29 29
32 32 32
31 31 31
30 30 30
30 30 30
99 99 99
104 104 104
65 65 65
31 31 31
43 43 43
41 41 41
137 137 137
137 137 137
121 121 121
102 102 102
67 67 67
32 32 32
31 31 31
33 33 33
31 31 31
31 31 31
31 31 31
29 29 29
45 45 45
59 59 59
152 152 152
197 197 197
207 207 207
208 208 208
209 209 209
208 208 208
207 207 207
208 208 208
207 207 207
208 208 208
206 206 206
198 198 198
194 194 194
119 119 119
152 152 152
120 120 120
124 124 124
212 212 212
199 199 199
176 176 176
187 187 187
164 164 164
116 116 116
42 42 42
24 24 24
32 32 32
33 33 33
32 32 32
36 36 36
37 37 37
40 40 40
39 39 39
38 38 38
39 39 39
40 40 40
44 44 44
40 40 40
41 41 41
42 42 42
41 41 41
42 42 42
41 41 41
36 36 36
36 36 36
36 36 36
36 36 36
39 39 39
38 38 38
38 38 38
37 37 37
36 36 36
33 33 33
34 34 34
32 32 32
33 33 33
35 35 35
34 34 34
31 31 31
33 33 33
32 32 32
29 29 29
44 44 44
43 43 43
42 42 42
41 41 41
42 42 42
42 42 42
43 43 43
43 43 43
42 42 42
43 43 43
98 98 98
120 120 120
83 83 83
55 55 55
54 54 54
54 54 54
55 55 55
54 54 54
55 55 55
63 63 63
69 69 69
64 64 64
49 49 49
37 37 37
34 34 34
33 33 33
35 35 35
33 33 33
32 32 32
32 32 32
33 33 33
32 32 32
87 87 87
104 104 104
76 76 76
31 31 31
38 38 38
41 41 41
99 99 99
102 102 102
80 80 80
48 48 48
41 41 41
128 128 128
153 153 153
58 58 58
50 50 50
48 48 48
46 46 46
32 32 32
117 117 117
111 111 111
86 86 86
186 186 186
207 207 207
208 208 208
208 208 208
207 207 207
207 207 207
208 208 208
207 207 207
208 208 208
207 207 207
204 204 204
204 204 204
144 144 144
107 107 107
95 95 95
183 183 183
209 209 209
185 185 185
188 188 188
192 192 192
164 164 164
117 117 117
91 91 91
34 34 34
33 33 33
36 36 36
31 31 31
36 36 36
35 35 35
38 38 38
38 38 38
38 38 38
38 38 38
41 41 41
42 42 42
41 41 41
42 42 42
43 43 43
41 41 41
41 41 41
41 41 41
41 41 41
40 40 40
37 37 37
37 37 37
39 39 39
36 36 36
37 37 37
36 36 36
33 33 33
32 32 32
35 35 35
34 34 34
33 33 33
32 32 32
31 31 31
31 31 31
33 33 33
31 31 31
28 28 28
131 131 131
109 109 109
86 86 86
70 70 70
57 57 57
49 49 49
44 44 44
44 44 44
45 45 45
45 45 45
68 68 68
113 113 113
94 94 94
54 54 54
52 52 52
53 53 53
51 51 51
51 51 51
52 52 52
50 50 50
48 48 48
53 53 53
69 69 69
79 79 79
79 79 79
55 55 55
37 37 37
36 36 36
36 36 36
36 36 36
36 36 36
37 37 37
70 70 70
106 106 106
86 86 86
31 31 31
33 33 33
37 37 37
85 85 85
66 66 66
30 30 30
68 68 68
80 80 80
183 183 183
197 197 197
93 93 93
82 82 82
62 62 62
66 66 66
60 60 60
100 100 100
180 180 180
172 172 172
146 146 146
204 204 204
207 207 207
207 207 207
206 206 206
207 207 207
208 208 208
209 209 209
207 207 207
208 208 208
204 204 204
203 203 203
209 209 209
185 185 185
198 198 198
204 204 204
174 174 174
193 193 193
195 195 195
194 194 194
165 165 165
118 118 118
112 112 112
47 47 47
34 34 34
36 36 36
33 33 33
35 35 35
34 34 34
36 36 36
38 38 38
38 38 38
39 39 39
43 43 43
41 41 41
41 41 41
42 42 42
43 43 43
41 41 41
40 40 40
41 41 41
40 40 40
39 39 39
36 36 36
35 35 35
37 37 37
36 36 36
35 35 35
34 34 34
38 38 38
38 38 38
35 35 35
32 32 32
32 32 32
33 33 33
33 33 33
33 33 33
33 33 33
31 31 31
28 28 28
172 172 172
171 171 171
165 165 165
154 154 154
134 134 134
112 112 112
89 89 89
67 67 67
52 52 52
45 45 45
45 45 45
97 97 97
101 101 101
56 56 56
50 50 50
50 50 50
50 50 50
50 50 50
50 50 50
50 50 50
50 50 50
51 51 51
48 48 48
48 48 48
48 48 48
49 49 49
51 51 51
72 72 72
95 95 95
75 75 75
45 45 45
42 42 42
114 114 114
103 103 103
95 95 95
35 35 35
31 31 31
34 34 34
46 46 46
27 27 27
69 69 69
152 152 152
103 103 103
98 98 98
107 107 107
76 76 76
64 64 64
60 60 60
64 64 64
77 77 77
98 98 98
213 213 213
207 207 207
201 201 201
207 207 207
208 208 208
208 208 208
207 207 207
207 207 207
207 207 207
208 208 208
207 207 207
208 208 208
204 204 204
204 204 204
204 204 204
186 186 186
185 185 185
190 190 190
197 197 197
199 199 199
196 196 196
194 194 194
165 165 165
121 121 121
98 98 98
41 41 41
32 32 32
35 35 35
33 33 33
34 34 34
34 34 34
36 36 36
36 36 36
39 39 39
41 41 41
40 40 40
39 39 39
40 40 40
41 41 41
40 40 40
38 38 38
39 39 39
40 40 40
40 40 40
38 38 38
35 35 35
36 36 36
35 35 35
31 31 31
36 36 36
40 40 40
39 39 39
36 36 36
33 33 33
34 34 34
33 33 33
33 33 33
32 32 32
33 33 33
33 33 33
31 31 31
28 28 28
152 152 152
156 156 156
156 156 156
154 154 154
156 156 156
155 155 155
151 151 151
145 145 145
132 132 132
112 112 112
88 88 88
79 79 79
100 100 100
65 65 65
49 49 49
50 50 50
50 50 50
50 50 50
50 50 50
50 50 50
51 51 51
50 50 50
49 49 49
50 50 50
51 51 51
55 55 55
116 116 116
194 194 194
203 203 203
203 203 203
179 179 179
140 140 140
183 183 183
105 105 105
99 99 99
45 45 45
31 31 31
31 31 31
39 39 39
22 22 22
146 146 146
204 204 204
150 150 150
54 54 54
68 68 68
61 61 61
40 40 40
60 60 60
70 70 70
99 99 99
117 117 117
222 222 222
219 219 219
210 210 210
210 210 210
210 210 210
209 209 209
208 208 208
208 208 208
208 208 208
207 207 207
207 207 207
206 206 206
205 205 205
204 204 204
202 202 202
202 202 202
201 201 201
199 199 199
198 198 198
198 198 198
196 196 196
194 194 194
164 164 164
127 127 127
78 78 78
41 41 41
36 36 36
32 32 32
33 33 33
33 33 33
35 35 35
37 37 37
36 36 36
38 38 38
46 46 46
41 41 41
40 40 40
41 41 41
41 41 41
38 38 38
36 36 36
38 38 38
40 40 40
39 39 39
36 36 36
35 35 35
35 35 35
33 33 33
38 38 38
43 43 43
38 38 38
37 37 37
36 36 36
33 33 33
33 33 33
33 33 33
32 32 32
31 31 31
31 31 31
32 32 32
31 31 31
28 28 28
132 132 132
136 136 136
139 139 139
148 148 148
155 155 155
157 157 157
162 162 162
163 163 163
163 163 163
155 155 155
145 145 145
130 130 130
99 99 99
74 74 74
45 45 45
48 48 48
48 48 48
49 49 49
50 50 50
50 50 50
50 50 50
50 50 50
49 49 49
51 51 51
53 53 53
66 66 66
182 182 182
182 182 182
199 199 199
205 205 205
205 205 205
204 204 204
196 196 196
126 126 126
101 101 101
55 55 55
31 31 31
31 31 31
35 35 35
33 33 33
154 154 154
220 220 220
195 195 195
58 58 58
80 80 80
84 84 84
92 92 92
110 110 110
113 113 113
178 178 178
202 202 202
226 226 226
220 220 220
210 210 210
209 209 209
210 210 210
208 208 208
207 207 207
208 208 208
208 208 208
207 207 207
207 207 207
206 206 206
205 205 205
203 203 203
202 202 202
201 201 201
201 201 201
200 200 200
198 198 198
197 197 197
195 195 195
194 194 194
167 167 167
120 120 120
46 46 46
37 37 37
36 36 36
31 31 31
32 32 32
35 35 35
37 37 37
36 36 36
36 36 36
40 40 40
46 46 46
41 41 41
42 42 42
39 39 39
38 38 38
37 37 37
39 39 39
39 39 39
41 41 41
37 37 37
33 33 33
37 37 37
47 47 47
52 52 52
43 43 43
39 39 39
34 34 34
34 34 34
33 33 33
32 32 32
31 31 31
31 31 31
31 31 31
32 32 32
32 32 32
31 31 31
31 31 31
28 28 28
136 136 136
133 133 133
139 139 139
151 151 151
152 152 152
154 154 154
156 156 156
160 160 160
159 159 159
152 152 152
142 142 142
134 134 134
112 112 112
87 87 87
44 44 44
39 39 39
47 47 47
49 49 49
49 49 49
48 48 48
48 48 48
48 48 48
48 48 48
51 51 51
52 52 52
107 107 107
190 190 190
142 142 142
131 131 131
158 158 158
191 191 191
204 204 204
202 202 202
148 148 148
104 104 104
66 66 66
32 32 32
31 31 31
60 60 60
104 104 104
98 98 98
187 187 187
214 214 214
144 144 144
76 76 76
139 139 139
158 158 158
158 158 158
128 128 128
161 161 161
220 220 220
227 227 227
216 216 216
211 211 211
210 210 210
208 208 208
208 208 208
208 208 208
208 208 208
208 208 208
207 207 207
207 207 207
206 206 206
205 205 205
202 202 202
201 201 201
199 199 199
199 199 199
200 200 200
198 198 198
198 198 198
194 194 194
194 194 194
167 167 167
88 88 88
35 35 35
35 35 35
34 34 34
30 30 30
35 35 35
37 37 37
39 39 39
38 38 38
37 37 37
45 45 45
41 41 41
40 40 40
39 39 39
37 37 37
37 37 37
38 38 38
37 37 37
38 38 38
42 42 42
43 43 43
43 43 43
40 40 40
40 40 40
41 41 41
46 46 46
35 35 35
31 31 31
32 32 32
31 31 31
31 31 31
31 31 31
29 29 29
31 31 31
31 31 31
32 32 32
32 32 32
31 31 31
26 26 26
117 117 117
127 127 127
134 134 134
137 137 137
139 139 139
148 148 148
144 144 144
144 144 144
147 147 147
150 150 150
145 145 145
141 141 141
138 138 138
120 120 120
63 63 63
32 32 32
37 37 37
44 44 44
47 47 47
48 48 48
49 49 49
48 48 48
47 47 47
43 43 43
42 42 42
138 138 138
196 196 196
152 152 152
132 132 132
125 125 125
137 137 137
163 163 163
203 203 203
172 172 172
110 110 110
77 77 77
33 33 33
31 31 31
59 59 59
128 128 128
130 130 130
131 131 131
181 181 181
212 212 212
160 160 160
93 93 93
110 110 110
100 100 100
109 109 109
194 194 194
224 224 224
220 220 220
211 211 211
210 210 210
210 210 210
208 208 208
208 208 208
208 208 208
208 208 208
208 208 208
208 208 208
207 207 207
205 205 205
203 203 203
202 202 202
200 200 200
178 178 178
170 170 170
195 195 195
198 198 198
197 197 197
193 193 193
193 193 193
165 165 165
60 60 60
36 36 36
34 34 34
29 29 29
33 33 33
35 35 35
37 37 37
39 39 39
38 38 38
38 38 38
45 45 45
35 35 35
40 40 40
37 37 37
37 37 37
37 37 37
35 35 35
39 39 39
44 44 44
47 47 47
41 41 41
37 37 37
33 33 33
34 34 34
37 37 37
42 42 42
31 31 31
29 29 29
31 31 31
30 30 30
31 31 31
32 32 32
30 30 30
30 30 30
30 30 30
31 31 31
31 31 31
30 30 30
26 26 26
128 128 128
136 136 136
132 132 132
131 131 131
136 136 136
141 141 141
140 140 140
135 135 135
140 140 140
148 148 148
147 147 147
155 155 155
175 175 175
156 156 156
124 124 124
67 67 67
32 32 32
32 32 32
36 36 36
38 38 38
39 39 39
34 34 34
31 31 31
34 34 34
40 40 40
151 151 151
194 194 194
193 193 193
187 187 187
166 166 166
118 118 118
137 137 137
143 143 143
197 197 197
115 115 115
94 94 94
37 37 37
33 33 33
58 58 58
155 155 155
170 170 170
160 160 160
154 154 154
179 179 179
209 209 209
199 199 199
178 178 178
187 187 187
210 210 210
208 208 208
211 211 211
210 210 210
209 209 209
210 210 210
209 209 209
208 208 208
207 207 207
208 208 208
208 208 208
207 207 207
208 208 208
207 207 207
205 205 205
203 203 203
201 201 201
199 199 199
150 150 150
146 146 146
192 192 192
197 197 197
195 195 195
193 193 193
192 192 192
159 159 159
52 52 52
35 35 35
34 34 34
34 34 34
35 35 35
35 35 35
38 38 38
38 38 38
36 36 36
40 40 40
41 41 41
33 33 33
40 40 40
39 39 39
38 38 38
37 37 37
41 41 41
42 42 42
39 39 39
39 39 39
35 35 35
33 33 33
33 33 33
34 34 34
34 34 34
35 35 35
30 30 30
29 29 29
30 30 30
31 31 31
31 31 31
30 30 30
31 31 31
31 31 31
30 30 30
30 30 30
31 31 31
29 29 29
26 26 26
153 153 153
147 147 147
143 143 143
139 139 139
136 136 136
131 131 131
136 136 136
139 139 139
141 141 141
146 146 146
142 142 142
155 155 155
171 171 171
156 156 156
143 143 143
128 128 128
77 77 77
31 31 31
30 30 30
30 30 30
31 31 31
30 30 30
30 30 30
34 34 34
38 38 38
147 147 147
193 193 193
186 186 186
207 207 207
190 190 190
116 116 116
138 138 138
135 135 135
199 199 199
154 154 154
102 102 102
46 46 46
35 35 35
45 45 45
157 157 157
198 198 198
196 196 196
193 193 193
190 190 190
192 192 192
194 194 194
197 197 197
196 196 196
199 199 199
203 203 203
209 209 209
210 210 210
210 210 210
209 209 209
209 209 209
208 208 208
208 208 208
208 208 208
208 208 208
207 207 207
207 207 207
207 207 207
206 206 206
203 203 203
200 200 200
187 187 187
136 136 136
163 163 163
194 194 194
195 195 195
194 194 194
193 193 193
190 190 190
148 148 148
44 44 44
36 36 36
35 35 35
36 36 36
36 36 36
36 36 36
38 38 38
39 39 39
39 39 39
42 42 42
37 37 37
31 31 31
34 34 34
39 39 39
39 39 39
38 38 38
37 37 37
34 34 34
34 34 34
36 36 36
35 35 35
32 32 32
31 31 31
32 32 32
30 30 30
33 33 33
30 30 30
28 28 28
30 30 30
32 32 32
30 30 30
28 28 28
29 29 29
31 31 31
29 29 29
29 29 29
30 30 30
27 27 27
26 26 26
144 144 144
139 139 139
147 147 147
139 139 139
137 137 137
134 134 134
138 138 138
136 136 136
140 140 140
135 135 135
134 134 134
139 139 139
143 143 143
131 131 131
116 116 116
114 114 114
116 116 116
89 89 89
53 53 53
31 31 31
29 29 29
28 28 28
29 29 29
32 32 32
36 36 36
112 112 112
201 201 201
189 189 189
188 188 188
195 195 195
122 122 122
136 136 136
136 136 136
200 200 200
187 187 187
108 108 108
69 69 69
35 35 35
38 38 38
123 123 123
203 203 203
209 209 209
209 209 209
208 208 208
207 207 207
210 210 210
210 210 210
209 209 209
209 209 209
211 211 211
210 210 210
208 208 208
208 208 208
209 209 209
209 209 209
209 209 209
208 208 208
208 208 208
208 208 208
208 208 208
206 206 206
205 205 205
205 205 205
204 204 204
201 201 201
192 192 192
178 178 178
197 197 197
197 197 197
194 194 194
193 193 193
194 194 194
188 188 188
119 119 119
39 39 39
37 37 37
37 37 37
37 37 37
36 36 36
36 36 36
38 38 38
38 38 38
41 41 41
41 41 41
34 34 34
33 33 33
36 36 36
37 37 37
34 34 34
34 34 34
34 34 34
35 35 35
34 34 34
35 35 35
33 33 33
32 32 32
31 31 31
30 30 30
28 28 28
32 32 32
31 31 31
28 28 28
31 31 31
31 31 31
28 28 28
27 27 27
27 27 27
30 30 30
28 28 28
27 27 27
25 25 25
26 26 26
26 26 26
139 139 139
139 139 139
145 145 145
140 140 140
137 137 137
141 141 141
140 140 140
135 135 135
139 139 139
134 134 134
130 130 130
128 128 128
130 130 130
111 111 111
92 92 92
89 89 89
93 93 93
101 101 101
100 100 100
74 74 74
34 34 34
30 30 30
31 31 31
33 33 33
33 33 33
46 46 46
136 136 136
201 201 201
201 201 201
199 199 199
135 135 135
131 131 131
135 135 135
183 183 183
198 198 198
136 136 136
94 94 94
38 38 38
38 38 38
65 65 65
196 196 196
210 210 210
211 211 211
212 212 212
210 210 210
210 210 210
210 210 210
210 210 210
209 209 209
210 210 210
209 209 209
209 209 209
207 207 207
208 208 208
208 208 208
209 209 209
209 209 209
208 208 208
208 208 208
208 208 208
205 205 205
204 204 204
203 203 203
203 203 203
200 200 200
199 199 199
199 199 199
199 199 199
196 196 196
194 194 194
193 193 193
192 192 192
180 180 180
64 64 64
38 38 38
35 35 35
35 35 35
37 37 37
37 37 37
36 36 36
38 38 38
37 37 37
42 42 42
32 32 32
34 34 34
37 37 37
37 37 37
37 37 37
33 33 33
32 32 32
31 31 31
34 34 34
35 35 35
34 34 34
31 31 31
32 32 32
30 30 30
29 29 29
26 26 26
31 31 31
30 30 30
30 30 30
30 30 30
31 31 31
29 29 29
26 26 26
27 27 27
27 27 27
23 23 23
23 23 23
27 27 27
29 29 29
27 27 27
129 129 129
126 126 126
139 139 139
146 146 146
149 149 149
150 150 150
147 147 147
147 147 147
142 142 142
139 139 139
131 131 131
131 131 131
139 139 139
130 130 130
115 115 115
100 100 100
92 92 92
83 83 83
79 79 79
78 78 78
83 83 83
70 70 70
40 40 40
40 40 40
32 32 32
36 36 36
44 44 44
117 117 117
186 186 186
203 203 203
171 171 171
122 122 122
133 133 133
132 132 132
141 141 141
167 167 167
127 127 127
62 62 62
46 46 46
56 56 56
160 160 160
208 208 208
209 209 209
210 210 210
209 209 209
210 210 210
210 210 210
210 210 210
211 211 211
211 211 211
209 209 209
208 208 208
207 207 207
209 209 209
207 207 207
208 208 208
208 208 208
208 208 208
208 208 208
208 208 208
204 204 204
204 204 204
202 202 202
202 202 202
200 200 200
199 199 199
199 199 199
199 199 199
195 195 195
194 194 194
194 194 194
190 190 190
129 129 129
35 35 35
36 36 36
34 34 34
34 34 34
36 36 36
37 37 37
36 36 36
39 39 39
40 40 40
42 42 42
33 33 33
36 36 36
36 36 36
36 36 36
35 35 35
33 33 33
31 31 31
29 29 29
30 30 30
30 30 30
31 31 31
32 32 32
32 32 32
30 30 30
29 29 29
26 26 26
30 30 30
31 31 31
30 30 30
30 30 30
31 31 31
27 27 27
26 26 26
27 27 27
29 29 29
25 25 25
29 29 29
28 28 28
27 27 27
28 28 28
127 127 127
122 122 122
134 134 134
153 153 153
169 169 169
167 167 167
157 157 157
147 147 147
142 142 142
147 147 147
146 146 146
138 138 138
129 129 129
112 112 112
108 108 108
103 103 103
110 110 110
110 110 110
99 99 99
93 93 93
88 88 88
91 91 91
50 50 50
47 47 47
33 33 33
32 32 32
36 36 36
37 37 37
78 78 78
154 154 154
196 196 196
175 175 175
141 141 141
127 127 127
133 133 133
190 190 190
197 197 197
153 153 153
67 67 67
111 111 111
106 106 106
203 203 203
209 209 209
210 210 210
210 210 210
210 210 210
210 210 210
211 211 211
211 211 211
210 210 210
209 209 209
209 209 209
208 208 208
208 208 208
207 207 207
208 208 208
207 207 207
207 207 207
207 207 207
207 207 207
204 204 204
203 203 203
202 202 202
203 203 203
200 200 200
199 199 199
198 198 198
199 199 199
194 194 194
192 192 192
191 191 191
167 167 167
66 66 66
39 39 39
35 35 35
35 35 35
35 35 35
36 36 36
36 36 36
35 35 35
37 37 37
40 40 40
37 37 37
36 36 36
37 37 37
36 36 36
36 36 36
34 34 34
32 32 32
31 31 31
31 31 31
30 30 30
31 31 31
31 31 31
32 32 32
33 33 33
31 31 31
28 28 28
25 25 25
30 30 30
31 31 31
29 29 29
29 29 29
28 28 28
27 27 27
29 29 29
36 36 36
34 34 34
27 27 27
30 30 30
28 28 28
26 26 26
25 25 25
131 131 131
130 130 130
141 141 141
162 162 162
165 165 165
159 159 159
158 158 158
160 160 160
153 153 153
147 147 147
139 139 139
135 135 135
153 153 153
134 134 134
113 113 113
100 100 100
104 104 104
110 110 110
106 106 106
104 104 104
90 90 90
98 98 98
54 54 54
49 49 49
38 38 38
31 31 31
32 32 32
35 35 35
36 36 36
39 39 39
107 107 107
179 179 179
201 201 201
196 196 196
189 189 189
206 206 206
197 197 197
203 203 203
188 188 188
175 175 175
149 149 149
181 181 181
208 208 208
210 210 210
210 210 210
209 209 209
209 209 209
211 211 211
211 211 211
209 209 209
208 208 208
209 209 209
209 209 209
208 208 208
208 208 208
208 208 208
208 208 208
207 207 207
207 207 207
205 205 205
203 203 203
202 202 202
201 201 201
200 200 200
199 199 199
199 199 199
197 197 197
197 197 197
193 193 193
192 192 192
185 185 185
103 103 103
39 39 39
38 38 38
36 36 36
34 34 34
35 35 35
34 34 34
34 34 34
34 34 34
35 35 35
39 39 39
34 34 34
36 36 36
37 37 37
38 38 38
37 37 37
34 34 34
31 31 31
30 30 30
31 31 31
31 31 31
29 29 29
28 28 28
31 31 31
31 31 31
30 30 30
27 27 27
24 24 24
29 29 29
30 30 30
29 29 29
28 28 28
27 27 27
30 30 30
30 30 30
28 28 28
23 23 23
25 25 25
28 28 28
27 27 27
25 25 25
24 24 24
149 149 149
145 145 145
152 152 152
148 148 148
140 140 140
136 136 136
135 135 135
139 139 139
122 122 122
116 116 116
118 118 118
126 126 126
148 148 148
137 137 137
129 129 129
124 124 124
120 120 120
114 114 114
108 108 108
101 101 101
90 90 90
100 100 100
64 64 64
49 49 49
45 45 45
31 31 31
32 32 32
32 32 32
29 29 29
34 34 34
37 37 37
66 66 66
130 130 130
193 193 193
204 204 204
193 193 193
167 167 167
193 193 193
203 203 203
206 206 206
204 204 204
198 198 198
209 209 209
210 210 210
210 210 210
209 209 209
209 209 209
210 210 210
209 209 209
208 208 208
208 208 208
209 209 209
209 209 209
210 210 210
209 209 209
208 208 208
207 207 207
207 207 207
206 206 206
204 204 204
203 203 203
200 200 200
200 200 200
194 194 194
197 197 197
200 200 200
199 199 199
195 195 195
193 193 193
190 190 190
122 122 122
38 38 38
37 37 37
36 36 36
35 35 35
34 34 34
34 34 34
34 34 34
34 34 34
33 33 33
37 37 37
36 36 36
35 35 35
36 36 36
37 37 37
38 38 38
37 37 37
34 34 34
31 31 31
30 30 30
30 30 30
31 31 31
31 31 31
28 28 28
30 30 30
30 30 30
28 28 28
26 26 26
22 22 22
26 26 26
27 27 27
29 29 29
31 31 31
31 31 31
28 28 28
27 27 27
23 23 23
23 23 23
25 25 25
27 27 27
26 26 26
26 26 26
25 25 25
157 157 157
154 154 154
157 157 157
153 153 153
147 147 147
137 137 137
120 120 120
110 110 110
106 106 106
115 115 115
124 124 124
125 125 125
118 118 118
105 105 105
94 94 94
96 96 96
101 101 101
105 105 105
112 112 112
119 119 119
118 118 118
97 97 97
78 78 78
51 51 51
48 48 48
35 35 35
30 30 30
29 29 29
27 27 27
30 30 30
34 34 34
36 36 36
41 41 41
83 83 83
146 146 146
149 149 149
146 146 146
120 120 120
139 139 139
197 197 197
207 207 207
209 209 209
211 211 211
210 210 210
211 211 211
211 211 211
211 211 211
209 209 209
208 208 208
208 208 208
208 208 208
209 209 209
209 209 209
210 210 210
207 207 207
207 207 207
207 207 207
206 206 206
205 205 205
203 203 203
199 199 199
182 182 182
156 156 156
138 138 138
192 192 192
200 200 200
196 196 196
193 193 193
191 191 191
152 152 152
55 55 55
36 36 36
34 34 34
34 34 34
35 35 35
35 35 35
33 33 33
34 34 34
33 33 33
35 35 35
39 39 39
36 36 36
36 36 36
36 36 36
37 37 37
36 36 36
36 36 36
34 34 34
31 31 31
30 30 30
31 31 31
31 31 31
31 31 31
31 31 31
31 31 31
30 30 30
27 27 27
23 23 23
21 21 21
24 24 24
26 26 26
30 30 30
30 30 30
27 27 27
27 27 27
27 27 27
25 25 25
22 22 22
23 23 23
27 27 27
27 27 27
26 26 26
23 23 23
151 151 151
152 152 152
153 153 153
147 147 147
142 142 142
134 134 134
122 122 122
102 102 102
102 102 102
117 117 117
126 126 126
130 130 130
123 123 123
105 105 105
87 87 87
87 87 87
85 85 85
84 84 84
90 90 90
104 104 104
111 111 111
95 95 95
88 88 88
53 53 53
51 51 51
42 42 42
31 31 31
29 29 29
27 27 27
26 26 26
30 30 30
31 31 31
34 34 34
61 61 61
96 96 96
175 175 175
195 195 195
138 138 138
135 135 135
146 146 146
200 200 200
208 208 208
209 209 209
210 210 210
210 210 210
211 211 211
212 212 212
210 210 210
208 208 208
208 208 208
208 208 208
209 209 209
209 209 209
209 209 209
207 207 207
208 208 208
207 207 207
206 206 206
204 204 204
202 202 202
172 172 172
143 143 143
131 131 131
163 163 163
197 197 197
198 198 198
195 195 195
192 192 192
172 172 172
86 86 86
39 39 39
35 35 35
32 32 32
34 34 34
35 35 35
34 34 34
35 35 35
32 32 32
32 32 32
35 35 35
36 36 36
32 32 32
35 35 35
36 36 36
36 36 36
35 35 35
33 33 33
32 32 32
32 32 32
31 31 31
31 31 31
32 32 32
32 32 32
32 32 32
30 30 30
26 26 26
25 25 25
22 22 22
24 24 24
27 27 27
28 28 28
27 27 27
26 26 26
27 27 27
28 28 28
27 27 27
27 27 27
25 25 25
23 23 23
27 27 27
26 26 26
25 25 25
23 23 23
147 147 147
139 139 139
137 137 137
133 133 133
130 130 130
119 119 119
110 110 110
108 108 108
115 115 115
122 122 122
119 119 119
114 114 114
121 121 121
121 121 121
113 113 113
111 111 111
102 102 102
101 101 101
105 105 105
100 100 100
87 87 87
91 91 91
92 92 92
56 56 56
53 53 53
48 48 48
33 33 33
28 28 28
28 28 28
25 25 25
29 29 29
29 29 29
32 32 32
56 56 56
118 118 118
164 164 164
175 175 175
119 119 119
133 133 133
136 136 136
143 143 143
196 196 196
207 207 207
208 208 208
209 209 209
209 209 209
210 210 210
209 209 209
209 209 209
208 208 208
208 208 208
208 208 208
208 208 208
207 207 207
208 208 208
207 207 207
207 207 207
205 205 205
203 203 203
202 202 202
181 181 181
161 161 161
154 154 154
172 172 172
196 196 196
197 197 197
193 193 193
182 182 182
120 120 120
59 59 59
35 35 35
34 34 34
33 33 33
34 34 34
33 33 33
32 32 32
34 34 34
31 31 31
31 31 31
36 36 36
33 33 33
32 32 32
32 32 32
33 33 33
32 32 32
31 31 31
30 30 30
32 32 32
31 31 31
31 31 31
31 31 31
33 33 33
33 33 33
31 31 31
30 30 30
25 25 25
28 28 28
28 28 28
28 28 28
27 27 27
28 28 28
25 25 25
26 26 26
25 25 25
25 25 25
25 25 25
25 25 25
24 24 24
23 23 23
27 27 27
26 26 26
25 25 25
23 23 23
108 108 108
111 111 111
116 116 116
120 120 120
117 117 117
97 97 97
86 86 86
86 86 86
91 91 91
98 98 98
102 102 102
99 99 99
96 96 96
96 96 96
95 95 95
103 103 103
106 106 106
105 105 105
95 95 95
77 77 77
72 72 72
87 87 87
94 94 94
60 60 60
53 53 53
52 52 52
43 43 43
28 28 28
28 28 28
25 25 25
29 29 29
29 29 29
31 31 31
55 55 55
116 116 116
144 144 144
132 132 132
83 83 83
128 128 128
133 133 133
135 135 135
141 141 141
193 193 193
207 207 207
208 208 208
209 209 209
209 209 209
209 209 209
209 209 209
209 209 209
208 208 208
207 207 207
208 208 208
208 208 208
207 207 207
208 208 208
206 206 206
206 206 206
204 204 204
202 202 202
197 197 197
153 153 153
149 149 149
190 190 190
197 197 197
195 195 195
191 191 191
145 145 145
97 97 97
36 36 36
33 33 33
32 32 32
33 33 33
34 34 34
34 34 34
35 35 35
33 33 33
31 31 31
32 32 32
36 36 36
32 32 32
33 33 33
31 31 31
32 32 32
31 31 31
30 30 30
30 30 30
31 31 31
31 31 31
30 30 30
35 35 35
33 33 33
33 33 33
30 30 30
31 31 31
35 35 35
33 33 33
29 29 29
29 29 29
27 27 27
25 25 25
25 25 25
24 24 24
24 24 24
23 23 23
23 23 23
23 23 23
24 24 24
23 23 23
27 27 27
26 26 26
23 23 23
24 24 24
127 127 127
136 136 136
136 136 136
133 133 133
128 128 128
121 121 121
107 107 107
92 92 92
84 84 84
83 83 83
85 85 85
86 86 86
78 78 78
78 78 78
85 85 85
92 92 92
86 86 86
75 75 75
79 79 79
92 92 92
97 97 97
91 91 91
96 96 96
62 62 62
53 53 53
52 52 52
48 48 48
35 35 35
29 29 29
28 28 28
25 25 25
28 28 28
28 28 28
41 41 41
71 71 71
103 103 103
113 113 113
110 110 110
129 129 129
131 131 131
133 133 133
136 136 136
133 133 133
177 177 177
201 201 201
208 208 208
208 208 208
208 208 208
209 209 209
208 208 208
208 208 208
207 207 207
207 207 207
208 208 208
207 207 207
207 207 207
206 206 206
205 205 205
204 204 204
203 203 203
201 201 201
192 192 192
195 195 195
199 199 199
195 195 195
193 193 193
157 157 157
120 120 120
59 59 59
34 34 34
33 33 33
33 33 33
33 33 33
33 33 33
33 33 33
34 34 34
31 31 31
30 30 30
33 33 33
34 34 34
34 34 34
32 32 32
31 31 31
33 33 33
31 31 31
30 30 30
31 31 31
31 31 31
31 31 31
31 31 31
32 32 32
32 32 32
33 33 33
32 32 32
34 34 34
32 32 32
29 29 29
27 27 27
26 26 26
26 26 26
26 26 26
23 23 23
22 22 22
25 25 25
24 24 24
23 23 23
23 23 23
23 23 23
21 21 21
25 25 25
25 25 25
25 25 25
24 24 24
126 126 126
139 139 139
143 143 143
134 134 134
126 126 126
124 124 124
124 124 124
109 109 109
106 106 106
104 104 104
105 105 105
101 101 101
96 96 96
84 84 84
74 74 74
74 74 74
85 85 85
94 94 94
96 96 96
102 102 102
115 115 115
101 101 101
97 97 97
66 66 66
54 54 54
53 53 53
52 52 52
45 45 45
29 29 29
29 29 29
27 27 27
28 28 28
30 30 30
34 34 34
69 69 69
79 79 79
172 172 172
138 138 138
131 131 131
131 131 131
131 131 131
132 132 132
134 134 134
133 133 133
145 145 145
171 171 171
202 202 202
206 206 206
207 207 207
208 208 208
207 207 207
207 207 207
206 206 206
207 207 207
207 207 207
207 207 207
205 205 205
204 204 204
203 203 203
203 203 203
202 202 202
200 200 200
199 199 199
197 197 197
194 194 194
168 168 168
123 123 123
103 103 103
40 40 40
36 36 36
34 34 34
34 34 34
32 32 32
32 32 32
34 34 34
34 34 34
31 31 31
31 31 31
34 34 34
33 33 33
31 31 31
31 31 31
31 31 31
31 31 31
32 32 32
32 32 32
32 32 32
31 31 31
31 31 31
31 31 31
31 31 31
33 33 33
34 34 34
31 31 31
31 31 31
30 30 30
29 29 29
27 27 27
24 24 24
24 24 24
23 23 23
23 23 23
23 23 23
24 24 24
24 24 24
24 24 24
26 26 26
25 25 25
23 23 23
27 27 27
28 28 28
25 25 25
23 23 23
124 124 124
134 134 134
140 140 140
136 136 136
131 131 131
130 130 130
128 128 128
114 114 114
111 111 111
112 112 112
107 107 107
92 92 92
79 79 79
81 81 81
93 93 93
101 101 101
100 100 100
98 98 98
99 99 99
106 106 106
117 117 117
102 102 102
100 100 100
68 68 68
53 53 53
54 54 54
53 53 53
51 51 51
41 41 41
28 28 28
29 29 29
27 27 27
29 29 29
29 29 29
86 86 86
112 112 112
190 190 190
140 140 140
129 129 129
130 130 130
130 130 130
131 131 131
130 130 130
132 132 132
133 133 133
132 132 132
131 131 131
163 163 163
186 186 186
195 195 195
204 204 204
206 206 206
204 204 204
205 205 205
205 205 205
205 205 205
204 204 204
202 202 202
203 203 203
201 201 201
202 202 202
200 200 200
196 196 196
195 195 195
181 181 181
119 119 119
125 125 125
68 68 68
36 36 36
35 35 35
33 33 33
34 34 34
33 33 33
32 32 32
34 34 34
33 33 33
31 31 31
34 34 34
35 35 35
33 33 33
30 30 30
30 30 30
31 31 31
31 31 31
32 32 32
32 32 32
31 31 31
30 30 30
29 29 29
31 31 31
33 33 33
32 32 32
30 30 30
29 29 29
30 30 30
30 30 30
28 28 28
25 25 25
24 24 24
25 25 25
23 23 23
24 24 24
24 24 24
24 24 24
24 24 24
26 26 26
25 25 25
27 27 27
31 31 31
30 30 30
25 25 25
23 23 23
21 21 21
129 129 129
130 130 130
137 137 137
138 138 138
138 138 138
136 136 136
128 128 128
119 119 119
107 107 107
90 90 90
79 79 79
83 83 83
95 95 95
103 103 103
108 108 108
108 108 108
107 107 107
103 103 103
107 107 107
107 107 107
106 106 106
94 94 94
99 99 99
67 67 67
52 52 52
53 53 53
51 51 51
51 51 51
49 49 49
36 36 36
28 28 28
27 27 27
28 28 28
28 28 28
93 93 93
117 117 117
188 188 188
135 135 135
129 129 129
137 137 137
144 144 144
131 131 131
129 129 129
129 129 129
130 130 130
130 130 130
132 132 132
130 130 130
132 132 132
138 138 138
145 145 145
162 162 162
183 183 183
200 200 200
201 201 201
201 201 201
202 202 202
200 200 200
199 199 199
199 199 199
200 200 200
198 198 198
194 194 194
187 187 187
122 122 122
94 94 94
101 101 101
38 38 38
35 35 35
33 33 33
33 33 33
34 34 34
34 34 34
33 33 33
33 33 33
33 33 33
33 33 33
37 37 37
32 32 32
30 30 30
29 29 29
31 31 31
31 31 31
30 30 30
30 30 30
29 29 29
28 28 28
31 31 31
33 33 33
31 31 31
31 31 31
31 31 31
30 30 30
29 29 29
28 28 28
27 27 27
23 23 23
24 24 24
23 23 23
25 25 25
24 24 24
23 23 23
23 23 23
23 23 23
24 24 24
26 26 26
28 28 28
29 29 29
26 26 26
24 24 24
25 25 25
22 22 22
20 20 20
129 129 129
136 136 136
150 150 150
151 151 151
151 151 151
141 141 141
116 116 116
93 93 93
90 90 90
89 89 89
95 95 95
91 91 91
85 85 85
88 88 88
101 101 101
105 105 105
106 106 106
107 107 107
107 107 107
108 108 108
111 111 111
101 101 101
96 96 96
67 67 67
51 51 51
51 51 51
51 51 51
51 51 51
49 49 49
47 47 47
34 34 34
29 29 29
25 25 25
29 29 29
79 79 79
109 109 109
141 141 141
124 124 124
130 130 130
167 167 167
194 194 194
142 142 142
129 129 129
130 130 130
129 129 129
129 129 129
128 128 128
129 129 129
130 130 130
129 129 129
131 131 131
130 130 130
125 125 125
125 125 125
141 141 141
168 168 168
178 178 178
182 182 182
187 187 187
190 190 190
192 192 192
191 191 191
184 184 184
134 134 134
75 75 75
90 90 90
70 70 70
38 38 38
35 35 35
33 33 33
34 34 34
34 34 34
33 33 33
33 33 33
33 33 33
33 33 33
38 38 38
37 37 37
31 31 31
30 30 30
29 29 29
30 30 30
31 31 31
29 29 29
27 27 27
28 28 28
30 30 30
31 31 31
30 30 30
30 30 30
31 31 31
30 30 30
28 28 28
28 28 28
26 26 26
24 24 24
24 24 24
24 24 24
24 24 24
24 24 24
23 23 23
22 22 22
23 23 23
24 24 24
27 27 27
28 28 28
25 25 25
22 22 22
22 22 22
22 22 22
23 23 23
22 22 22
20 20 20
125 125 125
127 127 127
135 135 135
134 134 134
115 115 115
100 100 100
107 107 107
123 123 123
131 131 131
128 128 128
124 124 124
117 117 117
109 109 109
104 104 104
109 109 109
110 110 110
106 106 106
109 109 109
107 107 107
110 110 110
112 112 112
108 108 108
92 92 92
70 70 70
52 52 52
51 51 51
50 50 50
50 50 50
50 50 50
50 50 50
46 46 46
31 31 31
26 26 26
27 27 27
63 63 63
103 103 103
99 99 99
114 114 114
137 137 137
184 184 184
204 204 204
179 179 179
133 133 133
129 129 129
130 130 130
130 130 130
130 130 130
128 128 128
128 128 128
126 126 126
125 125 125
126 126 126
126 126 126
127 127 127
127 127 127
122 122 122
91 91 91
74 74 74
90 90 90
99 99 99
106 106 106
107 107 107
91 91 91
56 56 56
46 46 46
65 65 65
84 84 84
59 59 59
35 35 35
33 33 33
34 34 34
34 34 34
33 33 33
33 33 33
34 34 34
34 34 34
44 44 44
33 33 33
31 31 31
30 30 30
29 29 29
30 30 30
30 30 30
25 25 25
24 24 24
30 30 30
30 30 30
30 30 30
29 29 29
29 29 29
30 30 30
30 30 30
28 28 28
29 29 29
27 27 27
26 26 26
26 26 26
26 26 26
25 25 25
25 25 25
23 23 23
22 22 22
23 23 23
26 26 26
27 27 27
24 24 24
23 23 23
24 24 24
23 23 23
23 23 23
21 21 21
22 22 22
21 21 21
131 131 131
120 120 120
98 98 98
79 79 79
89 89 89
102 102 102
103 103 103
110 110 110
114 114 114
116 116 116
120 120 120
114 114 114
106 106 106
108 108 108
111 111 111
113 113 113
114 114 114
113 113 113
112 112 112
112 112 112
111 111 111
109 109 109
89 89 89
73 73 73
61 61 61
53 53 53
50 50 50
50 50 50
50 50 50
50 50 50
50 50 50
43 43 43
30 30 30
26 26 26
46 46 46
99 99 99
105 105 105
115 115 115
140 140 140
193 193 193
206 206 206
205 205 205
159 159 159
131 131 131
130 130 130
129 129 129
129 129 129
124 124 124
124 124 124
123 123 123
123 123 123
124 124 124
123 123 123
122 122 122
121 121 121
118 118 118
59 59 59
30 30 30
32 32 32
32 32 32
31 31 31
29 29 29
28 28 28
28 28 28
38 38 38
43 43 43
68 68 68
80 80 80
46 46 46
34 34 34
33 33 33
34 34 34
33 33 33
33 33 33
35 35 35
37 37 37
36 36 36
32 32 32
29 29 29
30 30 30
31 31 31
31 31 31
31 31 31
29 29 29
30 30 30
32 32 32
30 30 30
27 27 27
28 28 28
29 29 29
30 30 30
29 29 29
28 28 28
29 29 29
28 28 28
26 26 26
26 26 26
25 25 25
24 24 24
25 25 25
24 24 24
23 23 23
22 22 22
23 23 23
24 24 24
23 23 23
26 26 26
26 26 26
25 25 25
22 22 22
21 21 21
21 21 21
20 20 20
98 98 98
92 92 92
99 99 99
99 99 99
99 99 99
95 95 95
100 100 100
104 104 104
108 108 108
110 110 110
112 112 112
109 109 109
102 102 102
104 104 104
103 103 103
102 102 102
107 107 107
111 111 111
112 112 112
111 111 111
113 113 113
109 109 109
88 88 88
75 75 75
52 52 52
57 57 57
49 49 49
50 50 50
50 50 50
50 50 50
50 50 50
49 49 49
40 40 40
29 29 29
38 38 38
90 90 90
106 106 106
119 119 119
145 145 145
199 199 199
207 207 207
206 206 206
197 197 197
148 148 148
130 130 130
128 128 128
128 128 128
124 124 124
122 122 122
123 123 123
122 122 122
122 122 122
122 122 122
121 121 121
119 119 119
108 108 108
41 41 41
27 27 27
27 27 27
27 27 27
26 26 26
25 25 25
23 23 23
22 22 22
26 26 26
33 33 33
46 46 46
75 75 75
73 73 73
37 37 37
33 33 33
33 33 33
33 33 33
33 33 33
32 32 32
39 39 39
32 32 32
35 35 35
30 30 30
30 30 30
31 31 31
32 32 32
29 29 29
28 28 28
31 31 31
31 31 31
30 30 30
29 29 29
29 29 29
28 28 28
28 28 28
28 28 28
28 28 28
28 28 28
26 26 26
27 27 27
26 26 26
24 24 24
22 22 22
23 23 23
23 23 23
23 23 23
22 22 22
23 23 23
24 24 24
24 24 24
25 25 25
25 25 25
26 26 26
23 23 23
22 22 22
19 19 19
20 20 20
110 110 110
117 117 117
112 112 112
106 106 106
108 108 108
106 106 106
107 107 107
105 105 105
107 107 107
114 114 114
114 114 114
110 110 110
107 107 107
110 110 110
108 108 108
107 107 107
108 108 108
108 108 108
106 106 106
98 98 98
100 100 100
94 94 94
82 82 82
75 75 75
48 48 48
55 55 55
50 50 50
50 50 50
50 50 50
50 50 50
50 50 50
50 50 50
48 48 48
38 38 38
30 30 30
81 81 81
99 99 99
128 128 128
151 151 151
205 205 205
208 208 208
207 207 207
205 205 205
191 191 191
142 142 142
130 130 130
129 129 129
125 125 125
122 122 122
123 123 123
123 123 123
123 123 123
121 121 121
120 120 120
117 117 117
99 99 99
45 45 45
29 29 29
23 23 23
25 25 25
26 26 26
25 25 25
23 23 23
22 22 22
22 22 22
24 24 24
31 31 31
51 51 51
81 81 81
60 60 60
35 35 35
33 33 33
33 33 33
32 32 32
32 32 32
34 34 34
32 32 32
37 37 37
34 34 34
32 32 32
31 31 31
31 31 31
30 30 30
28 28 28
32 32 32
32 32 32
29 29 29
29 29 29
29 29 29
28 28 28
26 26 26
26 26 26
26 26 26
28 28 28
26 26 26
26 26 26
24 24 24
21 21 21
20 20 20
23 23 23
23 23 23
23 23 23
23 23 23
24 24 24
24 24 24
24 24 24
24 24 24
22 22 22
25 25 25
22 22 22
21 21 21
19 19 19
19 19 19
116 116 116
118 118 118
114 114 114
102 102 102
107 107 107
113 113 113
113 113 113
107 107 107
104 104 104
108 108 108
105 105 105
101 101 101
104 104 104
112 112 112
113 113 113
110 110 110
113 113 113
116 116 116
112 112 112
96 96 96
80 80 80
82 82 82
78 78 78
74 74 74
47 47 47
46 46 46
59 59 59
50 50 50
50 50 50
49 49 49
47 47 47
49 49 49
48 48 48
45 45 45
37 37 37
48 48 48
113 113 113
132 132 132
160 160 160
208 208 208
209 209 209
208 208 208
208 208 208
205 205 205
189 189 189
140 140 140
129 129 129
128 128 128
124 124 124
124 124 124
123 123 123
123 123 123
121 121 121
121 121 121
120 120 120
97 97 97
74 74 74
48 48 48
34 34 34
25 25 25
23 23 23
24 24 24
24 24 24
24 24 24
23 23 23
21 21 21
23 23 23
33 33 33
61 61 61
79 79 79
43 43 43
33 33 33
34 34 34
33 33 33
33 33 33
30 30 30
35 35 35
35 35 35
32 32 32
32 32 32
32 32 32
30 30 30
30 30 30
30 30 30
31 31 31
31 31 31
30 30 30
30 30 30
28 28 28
27 27 27
28 28 28
26 26 26
25 25 25
27 27 27
25 25 25
25 25 25
22 22 22
21 21 21
24 24 24
23 23 23
24 24 24
24 24 24
24 24 24
23 23 23
22 22 22
23 23 23
24 24 24
23 23 23
22 22 22
22 22 22
22 22 22
20 20 20
19 19 19
119 119 119
118 118 118
115 115 115
115 115 115
119 119 119
117 117 117
111 111 111
108 108 108
104 104 104
107 107 107
108 108 108
103 103 103
102 102 102
113 113 113
115 115 115
116 116 116
116 116 116
108 108 108
92 92 92
85 85 85
90 90 90
101 101 101
83 83 83
72 72 72
48 48 48
31 31 31
67 67 67
54 54 54
49 49 49
51 51 51
50 50 50
48 48 48
48 48 48
48 48 48
49 49 49
39 39 39
88 88 88
130 130 130
174 174 174
207 207 207
209 209 209
210 210 210
210 210 210
207 207 207
204 204 204
186 186 186
141 141 141
128 128 128
128 128 128
124 124 124
123 123 123
122 122 122
120 120 120
121 121 121
120 120 120
98 98 98
92 92 92
88 88 88
66 66 66
48 48 48
33 33 33
27 27 27
24 24 24
24 24 24
24 24 24
23 23 23
21 21 21
25 25 25
40 40 40
74 74 74
59 59 59
33 33 33
34 34 34
34 34 34
32 32 32
30 30 30
32 32 32
30 30 30
31 31 31
31 31 31
30 30 30
29 29 29
29 29 29
28 28 28
31 31 31
32 32 32
31 31 31
29 29 29
27 27 27
27 27 27
29 29 29
28 28 28
27 27 27
27 27 27
25 25 25
25 25 25
25 25 25
22 22 22
23 23 23
23 23 23
24 24 24
24 24 24
24 24 24
23 23 23
22 22 22
21 21 21
24 24 24
25 25 25
24 24 24
23 23 23
24 24 24
20 20 20
20 20 20
105 105 105
123 123 123
128 128 128
121 121 121
114 114 114
111 111 111
103 103 103
107 107 107
107 107 107
106 106 106
110 110 110
106 106 106
102 102 102
107 107 107
111 111 111
100 100 100
91 91 91
93 93 93
98 98 98
103 103 103
106 106 106
104 104 104
84 84 84
70 70 70
45 45 45
32 32 32
46 46 46
68 68 68
49 49 49
49 49 49
49 49 49
47 47 47
48 48 48
47 47 47
47 47 47
49 49 49
52 52 52
107 107 107
184 184 184
207 207 207
209 209 209
210 210 210
210 210 210
207 207 207
206 206 206
204 204 204
187 187 187
139 139 139
129 129 129
125 125 125
123 123 123
123 123 123
122 122 122
121 121 121
118 118 118
101 101 101
92 92 92
77 77 77
92 92 92
84 84 84
61 61 61
45 45 45
36 36 36
26 26 26
24 24 24
24 24 24
22 22 22
21 21 21
27 27 27
55 55 55
77 77 77
38 38 38
32 32 32
35 35 35
31 31 31
30 30 30
30 30 30
29 29 29
31 31 31
31 31 31
30 30 30
29 29 29
29 29 29
29 29 29
31 31 31
32 32 32
30 30 30
28 28 28
29 29 29
28 28 28
29 29 29
27 27 27
27 27 27
27 27 27
25 25 25
23 23 23
24 24 24
22 22 22
24 24 24
23 23 23
24 24 24
24 24 24
24 24 24
23 23 23
22 22 22
22 22 22
24 24 24
24 24 24
23 23 23
23 23 23
23 23 23
21 21 21
19 19 19
98 98 98
111 111 111
120 120 120
121 121 121
115 115 115
109 109 109
107 107 107
108 108 108
106 106 106
105 105 105
109 109 109
112 112 112
104 104 104
92 92 92
75 75 75
90 90 90
109 109 109
108 108 108
107 107 107
109 109 109
112 112 112
102 102 102
82 82 82
67 67 67
47 47 47
35 35 35
31 31 31
69 69 69
61 61 61
49 49 49
49 49 49
48 48 48
44 44 44
47 47 47
46 46 46
49 49 49
52 52 52
63 63 63
183 183 183
206 206 206
208 208 208
209 209 209
209 209 209
208 208 208
207 207 207
206 206 206
203 203 203
186 186 186
140 140 140
127 127 127
124 124 124
122 122 122
122 122 122
122 122 122
117 117 117
104 104 104
112 112 112
74 74 74
69 69 69
91 91 91
92 92 92
80 80 80
63 63 63
50 50 50
42 42 42
33 33 33
27 27 27
21 21 21
22 22 22
34 34 34
74 74 74
59 59 59
34 34 34
36 36 36
31 31 31
30 30 30
30 30 30
30 30 30
30 30 30
31 31 31
30 30 30
29 29 29
29 29 29
27 27 27
28 28 28
31 31 31
30 30 30
28 28 28
29 29 29
28 28 28
26 26 26
25 25 25
26 26 26
25 25 25
24 24 24
24 24 24
24 24 24
22 22 22
24 24 24
25 25 25
24 24 24
24 24 24
24 24 24
23 23 23
23 23 23
23 23 23
23 23 23
23 23 23
22 22 22
23 23 23
24 24 24
22 22 22
19 19 19
107 107 107
110 110 110
111 111 111
112 112 112
103 103 103
100 100 100
102 102 102
105 105 105
113 113 113
117 117 117
107 107 107
85 85 85
76 76 76
76 76 76
75 75 75
88 88 88
103 103 103
95 95 95
105 105 105
112 112 112
111 111 111
116 116 116
92 92 92
64 64 64
47 47 47
38 38 38
29 29 29
42 42 42
77 77 77
55 55 55
48 48 48
46 46 46
42 42 42
44 44 44
51 51 51
74 74 74
55 55 55
58 58 58
110 110 110
195 195 195
207 207 207
208 208 208
208 208 208
208 208 208
208 208 208
208 208 208
207 207 207
204 204 204
187 187 187
141 141 141
125 125 125
124 124 124
122 122 122
123 123 123
118 118 118
105 105 105
113 113 113
98 98 98
71 71 71
105 105 105
91 91 91
89 89 89
89 89 89
77 77 77
55 55 55
62 62 62
81 81 81
61 61 61
28 28 28
23 23 23
55 55 55
70 70 70
47 47 47
33 33 33
31 31 31
31 31 31
30 30 30
30 30 30
31 31 31
31 31 31
30 30 30
28 28 28
28 28 28
26 26 26
27 27 27
30 30 30
29 29 29
26 26 26
25 25 25
25 25 25
28 28 28
28 28 28
26 26 26
24 24 24
24 24 24
23 23 23
22 22 22
21 21 21
23 23 23
23 23 23
23 23 23
23 23 23
23 23 23
24 24 24
24 24 24
23 23 23
22 22 22
22 22 22
22 22 22
27 27 27
23 23 23
20 20 20
20 20 20
100 100 100
100 100 100
106 106 106
105 105 105
99 99 99
107 107 107
117 117 117
117 117 117
108 108 108
96 96 96
84 84 84
90 90 90
101 101 101
98 98 98
94 94 94
98 98 98
90 90 90
83 83 83
97 97 97
100 100 100
94 94 94
96 96 96
79 79 79
58 58 58
46 46 46
42 42 42
29 29 29
31 31 31
57 57 57
74 74 74
53 53 53
62 62 62
45 45 45
38 38 38
51 51 51
90 90 90
89 89 89
59 59 59
62 62 62
141 141 141
202 202 202
206 206 206
208 208 208
209 209 209
208 208 208
208 208 208
208 208 208
206 206 206
202 202 202
185 185 185
141 141 141
127 127 127
124 124 124
123 123 123
117 117 117
106 106 106
117 117 117
113 113 113
73 73 73
98 98 98
112 112 112
99 99 99
90 90 90
98 98 98
111 111 111
106 106 106
97 97 97
98 98 98
88 88 88
60 60 60
39 39 39
62 62 62
49 49 49
44 44 44
32 32 32
31 31 31
30 30 30
31 31 31
31 31 31
30 30 30
29 29 29
27 27 27
25 25 25
24 24 24
27 27 27
31 31 31
27 27 27
24 24 24
26 26 26
27 27 27
25 25 25
24 24 24
24 24 24
23 23 23
24 24 24
24 24 24
23 23 23
21 21 21
23 23 23
23 23 23
23 23 23
23 23 23
24 24 24
23 23 23
24 24 24
24 24 24
21 21 21
20 20 20
22 22 22
24 24 24
20 20 20
20 20 20
20 20 20
111 111 111
107 107 107
109 109 109
117 117 117
121 121 121
120 120 120
110 110 110
90 90 90
82 82 82
84 84 84
92 92 92
97 97 97
101 101 101
102 102 102
100 100 100
106 106 106
101 101 101
98 98 98
92 92 92
87 87 87
78 78 78
77 77 77
72 72 72
52 52 52
46 46 46
46 46 46
33 33 33
27 27 27
41 41 41
77 77 77
78 78 78
74 74 74
76 76 76
37 37 37
41 41 41
72 72 72
103 103 103
87 87 87
60 60 60
68 68 68
158 158 158
204 204 204
206 206 206
208 208 208
207 207 207
207 207 207
207 207 207
207 207 207
190 190 190
201 201 201
190 190 190
151 151 151
127 127 127
122 122 122
119 119 119
106 106 106
120 120 120
116 116 116
96 96 96
84 84 84
115 115 115
109 109 109
108 108 108
107 107 107
145 145 145
150 150 150
129 129 129
94 94 94
99 99 99
95 95 95
74 74 74
97 97 97
51 51 51
48 48 48
40 40 40
30 30 30
30 30 30
30 30 30
29 29 29
29 29 29
29 29 29
26 26 26
24 24 24
22 22 22
25 25 25
28 28 28
29 29 29
30 30 30
28 28 28
26 26 26
25 25 25
23 23 23
22 22 22
23 23 23
24 24 24
23 23 23
22 22 22
21 21 21
23 23 23
23 23 23
22 22 22
22 22 22
24 24 24
23 23 23
24 24 24
24 24 24
22 22 22
19 19 19
20 20 20
19 19 19
19 19 19
20 20 20
21 21 21
106 106 106
102 102 102
100 100 100
99 99 99
91 91 91
80 80 80
73 73 73
90 90 90
89 89 89
91 91 91
81 81 81
74 74 74
93 93 93
104 104 104
101 101 101
99 99 99
100 100 100
104 104 104
102 102 102
90 90 90
86 86 86
80 80 80
69 69 69
47 47 47
45 45 45
45 45 45
39 39 39
30 30 30
31 31 31
51 51 51
94 94 94
100 100 100
109 109 109
79 79 79
38 38 38
49 49 49
91 91 91
108 108 108
82 82 82
61 61 61
78 78 78
176 176 176
204 204 204
206 206 206
208 208 208
207 207 207
207 207 207
206 206 206
188 188 188
190 190 190
200 200 200
197 197 197
165 165 165
134 134 134
122 122 122
110 110 110
121 121 121
119 119 119
113 113 113
79 79 79
117 117 117
139 139 139
167 167 167
126 126 126
108 108 108
137 137 137
152 152 152
135 135 135
102 102 102
97 97 97
85 85 85
110 110 110
51 51 51
46 46 46
51 51 51
35 35 35
31 31 31
30 30 30
29 29 29
28 28 28
28 28 28
24 24 24
25 25 25
25 25 25
25 25 25
29 29 29
30 30 30
28 28 28
28 28 28
26 26 26
24 24 24
24 24 24
23 23 23
24 24 24
24 24 24
24 24 24
22 22 22
21 21 21
22 22 22
22 22 22
23 23 23
22 22 22
23 23 23
24 24 24
24 24 24
24 24 24
23 23 23
20 20 20
20 20 20
18 18 18
19 19 19
20 20 20
21 21 21
110 110 110
106 106 106
93 93 93
73 73 73
68 68 68
86 86 86
98 98 98
105 105 105
94 94 94
76 76 76
70 70 70
75 75 75
90 90 90
102 102 102
99 99 99
101 101 101
107 107 107
117 117 117
116 116 116
110 110 110
95 95 95
90 90 90
79 79 79
51 51 51
44 44 44
44 44 44
44 44 44
33 33 33
28 28 28
38 38 38
64 64 64
108 108 108
120 120 120
116 116 116
78 78 78
40 40 40
58 58 58
97 97 97
109 109 109
75 75 75
64 64 64
103 103 103
194 194 194
205 205 205
206 206 206
207 207 207
207 207 207
207 207 207
202 202 202
182 182 182
200 200 200
202 202 202
200 200 200
189 189 189
168 168 168
142 142 142
124 124 124
122 122 122
115 115 115
74 74 74
138 138 138
169 169 169
187 187 187
172 172 172
122 122 122
110 110 110
127 127 127
149 149 149
138 138 138
98 98 98
89 89 89
60 60 60
39 39 39
41 41 41
51 51 51
47 47 47
33 33 33
30 30 30
29 29 29
30 30 30
28 28 28
26 26 26
28 28 28
29 29 29
29 29 29
29 29 29
27 27 27
26 26 26
25 25 25
23 23 23
23 23 23
23 23 23
23 23 23
24 24 24
24 24 24
24 24 24
22 22 22
21 21 21
23 23 23
22 22 22
23 23 23
22 22 22
22 22 22
24 24 24
23 23 23
22 22 22
21 21 21
19 19 19
21 21 21
20 20 20
19 19 19
20 20 20
21 21 21
84 84 84
78 78 78
84 84 84
90 90 90
85 85 85
99 99 99
114 114 114
115 115 115
105 105 105
93 93 93
96 96 96
101 101 101
99 99 99
104 104 104
100 100 100
105 105 105
111 111 111
112 112 112
115 115 115
109 109 109
99 99 99
95 95 95
94 94 94
75 75 75
44 44 44
45 45 45
45 45 45
41 41 41
30 30 30
29 29 29
47 47 47
81 81 81
118 118 118
128 128 128
117 117 117
71 71 71
43 43 43
62 62 62
102 102 102
100 100 100
63 63 63
65 65 65
118 118 118
196 196 196
205 205 205
207 207 207
207 207 207
207 207 207
205 205 205
188 188 188
188 188 188
204 204 204
201 201 201
200 200 200
198 198 198
183 183 183
164 164 164
163 163 163
114 114 114
96 96 96
139 139 139
177 177 177
190 190 190
191 191 191
161 161 161
119 119 119
109 109 109
126 126 126
147 147 147
135 135 135
98 98 98
94 94 94
56 56 56
39 39 39
41 41 41
51 51 51
40 40 40
30 30 30
29 29 29
29 29 29
28 28 28
28 28 28
28 28 28
29 29 29
28 28 28
27 27 27
25 25 25
25 25 25
24 24 24
24 24 24
23 23 23
23 23 23
23 23 23
23 23 23
24 24 24
24 24 24
22 22 22
21 21 21
23 23 23
23 23 23
23 23 23
22 22 22
22 22 22
23 23 23
22 22 22
22 22 22
21 21 21
18 18 18
19 19 19
19 19 19
19 19 19
20 20 20
20 20 20
97 97 97
98 98 98
102 102 102
98 98 98
99 99 99
105 105 105
111 111 111
112 112 112
112 112 112
108 108 108
110 110 110
109 109 109
103 103 103
100 100 100
97 97 97
103 103 103
109 109 109
111 111 111
116 116 116
112 112 112
103 103 103
100 100 100
105 105 105
119 119 119
107 107 107
51 51 51
46 46 46
45 45 45
41 41 41
32 32 32
33 33 33
53 53 53
90 90 90
126 126 126
127 127 127
114 114 114
60 60 60
47 47 47
63 63 63
97 97 97
90 90 90
57 57 57
70 70 70
144 144 144
201 201 201
206 206 206
206 206 206
207 207 207
205 205 205
205 205 205
184 184 184
194 194 194
203 203 203
203 203 203
201 201 201
200 200 200
196 196 196
189 189 189
151 151 151
137 137 137
141 141 141
194 194 194
194 194 194
194 194 194
189 189 189
153 153 153
118 118 118
108 108 108
129 129 129
149 149 149
136 136 136
91 91 91
80 80 80
33 33 33
40 40 40
46 46 46
50 50 50
32 32 32
28 28 28
30 30 30
29 29 29
29 29 29
26 26 26
26 26 26
28 28 28
28 28 28
25 25 25
24 24 24
25 25 25
25 25 25
24 24 24
23 23 23
24 24 24
24 24 24
23 23 23
22 22 22
22 22 22
21 21 21
23 23 23
22 22 22
23 23 23
24 24 24
23 23 23
23 23 23
23 23 23
22 22 22
21 21 21
19 19 19
19 19 19
19 19 19
20 20 20
19 19 19
18 18 18
114 114 114
109 109 109
110 110 110
109 109 109
110 110 110
111 111 111
110 110 110
111 111 111
113 113 113
115 115 115
111 111 111
96 96 96
82 82 82
74 74 74
75 75 75
92 92 92
100 100 100
108 108 108
113 113 113
111 111 111
106 106 106
111 111 111
126 126 126
176 176 176
148 148 148
88 88 88
64 64 64
48 48 48
46 46 46
42 42 42
33 33 33
40 40 40
55 55 55
96 96 96
122 122 122
123 123 123
104 104 104
49 49 49
48 48 48
58 58 58
88 88 88
73 73 73
58 58 58
66 66 66
161 161 161
203 203 203
205 205 205
206 206 206
207 207 207
206 206 206
202 202 202
182 182 182
201 201 201
204 204 204
204 204 204
201 201 201
200 200 200
179 179 179
179 179 179
132 132 132
113 113 113
190 190 190
196 196 196
196 196 196
192 192 192
183 183 183
136 136 136
116 116 116
108 108 108
134 134 134
147 147 147
121 121 121
92 92 92
48 48 48
34 34 34
43 43 43
51 51 51
42 42 42
30 30 30
29 29 29
28 28 28
27 27 27
27 27 27
26 26 26
28 28 28
26 26 26
25 25 25
25 25 25
24 24 24
24 24 24
25 25 25
25 25 25
25 25 25
24 24 24
23 23 23
22 22 22
23 23 23
22 22 22
23 23 23
25 25 25
25 25 25
25 25 25
25 25 25
24 24 24
23 23 23
21 21 21
20 20 20
19 19 19
19 19 19
21 21 21
21 21 21
20 20 20
19 19 19
118 118 118
109 109 109
111 111 111
108 108 108
109 109 109
112 112 112
111 111 111
112 112 112
119 119 119
120 120 120
98 98 98
81 81 81
89 89 89
86 86 86
84 84 84
92 92 92
95 95 95
92 92 92
109 109 109
114 114 114
113 113 113
123 123 123
146 146 146
181 181 181
164 164 164
116 116 116
101 101 101
91 91 91
57 57 57
47 47 47
44 44 44
35 35 35
42 42 42
54 54 54
82 82 82
111 111 111
110 110 110
79 79 79
35 35 35
46 46 46
51 51 51
62 62 62
52 52 52
55 55 55
75 75 75
171 171 171
203 203 203
205 205 205
206 206 206
206 206 206
203 203 203
200 200 200
181 181 181
203 203 203
204 204 204
201 201 201
198 198 198
171 171 171
146 146 146
102 102 102
129 129 129
193 193 193
197 197 197
197 197 197
193 193 193
192 192 192
173 173 173
119 119 119
114 114 114
106 106 106
144 144 144
143 143 143
94 94 94
75 75 75
28 28 28
32 32 32
48 48 48
50 50 50
32 32 32
28 28 28
29 29 29
28 28 28
26 26 26
25 25 25
28 28 28
27 27 27
26 26 26
23 23 23
22 22 22
25 25 25
27 27 27
26 26 26
25 25 25
24 24 24
23 23 23
24 24 24
24 24 24
24 24 24
24 24 24
25 25 25
25 25 25
25 25 25
25 25 25
25 25 25
24 24 24
23 23 23
19 19 19
19 19 19
21 21 21
23 23 23
19 19 19
17 17 17
16 16 16
121 121 121
117 117 117
117 117 117
113 113 113
121 121 121
120 120 120
127 127 127
121 121 121
98 98 98
86 86 86
92 92 92
99 99 99
107 107 107
101 101 101
102 102 102
107 107 107
99 99 99
90 90 90
100 100 100
101 101 101
93 93 93
94 94 94
151 151 151
182 182 182
174 174 174
131 131 131
116 116 116
105 105 105
111 111 111
87 87 87
65 65 65
48 48 48
39 39 39
44 44 44
50 50 50
60 60 60
85 85 85
89 89 89
38 38 38
34 34 34
46 46 46
48 48 48
48 48 48
51 51 51
55 55 55
80 80 80
180 180 180
201 201 201
205 205 205
204 204 204
203 203 203
202 202 202
187 187 187
200 200 200
195 195 195
193 193 193
192 192 192
165 165 165
110 110 110
88 88 88
172 172 172
196 196 196
198 198 198
198 198 198
194 194 194
193 193 193
188 188 188
147 147 147
115 115 115
103 103 103
124 124 124
147 147 147
127 127 127
86 86 86
44 44 44
22 22 22
41 41 41
53 53 53
45 45 45
29 29 29
29 29 29
25 25 25
24 24 24
23 23 23
27 27 27
30 30 30
26 26 26
25 25 25
26 26 26
27 27 27
27 27 27
26 26 26
26 26 26
23 23 23
23 23 23
24 24 24
25 25 25
24 24 24
25 25 25
25 25 25
25 25 25
25 25 25
26 26 26
26 26 26
24 24 24
22 22 22
18 18 18
15 15 15
19 19 19
20 20 20
18 18 18
17 17 17
18 18 18
111 111 111
108 108 108
113 113 113
120 120 120
122 122 122
114 114 114
98 98 98
87 87 87
89 89 89
92 92 92
94 94 94
92 92 92
91 91 91
90 90 90
100 100 100
109 109 109
107 107 107
106 106 106
99 99 99
92 92 92
87 87 87
87 87 87
171 171 171
183 183 183
181 181 181
150 150 150
126 126 126
122 122 122
114 114 114
115 115 115
110 110 110
98 98 98
78 78 78
52 52 52
47 47 47
47 47 47
48 48 48
52 52 52
39 39 39
27 27 27
34 34 34
47 47 47
48 48 48
48 48 48
51 51 51
51 51 51
116 116 116
148 148 148
171 171 171
190 190 190
200 200 200
194 194 194
188 188 188
177 177 177
208 208 208
170 170 170
166 166 166
159 159 159
94 94 94
109 109 109
190 190 190
197 197 197
198 198 198
199 199 199
194 194 194
193 193 193
190 190 190
171 171 171
121 121 121
105 105 105
168 168 168
139 139 139
145 145 145
105 105 105
81 81 81
33 33 33
34 34 34
53 53 53
51 51 51
35 35 35
29 29 29
27 27 27
25 25 25
22 22 22
23 23 23
27 27 27
30 30 30
29 29 29
27 27 27
27 27 27
27 27 27
25 25 25
23 23 23
23 23 23
24 24 24
24 24 24
25 25 25
24 24 24
24 24 24
24 24 24
24 24 24
25 25 25
26 26 26
26 26 26
24 24 24
22 22 22
21 21 21
18 18 18
19 19 19
19 19 19
18 18 18
16 16 16
18 18 18
111 111 111
111 111 111
104 104 104
94 94 94
79 79 79
76 76 76
82 82 82
95 95 95
88 88 88
90 90 90
83 83 83
78 78 78
86 86 86
95 95 95
98 98 98
101 101 101
106 106 106
112 112 112
110 110 110
100 100 100
99 99 99
117 117 117
182 182 182
184 184 184
182 182 182
181 181 181
130 130 130
128 128 128
144 144 144
124 124 124
117 117 117
117 117 117
117 117 117
112 112 112
78 78 78
51 51 51
46 46 46
46 46 46
44 44 44
33 33 33
28 28 28
37 37 37
46 46 46
47 47 47
46 46 46
49 49 49
73 73 73
144 144 144
142 142 142
149 149 149
149 149 149
144 144 144
171 171 171
166 166 166
177 177 177
138 138 138
134 134 134
106 106 106
111 111 111
132 132 132
193 193 193
198 198 198
198 198 198
198 198 198
194 194 194
193 193 193
190 190 190
183 183 183
126 126 126
110 110 110
186 186 186
163 163 163
146 146 146
126 126 126
94 94 94
81 81 81
88 88 88
61 61 61
53 53 53
45 45 45
30 30 30
25 25 25
26 26 26
25 25 25
26 26 26
29 29 29
28 28 28
26 26 26
26 26 26
25 25 25
25 25 25
25 25 25
23 23 23
24 24 24
24 24 24
24 24 24
24 24 24
24 24 24
22 22 22
21 21 21
22 22 22
25 25 25
25 25 25
26 26 26
24 24 24
22 22 22
21 21 21
18 18 18
19 19 19
19 19 19
18 18 18
17 17 17
18 18 18
104 104 104
99 99 99
90 90 90
81 81 81
78 78 78
99 99 99
110 110 110
112 112 112
102 102 102
84 84 84
80 80 80
86 86 86
97 97 97
104 104 104
107 107 107
105 105 105
104 104 104
111 111 111
114 114 114
115 115 115
116 116 116
154 154 154
183 183 183
183 183 183
182 182 182
183 183 183
171 171 171
128 128 128
133 133 133
158 158 158
132 132 132
117 117 117
117 117 117
116 116 116
111 111 111
90 90 90
52 52 52
45 45 45
44 44 44
43 43 43
32 32 32
28 28 28
40 40 40
47 47 47
46 46 46
46 46 46
52 52 52
125 125 125
150 150 150
167 167 167
187 187 187
169 169 169
137 137 137
104 104 104
114 114 114
107 107 107
103 103 103
146 146 146
179 179 179
195 195 195
197 197 197
198 198 198
199 199 199
197 197 197
195 195 195
193 193 193
190 190 190
180 180 180
126 126 126
132 132 132
191 191 191
187 187 187
139 139 139
141 141 141
94 94 94
97 97 97
132 132 132
65 65 65
53 53 53
51 51 51
35 35 35
27 27 27
27 27 27
26 26 26
27 27 27
27 27 27
26 26 26
26 26 26
27 27 27
24 24 24
24 24 24
24 24 24
23 23 23
25 25 25
25 25 25
26 26 26
22 22 22
19 19 19
21 21 21
21 21 21
22 22 22
22 22 22
23 23 23
24 24 24
22 22 22
21 21 21
19 19 19
16 16 16
18 18 18
19 19 19
17 17 17
18 18 18
18 18 18
81 81 81
84 84 84
94 94 94
99 99 99
97 97 97
106 106 106
115 115 115
115 115 115
111 111 111
102 102 102
87 87 87
83 83 83
90 90 90
94 94 94
97 97 97
106 106 106
116 116 116
123 123 123
139 139 139
147 147 147
136 136 136
173 173 173
183 183 183
183 183 183
184 184 184
183 183 183
181 181 181
153 153 153
126 126 126
145 145 145
172 172 172
138 138 138
116 116 116
119 119 119
116 116 116
115 115 115
104 104 104
76 76 76
56 56 56
45 45 45
42 42 42
33 33 33
27 27 27
41 41 41
45 45 45
45 45 45
47 47 47
67 67 67
156 156 156
159 159 159
178 178 178
198 198 198
189 189 189
176 176 176
133 133 133
175 175 175
194 194 194
197 197 197
199 199 199
199 199 199
198 198 198
198 198 198
198 198 198
197 197 197
195 195 195
193 193 193
189 189 189
165 165 165
121 121 121
151 151 151
196 196 196
197 197 197
164 164 164
143 143 143
113 113 113
87 87 87
78 78 78
48 48 48
50 50 50
54 54 54
47 47 47
29 29 29
26 26 26
26 26 26
26 26 26
26 26 26
27 27 27
27 27 27
26 26 26
25 25 25
23 23 23
25 25 25
25 25 25
24 24 24
25 25 25
25 25 25
22 22 22
19 19 19
21 21 21
19 19 19
19 19 19
23 23 23
25 25 25
24 24 24
21 21 21
20 20 20
18 18 18
16 16 16
18 18 18
17 17 17
16 16 16
18 18 18
18 18 18
86 86 86
92 92 92
100 100 100
105 105 105
109 109 109
111 111 111
108 108 108
106 106 106
110 110 110
109 109 109
100 100 100
90 90 90
85 85 85
83 83 83
92 92 92
108 108 108
128 128 128
136 136 136
138 138 138
139 139 139
145 145 145
183 183 183
184 184 184
184 184 184
184 184 184
183 183 183
182 182 182
180 180 180
143 143 143
126 126 126
152 152 152
176 176 176
152 152 152
117 117 117
120 120 120
119 119 119
115 115 115
112 112 112
104 104 104
90 90 90
64 64 64
46 46 46
36 36 36
30 30 30
42 42 42
46 46 46
44 44 44
45 45 45
92 92 92
158 158 158
163 163 163
171 171 171
199 199 199
200 200 200
195 195 195
196 196 196
198 198 198
199 199 199
201 201 201
199 199 199
199 199 199
199 199 199
199 199 199
197 197 197
194 194 194
192 192 192
186 186 186
140 140 140
117 117 117
179 179 179
199 199 199
198 198 198
192 192 192
144 144 144
142 142 142
95 95 95
83 83 83
38 38 38
41 41 41
50 50 50
53 53 53
38 38 38
27 27 27
26 26 26
27 27 27
28 28 28
28 28 28
28 28 28
27 27 27
26 26 26
24 24 24
24 24 24
25 25 25
24 24 24
25 25 25
25 25 25
21 21 21
17 17 17
19 19 19
20 20 20
22 22 22
25 25 25
25 25 25
22 22 22
19 19 19
18 18 18
17 17 17
16 16 16
18 18 18
16 16 16
18 18 18
19 19 19
18 18 18
90 90 90
98 98 98
107 107 107
110 110 110
113 113 113
118 118 118
114 114 114
109 109 109
105 105 105
104 104 104
111 111 111
107 107 107
99 99 99
88 88 88
95 95 95
96 96 96
101 101 101
104 104 104
111 111 111
111 111 111
172 172 172
183 183 183
183 183 183
184 184 184
183 183 183
183 183 183
182 182 182
181 181 181
176 176 176
135 135 135
133 133 133
166 166 166
177 177 177
160 160 160
123 123 123
119 119 119
118 118 118
117 117 117
115 115 115
113 113 113
111 111 111
104 104 104
91 91 91
76 76 76
63 63 63
51 51 51
45 45 45
44 44 44
50 50 50
107 107 107
160 160 160
160 160 160
169 169 169
196 196 196
201 201 201
199 199 199
200 200 200
200 200 200
200 200 200
199 199 199
199 199 199
198 198 198
197 197 197
196 196 196
193 193 193
192 192 192
171 171 171
119 119 119
141 141 141
200 200 200
200 200 200
199 199 199
195 195 195
163 163 163
142 142 142
118 118 118
89 89 89
55 55 55
36 36 36
43 43 43
52 52 52
53 53 53
33 33 33
24 24 24
27 27 27
28 28 28
28 28 28
28 28 28
27 27 27
26 26 26
24 24 24
24 24 24
25 25 25
25 25 25
24 24 24
22 22 22
19 19 19
18 18 18
24 24 24
24 24 24
24 24 24
25 25 25
23 23 23
20 20 20
18 18 18
18 18 18
17 17 17
16 16 16
19 19 19
17 17 17
18 18 18
18 18 18
17 17 17
95 95 95
100 100 100
105 105 105
107 107 107
116 116 116
118 118 118
120 120 120
117 117 117
109 109 109
103 103 103
99 99 99
97 97 97
88 88 88
89 89 89
96 96 96
93 93 93
95 95 95
99 99 99
98 98 98
128 128 128
182 182 182
184 184 184
183 183 183
184 184 184
183 183 183
183 183 183
183 183 183
182 182 182
181 181 181
172 172 172
126 126 126
137 137 137
174 174 174
180 180 180
170 170 170
137 137 137
116 116 116
117 117 117
117 117 117
116 116 116
114 114 114
113 113 113
112 112 112
111 111 111
109 109 109
93 93 93
51 51 51
43 43 43
43 43 43
77 77 77
113 113 113
156 156 156
166 166 166
166 166 166
198 198 198
199 199 199
200 200 200
200 200 200
199 199 199
199 199 199
199 199 199
198 198 198
196 196 196
194 194 194
193 193 193
183 183 183
135 135 135
130 130 130
190 190 190
199 199 199
200 200 200
199 199 199
195 195 195
171 171 171
132 132 132
135 135 135
92 92 92
68 68 68
30 30 30
38 38 38
48 48 48
57 57 57
60 60 60
23 23 23
27 27 27
26 26 26
25 25 25
27 27 27
26 26 26
25 25 25
24 24 24
25 25 25
24 24 24
24 24 24
21 21 21
18 18 18
19 19 19
21 21 21
24 24 24
26 26 26
25 25 25
24 24 24
20 20 20
19 19 19
19 19 19
18 18 18
17 17 17
14 14 14
17 17 17
17 17 17
18 18 18
18 18 18
17 17 17
96 96 96
97 97 97
104 104 104
101 101 101
106 106 106
111 111 111
111 111 111
115 115 115
116 116 116
105 105 105
93 93 93
98 98 98
105 105 105
107 107 107
110 110 110
111 111 111
115 115 115
119 119 119
109 109 109
155 155 155
183 183 183
184 184 184
183 183 183
183 183 183
183 183 183
183 183 183
183 183 183
182 182 182
182 182 182
182 182 182
170 170 170
129 129 129
144 144 144
176 176 176
179 179 179
178 178 178
153 153 153
120 120 120
118 118 118
118 118 118
116 116 116
115 115 115
114 114 114
112 112 112
112 112 112
110 110 110
98 98 98
59 59 59
44 44 44
63 63 63
101 101 101
112 112 112
157 157 157
167 167 167
159 159 159
193 193 193
199 199 199
199 199 199
199 199 199
198 198 198
199 199 199
197 197 197
193 193 193
193 193 193
189 189 189
153 153 153
123 123 123
178 178 178
199 199 199
199 199 199
200 200 200
199 199 199
198 198 198
182 182 182
154 154 154
142 142 142
110 110 110
75 75 75
30 30 30
36 36 36
42 42 42
52 52 52
76 76 76
43 43 43
27 27 27
24 24 24
24 24 24
25 25 25
25 25 25
25 25 25
24 24 24
23 23 23
21 21 21
20 20 20
19 19 19
20 20 20
22 22 22
23 23 23
24 24 24
25 25 25
24 24 24
21 21 21
19 19 19
20 20 20
19 19 19
19 19 19
17 17 17
12 12 12
17 17 17
18 18 18
18 18 18
18 18 18
17 17 17
98 98 98
97 97 97
97 97 97
97 97 97
103 103 103
108 108 108
107 107 107
107 107 107
109 109 109
108 108 108
105 105 105
102 102 102
107 107 107
110 110 110
112 112 112
114 114 114
117 117 117
121 121 121
121 121 121
170 170 170
184 184 184
183 183 183
184 184 184
183 183 183
183 183 183
184 184 184
184 184 184
183 183 183
183 183 183
182 182 182
180 180 180
164 164 164
124 124 124
155 155 155
180 180 180
180 180 180
179 179 179
169 169 169
126 126 126
114 114 114
116 116 116
115 115 115
116 116 116
114 114 114
114 114 114
112 112 112
111 111 111
103 103 103
68 68 68
111 111 111
106 106 106
96 96 96
114 114 114
153 153 153
165 165 165
159 159 159
189 189 189
198 198 198
197 197 197
197 197 197
196 196 196
196 196 196
193 193 193
189 189 189
157 157 157
123 123 123
172 172 172
202 202 202
204 204 204
200 200 200
200 200 200
200 200 200
199 199 199
182 182 182
182 182 182
134 134 134
137 137 137
75 75 75
34 34 34
35 35 35
40 40 40
52 52 52
61 61 61
82 82 82
80 80 80
54 54 54
28 28 28
24 24 24
24 24 24
24 24 24
23 23 23
21 21 21
19 19 19
21 21 21
22 22 22
22 22 22
22 22 22
24 24 24
24 24 24
23 23 23
21 21 21
20 20 20
19 19 19
19 19 19
19 19 19
18 18 18
16 16 16
12 12 12
14 14 14
17 17 17
18 18 18
18 18 18
19 19 19
90 90 90
93 93 93
95 95 95
95 95 95
94 94 94
99 99 99
103 103 103
103 103 103
105 105 105
110 110 110
113 113 113
108 108 108
106 106 106
106 106 106
109 109 109
109 109 109
109 109 109
118 118 118
129 129 129
182 182 182
185 185 185
185 185 185
184 184 184
183 183 183
183 183 183
185 185 185
184 184 184
183 183 183
182 182 182
182 182 182
182 182 182
182 182 182
166 166 166
128 128 128
166 166 166
181 181 181
181 181 181
180 180 180
176 176 176
137 137 137
114 114 114
116 116 116
116 116 116
115 115 115
115 115 115
112 112 112
111 111 111
111 111 111
88 88 88
140 140 140
114 114 114
90 90 90
110 110 110
115 115 115
155 155 155
165 165 165
150 150 150
178 178 178
185 185 185
183 183 183
180 180 180
173 173 173
158 158 158
135 135 135
123 123 123
168 168 168
200 200 200
202 202 202
205 205 205
202 202 202
201 201 201
200 200 200
198 198 198
178 178 178
186 186 186
153 153 153
140 140 140
103 103 103
31 31 31
35 35 35
44 44 44
52 52 52
51 51 51
85 85 85
92 92 92
102 102 102
91 91 91
64 64 64
30 30 30
21 21 21
20 20 20
19 19 19
23 23 23
24 24 24
23 23 23
18 18 18
19 19 19
23 23 23
21 21 21
19 19 19
21 21 21
20 20 20
19 19 19
19 19 19
18 18 18
17 17 17
14 14 14
14 14 14
18 18 18
19 19 19
19 19 19
19 19 19
19 19 19
91 91 91
98 98 98
98 98 98
99 99 99
100 100 100
101 101 101
103 103 103
103 103 103
107 107 107
111 111 111
112 112 112
111 111 111
110 110 110
111 111 111
111 111 111
111 111 111
110 110 110
122 122 122
144 144 144
183 183 183
184 184 184
184 184 184
183 183 183
183 183 183
184 184 184
183 183 183
183 183 183
183 183 183
183 183 183
182 182 182
183 183 183
183 183 183
182 182 182
166 166 166
131 131 131
173 173 173
182 182 182
181 181 181
180 180 180
176 176 176
148 148 148
114 114 114
116 116 116
114 114 114
115 115 115
114 114 114
113 113 113
112 112 112
86 86 86
72 72 72
58 58 58
72 72 72
107 107 107
110 110 110
113 113 113
150 150 150
161 161 161
147 147 147
126 126 126
131 131 131
127 127 127
122 122 122
123 123 123
121 121 121
173 173 173
199 199 199
206 206 206
205 205 205
204 204 204
200 200 200
201 201 201
199 199 199
180 180 180
157 157 157
186 186 186
169 169 169
143 143 143
125 125 125
54 54 54
68 68 68
60 60 60
52 52 52
52 52 52
80 80 80
86 86 86
98 98 98
105 105 105
115 115 115
81 81 81
19 19 19
20 20 20
23 23 23
24 24 24
23 23 23
23 23 23
19 19 19
18 18 18
19 19 19
20 20 20
19 19 19
20 20 20
20 20 20
19 19 19
19 19 19
17 17 17
16 16 16
17 17 17
21 21 21
19 19 19
18 18 18
18 18 18
18 18 18
18 18 18
99 99 99
104 104 104
106 106 106
104 104 104
97 97 97
100 100 100
101 101 101
104 104 104
101 101 101
104 104 104
110 110 110
112 112 112
114 114 114
110 110 110
110 110 110
115 115 115
118 118 118
118 118 118
164 164 164
184 184 184
184 184 184
184 184 184
183 183 183
183 183 183
183 183 183
182 182 182
183 183 183
184 184 184
184 184 184
182 182 182
183 183 183
183 183 183
182 182 182
182 182 182
167 167 167
146 146 146
179 179 179
182 182 182
181 181 181
179 179 179
177 177 177
148 148 148
116 116 116
116 116 116
116 116 116
115 115 115
113 113 113
110 110 110
104 104 104
87 87 87
52 52 52
43 43 43
86 86 86
109 109 109
112 112 112
115 115 115
153 153 153
161 161 161
145 145 145
116 116 116
120 120 120
121 121 121
133 133 133
177 177 177
202 202 202
205 205 205
206 206 206
205 205 205
204 204 204
202 202 202
200 200 200
197 197 197
163 163 163
140 140 140
187 187 187
185 185 185
140 140 140
138 138 138
100 100 100
90 90 90
65 65 65
53 53 53
52 52 52
71 71 71
94 94 94
90 90 90
103 103 103
109 109 109
130 130 130
37 37 37
23 23 23
23 23 23
23 23 23
22 22 22
23 23 23
18 18 18
18 18 18
19 19 19
19 19 19
19 19 19
20 20 20
19 19 19
18 18 18
18 18 18
16 16 16
16 16 16
20 20 20
19 19 19
18 18 18
18 18 18
18 18 18
18 18 18
18 18 18
111 111 111
102 102 102
101 101 101
101 101 101
100 100 100
92 92 92
88 88 88
97 97 97
100 100 100
107 107 107
112 112 112
113 113 113
112 112 112
107 107 107
108 108 108
110 110 110
115 115 115
110 110 110
179 179 179
183 183 183
185 185 185
185 185 185
183 183 183
182 182 182
182 182 182
183 183 183
183 183 183
183 183 183
183 183 183
183 183 183
182 182 182
182 182 182
182 182 182
182 182 182
182 182 182
172 172 172
157 157 157
183 183 183
182 182 182
181 181 181
179 179 179
177 177 177
157 157 157
114 114 114
116 116 116
115 115 115
114 114 114
111 111 111
111 111 111
109 109 109
60 60 60
36 36 36
52 52 52
100 100 100
109 109 109
106 106 106
114 114 114
151 151 151
157 157 157
151 151 151
118 118 118
168 168 168
197 197 197
205 205 205
206 206 206
206 206 206
204 204 204
204 204 204
202 202 202
201 201 201
200 200 200
198 198 198
184 184 184
125 125 125
177 177 177
191 191 191
146 146 146
143 143 143
131 131 131
85 85 85
65 65 65
52 52 52
52 52 52
64 64 64
92 92 92
90 90 90
100 100 100
103 103 103
134 134 134
98 98 98
20 20 20
23 23 23
20 20 20
20 20 20
22 22 22
18 18 18
19 19 19
19 19 19
19 19 19
20 20 20
20 20 20
19 19 19
18 18 18
18 18 18
17 17 17
17 17 17
18 18 18
19 19 19
19 19 19
18 18 18
17 17 17
17 17 17
17 17 17
112 112 112
102 102 102
101 101 101
97 97 97
99 99 99
100 100 100
95 95 95
94 94 94
97 97 97
103 103 103
109 109 109
109 109 109
109 109 109
108 108 108
106 106 106
110 110 110
117 117 117
125 125 125
182 182 182
183 183 183
183 183 183
184 184 184
184 184 184
183 183 183
183 183 183
183 183 183
183 183 183
183 183 183
183 183 183
182 182 182
182 182 182
182 182 182
182 182 182
182 182 182
182 182 182
183 183 183
183 183 183
183 183 183
182 182 182
182 182 182
180 180 180
179 179 179
177 177 177
157 157 157
117 117 117
115 115 115
115 115 115
113 113 113
112 112 112
109 109 109
73 73 73
28 28 28
43 43 43
86 86 86
107 107 107
109 109 109
110 110 110
116 116 116
153 153 153
158 158 158
158 158 158
161 161 161
202 202 202
207 207 207
206 206 206
206 206 206
205 205 205
202 202 202
201 201 201
199 199 199
198 198 198
198 198 198
186 186 186
134 134 134
154 154 154
191 191 191
172 172 172
135 135 135
140 140 140
97 97 97
66 66 66
52 52 52
54 54 54
58 58 58
90 90 90
92 92 92
88 88 88
103 103 103
109 109 109
130 130 130
38 38 38
21 21 21
21 21 21
20 20 20
19 19 19
19 19 19
19 19 19
18 18 18
19 19 19
20 20 20
19 19 19
17 17 17
18 18 18
19 19 19
17 17 17
18 18 18
19 19 19
17 17 17
16 16 16
17 17 17
16 16 16
15 15 15
13 13 13
118 118 118
112 112 112
113 113 113
105 105 105
99 99 99
103 103 103
102 102 102
99 99 99
100 100 100
106 106 106
106 106 106
103 103 103
109 109 109
108 108 108
106 106 106
111 111 111
113 113 113
137 137 137
181 181 181
182 182 182
182 182 182
182 182 182
183 183 183
182 182 182
183 183 183
183 183 183
182 182 182
183 183 183
183 183 183
182 182 182
182 182 182
182 182 182
182 182 182
182 182 182
183 183 183
183 183 183
182 182 182
183 183 183
183 183 183
182 182 182
182 182 182
180 180 180
179 179 179
177 177 177
161 161 161
117 117 117
114 114 114
115 115 115
113 113 113
109 109 109
89 89 89
25 25 25
39 39 39
76 76 76
106 106 106
109 109 109
109 109 109
106 106 106
114 114 114
154 154 154
159 159 159
156 156 156
167 167 167
205 205 205
206 206 206
206 206 206
205 205 205
201 201 201
200 200 200
199 199 199
198 198 198
189 189 189
172 172 172
161 161 161
140 140 140
183 183 183
186 186 186
135 135 135
140 140 140
116 116 116
65 65 65
52 52 52
53 53 53
51 51 51
86 86 86
95 95 95
88 88 88
93 93 93
97 97 97
147 147 147
63 63 63
20 20 20
20 20 20
20 20 20
19 19 19
19 19 19
19 19 19
18 18 18
18 18 18
16 16 16
17 17 17
16 16 16
19 19 19
19 19 19
18 18 18
16 16 16
17 17 17
18 18 18
17 17 17
17 17 17
14 14 14
13 13 13
12 12 12
110 110 110
113 113 113
123 123 123
115 115 115
101 101 101
101 101 101
103 103 103
104 104 104
106 106 106
108 108 108
107 107 107
106 106 106
109 109 109
103 103 103
106 106 106
116 116 116
116 116 116
144 144 144
182 182 182
183 183 183
182 182 182
183 183 183
183 183 183
182 182 182
182 182 182
183 183 183
183 183 183
183 183 183
183 183 183
182 182 182
181 181 181
181 181 181
181 181 181
181 181 181
182 182 182
183 183 183
183 183 183
182 182 182
183 183 183
182 182 182
182 182 182
182 182 182
181 181 181
179 179 179
178 178 178
161 161 161
117 117 117
114 114 114
115 115 115
111 111 111
102 102 102
43 43 43
32 32 32
70 70 70
105 105 105
110 110 110
109 109 109
109 109 109
106 106 106
121 121 121
156 156 156
158 158 158
156 156 156
182 182 182
204 204 204
206 206 206
204 204 204
202 202 202
201 201 201
199 199 199
189 189 189
175 175 175
193 193 193
170 170 170
136 136 136
167 167 167
188 188 188
150 150 150
140 140 140
129 129 129
71 71 71
53 53 53
53 53 53
50 50 50
78 78 78
95 95 95
93 93 93
89 89 89
95 95 95
146 146 146
100 100 100
18 18 18
20 20 20
19 19 19
19 19 19
19 19 19
19 19 19
19 19 19
17 17 17
17 17 17
17 17 17
18 18 18
17 17 17
19 19 19
18 18 18
18 18 18
18 18 18
17 17 17
17 17 17
14 14 14
12 12 12
12 12 12
12 12 12
99 99 99
107 107 107
118 118 118
116 116 116
102 102 102
95 95 95
99 99 99
109 109 109
108 108 108
108 108 108
107 107 107
110 110 110
112 112 112
107 107 107
110 110 110
117 117 117
120 120 120
149 149 149
182 182 182
182 182 182
183 183 183
183 183 183
182 182 182
182 182 182
182 182 182
182 182 182
183 183 183
183 183 183
183 183 183
181 181 181
179 179 179
180 180 180
181 181 181
181 181 181
182 182 182
183 183 183
183 183 183
181 181 181
167 167 167
176 176 176
180 180 180
181 181 181
181 181 181
180 180 180
178 178 178
178 178 178
163 163 163
118 118 118
114 114 114
113 113 113
107 107 107
75 75 75
31 31 31
65 65 65
106 106 106
110 110 110
109 109 109
109 109 109
109 109 109
105 105 105
118 118 118
158 158 158
158 158 158
153 153 153
194 194 194
204 204 204
204 204 204
203 203 203
199 199 199
183 183 183
182 182 182
196 196 196
196 196 196
173 173 173
137 137 137
152 152 152
186 186 186
164 164 164
140 140 140
139 139 139
81 81 81
52 52 52
54 54 54
52 52 52
65 65 65
95 95 95
94 94 94
90 90 90
92 92 92
134 134 134
138 138 138
26 26 26
20 20 20
20 20 20
20 20 20
19 19 19
16 16 16
15 15 15
17 17 17
19 19 19
18 18 18
18 18 18
18 18 18
18 18 18
17 17 17
17 17 17
17 17 17
16 16 16
15 15 15
11 11 11
11 11 11
12 12 12
13 13 13
91 91 91
93 93 93
96 96 96
92 92 92
90 90 90
93 93 93
97 97 97
104 104 104
106 106 106
103 103 103
96 96 96
96 96 96
96 96 96
94 94 94
98 98 98
104 104 104
101 101 101
151 151 151
179 179 179
180 180 180
181 181 181
182 182 182
162 162 162
182 182 182
182 182 182
182 182 182
183 183 183
183 183 183
183 183 183
182 182 182
181 181 181
181 181 181
183 183 183
183 183 183
183 183 183
182 182 182
182 182 182
181 181 181
179 179 179
160 160 160
169 169 169
178 178 178
180 180 180
181 181 181
179 179 179
178 178 178
177 177 177
164 164 164
118 118 118
112 112 112
110 110 110
100 100 100
57 57 57
69 69 69
107 107 107
109 109 109
108 108 108
108 108 108
108 108 108
108 108 108
106 106 106
127 127 127
156 156 156
157 157 157
152 152 152
198 198 198
203 203 203
200 200 200
183 183 183
182 182 182
200 200 200
199 199 199
196 196 196
176 176 176
138 138 138
142 142 142
185 185 185
177 177 177
137 137 137
140 140 140
99 99 99
49 49 49
53 53 53
53 53 53
55 55 55
93 93 93
94 94 94
94 94 94
82 82 82
102 102 102
147 147 147
84 84 84
19 19 19
20 20 20
19 19 19
17 17 17
13 13 13
17 17 17
19 19 19
19 19 19
18 18 18
17 17 17
19 19 19
18 18 18
17 17 17
17 17 17
16 16 16
13 13 13
12 12 12
10 10 10
10 10 10
10 10 10
12 12 12
90 90 90
88 88 88
91 91 91
97 97 97
94 94 94
90 90 90
88 88 88
93 93 93
95 95 95
95 95 95
91 91 91
92 92 92
83 83 83
77 77 77
84 84 84
98 98 98
97 97 97
152 152 152
180 180 180
180 180 180
180 180 180
173 173 173
165 165 165
182 182 182
182 182 182
183 183 183
183 183 183
183 183 183
183 183 183
183 183 183
183 183 183
183 183 183
183 183 183
183 183 183
182 182 182
182 182 182
181 181 181
181 181 181
180 180 180
179 179 179
168 168 168
156 156 156
179 179 179
180 180 180
180 180 180
179 179 179
177 177 177
177 177 177
164 164 164
118 118 118
112 112 112
101 101 101
131 131 131
111 111 111
102 102 102
109 109 109
110 110 110
109 109 109
108 108 108
108 108 108
107 107 107
104 104 104
135 135 135
156 156 156
156 156 156
171 171 171
198 198 198
175 175 175
192 192 192
200 200 200
201 201 201
200 200 200
197 197 197
177 177 177
138 138 138
136 136 136
178 178 178
188 188 188
134 134 134
141 141 141
99 99 99
56 56 56
52 52 52
53 53 53
52 52 52
90 90 90
94 94 94
95 95 95
90 90 90
83 83 83
132 132 132
123 123 123
30 30 30
18 18 18
18 18 18
20 20 20
17 17 17
18 18 18
19 19 19
19 19 19
17 17 17
18 18 18
18 18 18
19 19 19
18 18 18
17 17 17
14 14 14
12 12 12
11 11 11
10 10 10
11 11 11
11 11 11
10 10 10
100 100 100
95 95 95
95 95 95
98 98 98
99 99 99
92 92 92
86 86 86
91 91 91
101 101 101
97 97 97
94 94 94
95 95 95
85 85 85
79 79 79
76 76 76
81 81 81
85 85 85
154 154 154
181 181 181
180 180 180
181 181 181
160 160 160
179 179 179
181 181 181
182 182 182
182 182 182
183 183 183
183 183 183
183 183 183
183 183 183
183 183 183
183 183 183
182 182 182
182 182 182
181 181 181
181 181 181
181 181 181
181 181 181
181 181 181
181 181 181
180 180 180
172 172 172
155 155 155
173 173 173
178 178 178
178 178 178
177 177 177
178 178 178
176 176 176
163 163 163
119 119 119
101 101 101
128 128 128
108 108 108
93 93 93
110 110 110
109 109 109
108 108 108
109 109 109
109 109 109
108 108 108
106 106 106
101 101 101
144 144 144
155 155 155
150 150 150
158 158 158
197 197 197
200 200 200
201 201 201
201 201 201
200 200 200
197 197 197
178 178 178
137 137 137
132 132 132
167 167 167
189 189 189
143 143 143
131 131 131
94 94 94
66 66 66
52 52 52
53 53 53
52 52 52
83 83 83
94 94 94
95 95 95
92 92 92
88 88 88
109 109 109
140 140 140
59 59 59
18 18 18
18 18 18
20 20 20
19 19 19
17 17 17
17 17 17
17 17 17
17 17 17
18 18 18
17 17 17
17 17 17
16 16 16
13 13 13
10 10 10
11 11 11
10 10 10
10 10 10
10 10 10
11 11 11
12 12 12
97 97 97
94 94 94
94 94 94
95 95 95
99 99 99
95 95 95
94 94 94
94 94 94
98 98 98
98 98 98
99 99 99
102 102 102
98 98 98
80 80 80
86 86 86
94 94 94
91 91 91
157 157 157
180 180 180
180 180 180
181 181 181
157 157 157
181 181 181
182 182 182
183 183 183
182 182 182
183 183 183
183 183 183
183 183 183
182 182 182
183 183 183
183 183 183
181 181 181
182 182 182
180 180 180
181 181 181
181 181 181
181 181 181
181 181 181
181 181 181
181 181 181
179 179 179
175 175 175
158 158 158
169 169 169
178 178 178
178 178 178
177 177 177
177 177 177
176 176 176
164 164 164
120 120 120
98 98 98
65 65 65
70 70 70
107 107 107
108 108 108
109 109 109
109 109 109
109 109 109
107 107 107
107 107 107
106 106 106
113 113 113
153 153 153
154 154 154
153 153 153
199 199 199
200 200 200
201 201 201
201 201 201
199 199 199
195 195 195
179 179 179
136 136 136
131 131 131
149 149 149
190 190 190
149 149 149
117 117 117
92 92 92
73 73 73
54 54 54
53 53 53
53 53 53
76 76 76
94 94 94
96 96 96
92 92 92
89 89 89
100 100 100
139 139 139
95 95 95
17 17 17
20 20 20
19 19 19
19 19 19
16 16 16
18 18 18
18 18 18
18 18 18
18 18 18
16 16 16
15 15 15
13 13 13
11 11 11
11 11 11
11 11 11
12 12 12
11 11 11
11 11 11
11 11 11
13 13 13
90 90 90
94 94 94
94 94 94
94 94 94
93 93 93
96 96 96
97 97 97
96 96 96
94 94 94
92 92 92
92 92 92
100 100 100
97 97 97
87 87 87
88 88 88
95 95 95
103 103 103
161 161 161
180 180 180
182 182 182
180 180 180
162 162 162
182 182 182
183 183 183
183 183 183
183 183 183
183 183 183
183 183 183
183 183 183
183 183 183
182 182 182
181 181 181
181 181 181
180 180 180
180 180 180
181 181 181
180 180 180
181 181 181
181 181 181
181 181 181
181 181 181
180 180 180
180 180 180
179 179 179
157 157 157
167 167 167
177 177 177
177 177 177
177 177 177
176 176 176
176 176 176
161 161 161
114 114 114
76 76 76
35 35 35
87 87 87
108 108 108
109 109 109
109 109 109
108 108 108
106 106 106
105 105 105
105 105 105
97 97 97
127 127 127
153 153 153
152 152 152
172 172 172
198 198 198
201 201 201
201 201 201
199 199 199
195 195 195
179 179 179
136 136 136
132 132 132
136 136 136
183 183 183
146 146 146
110 110 110
85 85 85
79 79 79
55 55 55
52 52 52
52 52 52
70 70 70
93 93 93
96 96 96
95 95 95
90 90 90
100 100 100
127 127 127
134 134 134
29 29 29
18 18 18
19 19 19
19 19 19
18 18 18
17 17 17
18 18 18
18 18 18
16 16 16
14 14 14
13 13 13
11 11 11
12 12 12
12 12 12
11 11 11
12 12 12
12 12 12
13 13 13
14 14 14
14 14 14
87 87 87
92 92 92
97 97 97
95 95 95
97 97 97
102 102 102
101 101 101
94 94 94
84 84 84
84 84 84
88 88 88
90 90 90
90 90 90
90 90 90
89 89 89
88 88 88
110 110 110
165 165 165
181 181 181
182 182 182
177 177 177
168 168 168
182 182 182
182 182 182
182 182 182
183 183 183
183 183 183
183 183 183
182 182 182
182 182 182
181 181 181
181 181 181
181 181 181
180 180 180
181 181 181
180 180 180
180 180 180
180 180 180
180 180 180
181 181 181
181 181 181
180 180 180
179 179 179
177 177 177
178 178 178
164 164 164
165 165 165
177 177 177
177 177 177
176 176 176
176 176 176
174 174 174
161 161 161
96 96 96
30 30 30
61 61 61
104 104 104
109 109 109
109 109 109
106 106 106
105 105 105
104 104 104
105 105 105
104 104 104
101 101 101
135 135 135
152 152 152
139 139 139
171 171 171
198 198 198
200 200 200
200 200 200
196 196 196
179 179 179
135 135 135
132 132 132
126 126 126
172 172 172
143 143 143
115 115 115
83 83 83
81 81 81
65 65 65
50 50 50
52 52 52
66 66 66
92 92 92
95 95 95
95 95 95
90 90 90
98 98 98
118 118 118
146 146 146
82 82 82
18 18 18
19 19 19
19 19 19
17 17 17
17 17 17
18 18 18
16 16 16
14 14 14
14 14 14
17 17 17
16 16 16
15 15 15
15 15 15
15 15 15
15 15 15
16 16 16
16 16 16
16 16 16
16 16 16
94 94 94
100 100 100
100 100 100
96 96 96
96 96 96
100 100 100
95 95 95
88 88 88
80 80 80
82 82 82
86 86 86
84 84 84
89 89 89
89 89 89
85 85 85
81 81 81
92 92 92
166 166 166
182 182 182
181 181 181
175 175 175
170 170 170
181 181 181
182 182 182
182 182 182
183 183 183
183 183 183
182 182 182
181 181 181
180 180 180
181 181 181
181 181 181
181 181 181
180 180 180
181 181 181
180 180 180
180 180 180
180 180 180
180 180 180
181 181 181
181 181 181
180 180 180
180 180 180
178 178 178
178 178 178
179 179 179
162 162 162
166 166 166
177 177 177
176 176 176
176 176 176
174 174 174
170 170 170
139 139 139
41 41 41
40 40 40
96 96 96
109 109 109
109 109 109
107 107 107
106 106 106
106 106 106
106 106 106
105 105 105
101 101 101
107 107 107
146 146 146
150 150 150
126 126 126
175 175 175
198 198 198
198 198 198
196 196 196
178 178 178
136 136 136
132 132 132
121 121 121
178 178 178
138 138 138
124 124 124
86 86 86
80 80 80
76 76 76
48 48 48
52 52 52
63 63 63
92 92 92
94 94 94
95 95 95
90 90 90
98 98 98
110 110 110
145 145 145
127 127 127
101 101 101
44 44 44
17 17 17
16 16 16
17 17 17
16 16 16
15 15 15
16 16 16
17 17 17
18 18 18
18 18 18
17 17 17
17 17 17
17 17 17
17 17 17
18 18 18
17 17 17
15 15 15
15 15 15
86 86 86
94 94 94
96 96 96
94 94 94
89 89 89
89 89 89
82 82 82
79 79 79
83 83 83
82 82 82
82 82 82
87 87 87
92 92 92
87 87 87
86 86 86
85 85 85
94 94 94
167 167 167
181 181 181
181 181 181
174 174 174
168 168 168
182 182 182
181 181 181
182 182 182
183 183 183
182 182 182
181 181 181
181 181 181
180 180 180
179 179 179
179 179 179
179 179 179
180 180 180
180 180 180
181 181 181
181 181 181
180 180 180
179 179 179
179 179 179
179 179 179
179 179 179
180 180 180
178 178 178
178 178 178
178 178 178
178 178 178
161 161 161
166 166 166
177 177 177
178 178 178
174 174 174
171 171 171
139 139 139
42 42 42
37 37 37
85 85 85
108 108 108
110 110 110
109 109 109
107 107 107
106 106 106
105 105 105
104 104 104
101 101 101
102 102 102
116 116 116
151 151 151
140 140 140
131 131 131
183 183 183
197 197 197
195 195 195
177 177 177
136 136 136
133 133 133
119 119 119
179 179 179
133 133 133
126 126 126
112 112 112
77 77 77
79 79 79
56 56 56
51 51 51
60 60 60
90 90 90
95 95 95
95 95 95
88 88 88
97 97 97
105 105 105
144 144 144
132 132 132
147 147 147
131 131 131
61 61 61
16 16 16
15 15 15
16 16 16
16 16 16
17 17 17
17 17 17
17 17 17
16 16 16
17 17 17
18 18 18
18 18 18
18 18 18
18 18 18
17 17 17
16 16 16
15 15 15
90 90 90
88 88 88
88 88 88
90 90 90
93 93 93
96 96 96
93 93 93
77 77 77
74 74 74
73 73 73
71 71 71
70 70 70
71 71 71
75 75 75
81 81 81
77 77 77
88 88 88
169 169 169
178 178 178
179 179 179
171 171 171
167 167 167
182 182 182
181 181 181
182 182 182
182 182 182
181 181 181
182 182 182
180 180 180
180 180 180
179 179 179
170 170 170
156 156 156
175 175 175
178 178 178
180 180 180
180 180 180
181 181 181
180 180 180
180 180 180
179 179 179
177 177 177
177 177 177
178 178 178
178 178 178
178 178 178
178 178 178
177 177 177
155 155 155
169 169 169
176 176 176
175 175 175
171 171 171
133 133 133
40 40 40
39 39 39
70 70 70
107 107 107
109 109 109
110 110 110
107 107 107
105 105 105
105 105 105
105 105 105
104 104 104
102 102 102
98 98 98
134 134 134
148 148 148
129 129 129
142 142 142
187 187 187
194 194 194
176 176 176
136 136 136
133 133 133
128 128 128
173 173 173
132 132 132
126 126 126
121 121 121
76 76 76
79 79 79
65 65 65
51 51 51
59 59 59
89 89 89
95 95 95
93 93 93
88 88 88
98 98 98
102 102 102
139 139 139
135 135 135
150 150 150
151 151 151
143 143 143
84 84 84
23 23 23
17 17 17
16 16 16
16 16 16
17 17 17
17 17 17
17 17 17
17 17 17
17 17 17
18 18 18
18 18 18
18 18 18
18 18 18
16 16 16
16 16 16
91 91 91
86 86 86
89 89 89
94 94 94
93 93 93
94 94 94
92 92 92
92 92 92
93 93 93
83 83 83
76 76 76
78 78 78
81 81 81
78 78 78
77 77 77
83 83 83
100 100 100
170 170 170
178 178 178
179 179 179
167 167 167
168 168 168
180 180 180
183 183 183
182 182 182
182 182 182
181 181 181
181 181 181
180 180 180
179 179 179
178 178 178
169 169 169
129 129 129
153 153 153
178 178 178
180 180 180
180 180 180
180 180 180
180 180 180
179 179 179
178 178 178
178 178 178
177 177 177
177 177 177
177 177 177
177 177 177
177 177 177
176 176 176
174 174 174
155 155 155
172 172 172
173 173 173
170 170 170
122 122 122
38 38 38
42 42 42
80 80 80
111 111 111
107 107 107
108 108 108
105 105 105
105 105 105
105 105 105
104 104 104
104 104 104
102 102 102
102 102 102
108 108 108
148 148 148
144 144 144
120 120 120
156 156 156
191 191 191
170 170 170
134 134 134
132 132 132
141 141 141
164 164 164
127 127 127
126 126 126
121 121 121
77 77 77
71 71 71
65 65 65
50 50 50
55 55 55
88 88 88
93 93 93
94 94 94
87 87 87
98 98 98
101 101 101
132 132 132
134 134 134
150 150 150
152 152 152
151 151 151
145 145 145
96 96 96
16 16 16
18 18 18
17 17 17
17 17 17
17 17 17
18 18 18
18 18 18
17 17 17
18 18 18
17 17 17
17 17 17
17 17 17
17 17 17
16 16 16
70 70 70
79 79 79
89 89 89
97 97 97
95 95 95
92 92 92
98 98 98
101 101 101
96 96 96
93 93 93
80 80 80
70 70 70
67 67 67
67 67 67
74 74 74
86 86 86
105 105 105
172 172 172
180 180 180
179 179 179
166 166 166
168 168 168
180 180 180
182 182 182
182 182 182
181 181 181
181 181 181
180 180 180
180 180 180
179 179 179
178 178 178
177 177 177
136 136 136
127 127 127
163 163 163
177 177 177
179 179 179
180 180 180
180 180 180
179 179 179
177 177 177
177 177 177
177 177 177
177 177 177
177 177 177
177 177 177
177 177 177
176 176 176
175 175 175
169 169 169
144 144 144
171 171 171
168 168 168
100 100 100
40 40 40
46 46 46
93 93 93
149 149 149
106 106 106
108 108 108
106 106 106
105 105 105
105 105 105
105 105 105
105 105 105
102 102 102
103 103 103
96 96 96
126 126 126
149 149 149
130 130 130
128 128 128
170 170 170
160 160 160
134 134 134
128 128 128
155 155 155
148 148 148
125 125 125
121 121 121
96 96 96
39 39 39
36 36 36
36 36 36
49 49 49
55 55 55
88 88 88
92 92 92
95 95 95
88 88 88
97 97 97
101 101 101
128 128 128
132 132 132
148 148 148
151 151 151
153 153 153
152 152 152
146 146 146
73 73 73
17 17 17
16 16 16
17 17 17
17 17 17
18 18 18
18 18 18
17 17 17
18 18 18
17 17 17
18 18 18
17 17 17
15 15 15
15 15 15
75 75 75
85 85 85
93 93 93
98 98 98
98 98 98
98 98 98
96 96 96
90 90 90
80 80 80
82 82 82
75 75 75
73 73 73
75 75 75
85 85 85
84 84 84
79 79 79
105 105 105
177 177 177
179 179 179
179 179 179
166 166 166
169 169 169
179 179 179
180 180 180
180 180 180
181 181 181
181 181 181
180 180 180
180 180 180
178 178 178
178 178 178
177 177 177
153 153 153
125 125 125
132 132 132
169 169 169
178 178 178
179 179 179
179 179 179
179 179 179
178 178 178
177 177 177
177 177 177
177 177 177
177 177 177
177 177 177
177 177 177
177 177 177
177 177 177
177 177 177
164 164 164
145 145 145
162 162 162
110 110 110
57 57 57
50 50 50
133 133 133
169 169 169
141 141 141
102 102 102
108 108 108
107 107 107
105 105 105
105 105 105
104 104 104
102 102 102
101 101 101
103 103 103
97 97 97
141 141 141
148 148 148
125 125 125
137 137 137
140 140 140
133 133 133
124 124 124
166 166 166
132 132 132
125 125 125
104 104 104
49 49 49
37 37 37
38 38 38
34 34 34
42 42 42
54 54 54
89 89 89
92 92 92
94 94 94
87 87 87
96 96 96
102 102 102
127 127 127
132 132 132
149 149 149
148 148 148
152 152 152
154 154 154
151 151 151
128 128 128
36 36 36
17 17 17
18 18 18
18 18 18
18 18 18
18 18 18
18 18 18
18 18 18
17 17 17
17 17 17
16 16 16
11 11 11
10 10 10
77 77 77
80 80 80
91 91 91
96 96 96
97 97 97
97 97 97
96 96 96
89 89 89
73 73 73
67 67 67
73 73 73
75 75 75
78 78 78
88 88 88
91 91 91
91 91 91
108 108 108
177 177 177
180 180 180
179 179 179
166 166 166
169 169 169
179 179 179
180 180 180
180 180 180
180 180 180
181 181 181
180 180 180
180 180 180
178 178 178
178 178 178
177 177 177
169 169 169
129 129 129
127 127 127
144 144 144
176 176 176
178 178 178
178 178 178
178 178 178
178 178 178
177 177 177
177 177 177
177 177 177
177 177 177
177 177 177
177 177 177
177 177 177
177 177 177
177 177 177
173 173 173
141 141 141
153 153 153
168 168 168
138 138 138
134 134 134
168 168 168
170 170 170
167 167 167
130 130 130
107 107 107
107 107 107
105 105 105
105 105 105
105 105 105
102 102 102
98 98 98
99 99 99
100 100 100
117 117 117
145 145 145
132 132 132
126 126 126
132 132 132
133 133 133
126 126 126
156 156 156
126 126 126
121 121 121
64 64 64
35 35 35
42 42 42
42 42 42
36 36 36
40 40 40
59 59 59
91 91 91
94 94 94
93 93 93
87 87 87
96 96 96
101 101 101
127 127 127
131 131 131
148 148 148
112 112 112
123 123 123
152 152 152
152 152 152
143 143 143
65 65 65
16 16 16
16 16 16
16 16 16
15 15 15
17 17 17
17 17 17
16 16 16
15 15 15
15 15 15
15 15 15
11 11 11
9 9 9
89 89 89
83 83 83
86 86 86
88 88 88
89 89 89
87 87 87
78 78 78
75 75 75
75 75 75
78 78 78
80 80 80
80 80 80
79 79 79
86 86 86
94 94 94
100 100 100
115 115 115
179 179 179
180 180 180
180 180 180
165 165 165
168 168 168
180 180 180
180 180 180
180 180 180
180 180 180
180 180 180
180 180 180
179 179 179
178 178 178
177 177 177
176 176 176
169 169 169
136 136 136
124 124 124
125 125 125
152 152 152
176 176 176
177 177 177
177 177 177
177 177 177
177 177 177
177 177 177
177 177 177
177 177 177
177 177 177
177 177 177
177 177 177
177 177 177
177 177 177
175 175 175
167 167 167
121 121 121
161 161 161
173 173 173
174 174 174
173 173 173
173 173 173
171 171 171
164 164 164
117 117 117
105 105 105
105 105 105
105 105 105
104 104 104
104 104 104
100 100 100
99 99 99
101 101 101
96 96 96
137 137 137
144 144 144
114 114 114
131 131 131
131 131 131
127 127 127
132 132 132
127 127 127
98 98 98
37 37 37
37 37 37
44 44 44
40 40 40
36 36 36
41 41 41
49 49 49
87 87 87
94 94 94
92 92 92
87 87 87
97 97 97
102 102 102
129 129 129
131 131 131
132 132 132
102 102 102
103 103 103
140 140 140
151 151 151
148 148 148
92 92 92
9 9 9
11 11 11
10 10 10
12 12 12
12 12 12
14 14 14
15 15 15
16 16 16
15 15 15
15 15 15
12 12 12
10 10 10
96 96 96
95 95 95
94 94 94
93 93 93
80 80 80
73 73 73
82 82 82
90 90 90
88 88 88
80 80 80
76 76 76
77 77 77
79 79 79
88 88 88
95 95 95
96 96 96
117 117 117
181 181 181
180 180 180
179 179 179
168 168 168
168 168 168
180 180 180
180 180 180
181 181 181
181 181 181
181 181 181
180 180 180
179 179 179
177 177 177
177 177 177
177 177 177
171 171 171
133 133 133
122 122 122
125 125 125
128 128 128
164 164 164
178 178 178
177 177 177
177 177 177
178 178 178
178 178 178
177 177 177
177 177 177
177 177 177
177 177 177
177 177 177
177 177 177
178 178 178
177 177 177
174 174 174
149 149 149
130 130 130
170 170 170
174 174 174
173 173 173
173 173 173
171 171 171
170 170 170
161 161 161
109 109 109
106 106 106
104 104 104
104 104 104
103 103 103
99 99 99
99 99 99
99 99 99
97 97 97
106 106 106
146 146 146
132 132 132
117 117 117
129 129 129
116 116 116
125 125 125
120 120 120
63 63 63
40 40 40
38 38 38
43 43 43
36 36 36
35 35 35
39 39 39
42 42 42
87 87 87
93 93 93
92 92 92
88 88 88
97 97 97
102 102 102
129 129 129
126 126 126
112 112 112
101 101 101
101 101 101
118 118 118
150 150 150
151 151 151
118 118 118
12 12 12
12 12 12
10 10 10
10 10 10
12 12 12
11 11 11
14 14 14
15 15 15
17 17 17
16 16 16
15 15 15
13 13 13
81 81 81
85 85 85
80 80 80
76 76 76
82 82 82
91 91 91
95 95 95
93 93 93
93 93 93
88 88 88
86 86 86
89 89 89
92 92 92
95 95 95
98 98 98
101 101 101
126 126 126
180 180 180
179 179 179
180 180 180
172 172 172
168 168 168
179 179 179
180 180 180
180 180 180
180 180 180
179 179 179
178 178 178
178 178 178
177 177 177
177 177 177
177 177 177
175 175 175
147 147 147
121 121 121
125 125 125
126 126 126
134 134 134
174 174 174
178 178 178
177 177 177
178 178 178
178 178 178
177 177 177
177 177 177
177 177 177
177 177 177
177 177 177
177 177 177
177 177 177
176 176 176
173 173 173
169 169 169
120 120 120
144 144 144
172 172 172
172 172 172
172 172 172
172 172 172
170 170 170
168 168 168
148 148 148
103 103 103
104 104 104
105 105 105
102 102 102
99 99 99
97 97 97
91 91 91
79 79 79
66 66 66
94 94 94
105 105 105
101 101 101
125 125 125
112 112 112
127 127 127
112 112 112
53 53 53
39 39 39
38 38 38
41 41 41
35 35 35
38 38 38
36 36 36
35 35 35
82 82 82
93 93 93
92 92 92
88 88 88
99 99 99
102 102 102
134 134 134
113 113 113
101 101 101
98 98 98
99 99 99
105 105 105
144 144 144
151 151 151
136 136 136
20 20 20
12 12 12
12 12 12
14 14 14
14 14 14
14 14 14
15 15 15
16 16 16
16 16 16
17 17 17
16 16 16
13 13 13
91 91 91
70 70 70
63 63 63
65 65 65
80 80 80
92 92 92
95 95 95
92 92 92
93 93 93
95 95 95
100 100 100
99 99 99
99 99 99
101 101 101
105 105 105
109 109 109
135 135 135
181 181 181
180 180 180
180 180 180
172 172 172
165 165 165
178 178 178
179 179 179
179 179 179
178 178 178
178 178 178
177 177 177
177 177 177
177 177 177
177 177 177
177 177 177
175 175 175
175 175 175
121 121 121
120 120 120
124 124 124
123 123 123
144 144 144
174 174 174
177 177 177
178 178 178
178 178 178
177 177 177
177 177 177
177 177 177
177 177 177
177 177 177
177 177 177
176 176 176
176 176 176
174 174 174
172 172 172
141 141 141
122 122 122
161 161 161
172 172 172
172 172 172
172 172 172
172 172 172
171 171 171
167 167 167
132 132 132
102 102 102
104 104 104
102 102 102
95 95 95
76 76 76
57 57 57
55 55 55
53 53 53
64 64 64
86 86 86
84 84 84
110 110 110
118 118 118
126 126 126
110 110 110
51 51 51
38 38 38
36 36 36
38 38 38
37 37 37
36 36 36
37 37 37
32 32 32
78 78 78
93 93 93
90 90 90
88 88 88
102 102 102
103 103 103
129 129 129
93 93 93
98 98 98
97 97 97
98 98 98
99 99 99
129 129 129
150 150 150
145 145 145
51 51 51
13 13 13
15 15 15
15 15 15
15 15 15
16 16 16
16 16 16
17 17 17
16 16 16
16 16 16
15 15 15
12 12 12
88 88 88
91 91 91
90 90 90
89 89 89
86 86 86
83 83 83
82 82 82
89 89 89
97 97 97
98 98 98
102 102 102
102 102 102
100 100 100
98 98 98
101 101 101
105 105 105
143 143 143
181 181 181
180 180 180
180 180 180
173 173 173
166 166 166
178 178 178
178 178 178
177 177 177
178 178 178
177 177 177
177 177 177
177 177 177
177 177 177
177 177 177
177 177 177
178 178 178
176 176 176
161 161 161
116 116 116
121 121 121
123 123 123
124 124 124
154 154 154
176 176 176
177 177 177
178 178 178
177 177 177
177 177 177
177 177 177
177 177 177
176 176 176
176 176 176
175 175 175
176 176 176
176 176 176
175 175 175
164 164 164
113 113 113
140 140 140
171 171 171
172 172 172
173 173 173
171 171 171
172 172 172
169 169 169
161 161 161
119 119 119
103 103 103
95 95 95
70 70 70
56 56 56
54 54 54
55 55 55
54 54 54
54 54 54
78 78 78
86 86 86
78 78 78
124 124 124
125 125 125
116 116 116
54 54 54
38 38 38
37 37 37
37 37 37
38 38 38
37 37 37
38 38 38
37 37 37
55 55 55
88 88 88
87 87 87
98 98 98
102 102 102
106 106 106
119 119 119
96 96 96
100 100 100
99 99 99
96 96 96
99 99 99
111 111 111
148 148 148
148 148 148
81 81 81
13 13 13
16 16 16
17 17 17
17 17 17
18 18 18
18 18 18
18 18 18
18 18 18
16 16 16
15 15 15
16 16 16
102 102 102
99 99 99
102 102 102
106 106 106
103 103 103
104 104 104
105 105 105
103 103 103
93 93 93
89 89 89
94 94 94
101 101 101
99 99 99
95 95 95
95 95 95
94 94 94
151 151 151
180 180 180
180 180 180
180 180 180
172 172 172
167 167 167
179 179 179
179 179 179
176 176 176
177 177 177
177 177 177
178 178 178
178 178 178
177 177 177
177 177 177
178 178 178
177 177 177
176 176 176
174 174 174
141 141 141
117 117 117
121 121 121
122 122 122
125 125 125
163 163 163
176 176 176
177 177 177
177 177 177
177 177 177
177 177 177
177 177 177
177 177 177
177 177 177
176 176 176
177 177 177
176 176 176
175 175 175
173 173 173
140 140 140
118 118 118
161 161 161
173 173 173
174 174 174
171 171 171
171 171 171
169 169 169
166 166 166
151 151 151
100 100 100
72 72 72
56 56 56
55 55 55
55 55 55
55 55 55
55 55 55
53 53 53
57 57 57
85 85 85
85 85 85
109 109 109
127 127 127
108 108 108
48 48 48
38 38 38
42 42 42
40 40 40
38 38 38
36 36 36
36 36 36
39 39 39
43 43 43
83 83 83
101 101 101
101 101 101
100 100 100
112 112 112
109 109 109
101 101 101
99 99 99
96 96 96
96 96 96
97 97 97
101 101 101
142 142 142
148 148 148
102 102 102
12 12 12
15 15 15
16 16 16
17 17 17
18 18 18
18 18 18
18 18 18
17 17 17
16 16 16
17 17 17
18 18 18
113 113 113
113 113 113
113 113 113
111 111 111
108 108 108
106 106 106
106 106 106
111 111 111
118 118 118
115 115 115
100 100 100
91 91 91
80 80 80
81 81 81
93 93 93
102 102 102
152 152 152
180 180 180
180 180 180
179 179 179
174 174 174
167 167 167
179 179 179
180 180 180
176 176 176
178 178 178
178 178 178
178 178 178
178 178 178
177 177 177
177 177 177
178 178 178
177 177 177
177 177 177
175 175 175
172 172 172
122 122 122
118 118 118
122 122 122
121 121 121
130 130 130
168 168 168
176 176 176
176 176 176
177 177 177
178 178 178
178 178 178
177 177 177
176 176 176
176 176 176
176 176 176
176 176 176
174 174 174
174 174 174
166 166 166
116 116 116
132 132 132
169 169 169
172 172 172
172 172 172
171 171 171
169 169 169
167 167 167
160 160 160
108 108 108
56 56 56
57 57 57
54 54 54
55 55 55
56 56 56
56 56 56
55 55 55
54 54 54
73 73 73
84 84 84
101 101 101
111 111 111
95 95 95
53 53 53
38 38 38
42 42 42
39 39 39
35 35 35
35 35 35
37 37 37
41 41 41
41 41 41
92 92 92
104 104 104
104 104 104
103 103 103
114 114 114
100 100 100
98 98 98
97 97 97
95 95 95
95 95 95
96 96 96
99 99 99
130 130 130
148 148 148
116 116 116
16 16 16
17 17 17
17 17 17
18 18 18
18 18 18
18 18 18
18 18 18
16 16 16
16 16 16
16 16 16
17 17 17
117 117 117
113 113 113
114 114 114
114 114 114
108 108 108
103 103 103
109 109 109
112 112 112
121 121 121
121 121 121
109 109 109
102 102 102
92 92 92
84 84 84
79 79 79
86 86 86
132 132 132
179 179 179
180 180 180
180 180 180
173 173 173
165 165 165
178 178 178
179 179 179
179 179 179
179 179 179
178 178 178
178 178 178
177 177 177
177 177 177
177 177 177
177 177 177
177 177 177
177 177 177
175 175 175
175 175 175
165 165 165
117 117 117
121 121 121
122 122 122
122 122 122
136 136 136
172 172 172
176 176 176
177 177 177
178 178 178
177 177 177
177 177 177
177 177 177
177 177 177
176 176 176
177 177 177
177 177 177
175 175 175
171 171 171
136 136 136
117 117 117
154 154 154
171 171 171
171 171 171
170 170 170
168 168 168
165 165 165
137 137 137
106 106 106
76 76 76
55 55 55
55 55 55
56 56 56
56 56 56
56 56 56
54 54 54
53 53 53
62 62 62
83 83 83
83 83 83
100 100 100
102 102 102
62 62 62
38 38 38
42 42 42
41 41 41
37 37 37
32 32 32
38 38 38
41 41 41
40 40 40
96 96 96
102 102 102
102 102 102
102 102 102
110 110 110
100 100 100
98 98 98
96 96 96
95 95 95
95 95 95
95 95 95
95 95 95
119 119 119
147 147 147
126 126 126
27 27 27
18 18 18
17 17 17
18 18 18
18 18 18
18 18 18
18 18 18
18 18 18
18 18 18
17 17 17
17 17 17
109 109 109
110 110 110
117 117 117
117 117 117
109 109 109
102 102 102
109 109 109
111 111 111
114 114 114
113 113 113
105 105 105
100 100 100
91 91 91
94 94 94
99 99 99
92 92 92
104 104 104
172 172 172
178 178 178
179 179 179
174 174 174
163 163 163
178 178 178
179 179 179
179 179 179
180 180 180
180 180 180
179 179 179
178 178 178
177 177 177
177 177 177
177 177 177
177 177 177
177 177 177
177 177 177
176 176 176
175 175 175
153 153 153
114 114 114
120 120 120
123 123 123
122 122 122
145 145 145
174 174 174
175 175 175
177 177 177
176 176 176
177 177 177
177 177 177
177 177 177
177 177 177
177 177 177
176 176 176
174 174 174
172 172 172
160 160 160
114 114 114
132 132 132
167 167 167
171 171 171
169 169 169
167 167 167
148 148 148
110 110 110
107 107 107
98 98 98
60 60 60
54 54 54
55 55 55
56 56 56
56 56 56
55 55 55
52 52 52
64 64 64
82 82 82
95 95 95
104 104 104
100 100 100
56 56 56
39 39 39
37 37 37
43 43 43
41 41 41
33 33 33
33 33 33
36 36 36
50 50 50
100 100 100
103 103 103
100 100 100
101 101 101
106 106 106
99 99 99
99 99 99
99 99 99
96 96 96
95 95 95
95 95 95
95 95 95
110 110 110
144 144 144
134 134 134
47 47 47
17 17 17
17 17 17
17 17 17
17 17 17
17 17 17
17 17 17
17 17 17
18 18 18
18 18 18
18 18 18
107 107 107
116 116 116
122 122 122
121 121 121
111 111 111
113 113 113
117 117 117
117 117 117
113 113 113
107 107 107
106 106 106
109 109 109
109 109 109
109 109 109
110 110 110
106 106 106
93 93 93
147 147 147
177 177 177
179 179 179
176 176 176
159 159 159
179 179 179
179 179 179
178 178 178
179 179 179
180 180 180
178 178 178
178 178 178
177 177 177
177 177 177
177 177 177
177 177 177
177 177 177
177 177 177
176 176 176
176 176 176
174 174 174
145 145 145
117 117 117
123 123 123
122 122 122
123 123 123
156 156 156
174 174 174
175 175 175
175 175 175
177 177 177
177 177 177
177 177 177
177 177 177
176 176 176
175 175 175
174 174 174
172 172 172
172 172 172
128 128 128
115 115 115
153 153 153
171 171 171
169 169 169
158 158 158
117 117 117
110 110 110
107 107 107
106 106 106
86 86 86
54 54 54
54 54 54
55 55 55
55 55 55
55 55 55
52 52 52
71 71 71
88 88 88
105 105 105
105 105 105
81 81 81
35 35 35
38 38 38
37 37 37
36 36 36
36 36 36
35 35 35
35 35 35
44 44 44
80 80 80
101 101 101
101 101 101
100 100 100
100 100 100
98 98 98
97 97 97
97 97 97
96 96 96
95 95 95
95 95 95
95 95 95
94 94 94
105 105 105
143 143 143
145 145 145
76 76 76
17 17 17
17 17 17
17 17 17
17 17 17
18 18 18
18 18 18
18 18 18
18 18 18
18 18 18
18 18 18
119 119 119
122 122 122
121 121 121
123 123 123
117 117 117
114 114 114
120 120 120
123 123 123
111 111 111
103 103 103
99 99 99
103 103 103
109 109 109
118 118 118
121 121 121
117 117 117
108 108 108
104 104 104
167 167 167
176 176 176
177 177 177
156 156 156
177 177 177
178 178 178
178 178 178
178 178 178
177 177 177
177 177 177
177 177 177
177 177 177
177 177 177
177 177 177
177 177 177
177 177 177
177 177 177
176 176 176
176 176 176
176 176 176
174 174 174
140 140 140
118 118 118
122 122 122
122 122 122
127 127 127
166 166 166
176 176 176
176 176 176
177 177 177
177 177 177
177 177 177
177 177 177
177 177 177
176 176 176
174 174 174
172 172 172
171 171 171
162 162 162
111 111 111
126 126 126
165 165 165
164 164 164
127 127 127
111 111 111
109 109 109
108 108 108
106 106 106
100 100 100
64 64 64
55 55 55
55 55 55
54 54 54
54 54 54
51 51 51
85 85 85
102 102 102
105 105 105
85 85 85
39 39 39
34 34 34
34 34 34
39 39 39
40 40 40
40 40 40
41 41 41
58 58 58
85 85 85
100 100 100
103 103 103
102 102 102
100 100 100
99 99 99
86 86 86
97 97 97
98 98 98
97 97 97
96 96 96
95 95 95
95 95 95
95 95 95
101 101 101
142 142 142
148 148 148
106 106 106
16 16 16
18 18 18
18 18 18
18 18 18
18 18 18
18 18 18
18 18 18
17 17 17
17 17 17
18 18 18
108 108 108
124 124 124
128 128 128
130 130 130
123 123 123
111 111 111
118 118 118
133 133 133
124 124 124
113 113 113
106 106 106
110 110 110
109 109 109
112 112 112
112 112 112
111 111 111
111 111 111
103 103 103
119 119 119
175 175 175
178 178 178
154 154 154
178 178 178
179 179 179
178 178 178
177 177 177
177 177 177
177 177 177
177 177 177
177 177 177
177 177 177
177 177 177
177 177 177
177 177 177
177 177 177
177 177 177
177 177 177
177 177 177
175 175 175
173 173 173
136 136 136
118 118 118
121 121 121
120 120 120
130 130 130
170 170 170
177 177 177
177 177 177
177 177 177
177 177 177
176 176 176
176 176 176
176 176 176
174 174 174
172 172 172
171 171 171
169 169 169
133 133 133
114 114 114
130 130 130
124 124 124
112 112 112
109 109 109
108 108 108
109 109 109
107 107 107
100 100 100
65 65 65
55 55 55
54 54 54
52 52 52
61 61 61
90 90 90
104 104 104
105 105 105
86 86 86
39 39 39
35 35 35
34 34 34
32 32 32
32 32 32
34 34 34
42 42 42
94 94 94
100 100 100
101 101 101
102 102 102
104 104 104
102 102 102
100 100 100
97 97 97
85 85 85
98 98 98
98 98 98
97 97 97
95 95 95
95 95 95
96 96 96
95 95 95
106 106 106
143 143 143
148 148 148
110 110 110
16 16 16
17 17 17
18 18 18
16 16 16
17 17 17
17 17 17
17 17 17
18 18 18
18 18 18
18 18 18
95 95 95
114 114 114
124 124 124
130 130 130
129 129 129
126 126 126
131 131 131
133 133 133
129 129 129
121 121 121
114 114 114
113 113 113
101 101 101
101 101 101
98 98 98
98 98 98
102 102 102
105 105 105
101 101 101
153 153 153
177 177 177
158 158 158
173 173 173
177 177 177
178 178 178
178 178 178
177 177 177
177 177 177
177 177 177
177 177 177
177 177 177
177 177 177
177 177 177
177 177 177
177 177 177
177 177 177
177 177 177
178 178 178
177 177 177
176 176 176
174 174 174
138 138 138
117 117 117
121 121 121
122 122 122
140 140 140
173 173 173
175 175 175
176 176 176
177 177 177
177 177 177
177 177 177
177 177 177
176 176 176
172 172 172
171 171 171
170 170 170
154 154 154
109 109 109
112 112 112
113 113 113
112 112 112
110 110 110
108 108 108
108 108 108
106 106 106
99 99 99
56 56 56
54 54 54
55 55 55
80 80 80
101 101 101
107 107 107
105 105 105
77 77 77
40 40 40
37 37 37
37 37 37
33 33 33
34 34 34
31 31 31
31 31 31
75 75 75
104 104 104
103 103 103
104 104 104
104 104 104
104 104 104
102 102 102
100 100 100
97 97 97
85 85 85
98 98 98
99 99 99
98 98 98
95 95 95
95 95 95
96 96 96
96 96 96
118 118 118
147 147 147
146 146 146
86 86 86
17 17 17
16 16 16
18 18 18
18 18 18
17 17 17
16 16 16
17 17 17
18 18 18
18 18 18
18 18 18
93 93 93
111 111 111
117 117 117
124 124 124
126 126 126
128 128 128
136 136 136
132 132 132
121 121 121
110 110 110
107 107 107
105 105 105
100 100 100
96 96 96
101 101 101
102 102 102
101 101 101
103 103 103
103 103 103
109 109 109
172 172 172
170 170 170
158 158 158
177 177 177
177 177 177
178 178 178
177 177 177
177 177 177
177 177 177
177 177 177
177 177 177
177 177 177
177 177 177
177 177 177
177 177 177
177 177 177
177 177 177
177 177 177
178 178 178
177 177 177
177 177 177
174 174 174
135 135 135
116 116 116
119 119 119
120 120 120
141 141 141
170 170 170
175 175 175
176 176 176
177 177 177
177 177 177
177 177 177
177 177 177
175 175 175
173 173 173
171 171 171
169 169 169
119 119 119
111 111 111
112 112 112
111 111 111
110 110 110
109 109 109
107 107 107
106 106 106
84 84 84
57 57 57
73 73 73
98 98 98
107 107 107
107 107 107
100 100 100
72 72 72
36 36 36
37 37 37
35 35 35
35 35 35
33 33 33
56 56 56
66 66 66
44 44 44
86 86 86
103 103 103
102 102 102
103 103 103
104 104 104
104 104 104
101 101 101
101 101 101
97 97 97
84 84 84
91 91 91
99 99 99
97 97 97
95 95 95
95 95 95
95 95 95
102 102 102
141 141 141
144 144 144
121 121 121
40 40 40
16 16 16
16 16 16
18 18 18
18 18 18
18 18 18
17 17 17
17 17 17
18 18 18
18 18 18
17 17 17
91 91 91
103 103 103
114 114 114
115 115 115
119 119 119
122 122 122
121 121 121
117 117 117
104 104 104
102 102 102
104 104 104
106 106 106
104 104 104
102 102 102
105 105 105
104 104 104
103 103 103
105 105 105
104 104 104
93 93 93
131 131 131
176 176 176
149 149 149
177 177 177
177 177 177
178 178 178
177 177 177
177 177 177
177 177 177
177 177 177
177 177 177
177 177 177
177 177 177
177 177 177
177 177 177
177 177 177
177 177 177
177 177 177
177 177 177
177 177 177
178 178 178
176 176 176
172 172 172
143 143 143
114 114 114
120 120 120
120 120 120
133 133 133
163 163 163
175 175 175
176 176 176
176 176 176
176 176 176
176 176 176
175 175 175
174 174 174
174 174 174
170 170 170
158 158 158
107 107 107
106 106 106
107 107 107
109 109 109
109 109 109
108 108 108
97 97 97
80 80 80
99 99 99
108 108 108
109 109 109
107 107 107
95 95 95
56 56 56
34 34 34
35 35 35
36 36 36
33 33 33
32 32 32
34 34 34
70 70 70
79 79 79
70 70 70
76 76 76
93 93 93
103 103 103
103 103 103
104 104 104
104 104 104
101 101 101
100 100 100
98 98 98
94 94 94
92 92 92
98 98 98
96 96 96
95 95 95
97 97 97
100 100 100
134 134 134
133 133 133
120 120 120
113 113 113
40 40 40
16 16 16
18 18 18
18 18 18
18 18 18
19 19 19
19 19 19
18 18 18
18 18 18
18 18 18
19 19 19
102 102 102
106 106 106
108 108 108
114 114 114
122 122 122
124 124 124
121 121 121
115 115 115
109 109 109
106 106 106
110 110 110
111 111 111
109 109 109
109 109 109
103 103 103
104 104 104
103 103 103
102 102 102
102 102 102
94 94 94
101 101 101
162 162 162
149 149 149
176 176 176
177 177 177
177 177 177
177 177 177
177 177 177
177 177 177
177 177 177
177 177 177
177 177 177
177 177 177
177 177 177
177 177 177
177 177 177
177 177 177
177 177 177
177 177 177
177 177 177
177 177 177
177 177 177
176 176 176
174 174 174
148 148 148
116 116 116
118 118 118
120 120 120
122 122 122
158 158 158
173 173 173
176 176 176
176 176 176
176 176 176
173 173 173
174 174 174
173 173 173
166 166 166
158 158 158
148 148 148
161 161 161
159 159 159
153 153 153
145 145 145
132 132 132
121 121 121
120 120 120
118 118 118
113 113 113
106 106 106
87 87 87
43 43 43
34 34 34
34 34 34
34 34 34
33 33 33
49 49 49
62 62 62
52 52 52
80 80 80
79 79 79
73 73 73
78 78 78
83 83 83
102 102 102
103 103 103
104 104 104
104 104 104
102 102 102
100 100 100
98 98 98
97 97 97
98 98 98
99 99 99
95 95 95
95 95 95
97 97 97
106 106 106
100 100 100
101 101 101
134 134 134
126 126 126
52 52 52
17 17 17
18 18 18
18 18 18
20 20 20
22 22 22
22 22 22
24 24 24
24 24 24
23 23 23
22 22 22
116 116 116
112 112 112
111 111 111
117 117 117
119 119 119
124 124 124
123 123 123
118 118 118
113 113 113
108 108 108
110 110 110
112 112 112
111 111 111
114 114 114
104 104 104
92 92 92
95 95 95
107 107 107
108 108 108
103 103 103
113 113 113
133 133 133
161 161 161
169 169 169
177 177 177
177 177 177
177 177 177
177 177 177
177 177 177
177 177 177
177 177 177
177 177 177
177 177 177
177 177 177
177 177 177
178 178 178
177 177 177
177 177 177
177 177 177
177 177 177
177 177 177
177 177 177
176 176 176
175 175 175
172 172 172
161 161 161
118 118 118
116 116 116
120 120 120
123 123 123
141 141 141
161 161 161
171 171 171
173 173 173
174 174 174
172 172 172
154 154 154
164 164 164
177 177 177
181 181 181
180 180 180
180 180 180
180 180 180
177 177 177
176 176 176
176 176 176
172 172 172
166 166 166
158 158 158
141 141 141
82 82 82
36 36 36
36 36 36
36 36 36
37 37 37
47 47 47
78 78 78
81 81 81
81 81 81
81 81 81
80 80 80
74 74 74
78 78 78
77 77 77
93 93 93
104 104 104
104 104 104
105 105 105
103 103 103
99 99 99
98 98 98
100 100 100
99 99 99
96 96 96
95 95 95
90 90 90
83 83 83
85 85 85
89 89 89
127 127 127
137 137 137
132 132 132
62 62 62
18 18 18
17 17 17
17 17 17
18 18 18
19 19 19
20 20 20
23 23 23
24 24 24
24 24 24
24 24 24
130 130 130
129 129 129
122 122 122
121 121 121
122 122 122
120 120 120
121 121 121
119 119 119
112 112 112
105 105 105
106 106 106
113 113 113
110 110 110
113 113 113
109 109 109
97 97 97
94 94 94
101 101 101
118 118 118
129 129 129
130 130 130
128 128 128
152 152 152
164 164 164
177 177 177
178 178 178
177 177 177
177 177 177
177 177 177
177 177 177
177 177 177
177 177 177
177 177 177
177 177 177
177 177 177
177 177 177
176 176 176
176 176 176
177 177 177
176 176 176
176 176 176
177 177 177
177 177 177
176 176 176
174 174 174
173 173 173
169 169 169
133 133 133
116 116 116
117 117 117
117 117 117
116 116 116
118 118 118
125 125 125
126 126 126
140 140 140
175 175 175
183 183 183
183 183 183
182 182 182
180 180 180
180 180 180
179 179 179
179 179 179
177 177 177
178 178 178
175 175 175
175 175 175
173 173 173
171 171 171
164 164 164
104 104 104
42 42 42
35 35 35
37 37 37
60 60 60
81 81 81
81 81 81
82 82 82
78 78 78
81 81 81
74 74 74
78 78 78
82 82 82
77 77 77
101 101 101
105 105 105
106 106 106
104 104 104
100 100 100
100 100 100
103 103 103
99 99 99
94 94 94
86 86 86
82 82 82
88 88 88
88 88 88
94 94 94
135 135 135
137 137 137
134 134 134
75 75 75
17 17 17
17 17 17
17 17 17
16 16 16
21 21 21
23 23 23
25 25 25
26 26 26
24 24 24
26 26 26
136 136 136
135 135 135
125 125 125
115 115 115
119 119 119
122 122 122
119 119 119
115 115 115
109 109 109
105 105 105
101 101 101
112 112 112
115 115 115
117 117 117
127 127 127
128 128 128
120 120 120
123 123 123
132 132 132
138 138 138
137 137 137
139 139 139
113 113 113
159 159 159
178 178 178
178 178 178
177 177 177
177 177 177
177 177 177
177 177 177
177 177 177
177 177 177
177 177 177
177 177 177
177 177 177
176 176 176
176 176 176
177 177 177
177 177 177
177 177 177
177 177 177
177 177 177
177 177 177
177 177 177
176 176 176
174 174 174
172 172 172
170 170 170
154 154 154
113 113 113
114 114 114
116 116 116
117 117 117
115 115 115
158 158 158
183 183 183
187 187 187
187 187 187
183 183 183
183 183 183
182 182 182
177 177 177
176 176 176
175 175 175
177 177 177
178 178 178
176 176 176
176 176 176
174 174 174
173 173 173
170 170 170
160 160 160
76 76 76
36 36 36
34 34 34
57 57 57
72 72 72
81 81 81
81 81 81
71 71 71
81 81 81
71 71 71
71 71 71
79 79 79
80 80 80
86 86 86
104 104 104
105 105 105
103 103 103
101 101 101
100 100 100
100 100 100
85 85 85
85 85 85
87 87 87
88 88 88
88 88 88
89 89 89
93 93 93
135 135 135
136 136 136
136 136 136
92 92 92
19 19 19
18 18 18
18 18 18
17 17 17
17 17 17
21 21 21
25 25 25
26 26 26
25 25 25
26 26 26
140 140 140
137 137 137
134 134 134
132 132 132
130 130 130
122 122 122
115 115 115
116 116 116
116 116 116
114 114 114
105 105 105
104 104 104
109 109 109
114 114 114
119 119 119
127 127 127
125 125 125
127 127 127
132 132 132
137 137 137
140 140 140
130 130 130
166 166 166
148 148 148
177 177 177
177 177 177
177 177 177
177 177 177
177 177 177
177 177 177
177 177 177
177 177 177
177 177 177
177 177 177
176 176 176
176 176 176
177 177 177
177 177 177
177 177 177
177 177 177
176 176 176
177 177 177
177 177 177
177 177 177
176 176 176
175 175 175
174 174 174
173 173 173
173 173 173
167 167 167
135 135 135
114 114 114
122 122 122
167 167 167
185 185 185
187 187 187
187 187 187
186 186 186
185 185 185
184 184 184
183 183 183
179 179 179
179 179 179
177 177 177
178 178 178
180 180 180
176 176 176
176 176 176
176 176 176
175 175 175
173 173 173
168 168 168
131 131 131
34 34 34
64 64 64
78 78 78
81 81 81
72 72 72
82 82 82
71 71 71
80 80 80
74 74 74
73 73 73
71 71 71
79 79 79
81 81 81
101 101 101
104 104 104
104 104 104
100 100 100
95 95 95
84 84 84
89 89 89
91 91 91
91 91 91
89 89 89
91 91 91
89 89 89
89 89 89
127 127 127
136 136 136
137 137 137
109 109 109
19 19 19
20 20 20
21 21 21
22 22 22
21 21 21
22 22 22
25 25 25
25 25 25
25 25 25
25 25 25
143 143 143
144 144 144
139 139 139
133 133 133
122 122 122
110 110 110
109 109 109
114 114 114
119 119 119
122 122 122
115 115 115
112 112 112
102 102 102
95 95 95
105 105 105
114 114 114
118 118 118
120 120 120
120 120 120
126 126 126
138 138 138
156 156 156
167 167 167
143 143 143
174 174 174
177 177 177
177 177 177
177 177 177
177 177 177
177 177 177
177 177 177
177 177 177
177 177 177
176 176 176
176 176 176
178 178 178
178 178 178
177 177 177
176 176 176
176 176 176
177 177 177
177 177 177
177 177 177
177 177 177
176 176 176
176 176 176
175 175 175
174 174 174
173 173 173
172 172 172
171 171 171
146 146 146
174 174 174
186 186 186
186 186 186
186 186 186
184 184 184
184 184 184
183 183 183
184 184 184
185 185 185
183 183 183
182 182 182
178 178 178
177 177 177
178 178 178
177 177 177
177 177 177
176 176 176
176 176 176
173 173 173
171 171 171
159 159 159
74 74 74
83 83 83
80 80 80
80 80 80
76 76 76
80 80 80
70 70 70
80 80 80
71 71 71
80 80 80
74 74 74
79 79 79
76 76 76
88 88 88
103 103 103
102 102 102
89 89 89
87 87 87
90 90 90
91 91 91
93 93 93
92 92 92
91 91 91
90 90 90
90 90 90
90 90 90
111 111 111
135 135 135
136 136 136
122 122 122
26 26 26
27 27 27
25 25 25
25 25 25
24 24 24
23 23 23
24 24 24
25 25 25
25 25 25
24 24 24
142 142 142
138 138 138
137 137 137
133 133 133
126 126 126
111 111 111
108 108 108
105 105 105
108 108 108
110 110 110
111 111 111
107 107 107
97 97 97
89 89 89
81 81 81
91 91 91
100 100 100
103 103 103
104 104 104
115 115 115
134 134 134
175 175 175
140 140 140
130 130 130
175 175 175
177 177 177
177 177 177
178 178 178
178 178 178
177 177 177
177 177 177
177 177 177
177 177 177
177 177 177
176 176 176
177 177 177
177 177 177
175 175 175
175 175 175
177 177 177
177 177 177
177 177 177
176 176 176
175 175 175
172 172 172
169 169 169
170 170 170
174 174 174
173 173 173
169 169 169
159 159 159
178 178 178
187 187 187
188 188 188
187 187 187
183 183 183
184 184 184
176 176 176
181 181 181
185 185 185
185 185 185
185 185 185
181 181 181
176 176 176
178 178 178
179 179 179
178 178 178
177 177 177
175 175 175
176 176 176
173 173 173
172 172 172
166 166 166
107 107 107
87 87 87
77 77 77
81 81 81
76 76 76
79 79 79
72 72 72
79 79 79
72 72 72
80 80 80
74 74 74
77 77 77
79 79 79
72 72 72
95 95 95
89 89 89
87 87 87
91 91 91
93 93 93
92 92 92
91 91 91
91 91 91
91 91 91
91 91 91
91 91 91
90 90 90
98 98 98
131 131 131
136 136 136
131 131 131
40 40 40
26 26 26
24 24 24
24 24 24
24 24 24
22 22 22
24 24 24
25 25 25
27 27 27
27 27 27
118 118 118
117 117 117
123 123 123
134 134 134
136 136 136
131 131 131
110 110 110
97 97 97
95 95 95
97 97 97
105 105 105
117 117 117
123 123 123
107 107 107
83 83 83
77 77 77
79 79 79
80 80 80
81 81 81
90 90 90
167 167 167
157 157 157
133 133 133
123 123 123
170 170 170
177 177 177
177 177 177
178 178 178
178 178 178
178 178 178
177 177 177
176 176 176
177 177 177
177 177 177
177 177 177
177 177 177
176 176 176
177 177 177
177 177 177
177 177 177
177 177 177
177 177 177
175 175 175
168 168 168
138 138 138
128 128 128
128 128 128
140 140 140
166 166 166
156 156 156
181 181 181
187 187 187
188 188 188
188 188 188
186 186 186
183 183 183
158 158 158
138 138 138
179 179 179
185 185 185
186 186 186
185 185 185
179 179 179
178 178 178
179 179 179
179 179 179
178 178 178
177 177 177
175 175 175
177 177 177
173 173 173
172 172 172
168 168 168
121 121 121
85 85 85
77 77 77
81 81 81
78 78 78
77 77 77
72 72 72
72 72 72
77 77 77
78 78 78
73 73 73
77 77 77
80 80 80
78 78 78
75 75 75
89 89 89
93 93 93
92 92 92
94 94 94
93 93 93
92 92 92
90 90 90
91 91 91
91 91 91
90 90 90
88 88 88
89 89 89
122 122 122
136 136 136
133 133 133
65 65 65
26 26 26
27 27 27
28 28 28
31 31 31
31 31 31
32 32 32
37 37 37
38 38 38
41 41 41
106 106 106
111 111 111
116 116 116
130 130 130
127 127 127
125 125 125
120 120 120
116 116 116
121 121 121
122 122 122
122 122 122
123 123 123
125 125 125
121 121 121
99 99 99
83 83 83
75 75 75
73 73 73
76 76 76
139 139 139
174 174 174
135 135 135
133 133 133
130 130 130
153 153 153
178 178 178
177 177 177
176 176 176
177 177 177
176 176 176
176 176 176
177 177 177
177 177 177
177 177 177
176 176 176
177 177 177
177 177 177
178 178 178
176 176 176
177 177 177
177 177 177
175 175 175
169 169 169
134 134 134
119 119 119
118 118 118
117 117 117
116 116 116
134 134 134
182 182 182
186 186 186
187 187 187
187 187 187
185 185 185
182 182 182
155 155 155
129 129 129
157 157 157
184 184 184
185 185 185
186 186 186
185 185 185
179 179 179
177 177 177
179 179 179
179 179 179
178 178 178
177 177 177
176 176 176
177 177 177
173 173 173
172 172 172
170 170 170
136 136 136
86 86 86
73 73 73
82 82 82
81 81 81
72 72 72
74 74 74
65 65 65
81 81 81
80 80 80
74 74 74
75 75 75
78 78 78
79 79 79
78 78 78
89 89 89
93 93 93
94 94 94
94 94 94
94 94 94
92 92 92
90 90 90
91 91 91
91 91 91
91 91 91
90 90 90
90 90 90
102 102 102
135 135 135
134 134 134
89 89 89
37 37 37
41 41 41
46 46 46
47 47 47
50 50 50
53 53 53
57 57 57
60 60 60
60 60 60
123 123 123
126 126 126
127 127 127
132 132 132
138 138 138
141 141 141
133 133 133
127 127 127
127 127 127
128 128 128
133 133 133
126 126 126
106 106 106
107 107 107
113 113 113
111 111 111
91 91 91
81 81 81
108 108 108
178 178 178
144 144 144
133 133 133
132 132 132
132 132 132
133 133 133
178 178 178
176 176 176
177 177 177
177 177 177
176 176 176
176 176 176
176 176 176
177 177 177
176 176 176
174 174 174
176 176 176
176 176 176
177 177 177
176 176 176
176 176 176
175 175 175
172 172 172
139 139 139
117 117 117
117 117 117
117 117 117
115 115 115
135 135 135
181 181 181
188 188 188
187 187 187
185 185 185
185 185 185
181 181 181
148 148 148
126 126 126
135 135 135
178 178 178
184 184 184
186 186 186
186 186 186
185 185 185
182 182 182
178 178 178
178 178 178
179 179 179
178 178 178
177 177 177
175 175 175
176 176 176
175 175 175
173 173 173
172 172 172
156 156 156
83 83 83
82 82 82
85 85 85
83 83 83
67 67 67
76 76 76
47 47 47
79 79 79
80 80 80
77 77 77
71 71 71
79 79 79
78 78 78
79 79 79
89 89 89
94 94 94
95 95 95
95 95 95
95 95 95
94 94 94
91 91 91
90 90 90
90 90 90
91 91 91
90 90 90
87 87 87
87 87 87
127 127 127
135 135 135
107 107 107
62 62 62
68 68 68
70 70 70
67 67 67
66 66 66
65 65 65
63 63 63
62 62 62
61 61 61
129 129 129
132 132 132
131 131 131
133 133 133
138 138 138
140 140 140
140 140 140
133 133 133
124 124 124
120 120 120
124 124 124
122 122 122
112 112 112
107 107 107
105 105 105
98 98 98
87 87 87
95 95 95
172 172 172
160 160 160
133 133 133
131 131 131
130 130 130
131 131 131
127 127 127
173 173 173
177 177 177
176 176 176
177 177 177
176 176 176
176 176 176
176 176 176
177 177 177
177 177 177
176 176 176
176 176 176
175 175 175
176 176 176
176 176 176
174 174 174
174 174 174
156 156 156
120 120 120
116 116 116
117 117 117
115 115 115
126 126 126
179 179 179
187 187 187
188 188 188
186 186 186
185 185 185
180 180 180
150 150 150
127 127 127
127 127 127
168 168 168
186 186 186
185 185 185
184 184 184
186 186 186
185 185 185
183 183 183
180 180 180
178 178 178
178 178 178
176 176 176
173 173 173
167 167 167
160 160 160
160 160 160
164 164 164
170 170 170
170 170 170
118 118 118
86 86 86
86 86 86
83 83 83
63 63 63
51 51 51
33 33 33
74 74 74
80 80 80
80 80 80
73 73 73
80 80 80
79 79 79
79 79 79
89 89 89
94 94 94
95 95 95
95 95 95
95 95 95
94 94 94
91 91 91
90 90 90
90 90 90
91 91 91
91 91 91
89 89 89
87 87 87
108 108 108
133 133 133
118 118 118
86 86 86
86 86 86
77 77 77
75 75 75
72 72 72
66 66 66
61 61 61
52 52 52
54 54 54
128 128 128
128 128 128
132 132 132
144 144 144
146 146 146
147 147 147
146 146 146
144 144 144
139 139 139
133 133 133
133 133 133
118 118 118
107 107 107
106 106 106
99 99 99
105 105 105
103 103 103
164 164 164
176 176 176
136 136 136
133 133 133
133 133 133
130 130 130
130 130 130
132 132 132
164 164 164
176 176 176
177 177 177
177 177 177
176 176 176
177 177 177
176 176 176
177 177 177
177 177 177
177 177 177
177 177 177
177 177 177
177 177 177
177 177 177
175 175 175
171 171 171
136 136 136
116 116 116
117 117 117
115 115 115
124 124 124
177 177 177
186 186 186
187 187 187
188 188 188
187 187 187
184 184 184
154 154 154
126 126 126
125 125 125
150 150 150
181 181 181
185 185 185
186 186 186
184 184 184
186 186 186
185 185 185
184 184 184
179 179 179
177 177 177
176 176 176
163 163 163
135 135 135
122 122 122
117 117 117
116 116 116
122 122 122
132 132 132
154 154 154
159 159 159
97 97 97
86 86 86
83 83 83
61 61 61
30 30 30
34 34 34
66 66 66
80 80 80
81 81 81
72 72 72
79 79 79
79 79 79
78 78 78
89 89 89
94 94 94
94 94 94
95 95 95
95 95 95
94 94 94
92 92 92
91 91 91
91 91 91
91 91 91
90 90 90
90 90 90
89 89 89
95 95 95
129 129 129
124 124 124
98 98 98
87 87 87
77 77 77
77 77 77
75 75 75
68 68 68
60 60 60
50 50 50
60 60 60
135 135 135
133 133 133
141 141 141
151 151 151
152 152 152
150 150 150
149 149 149
142 142 142
138 138 138
128 128 128
121 121 121
110 110 110
104 104 104
98 98 98
103 103 103
111 111 111
156 156 156
185 185 185
144 144 144
132 132 132
132 132 132
133 133 133
131 131 131
130 130 130
131 131 131
158 158 158
176 176 176
177 177 177
177 177 177
175 175 175
176 176 176
176 176 176
178 178 178
178 178 178
178 178 178
178 178 178
177 177 177
177 177 177
177 177 177
175 175 175
159 159 159
121 121 121
116 116 116
116 116 116
118 118 118
167 167 167
186 186 186
188 188 188
188 188 188
187 187 187
185 185 185
163 163 163
127 127 127
126 126 126
133 133 133
176 176 176
184 184 184
186 186 186
188 188 188
185 185 185
185 185 185
185 185 185
181 181 181
177 177 177
171 171 171
148 148 148
120 120 120
116 116 116
117 117 117
117 117 117
115 115 115
115 115 115
116 116 116
118 118 118
156 156 156
140 140 140
87 87 87
84 84 84
65 65 65
30 30 30
33 33 33
57 57 57
79 79 79
73 73 73
71 71 71
79 79 79
80 80 80
79 79 79
89 89 89
95 95 95
93 93 93
95 95 95
94 94 94
94 94 94
92 92 92
91 91 91
91 91 91
91 91 91
91 91 91
91 91 91
91 91 91
88 88 88
117 117 117
127 127 127
83 83 83
76 76 76
83 83 83
81 81 81
77 77 77
74 74 74
70 70 70
59 59 59
51 51 51
137 137 137
138 138 138
144 144 144
149 149 149
151 151 151
148 148 148
146 146 146
143 143 143
138 138 138
130 130 130
120 120 120
110 110 110
113 113 113
114 114 114
110 110 110
156 156 156
188 188 188
160 160 160
132 132 132
131 131 131
131 131 131
131 131 131
131 131 131
131 131 131
129 129 129
148 148 148
176 176 176
177 177 177
175 175 175
175 175 175
177 177 177
177 177 177
178 178 178
178 178 178
178 178 178
178 178 178
177 177 177
177 177 177
177 177 177
175 175 175
137 137 137
117 117 117
116 116 116
110 110 110
154 154 154
186 186 186
189 189 189
190 190 190
187 187 187
186 186 186
167 167 167
122 122 122
125 125 125
126 126 126
166 166 166
185 185 185
186 186 186
187 187 187
187 187 187
185 185 185
184 184 184
184 184 184
178 178 178
164 164 164
130 130 130
118 118 118
119 119 119
116 116 116
115 115 115
111 111 111
107 107 107
104 104 104
105 105 105
107 107 107
128 128 128
165 165 165
137 137 137
88 88 88
70 70 70
29 29 29
32 32 32
49 49 49
78 78 78
76 76 76
77 77 77
80 80 80
81 81 81
78 78 78
92 92 92
97 97 97
95 95 95
95 95 95
95 95 95
94 94 94
92 92 92
90 90 90
90 90 90
91 91 91
91 91 91
91 91 91
91 91 91
88 88 88
96 96 96
130 130 130
84 84 84
74 74 74
87 87 87
85 85 85
78 78 78
75 75 75
70 70 70
66 66 66
59 59 59
133 133 133
135 135 135
141 141 141
145 145 145
149 149 149
152 152 152
152 152 152
150 150 150
144 144 144
141 141 141
137 137 137
129 129 129
138 138 138
137 137 137
159 159 159
190 190 190
175 175 175
134 134 134
132 132 132
133 133 133
133 133 133
132 132 132
130 130 130
131 131 131
131 131 131
133 133 133
175 175 175
176 176 176
176 176 176
176 176 176
177 177 177
178 178 178
177 177 177
176 176 176
177 177 177
177 177 177
177 177 177
176 176 176
175 175 175
168 168 168
121 121 121
116 116 116
116 116 116
137 137 137
184 184 184
189 189 189
190 190 190
188 188 188
185 185 185
175 175 175
119 119 119
124 124 124
125 125 125
151 151 151
184 184 184
185 185 185
187 187 187
186 186 186
186 186 186
186 186 186
183 183 183
180 180 180
162 162 162
122 122 122
119 119 119
119 119 119
117 117 117
115 115 115
124 124 124
153 153 153
171 171 171
173 173 173
171 171 171
155 155 155
133 133 133
171 171 171
168 168 168
150 150 150
94 94 94
46 46 46
30 30 30
42 42 42
76 76 76
81 81 81
81 81 81
79 79 79
81 81 81
78 78 78
94 94 94
97 97 97
97 97 97
96 96 96
94 94 94
94 94 94
93 93 93
91 91 91
91 91 91
91 91 91
91 91 91
91 91 91
90 90 90
88 88 88
87 87 87
122 122 122
92 92 92
75 75 75
83 83 83
86 86 86
78 78 78
71 71 71
70 70 70
67 67 67
66 66 66
127 127 127
135 135 135
149 149 149
152 152 152
153 153 153
152 152 152
149 149 149
152 152 152
151 151 151
150 150 150
148 148 148
143 143 143
138 138 138
164 164 164
189 189 189
183 183 183
141 141 141
131 131 131
132 132 132
132 132 132
132 132 132
130 130 130
130 130 130
130 130 130
131 131 131
121 121 121
172 172 172
175 175 175
177 177 177
177 177 177
176 176 176
177 177 177
176 176 176
176 176 176
176 176 176
177 177 177
177 177 177
176 176 176
173 173 173
154 154 154
119 119 119
116 116 116
119 119 119
177 177 177
188 188 188
190 190 190
189 189 189
186 186 186
182 182 182
135 135 135
122 122 122
125 125 125
134 134 134
178 178 178
186 186 186
184 184 184
186 186 186
185 185 185
184 184 184
184 184 184
182 182 182
160 160 160
124 124 124
119 119 119
119 119 119
116 116 116
121 121 121
159 159 159
173 173 173
177 177 177
177 177 177
176 176 176
176 176 176
175 175 175
173 173 173
172 172 172
171 171 171
168 168 168
159 159 159
141 141 141
93 93 93
40 40 40
78 78 78
81 81 81
80 80 80
79 79 79
79 79 79
84 84 84
95 95 95
97 97 97
97 97 97
96 96 96
94 94 94
94 94 94
93 93 93
91 91 91
91 91 91
91 91 91
91 91 91
91 91 91
88 88 88
87 87 87
86 86 86
109 109 109
105 105 105
86 86 86
98 98 98
93 93 93
88 88 88
79 79 79
73 73 73
71 71 71
72 72 72
141 141 141
147 147 147
156 156 156
158 158 158
156 156 156
152 152 152
150 150 150
151 151 151
150 150 150
152 152 152
151 151 151
146 146 146
155 155 155
190 190 190
186 186 186
150 150 150
130 130 130
132 132 132
131 131 131
131 131 131
130 130 130
129 129 129
130 130 130
130 130 130
132 132 132
127 127 127
147 147 147
175 175 175
176 176 176
177 177 177
177 177 177
177 177 177
176 176 176
176 176 176
177 177 177
177 177 177
177 177 177
176 176 176
172 172 172
140 140 140
116 116 116
116 116 116
167 167 167
190 190 190
189 189 189
189 189 189
187 187 187
184 184 184
153 153 153
118 118 118
124 124 124
129 129 129
171 171 171
186 186 186
186 186 186
184 184 184
186 186 186
185 185 185
184 184 184
184 184 184
166 166 166
123 123 123
119 119 119
119 119 119
117 117 117
137 137 137
174 174 174
176 176 176
176 176 176
177 177 177
177 177 177
177 177 177
177 177 177
176 176 176
174 174 174
173 173 173
172 172 172
171 171 171
169 169 169
165 165 165
163 163 163
151 151 151
121 121 121
92 92 92
82 82 82
81 81 81
72 72 72
93 93 93
95 95 95
97 97 97
97 97 97
95 95 95
93 93 93
93 93 93
92 92 92
91 91 91
90 90 90
91 91 91
91 91 91
91 91 91
88 88 88
86 86 86
86 86 86
97 97 97
114 114 114
95 95 95
107 107 107
101 101 101
90 90 90
81 81 81
75 75 75
83 83 83
86 86 86
146 146 146
139 139 139
141 141 141
146 146 146
147 147 147
146 146 146
143 143 143
150 150 150
153 153 153
153 153 153
149 149 149
161 161 161
189 189 189
190 190 190
162 162 162
130 130 130
130 130 130
129 129 129
128 128 128
128 128 128
130 130 130
130 130 130
129 129 129
130 130 130
133 133 133
123 123 123
141 141 141
178 178 178
176 176 176
176 176 176
176 176 176
177 177 177
177 177 177
177 177 177
177 177 177
177 177 177
176 176 176
175 175 175
169 169 169
127 127 127
117 117 117
153 153 153
189 189 189
191 191 191
190 190 190
187 187 187
184 184 184
166 166 166
120 120 120
124 124 124
126 126 126
157 157 157
184 184 184
186 186 186
186 186 186
185 185 185
185 185 185
184 184 184
183 183 183
166 166 166
127 127 127
120 120 120
119 119 119
117 117 117
160 160 160
177 177 177
177 177 177
177 177 177
179 179 179
178 178 178
177 177 177
177 177 177
176 176 176
175 175 175
172 172 172
173 173 173
170 170 170
171 171 171
170 170 170
169 169 169
168 168 168
165 165 165
163 163 163
148 148 148
91 91 91
79 79 79
82 82 82
94 94 94
96 96 96
97 97 97
97 97 97
96 96 96
93 93 93
90 90 90
91 91 91
91 91 91
90 90 90
91 91 91
90 90 90
90 90 90
89 89 89
86 86 86
85 85 85
89 89 89
123 123 123
87 87 87
97 97 97
98 98 98
87 87 87
78 78 78
74 74 74
83 83 83
93 93 93
142 142 142
138 138 138
131 131 131
127 127 127
134 134 134
138 138 138
137 137 137
143 143 143
144 144 144
134 134 134
147 147 147
187 187 187
189 189 189
169 169 169
133 133 133
131 131 131
120 120 120
124 124 124
128 128 128
129 129 129
130 130 130
129 129 129
127 127 127
130 130 130
130 130 130
137 137 137
154 154 154
170 170 170
175 175 175
177 177 177
177 177 177
177 177 177
177 177 177
176 176 176
177 177 177
177 177 177
176 176 176
175 175 175
161 161 161
117 117 117
132 132 132
186 186 186
191 191 191
192 192 192
191 191 191
187 187 187
179 179 179
132 132 132
124 124 124
127 127 127
140 140 140
181 181 181
185 185 185
187 187 187
186 186 186
185 185 185
185 185 185
183 183 183
174 174 174
133 133 133
124 124 124
120 120 120
119 119 119
164 164 164
180 180 180
181 181 181
180 180 180
180 180 180
179 179 179
178 178 178
178 178 178
176 176 176
175 175 175
172 172 172
171 171 171
165 165 165
157 157 157
150 150 150
154 154 154
157 157 157
159 159 159
163 163 163
164 164 164
165 165 165
141 141 141
80 80 80
92 92 92
96 96 96
96 96 96
97 97 97
97 97 97
96 96 96
92 92 92
90 90 90
89 89 89
89 89 89
89 89 89
90 90 90
90 90 90
89 89 89
88 88 88
88 88 88
86 86 86
85 85 85
117 117 117
88 88 88
95 95 95
103 103 103
98 98 98
83 83 83
71 71 71
73 73 73
84 84 84
139 139 139
144 144 144
142 142 142
142 142 142
142 142 142
139 139 139
127 127 127
122 122 122
117 117 117
132 132 132
187 187 187
190 190 190
179 179 179
137 137 137
130 130 130
124 124 124
113 113 113
129 129 129
130 130 130
129 129 129
129 129 129
127 127 127
127 127 127
129 129 129
129 129 129
154 154 154
165 165 165
163 163 163
176 176 176
176 176 176
176 176 176
177 177 177
177 177 177
177 177 177
177 177 177
177 177 177
176 176 176
174 174 174
145 145 145
123 123 123
179 179 179
189 189 189
191 191 191
192 192 192
188 188 188
185 185 185
143 143 143
123 123 123
125 125 125
130 130 130
176 176 176
188 188 188
186 186 186
186 186 186
186 186 186
184 184 184
184 184 184
177 177 177
137 137 137
121 121 121
120 120 120
122 122 122
167 167 167
179 179 179
184 184 184
186 186 186
184 184 184
178 178 178
178 178 178
177 177 177
177 177 177
176 176 176
174 174 174
160 160 160
130 130 130
116 116 116
107 107 107
101 101 101
104 104 104
109 109 109
112 112 112
116 116 116
127 127 127
147 147 147
156 156 156
112 112 112
96 96 96
97 97 97
96 96 96
96 96 96
95 95 95
93 93 93
91 91 91
83 83 83
75 75 75
71 71 71
72 72 72
73 73 73
84 84 84
87 87 87
88 88 88
86 86 86
87 87 87
85 85 85
100 100 100
103 103 103
100 100 100
103 103 103
107 107 107
97 97 97
79 79 79
75 75 75
81 81 81
138 138 138
141 141 141
144 144 144
145 145 145
143 143 143
134 134 134
123 123 123
125 125 125
129 129 129
181 181 181
190 190 190
186 186 186
144 144 144
129 129 129
128 128 128
109 109 109
128 128 128
129 129 129
130 130 130
129 129 129
129 129 129
129 129 129
129 129 129
128 128 128
119 119 119
166 166 166
169 169 169
161 161 161
176 176 176
177 177 177
178 178 178
177 177 177
177 177 177
177 177 177
177 177 177
177 177 177
176 176 176
174 174 174
131 131 131
166 166 166
189 189 189
190 190 190
192 192 192
191 191 191
184 184 184
163 163 163
121 121 121
125 125 125
126 126 126
159 159 159
186 186 186
187 187 187
186 186 186
185 185 185
185 185 185
184 184 184
183 183 183
156 156 156
124 124 124
120 120 120
124 124 124
169 169 169
181 181 181
184 184 184
186 186 186
186 186 186
185 185 185
180 180 180
177 177 177
178 178 178
174 174 174
159 159 159
123 123 123
100 100 100
105 105 105
105 105 105
103 103 103
100 100 100
103 103 103
106 106 106
104 104 104
103 103 103
102 102 102
93 93 93
119 119 119
126 126 126
95 95 95
97 97 97
97 97 97
96 96 96
94 94 94
85 85 85
74 74 74
72 72 72
75 75 75
75 75 75
76 76 76
76 76 76
70 70 70
79 79 79
87 87 87
86 86 86
87 87 87
85 85 85
87 87 87
109 109 109
89 89 89
90 90 90
94 94 94
92 92 92
86 86 86
82 82 82
85 85 85
145 145 145
145 145 145
145 145 145
145 145 145
145 145 145
137 137 137
134 134 134
128 128 128
170 170 170
190 190 190
188 188 188
153 153 153
130 130 130
128 128 128
122 122 122
115 115 115
127 127 127
129 129 129
130 130 130
129 129 129
128 128 128
128 128 128
127 127 127
110 110 110
124 124 124
176 176 176
173 173 173
156 156 156
174 174 174
176 176 176
177 177 177
177 177 177
177 177 177
177 177 177
176 176 176
177 177 177
177 177 177
168 168 168
146 146 146
189 189 189
190 190 190
192 192 192
192 192 192
187 187 187
180 180 180
128 128 128
124 124 124
126 126 126
140 140 140
182 182 182
186 186 186
187 187 187
187 187 187
185 185 185
184 184 184
184 184 184
171 171 171
127 127 127
121 121 121
127 127 127
171 171 171
184 184 184
184 184 184
185 185 185
186 186 186
186 186 186
183 183 183
177 177 177
176 176 176
168 168 168
129 129 129
109 109 109
105 105 105
106 106 106
104 104 104
103 103 103
96 96 96
115 115 115
139 139 139
145 145 145
144 144 144
131 131 131
104 104 104
99 99 99
97 97 97
92 92 92
92 92 92
96 96 96
95 95 95
91 91 91
79 79 79
75 75 75
77 77 77
77 77 77
77 77 77
75 75 75
77 77 77
77 77 77
75 75 75
73 73 73
81 81 81
86 86 86
86 86 86
86 86 86
86 86 86
107 107 107
85 85 85
82 82 82
80 80 80
87 87 87
93 93 93
88 88 88
78 78 78
153 153 153
149 149 149
146 146 146
144 144 144
144 144 144
147 147 147
145 145 145
159 159 159
190 190 190
190 190 190
168 168 168
131 131 131
129 129 129
127 127 127
111 111 111
124 124 124
129 129 129
129 129 129
130 130 130
128 128 128
127 127 127
127 127 127
113 113 113
99 99 99
154 154 154
177 177 177
175 175 175
152 152 152
174 174 174
176 176 176
177 177 177
177 177 177
177 177 177
177 177 177
176 176 176
175 175 175
175 175 175
161 161 161
187 187 187
191 191 191
191 191 191
192 192 192
189 189 189
186 186 186
148 148 148
120 120 120
125 125 125
130 130 130
177 177 177
188 188 188
188 188 188
188 188 188
187 187 187
185 185 185
184 184 184
178 178 178
134 134 134
120 120 120
125 125 125
172 172 172
184 184 184
184 184 184
186 186 186
186 186 186
185 185 185
182 182 182
181 181 181
176 176 176
158 158 158
113 113 113
107 107 107
107 107 107
107 107 107
108 108 108
106 106 106
102 102 102
133 133 133
157 157 157
158 158 158
154 154 154
154 154 154
154 154 154
142 142 142
113 113 113
99 99 99
93 93 93
81 81 81
92 92 92
94 94 94
79 79 79
77 77 77
77 77 77
76 76 76
78 78 78
78 78 78
76 76 76
77 77 77
77 77 77
75 75 75
75 75 75
70 70 70
81 81 81
86 86 86
86 86 86
86 86 86
98 98 98
84 84 84
97 97 97
102 102 102
95 95 95
91 91 91
88 88 88
79 79 79
152 152 152
150 150 150
148 148 148
149 149 149
149 149 149
150 150 150
142 142 142
184 184 184
191 191 191
176 176 176
134 134 134
128 128 128
127 127 127
124 124 124
108 108 108
128 128 128
128 128 128
129 129 129
130 130 130
127 127 127
127 127 127
116 116 116
109 109 109
115 115 115
171 171 171
176 176 176
176 176 176
152 152 152
173 173 173
177 177 177
177 177 177
177 177 177
177 177 177
176 176 176
175 175 175
175 175 175
170 170 170
174 174 174
192 192 192
192 192 192
190 190 190
191 191 191
188 188 188
167 167 167
121 121 121
125 125 125
127 127 127
160 160 160
188 188 188
189 189 189
190 190 190
189 189 189
189 189 189
186 186 186
182 182 182
150 150 150
122 122 122
126 126 126
174 174 174
184 184 184
184 184 184
185 185 185
187 187 187
186 186 186
183 183 183
179 179 179
176 176 176
146 146 146
111 111 111
107 107 107
107 107 107
108 108 108
108 108 108
105 105 105
107 107 107
144 144 144
159 159 159
161 161 161
160 160 160
157 157 157
156 156 156
154 154 154
153 153 153
150 150 150
132 132 132
100 100 100
95 95 95
83 83 83
77 77 77
73 73 73
78 78 78
77 77 77
76 76 76
78 78 78
78 78 78
77 77 77
77 77 77
77 77 77
76 76 76
76 76 76
73 73 73
70 70 70
83 83 83
85 85 85
85 85 85
95 95 95
82 82 82
78 78 78
79 79 79
88 88 88
97 97 97
98 98 98
88 88 88
133 133 133
140 140 140
144 144 144
149 149 149
148 148 148
141 141 141
170 170 170
191 191 191
185 185 185
142 142 142
128 128 128
128 128 128
128 128 128
110 110 110
122 122 122
127 127 127
128 128 128
128 128 128
128 128 128
127 127 127
124 124 124
117 117 117
130 130 130
144 144 144
173 173 173
176 176 176
176 176 176
155 155 155
170 170 170
176 176 176
177 177 177
177 177 177
177 177 177
177 177 177
175 175 175
173 173 173
156 156 156
189 189 189
192 192 192
192 192 192
191 191 191
187 187 187
182 182 182
137 137 137
126 126 126
126 126 126
138 138 138
183 183 183
189 189 189
190 190 190
189 189 189
189 189 189
189 189 189
185 185 185
167 167 167
123 123 123
126 126 126
172 172 172
183 183 183
186 186 186
187 187 187
183 183 183
184 184 184
184 184 184
181 181 181
177 177 177
145 145 145
105 105 105
108 108 108
109 109 109
109 109 109
107 107 107
105 105 105
123 123 123
156 156 156
161 161 161
161 161 161
160 160 160
160 160 160
158 158 158
155 155 155
155 155 155
153 153 153
152 152 152
152 152 152
125 125 125
97 97 97
92 92 92
80 80 80
87 87 87
95 95 95
89 89 89
78 78 78
76 76 76
78 78 78
79 79 79
78 78 78
77 77 77
77 77 77
75 75 75
74 74 74
72 72 72
74 74 74
84 84 84
85 85 85
95 95 95
82 82 82
76 76 76
75 75 75
70 70 70
69 69 69
76 76 76
87 87 87
140 140 140
142 142 142
144 144 144
151 151 151
143 143 143
153 153 153
189 189 189
189 189 189
158 158 158
130 130 130
129 129 129
129 129 129
126 126 126
109 109 109
127 127 127
128 128 128
127 127 127
127 127 127
128 128 128
126 126 126
111 111 111
132 132 132
137 137 137
159 159 159
175 175 175
176 176 176
176 176 176
163 163 163
161 161 161
175 175 175
177 177 177
177 177 177
177 177 177
177 177 177
175 175 175
160 160 160
185 185 185
191 191 191
191 191 191
192 192 192
190 190 190
186 186 186
157 157 157
121 121 121
127 127 127
131 131 131
174 174 174
189 189 189
189 189 189
189 189 189
189 189 189
188 188 188
186 186 186
179 179 179
133 133 133
124 124 124
173 173 173
185 185 185
185 185 185
187 187 187
185 185 185
184 184 184
183 183 183
181 181 181
179 179 179
139 139 139
107 107 107
109 109 109
108 108 108
108 108 108
105 105 105
114 114 114
148 148 148
160 160 160
161 161 161
161 161 161
162 162 162
160 160 160
160 160 160
158 158 158
156 156 156
155 155 155
154 154 154
154 154 154
148 148 148
111 111 111
98 98 98
98 98 98
97 97 97
118 118 118
143 143 143
138 138 138
116 116 116
79 79 79
78 78 78
76 76 76
77 77 77
78 78 78
78 78 78
77 77 77
76 76 76
73 73 73
72 72 72
74 74 74
84 84 84
90 90 90
91 91 91
86 86 86
88 88 88
83 83 83
78 78 78
77 77 77
75 75 75
153 153 153
155 155 155
153 153 153
156 156 156
148 148 148
178 178 178
189 189 189
171 171 171
131 131 131
129 129 129
129 129 129
129 129 129
121 121 121
116 116 116
127 127 127
127 127 127
127 127 127
127 127 127
127 127 127
116 116 116
134 134 134
136 136 136
132 132 132
169 169 169
176 176 176
176 176 176
177 177 177
171 171 171
150 150 150
175 175 175
177 177 177
177 177 177
176 176 176
176 176 176
172 172 172
170 170 170
190 190 190
192 192 192
192 192 192
192 192 192
189 189 189
176 176 176
118 118 118
125 125 125
127 127 127
157 157 157
188 188 188
190 190 190
190 190 190
190 190 190
189 189 189
188 188 188
184 184 184
156 156 156
124 124 124
164 164 164
183 183 183
185 185 185
186 186 186
185 185 185
184 184 184
184 184 184
182 182 182
176 176 176
137 137 137
107 107 107
110 110 110
109 109 109
105 105 105
112 112 112
137 137 137
161 161 161
163 163 163
163 163 163
161 161 161
161 161 161
161 161 161
160 160 160
159 159 159
158 158 158
157 157 157
155 155 155
155 155 155
148 148 148
113 113 113
99 99 99
98 98 98
99 99 99
120 120 120
148 148 148
148 148 148
146 146 146
145 145 145
136 136 136
102 102 102
79 79 79
77 77 77
78 78 78
78 78 78
78 78 78
77 77 77
74 74 74
73 73 73
69 69 69
81 81 81
85 85 85
102 102 102
90 90 90
95 95 95
90 90 90
85 85 85
76 76 76
80 80 80
166 166 166
162 162 162
158 158 158
153 153 153
159 159 159
189 189 189
185 185 185
142 142 142
128 128 128
128 128 128
128 128 128
127 127 127
113 113 113
119 119 119
127 127 127
126 126 126
127 127 127
126 126 126
122 122 122
127 127 127
146 146 146
135 135 135
136 136 136
175 175 175
176 176 176
177 177 177
177 177 177
174 174 174
146 146 146
175 175 175
177 177 177
177 177 177
176 176 176
176 176 176
158 158 158
184 184 184
192 192 192
192 192 192
193 193 193
191 191 191
184 184 184
144 144 144
123 123 123
125 125 125
135 135 135
181 181 181
188 188 188
191 191 191
190 190 190
190 190 190
190 190 190
189 189 189
177 177 177
123 123 123
156 156 156
185 185 185
185 185 185
185 185 185
184 184 184
185 185 185
184 184 184
182 182 182
178 178 178
133 133 133
110 110 110
110 110 110
107 107 107
107 107 107
142 142 142
159 159 159
167 167 167
165 165 165
164 164 164
165 165 165
164 164 164
164 164 164
162 162 162
160 160 160
159 159 159
159 159 159
156 156 156
153 153 153
148 148 148
115 115 115
100 100 100
99 99 99
100 100 100
128 128 128
149 149 149
151 151 151
150 150 150
148 148 148
145 145 145
144 144 144
140 140 140
117 117 117
80 80 80
76 76 76
79 79 79
79 79 79
77 77 77
74 74 74
73 73 73
68 68 68
71 71 71
84 84 84
103 103 103
80 80 80
91 91 91
91 91 91
90 90 90
86 86 86
87 87 87
160 160 160
152 152 152
150 150 150
145 145 145
189 189 189
189 189 189
159 159 159
130 130 130
129 129 129
129 129 129
129 129 129
127 127 127
104 104 104
124 124 124
127 127 127
129 129 129
127 127 127
126 126 126
118 118 118
143 143 143
148 148 148
133 133 133
162 162 162
175 175 175
177 177 177
177 177 177
177 177 177
175 175 175
141 141 141
175 175 175
177 177 177
175 175 175
175 175 175
166 166 166
171 171 171
192 192 192
193 193 193
192 192 192
193 193 193
190 190 190
175 175 175
121 121 121
126 126 126
127 127 127
169 169 169
189 189 189
190 190 190
192 192 192
191 191 191
190 190 190
190 190 190
186 186 186
143 143 143
146 146 146
183 183 183
186 186 186
185 185 185
185 185 185
185 185 185
187 187 187
186 186 186
178 178 178
131 131 131
108 108 108
105 105 105
115 115 115
131 131 131
162 162 162
165 165 165
168 168 168
170 170 170
167 167 167
165 165 165
165 165 165
165 165 165
165 165 165
163 163 163
159 159 159
159 159 159
157 157 157
157 157 157
143 143 143
109 109 109
101 101 101
100 100 100
102 102 102
133 133 133
151 151 151
152 152 152
152 152 152
150 150 150
149 149 149
147 147 147
144 144 144
144 144 144
139 139 139
88 88 88
77 77 77
78 78 78
78 78 78
76 76 76
74 74 74
74 74 74
71 71 71
67 67 67
79 79 79
99 99 99
84 84 84
89 89 89
92 92 92
97 97 97
91 91 91
87 87 87
153 153 153
151 151 151
147 147 147
172 172 172
189 189 189
176 176 176
133 133 133
128 128 128
128 128 128
128 128 128
127 127 127
122 122 122
113 113 113
126 126 126
127 127 127
127 127 127
126 126 126
118 118 118
130 130 130
144 144 144
149 149 149
134 134 134
173 173 173
176 176 176
176 176 176
177 177 177
177 177 177
175 175 175
143 143 143
174 174 174
177 177 177
176 176 176
172 172 172
163 163 163
191 191 191
193 193 193
191 191 191
192 192 192
190 190 190
188 188 188
133 133 133
124 124 124
127 127 127
150 150 150
186 186 186
188 188 188
191 191 191
192 192 192
191 191 191
189 189 189
188 188 188
163 163 163
139 139 139
181 181 181
186 186 186
186 186 186
187 187 187
187 187 187
188 188 188
187 187 187
182 182 182
136 136 136
109 109 109
114 114 114
146 146 146
163 163 163
169 169 169
169 169 169
170 170 170
171 171 171
170 170 170
168 168 168
166 166 166
165 165 165
165 165 165
165 165 165
164 164 164
160 160 160
157 157 157
156 156 156
144 144 144
109 109 109
100 100 100
101 101 101
108 108 108
140 140 140
153 153 153
154 154 154
153 153 153
151 151 151
149 149 149
150 150 150
148 148 148
145 145 145
144 144 144
142 142 142
92 92 92
77 77 77
78 78 78
78 78 78
75 75 75
75 75 75
75 75 75
72 72 72
74 74 74
71 71 71
89 89 89
95 95 95
85 85 85
87 87 87
89 89 89
88 88 88
84 84 84
150 150 150
150 150 150
146 146 146
185 185 185
186 186 186
144 144 144
129 129 129
128 128 128
128 128 128
128 128 128
124 124 124
108 108 108
122 122 122
126 126 126
127 127 127
127 127 127
123 123 123
106 106 106
143 143 143
142 142 142
141 141 141
149 149 149
173 173 173
176 176 176
177 177 177
177 177 177
177 177 177
175 175 175
152 152 152
172 172 172
177 177 177
177 177 177
166 166 166
178 178 178
192 192 192
192 192 192
193 193 193
193 193 193
190 190 190
167 167 167
122 122 122
128 128 128
134 134 134
177 177 177
188 188 188
189 189 189
190 190 190
191 191 191
190 190 190
188 188 188
181 181 181
147 147 147
181 181 181
185 185 185
186 186 186
188 188 188
187 187 187
187 187 187
188 188 188
181 181 181
151 151 151
164 164 164
157 157 157
166 166 166
169 169 169
170 170 170
170 170 170
170 170 170
170 170 170
171 171 171
171 171 171
168 168 168
165 165 165
165 165 165
165 165 165
165 165 165
164 164 164
162 162 162
157 157 157
145 145 145
108 108 108
103 103 103
107 107 107
126 126 126
151 151 151
153 153 153
153 153 153
153 153 153
153 153 153
152 152 152
150 150 150
150 150 150
149 149 149
146 146 146
144 144 144
144 144 144
92 92 92
78 78 78
78 78 78
78 78 78
75 75 75
75 75 75
75 75 75
73 73 73
67 67 67
75 75 75
81 81 81
106 106 106
85 85 85
91 91 91
92 92 92
84 84 84
79 79 79
155 155 155
142 142 142
171 171 171
189 189 189
166 166 166
130 130 130
128 128 128
129 129 129
129 129 129
128 128 128
124 124 124
108 108 108
124 124 124
125 125 125
126 126 126
127 127 127
119 119 119
101 101 101
119 119 119
134 134 134
135 135 135
158 158 158
175 175 175
176 176 176
177 177 177
177 177 177
177 177 177
175 175 175
160 160 160
171 171 171
176 176 176
174 174 174
156 156 156
192 192 192
192 192 192
191 191 191
192 192 192
192 192 192
184 184 184
137 137 137
125 125 125
127 127 127
157 157 157
187 187 187
190 190 190
191 191 191
190 190 190
190 190 190
190 190 190
188 188 188
155 155 155
180 180 180
187 187 187
188 188 188
189 189 189
186 186 186
186 186 186
187 187 187
185 185 185
157 157 157
168 168 168
170 170 170
169 169 169
169 169 169
169 169 169
170 170 170
170 170 170
170 170 170
170 170 170
171 171 171
169 169 169
166 166 166
165 165 165
165 165 165
165 165 165
166 166 166
164 164 164
162 162 162
158 158 158
145 145 145
117 117 117
130 130 130
146 146 146
153 153 153
152 152 152
153 153 153
154 154 154
153 153 153
153 153 153
152 152 152
150 150 150
150 150 150
148 148 148
147 147 147
144 144 144
144 144 144
96 96 96
73 73 73
76 76 76
76 76 76
74 74 74
75 75 75
75 75 75
73 73 73
66 66 66
79 79 79
79 79 79
113 113 113
86 86 86
88 88 88
81 81 81
75 75 75
73 73 73
157 157 157
150 150 150
189 189 189
181 181 181
134 134 134
129 129 129
128 128 128
129 129 129
127 127 127
125 125 125
119 119 119
115 115 115
126 126 126
127 127 127
127 127 127
126 126 126
108 108 108
133 133 133
133 133 133
132 132 132
130 130 130
169 169 169
176 176 176
177 177 177
177 177 177
177 177 177
177 177 177
175 175 175
154 154 154
171 171 171
174 174 174
156 156 156
188 188 188
192 192 192
192 192 192
191 191 191
190 190 190
187 187 187
169 169 169
120 120 120
126 126 126
138 138 138
184 184 184
190 190 190
191 191 191
192 192 192
190 190 190
190 190 190
189 189 189
168 168 168
179 179 179
186 186 186
189 189 189
189 189 189
189 189 189
188 188 188
186 186 186
184 184 184
156 156 156
165 165 165
169 169 169
170 170 170
171 171 171
170 170 170
169 169 169
169 169 169
170 170 170
169 169 169
170 170 170
171 171 171
168 168 168
165 165 165
165 165 165
165 165 165
165 165 165
166 166 166
165 165 165
162 162 162
159 159 159
158 158 158
157 157 157
156 156 156
157 157 157
155 155 155
152 152 152
153 153 153
154 154 154
153 153 153
154 154 154
152 152 152
151 151 151
151 151 151
148 148 148
147 147 147
144 144 144
142 142 142
116 116 116
97 97 97
74 74 74
74 74 74
74 74 74
75 75 75
73 73 73
71 71 71
68 68 68
77 77 77
80 80 80
121 121 121
84 84 84
86 86 86
83 83 83
79 79 79
80 80 80
153 153 153
175 175 175
189 189 189
156 156 156
128 128 128
128 128 128
129 129 129
128 128 128
124 124 124
125 125 125
116 116 116
118 118 118
125 125 125
126 126 126
125 125 125
117 117 117
129 129 129
146 146 146
147 147 147
144 144 144
136 136 136
174 174 174
177 177 177
177 177 177
177 177 177
177 177 177
177 177 177
175 175 175
147 147 147
172 172 172
170 170 170
170 170 170
191 191 191
192 192 192
190 190 190
190 190 190
189 189 189
185 185 185
123 123 123
125 125 125
129 129 129
165 165 165
188 188 188
191 191 191
192 192 192
192 192 192
190 190 190
189 189 189
171 171 171
175 175 175
189 189 189
189 189 189
187 187 187
189 189 189
188 188 188
188 188 188
185 185 185
160 160 160
167 167 167
170 170 170
169 169 169
169 169 169
169 169 169
169 169 169
169 169 169
169 169 169
169 169 169
170 170 170
170 170 170
170 170 170
169 169 169
165 165 165
164 164 164
165 165 165
165 165 165
166 166 166
165 165 165
162 162 162
161 161 161
157 157 157
156 156 156
155 155 155
156 156 156
155 155 155
155 155 155
154 154 154
154 154 154
153 153 153
153 153 153
151 151 151
148 148 148
149 149 149
147 147 147
147 147 147
144 144 144
140 140 140
122 122 122
127 127 127
85 85 85
84 84 84
76 76 76
68 68 68
71 71 71
72 72 72
72 72 72
71 71 71
98 98 98
126 126 126
89 89 89
89 89 89
89 89 89
87 87 87
86 86 86
150 150 150
185 185 185
181 181 181
135 135 135
130 130 130
129 129 129
129 129 129
127 127 127
125 125 125
126 126 126
109 109 109
122 122 122
126 126 126
126 126 126
126 126 126
103 103 103
134 134 134
142 142 142
149 149 149
142 142 142
159 159 159
175 175 175
177 177 177
177 177 177
177 177 177
177 177 177
177 177 177
174 174 174
148 148 148
171 171 171
161 161 161
182 182 182
191 191 191
191 191 191
190 190 190
190 190 190
187 187 187
161 161 161
123 123 123
126 126 126
138 138 138
183 183 183
190 190 190
192 192 192
191 191 191
191 191 191
189 189 189
177 177 177
169 169 169
190 190 190
190 190 190
190 190 190
188 188 188
188 188 188
187 187 187
186 186 186
163 163 163
164 164 164
172 172 172
173 173 173
171 171 171
169 169 169
169 169 169
170 170 170
170 170 170
169 169 169
169 169 169
169 169 169
166 166 166
168 168 168
170 170 170
167 167 167
164 164 164
165 165 165
166 166 166
166 166 166
164 164 164
162 162 162
162 162 162
157 157 157
156 156 156
156 156 156
156 156 156
155 155 155
155 155 155
153 153 153
154 154 154
153 153 153
153 153 153
153 153 153
149 149 149
148 148 148
146 146 146
146 146 146
144 144 144
136 136 136
126 126 126
133 133 133
117 117 117
88 88 88
93 93 93
77 77 77
63 63 63
71 71 71
74 74 74
68 68 68
105 105 105
130 130 130
90 90 90
89 89 89
91 91 91
88 88 88
89 89 89
164 164 164
188 188 188
160 160 160
128 128 128
130 130 130
129 129 129
127 127 127
125 125 125
125 125 125
123 123 123
103 103 103
125 125 125
126 126 126
126 126 126
121 121 121
116 116 116
116 116 116
114 114 114
149 149 149
136 136 136
172 172 172
174 174 174
177 177 177
177 177 177
177 177 177
177 177 177
177 177 177
174 174 174
150 150 150
166 166 166
159 159 159
191 191 191
190 190 190
191 191 191
191 191 191
190 190 190
184 184 184
135 135 135
125 125 125
125 125 125
164 164 164
189 189 189
191 191 191
191 191 191
190 190 190
190 190 190
183 183 183
168 168 168
187 187 187
190 190 190
190 190 190
189 189 189
189 189 189
188 188 188
186 186 186
165 165 165
165 165 165
171 171 171
173 173 173
172 172 172
170 170 170
169 169 169
169 169 169
170 170 170
170 170 170
170 170 170
169 169 169
169 169 169
166 166 166
167 167 167
168 168 168
168 168 168
164 164 164
164 164 164
166 166 166
166 166 166
164 164 164
159 159 159
160 160 160
157 157 157
156 156 156
156 156 156
156 156 156
156 156 156
155 155 155
153 153 153
154 154 154
154 154 154
153 153 153
153 153 153
152 152 152
147 147 147
146 146 146
146 146 146
144 144 144
133 133 133
131 131 131
133 133 133
133 133 133
105 105 105
90 90 90
82 82 82
59 59 59
71 71 71
72 72 72
71 71 71
106 106 106
132 132 132
95 95 95
89 89 89
89 89 89
89 89 89
90 90 90
187 187 187
181 181 181
133 133 133
129 129 129
129 129 129
128 128 128
125 125 125
125 125 125
125 125 125
114 114 114
113 113 113
125 125 125
126 126 126
125 125 125
118 118 118
147 147 147
146 146 146
128 128 128
142 142 142
147 147 147
174 174 174
176 176 176
177 177 177
177 177 177
177 177 177
177 177 177
177 177 177
175 175 175
159 159 159
147 147 147
190 190 190
191 191 191
191 191 191
190 190 190
190 190 190
188 188 188
173 173 173
119 119 119
125 125 125
135 135 135
184 184 184
190 190 190
190 190 190
190 190 190
190 190 190
184 184 184
161 161 161
188 188 188
189 189 189
190 190 190
190 190 190
189 189 189
189 189 189
187 187 187
167 167 167
161 161 161
173 173 173
174 174 174
174 174 174
172 172 172
170 170 170
169 169 169
169 169 169
170 170 170
170 170 170
170 170 170
169 169 169
168 168 168
168 168 168
167 167 167
168 168 168
168 168 168
164 164 164
164 164 164
166 166 166
165 165 165
162 162 162
159 159 159
158 158 158
156 156 156
156 156 156
156 156 156
155 155 155
155 155 155
154 154 154
153 153 153
153 153 153
153 153 153
153 153 153
153 153 153
151 151 151
147 147 147
146 146 146
145 145 145
144 144 144
133 133 133
134 134 134
134 134 134
133 133 133
124 124 124
93 93 93
83 83 83
67 67 67
64 64 64
72 72 72
71 71 71
106 106 106
133 133 133
102 102 102
79 79 79
74 74 74
77 77 77
81 81 81
186 186 186
160 160 160
128 128 128
128 128 128
127 127 127
125 125 125
126 126 126
125 125 125
126 126 126
107 107 107
122 122 122
125 125 125
125 125 125
124 124 124
122 122 122
162 162 162
152 152 152
149 149 149
148 148 148
157 157 157
175 175 175
177 177 177
177 177 177
177 177 177
177 177 177
177 177 177
177 177 177
175 175 175
161 161 161
160 160 160
190 190 190
191 191 191
191 191 191
191 191 191
190 190 190
189 189 189
134 134 134
125 125 125
128 128 128
158 158 158
188 188 188
190 190 190
190 190 190
190 190 190
187 187 187
166 166 166
185 185 185
189 189 189
190 190 190
190 190 190
190 190 190
188 188 188
186 186 186
163 163 163
146 146 146
173 173 173
173 173 173
174 174 174
173 173 173
172 172 172
171 171 171
170 170 170
170 170 170
170 170 170
170 170 170
170 170 170
170 170 170
169 169 169
168 168 168
167 167 167
169 169 169
167 167 167
163 163 163
164 164 164
165 165 165
163 163 163
161 161 161
160 160 160
157 157 157
155 155 155
156 156 156
156 156 156
155 155 155
155 155 155
155 155 155
154 154 154
154 154 154
153 153 153
153 153 153
152 152 152
149 149 149
148 148 148
147 147 147
145 145 145
143 143 143
131 131 131
133 133 133
137 137 137
134 134 134
131 131 131
105 105 105
83 83 83
71 71 71
62 62 62
71 71 71
71 71 71
107 107 107
132 132 132
108 108 108
77 77 77
70 70 70
74 74 74
76 76 76
181 181 181
138 138 138
127 127 127
126 126 126
124 124 124
125 125 125
126 126 126
125 125 125
124 124 124
106 106 106
121 121 121
126 126 126
125 125 125
114 114 114
143 143 143
156 156 156
156 156 156
153 153 153
145 145 145
164 164 164
176 176 176
177 177 177
177 177 177
177 177 177
177 177 177
177 177 177
177 177 177
175 175 175
162 162 162
179 179 179
190 190 190
192 192 192
192 192 192
191 191 191
189 189 189
175 175 175
117 117 117
126 126 126
131 131 131
175 175 175
189 189 189
190 190 190
190 190 190
189 189 189
166 166 166
179 179 179
188 188 188
190 190 190
190 190 190
191 191 191
189 189 189
187 187 187
171 171 171
123 123 123
166 166 166
171 171 171
171 171 171
171 171 171
171 171 171
172 172 172
170 170 170
169 169 169
170 170 170
170 170 170
170 170 170
170 170 170
170 170 170
168 168 168
167 167 167
167 167 167
169 169 169
168 168 168
163 163 163
164 164 164
165 165 165
161 161 161
158 158 158
146 146 146
142 142 142
156 156 156
156 156 156
156 156 156
155 155 155
155 155 155
156 156 156
155 155 155
154 154 154
153 153 153
153 153 153
153 153 153
148 148 148
147 147 147
147 147 147
145 145 145
143 143 143
127 127 127
134 134 134
137 137 137
136 136 136
132 132 132
121 121 121
75 75 75
71 71 71
67 67 67
69 69 69
70 70 70
108 108 108
132 132 132
115 115 115
70 70 70
78 78 78
83 83 83
85 85 85
167 167 167
129 129 129
127 127 127
125 125 125
125 125 125
125 125 125
126 126 126
126 126 126
120 120 120
112 112 112
124 124 124
127 127 127
125 125 125
120 120 120
160 160 160
162 162 162
164 164 164
164 164 164
138 138 138
171 171 171
176 176 176
177 177 177
177 177 177
177 177 177
177 177 177
177 177 177
176 176 176
173 173 173
157 157 157
190 190 190
191 191 191
191 191 191
190 190 190
190 190 190
187 187 187
148 148 148
124 124 124
126 126 126
143 143 143
188 188 188
190 190 190
191 191 191
189 189 189
171 171 171
177 177 177
190 190 190
190 190 190
190 190 190
190 190 190
189 189 189
186 186 186
172 172 172
121 121 121
143 143 143
171 171 171
172 172 172
171 171 171
172 172 172
172 172 172
173 173 173
170 170 170
170 170 170
170 170 170
170 170 170
170 170 170
170 170 170
170 170 170
167 167 167
165 165 165
167 167 167
170 170 170
168 168 168
164 164 164
165 165 165
162 162 162
155 155 155
128 128 128
108 108 108
124 124 124
158 158 158
157 157 157
157 157 157
155 155 155
154 154 154
154 154 154
154 154 154
153 153 153
153 153 153
153 153 153
153 153 153
148 148 148
147 147 147
148 148 148
144 144 144
143 143 143
120 120 120
137 137 137
137 137 137
135 135 135
133 133 133
128 128 128
73 73 73
71 71 71
69 69 69
66 66 66
71 71 71
106 106 106
131 131 131
122 122 122
77 77 77
92 92 92
94 94 94
91 91 91
142 142 142
128 128 128
126 126 126
125 125 125
126 126 126
126 126 126
126 126 126
124 124 124
117 117 117
116 116 116
123 123 123
124 124 124
120 120 120
143 143 143
164 164 164
164 164 164
164 164 164
162 162 162
143 143 143
173 173 173
176 176 176
177 177 177
177 177 177
177 177 177
177 177 177
177 177 177
177 177 177
158 158 158
184 184 184
191 191 191
191 191 191
191 191 191
191 191 191
190 190 190
182 182 182
130 130 130
124 124 124
125 125 125
171 171 171
189 189 189
190 190 190
189 189 189
180 180 180
170 170 170
189 189 189
190 190 190
189 189 189
190 190 190
189 189 189
187 187 187
177 177 177
128 128 128
119 119 119
161 161 161
171 171 171
172 172 172
172 172 172
172 172 172
173 173 173
172 172 172
170 170 170
170 170 170
170 170 170
170 170 170
170 170 170
170 170 170
169 169 169
168 168 168
165 165 165
168 168 168
168 168 168
166 166 166
165 165 165
164 164 164
158 158 158
128 128 128
109 109 109
110 110 110
149 149 149
157 157 157
156 156 156
157 157 157
155 155 155
154 154 154
154 154 154
153 153 153
152 152 152
154 154 154
152 152 152
152 152 152
148 148 148
146 146 146
148 148 148
144 144 144
141 141 141
117 117 117
136 136 136
135 135 135
135 135 135
133 133 133
128 128 128
74 74 74
69 69 69
71 71 71
61 61 61
72 72 72
92 92 92
130 130 130
121 121 121
82 82 82
92 92 92
93 93 93
73 73 73
129 129 129
128 128 128
125 125 125
125 125 125
126 126 126
126 126 126
126 126 126
124 124 124
116 116 116
116 116 116
124 124 124
125 125 125
123 123 123
152 152 152
162 162 162
163 163 163
166 166 166
150 150 150
164 164 164
176 176 176
177 177 177
177 177 177
177 177 177
177 177 177
177 177 177
173 173 173
173 173 173
165 165 165
191 191 191
192 192 192
191 191 191
192 192 192
191 191 191
189 189 189
168 168 168
118 118 118
125 125 125
138 138 138
186 186 186
189 189 189
189 189 189
182 182 182
162 162 162
186 186 186
189 189 189
190 190 190
190 190 190
189 189 189
186 186 186
182 182 182
129 129 129
111 111 111
138 138 138
169 169 169
172 172 172
172 172 172
172 172 172
172 172 172
173 173 173
171 171 171
169 169 169
170 170 170
170 170 170
170 170 170
169 169 169
168 168 168
168 168 168
166 166 166
166 166 166
167 167 167
166 166 166
163 163 163
162 162 162
156 156 156
125 125 125
108 108 108
109 109 109
133 133 133
158 158 158
156 156 156
156 156 156
156 156 156
155 155 155
154 154 154
155 155 155
153 153 153
153 153 153
153 153 153
152 152 152
151 151 151
148 148 148
146 146 146
147 147 147
144 144 144
131 131 131
126 126 126
135 135 135
135 135 135
134 134 134
132 132 132
127 127 127
78 78 78
68 68 68
70 70 70
62 62 62
68 68 68
79 79 79
130 130 130
114 114 114
90 90 90
90 90 90
69 69 69
71 71 71
129 129 129
127 127 127
125 125 125
125 125 125
125 125 125
126 126 126
125 125 125
123 123 123
109 109 109
119 119 119
124 124 124
123 123 123
121 121 121
163 163 163
165 165 165
168 168 168
171 171 171
145 145 145
172 172 172
176 176 176
177 177 177
177 177 177
177 177 177
177 177 177
177 177 177
173 173 173
170 170 170
176 176 176
191 191 191
191 191 191
192 192 192
192 192 192
190 190 190
188 188 188
134 134 134
125 125 125
126 126 126
160 160 160
188 188 188
189 189 189
186 186 186
163 163 163
186 186 186
188 188 188
189 189 189
190 190 190
190 190 190
188 188 188
183 183 183
140 140 140
114 114 114
118 118 118
163 163 163
170 170 170
172 172 172
172 172 172
172 172 172
173 173 173
173 173 173
170 170 170
169 169 169
170 170 170
170 170 170
170 170 170
169 169 169
168 168 168
168 168 168
166 166 166
167 167 167
166 166 166
165 165 165
162 162 162
157 157 157
125 125 125
108 108 108
106 106 106
118 118 118
156 156 156
158 158 158
156 156 156
157 157 157
156 156 156
156 156 156
153 153 153
155 155 155
153 153 153
152 152 152
153 153 153
152 152 152
149 149 149
147 147 147
146 146 146
146 146 146
145 145 145
117 117 117
136 136 136
135 135 135
134 134 134
134 134 134
132 132 132
124 124 124
80 80 80
70 70 70
71 71 71
69 69 69
61 61 61
73 73 73
129 129 129
108 108 108
101 101 101
69 69 69
66 66 66
94 94 94
127 127 127
126 126 126
125 125 125
125 125 125
125 125 125
124 124 124
124 124 124
122 122 122
103 103 103
123 123 123
122 122 122
119 119 119
136 136 136
169 169 169
170 170 170
173 173 173
173 173 173
156 156 156
171 171 171
176 176 176
177 177 177
177 177 177
177 177 177
177 177 177
177 177 177
175 175 175
157 157 157
189 189 189
192 192 192
191 191 191
192 192 192
191 191 191
189 189 189
177 177 177
118 118 118
126 126 126
131 131 131
175 175 175
189 189 189
189 189 189
163 163 163
178 178 178
188 188 188
191 191 191
189 189 189
189 189 189
186 186 186
186 186 186
144 144 144
113 113 113
115 115 115
141 141 141
169 169 169
170 170 170
171 171 171
171 171 171
172 172 172
173 173 173
172 172 172
170 170 170
170 170 170
170 170 170
170 170 170
170 170 170
169 169 169
169 169 169
167 167 167
165 165 165
166 166 166
165 165 165
163 163 163
157 157 157
122 122 122
109 109 109
108 108 108
106 106 106
148 148 148
158 158 158
157 157 157
157 157 157
157 157 157
156 156 156
155 155 155
153 153 153
154 154 154
153 153 153
153 153 153
153 153 153
153 153 153
149 149 149
145 145 145
146 146 146
144 144 144
139 139 139
123 123 123
136 136 136
135 135 135
134 134 134
134 134 134
132 132 132
112 112 112
87 87 87
71 71 71
70 70 70
68 68 68
62 62 62
96 96 96
118 118 118
99 99 99
76 76 76
70 70 70
92 92 92
95 95 95
126 126 126
126 126 126
126 126 126
125 125 125
125 125 125
124 124 124
124 124 124
121 121 121
102 102 102
124 124 124
124 124 124
108 108 108
154 154 154
170 170 170
170 170 170
171 171 171
167 167 167
162 162 162
174 174 174
176 176 176
177 177 177
177 177 177
177 177 177
177 177 177
176 176 176
170 170 170
168 168 168
192 192 192
191 191 191
192 192 192
192 192 192
190 190 190
187 187 187
154 154 154
124 124 124
125 125 125
140 140 140
187 187 187
188 188 188
172 172 172
173 173 173
187 187 187
189 189 189
191 191 191
188 188 188
186 186 186
184 184 184
157 157 157
113 113 113
115 115 115
120 120 120
159 159 159
172 172 172
170 170 170
171 171 171
172 172 172
173 173 173
173 173 173
172 172 172
170 170 170
170 170 170
170 170 170
170 170 170
169 169 169
168 168 168
168 168 168
166 166 166
164 164 164
165 165 165
164 164 164
154 154 154
120 120 120
107 107 107
107 107 107
106 106 106
142 142 142
159 159 159
159 159 159
157 157 157
156 156 156
156 156 156
156 156 156
155 155 155
153 153 153
154 154 154
153 153 153
153 153 153
153 153 153
151 151 151
148 148 148
146 146 146
145 145 145
143 143 143
132 132 132
132 132 132
135 135 135
134 134 134
131 131 131
131 131 131
131 131 131
99 99 99
89 89 89
73 73 73
70 70 70
69 69 69
69 69 69
114 114 114
105 105 105
78 78 78
71 71 71
99 99 99
101 101 101
93 93 93
126 126 126
127 127 127
127 127 127
126 126 126
125 125 125
123 123 123
123 123 123
118 118 118
106 106 106
123 123 123
124 124 124
117 117 117
153 153 153
167 167 167
170 170 170
166 166 166
157 157 157
165 165 165
176 176 176
176 176 176
177 177 177
177 177 177
177 177 177
177 177 177
175 175 175
156 156 156
189 189 189
192 192 192
191 191 191
191 191 191
191 191 191
190 190 190
184 184 184
138 138 138
124 124 124
125 125 125
162 162 162
189 189 189
182 182 182
166 166 166
186 186 186
188 188 188
190 190 190
190 190 190
188 188 188
186 186 186
167 167 167
115 115 115
114 114 114
114 114 114
136 136 136
169 169 169
173 173 173
171 171 171
172 172 172
172 172 172
173 173 173
173 173 173
171 171 171
170 170 170
170 170 170
170 170 170
170 170 170
170 170 170
170 170 170
168 168 168
167 167 167
164 164 164
164 164 164
151 151 151
116 116 116
108 108 108
108 108 108
103 103 103
143 143 143
159 159 159
161 161 161
159 159 159
157 157 157
156 156 156
156 156 156
156 156 156
154 154 154
153 153 153
153 153 153
153 153 153
154 154 154
153 153 153
150 150 150
148 148 148
146 146 146
145 145 145
142 142 142
122 122 122
132 132 132
132 132 132
113 113 113
90 90 90
93 93 93
124 124 124
90 90 90
90 90 90
70 70 70
71 71 71
69 69 69
70 70 70
117 117 117
95 95 95
73 73 73
98 98 98
101 101 101
97 97 97
92 92 92
126 126 126
126 126 126
126 126 126
126 126 126
124 124 124
122 122 122
124 124 124
114 114 114
111 111 111
121 121 121
118 118 118
141 141 141
165 165 165
167 167 167
168 168 168
164 164 164
141 141 141
173 173 173
175 175 175
176 176 176
177 177 177
177 177 177
177 177 177
176 176 176
171 171 171
167 167 167
191 191 191
193 193 193
192 192 192
191 191 191
189 189 189
187 187 187
177 177 177
124 124 124
125 125 125
128 128 128
180 180 180
185 185 185
159 159 159
186 186 186
188 188 188
190 190 190
189 189 189
188 188 188
186 186 186
172 172 172
114 114 114
115 115 115
114 114 114
119 119 119
163 163 163
172 172 172
172 172 172
172 172 172
172 172 172
172 172 172
172 172 172
171 171 171
170 170 170
170 170 170
170 170 170
169 169 169
169 169 169
168 168 168
168 168 168
168 168 168
165 165 165
162 162 162
146 146 146
112 112 112
108 108 108
108 108 108
106 106 106
139 139 139
158 158 158
159 159 159
159 159 159
159 159 159
157 157 157
157 157 157
156 156 156
156 156 156
153 153 153
153 153 153
153 153 153
153 153 153
154 154 154
152 152 152
151 151 151
147 147 147
145 145 145
145 145 145
136 136 136
120 120 120
128 128 128
99 99 99
76 76 76
75 75 75
74 74 74
109 109 109
78 78 78
85 85 85
69 69 69
71 71 71
69 69 69
66 66 66
106 106 106
85 85 85
88 88 88
94 94 94
93 93 93
95 95 95
92 92 92
126 126 126
125 125 125
125 125 125
125 125 125
123 123 123
123 123 123
124 124 124
109 109 109
116 116 116
120 120 120
120 120 120
151 151 151
165 165 165
165 165 165
165 165 165
162 162 162
144 144 144
175 175 175
176 176 176
177 177 177
177 177 177
177 177 177
177 177 177
176 176 176
169 169 169
175 175 175
193 193 193
192 192 192
192 192 192
191 191 191
189 189 189
188 188 188
160 160 160
118 118 118
124 124 124
143 143 143
185 185 185
165 165 165
182 182 182
188 188 188
188 188 188
188 188 188
188 188 188
187 187 187
180 180 180
127 127 127
112 112 112
114 114 114
115 115 115
140 140 140
169 169 169
171 171 171
172 172 172
173 173 173
173 173 173
172 172 172
171 171 171
170 170 170
169 169 169
170 170 170
169 169 169
169 169 169
168 168 168
166 166 166
167 167 167
165 165 165
162 162 162
137 137 137
111 111 111
109 109 109
108 108 108
104 104 104
140 140 140
159 159 159
162 162 162
161 161 161
159 159 159
155 155 155
156 156 156
156 156 156
156 156 156
155 155 155
152 152 152
153 153 153
153 153 153
153 153 153
154 154 154
152 152 152
148 148 148
146 146 146
146 146 146
143 143 143
113 113 113
119 119 119
86 86 86
76 76 76
75 75 75
74 74 74
74 74 74
103 103 103
70 70 70
76 76 76
69 69 69
70 70 70
69 69 69
68 68 68
88 88 88
98 98 98
98 98 98
91 91 91
83 83 83
85 85 85
89 89 89
126 126 126
125 125 125
124 124 124
123 123 123
123 123 123
124 124 124
124 124 124
107 107 107
119 119 119
122 122 122
119 119 119
153 153 153
153 153 153
153 153 153
156 156 156
146 146 146
159 159 159
175 175 175
176 176 176
177 177 177
177 177 177
177 177 177
174 174 174
174 174 174
156 156 156
187 187 187
192 192 192
193 193 193
192 192 192
191 191 191
189 189 189
188 188 188
130 130 130
124 124 124
126 126 126
159 159 159
172 172 172
174 174 174
187 187 187
189 189 189
188 188 188
187 187 187
186 186 186
183 183 183
131 131 131
109 109 109
113 113 113
114 114 114
120 120 120
160 160 160
171 171 171
172 172 172
172 172 172
173 173 173
173 173 173
172 172 172
171 171 171
170 170 170
169 169 169
169 169 169
169 169 169
169 169 169
168 168 168
165 165 165
164 164 164
158 158 158
128 128 128
108 108 108
107 107 107
107 107 107
106 106 106
140 140 140
160 160 160
163 163 163
161 161 161
159 159 159
157 157 157
155 155 155
156 156 156
156 156 156
156 156 156
154 154 154
151 151 151
153 153 153
153 153 153
153 153 153
153 153 153
151 151 151
147 147 147
145 145 145
144 144 144
130 130 130
104 104 104
77 77 77
76 76 76
77 77 77
75 75 75
72 72 72
74 74 74
89 89 89
70 70 70
67 67 67
68 68 68
69 69 69
69 69 69
69 69 69
73 73 73
104 104 104
105 105 105
103 103 103
90 90 90
81 81 81
74 74 74
127 127 127
125 125 125
124 124 124
122 122 122
123 123 123
125 125 125
123 123 123
103 103 103
121 121 121
121 121 121
122 122 122
153 153 153
155 155 155
153 153 153
148 148 148
132 132 132
172 172 172
176 176 176
177 177 177
177 177 177
177 177 177
177 177 177
176 176 176
168 168 168
168 168 168
191 191 191
190 190 190
192 192 192
191 191 191
191 191 191
188 188 188
176 176 176
116 116 116
125 125 125
129 129 129
163 163 163
163 163 163
188 188 188
190 190 190
190 190 190
188 188 188
185 185 185
182 182 182
144 144 144
111 111 111
111 111 111
112 112 112
114 114 114
138 138 138
170 170 170
173 173 173
173 173 173
173 173 173
173 173 173
171 171 171
170 170 170
170 170 170
169 169 169
169 169 169
169 169 169
168 168 168
166 166 166
165 165 165
164 164 164
148 148 148
118 118 118
107 107 107
107 107 107
108 108 108
104 104 104
143 143 143
161 161 161
164 164 164
165 165 165
161 161 161
158 158 158
156 156 156
156 156 156
156 156 156
156 156 156
155 155 155
153 153 153
153 153 153
153 153 153
153 153 153
153 153 153
152 152 152
150 150 150
148 148 148
144 144 144
142 142 142
100 100 100
76 76 76
78 78 78
78 78 78
76 76 76
71 71 71
71 71 71
70 70 70
68 68 68
64 64 64
69 69 69
69 69 69
69 69 69
69 69 69
68 68 68
63 63 63
103 103 103
94 94 94
98 98 98
102 102 102
97 97 97
84 84 84
126 126 126
124 124 124
124 124 124
125 125 125
125 125 125
125 125 125
123 123 123
101 101 101
120 120 120
116 116 116
143 143 143
162 162 162
167 167 167
165 165 165
153 153 153
140 140 140
172 172 172
176 176 176
177 177 177
177 177 177
177 177 177
177 177 177
175 175 175
154 154 154
190 190 190
192 192 192
190 190 190
192 192 192
191 191 191
189 189 189
187 187 187
155 155 155
124 124 124
126 126 126
132 132 132
155 155 155
184 184 184
189 189 189
190 190 190
189 189 189
186 186 186
183 183 183
158 158 158
109 109 109
112 112 112
111 111 111
111 111 111
119 119 119
164 164 164
171 171 171
173 173 173
173 173 173
173 173 173
172 172 172
170 170 170
170 170 170
170 170 170
170 170 170
170 170 170
169 169 169
167 167 167
165 165 165
160 160 160
140 140 140
112 112 112
110 110 110
107 107 107
106 106 106
107 107 107
143 143 143
160 160 160
162 162 162
165 165 165
163 163 163
161 161 161
157 157 157
156 156 156
156 156 156
156 156 156
156 156 156
155 155 155
153 153 153
152 152 152
153 153 153
154 154 154
153 153 153
151 151 151
147 147 147
147 147 147
144 144 144
121 121 121
74 74 74
76 76 76
79 79 79
78 78 78
74 74 74
71 71 71
73 73 73
67 67 67
76 76 76
64 64 64
69 69 69
68 68 68
69 69 69
69 69 69
70 70 70
65 65 65
90 90 90
71 71 71
78 78 78
96 96 96
102 102 102
95 95 95
125 125 125
124 124 124
124 124 124
123 123 123
124 124 124
124 124 124
123 123 123
101 101 101
120 120 120
111 111 111
166 166 166
168 168 168
172 172 172
169 169 169
152 152 152
154 154 154
173 173 173
177 177 177
177 177 177
177 177 177
177 177 177
176 176 176
171 171 171
168 168 168
190 190 190
193 193 193
192 192 192
193 193 193
192 192 192
190 190 190
185 185 185
140 140 140
125 125 125
126 126 126
123 123 123
177 177 177
187 187 187
189 189 189
188 188 188
185 185 185
184 184 184
162 162 162
113 113 113
113 113 113
113 113 113
113 113 113
113 113 113
141 141 141
167 167 167
172 172 172
173 173 173
173 173 173
173 173 173
171 171 171
170 170 170
170 170 170
170 170 170
170 170 170
169 169 169
168 168 168
167 167 167
154 154 154
124 124 124
110 110 110
108 108 108
107 107 107
107 107 107
108 108 108
149 149 149
162 162 162
163 163 163
164 164 164
164 164 164
159 159 159
158 158 158
156 156 156
156 156 156
156 156 156
157 157 157
156 156 156
154 154 154
153 153 153
153 153 153
153 153 153
152 152 152
152 152 152
151 151 151
147 147 147
143 143 143
121 121 121
82 82 82
78 78 78
77 77 77
78 78 78
77 77 77
72 72 72
70 70 70
67 67 67
76 76 76
78 78 78
64 64 64
69 69 69
69 69 69
70 70 70
70 70 70
69 69 69
67 67 67
72 72 72
61 61 61
69 69 69
94 94 94
106 106 106
108 108 108
125 125 125
124 124 124
124 124 124
123 123 123
124 124 124
124 124 124
123 123 123
102 102 102
118 118 118
126 126 126
170 170 170
162 162 162
166 166 166
156 156 156
146 146 146
158 158 158
173 173 173
176 176 176
177 177 177
177 177 177
177 177 177
176 176 176
166 166 166
177 177 177
191 191 191
192 192 192
192 192 192
192 192 192
192 192 192
188 188 188
180 180 180
128 128 128
123 123 123
118 118 118
161 161 161
187 187 187
189 189 189
188 188 188
186 186 186
184 184 184
170 170 170
119 119 119
113 113 113
112 112 112
111 111 111
112 112 112
118 118 118
162 162 162
171 171 171
172 172 172
172 172 172
172 172 172
172 172 172
170 170 170
170 170 170
169 169 169
169 169 169
168 168 168
166 166 166
162 162 162
141 141 141
113 113 113
110 110 110
108 108 108
106 106 106
104 104 104
111 111 111
152 152 152
162 162 162
163 163 163
162 162 162
163 163 163
163 163 163
158 158 158
155 155 155
156 156 156
156 156 156
156 156 156
157 157 157
156 156 156
154 154 154
153 153 153
153 153 153
152 152 152
152 152 152
151 151 151
148 148 148
143 143 143
121 121 121
77 77 77
76 76 76
77 77 77
78 78 78
78 78 78
76 76 76
72 72 72
71 71 71
67 67 67
76 76 76
80 80 80
70 70 70
69 69 69
70 70 70
69 69 69
68 68 68
67 67 67
66 66 66
60 60 60
75 75 75
80 80 80
94 94 94
105 105 105
110 110 110
126 126 126
124 124 124
122 122 122
122 122 122
123 123 123
124 124 124
123 123 123
103 103 103
116 116 116
145 145 145
169 169 169
168 168 168
164 164 164
154 154 154
148 148 148
163 163 163
172 172 172
177 177 177
177 177 177
176 176 176
176 176 176
175 175 175
155 155 155
189 189 189
192 192 192
191 191 191
193 193 193
192 192 192
190 190 190
188 188 188
172 172 172
116 116 116
121 121 121
147 147 147
185 185 185
189 189 189
188 188 188
187 187 187
184 184 184
174 174 174
119 119 119
112 112 112
113 113 113
112 112 112
110 110 110
111 111 111
142 142 142
169 169 169
170 170 170
172 172 172
173 173 173
172 172 172
170 170 170
170 170 170
169 169 169
169 169 169
166 166 166
167 167 167
151 151 151
124 124 124
111 111 111
111 111 111
108 108 108
107 107 107
105 105 105
127 127 127
157 157 157
161 161 161
163 163 163
162 162 162
162 162 162
162 162 162
161 161 161
156 156 156
156 156 156
156 156 156
156 156 156
156 156 156
155 155 155
153 153 153
153 153 153
153 153 153
153 153 153
152 152 152
152 152 152
149 149 149
144 144 144
118 118 118
82 82 82
74 74 74
77 77 77
78 78 78
78 78 78
76 76 76
74 74 74
71 71 71
71 71 71
75 75 75
79 79 79
79 79 79
68 68 68
68 68 68
70 70 70
68 68 68
69 69 69
67 67 67
66 66 66
62 62 62
75 75 75
75 75 75
75 75 75
91 91 91
107 107 107
125 125 125
124 124 124
124 124 124
124 124 124
123 123 123
125 125 125
123 123 123
103 103 103
115 115 115
142 142 142
149 149 149
147 147 147
158 158 158
162 162 162
144 144 144
170 170 170
174 174 174
176 176 176
177 177 177
175 175 175
175 175 175
165 165 165
172 172 172
191 191 191
192 192 192
192 192 192
193 193 193
192 192 192
189 189 189
186 186 186
149 149 149
121 121 121
125 125 125
178 178 178
187 187 187
188 188 188
187 187 187
185 185 185
179 179 179
131 131 131
111 111 111
111 111 111
112 112 112
112 112 112
110 110 110
111 111 111
144 144 144
170 170 170
170 170 170
171 171 171
172 172 172
171 171 171
169 169 169
169 169 169
169 169 169
167 167 167
158 158 158
133 133 133
112 112 112
110 110 110
111 111 111
109 109 109
107 107 107
106 106 106
134 134 134
162 162 162
162 162 162
163 163 163
165 165 165
163 163 163
162 162 162
162 162 162
160 160 160
158 158 158
156 156 156
156 156 156
156 156 156
157 157 157
155 155 155
153 153 153
152 152 152
153 153 153
153 153 153
151 151 151
147 147 147
138 138 138
110 110 110
85 85 85
73 73 73
78 78 78
77 77 77
78 78 78
77 77 77
73 73 73
71 71 71
71 71 71
68 68 68
86 86 86
75 75 75
74 74 74
68 68 68
69 69 69
70 70 70
70 70 70
69 69 69
67 67 67
68 68 68
60 60 60
72 72 72
71 71 71
69 69 69
73 73 73
92 92 92
125 125 125
124 124 124
124 124 124
124 124 124
122 122 122
125 125 125
124 124 124
107 107 107
117 117 117
144 144 144
150 150 150
145 145 145
156 156 156
167 167 167
139 139 139
173 173 173
175 175 175
176 176 176
177 177 177
176 176 176
175 175 175
157 157 157
189 189 189
192 192 192
191 191 191
191 191 191
192 192 192
190 190 190
189 189 189
186 186 186
122 122 122
116 116 116
167 167 167
188 188 188
189 189 189
189 189 189
186 186 186
184 184 184
140 140 140
110 110 110
111 111 111
111 111 111
111 111 111
111 111 111
110 110 110
110 110 110
121 121 121
160 160 160
169 169 169
170 170 170
169 169 169
170 170 170
168 168 168
168 168 168
162 162 162
136 136 136
117 117 117
111 111 111
109 109 109
109 109 109
110 110 110
107 107 107
111 111 111
149 149 149
163 163 163
163 163 163
164 164 164
165 165 165
165 165 165
164 164 164
162 162 162
162 162 162
159 159 159
157 157 157
155 155 155
156 156 156
156 156 156
157 157 157
156 156 156
153 153 153
152 152 152
153 153 153
152 152 152
148 148 148
127 127 127
101 101 101
89 89 89
73 73 73
76 76 76
78 78 78
78 78 78
78 78 78
77 77 77
73 73 73
71 71 71
66 66 66
75 75 75
89 89 89
72 72 72
65 65 65
69 69 69
70 70 70
70 70 70
71 71 71
69 69 69
68 68 68
67 67 67
66 66 66
80 80 80
78 78 78
70 70 70
74 74 74
93 93 93
125 125 125
124 124 124
124 124 124
123 123 123
123 123 123
124 124 124
123 123 123
111 111 111
108 108 108
140 140 140
143 143 143
151 151 151
165 165 165
162 162 162
147 147 147
173 173 173
174 174 174
175 175 175
176 176 176
176 176 176
169 169 169
173 173 173
191 191 191
192 192 192
191 191 191
192 192 192
191 191 191
190 190 190
188 188 188
174 174 174
117 117 117
147 147 147
185 185 185
188 188 188
189 189 189
186 186 186
184 184 184
155 155 155
108 108 108
112 112 112
111 111 111
111 111 111
112 112 112
111 111 111
110 110 110
110 110 110
112 112 112
126 126 126
156 156 156
162 162 162
164 164 164
164 164 164
158 158 158
143 143 143
117 117 117
111 111 111
110 110 110
111 111 111
110 110 110
109 109 109
106 106 106
124 124 124
159 159 159
164 164 164
164 164 164
165 165 165
164 164 164
165 165 165
164 164 164
162 162 162
162 162 162
161 161 161
158 158 158
157 157 157
156 156 156
156 156 156
156 156 156
156 156 156
154 154 154
153 153 153
151 151 151
151 151 151
142 142 142
114 114 114
95 95 95
91 91 91
76 76 76
77 77 77
76 76 76
76 76 76
78 78 78
78 78 78
75 75 75
72 72 72
70 70 70
72 72 72
78 78 78
87 87 87
59 59 59
68 68 68
69 69 69
70 70 70
70 70 70
70 70 70
68 68 68
68 68 68
65 65 65
91 91 91
91 91 91
87 87 87
77 77 77
83 83 83
94 94 94
125 125 125
124 124 124
124 124 124
124 124 124
123 123 123
124 124 124
123 123 123
118 118 118
104 104 104
154 154 154
157 157 157
156 156 156
170 170 170
155 155 155
163 163 163
173 173 173
174 174 174
175 175 175
175 175 175
175 175 175
164 164 164
181 181 181
192 192 192
193 193 193
192 192 192
192 192 192
191 191 191
189 189 189
188 188 188
157 157 157
138 138 138
181 181 181
186 186 186
189 189 189
189 189 189
188 188 188
173 173 173
156 156 156
126 126 126
109 109 109
111 111 111
111 111 111
111 111 111
110 110 110
110 110 110
111 111 111
110 110 110
111 111 111
114 114 114
122 122 122
123 123 123
122 122 122
115 115 115
112 112 112
112 112 112
112 112 112
113 113 113
110 110 110
110 110 110
103 103 103
138 138 138
161 161 161
164 164 164
165 165 165
166 166 166
166 166 166
164 164 164
164 164 164
162 162 162
162 162 162
162 162 162
160 160 160
157 157 157
157 157 157
156 156 156
156 156 156
156 156 156
154 154 154
152 152 152
150 150 150
149 149 149
133 133 133
102 102 102
94 94 94
93 93 93
77 77 77
77 77 77
77 77 77
77 77 77
78 78 78
78 78 78
77 77 77
73 73 73
70 70 70
73 73 73
88 88 88
79 79 79
80 80 80
68 68 68
70 70 70
71 71 71
69 69 69
70 70 70
69 69 69
67 67 67
66 66 66
83 83 83
111 111 111
100 100 100
89 89 89
86 86 86
92 92 92
96 96 96
124 124 124
123 123 123
124 124 124
124 124 124
124 124 124
124 124 124
124 124 124
121 121 121
97 97 97
160 160 160
164 164 164
160 160 160
170 170 170
146 146 146
171 171 171
173 173 173
173 173 173
174 174 174
176 176 176
175 175 175
157 157 157
192 192 192
192 192 192
193 193 193
193 193 193
193 193 193
191 191 191
189 189 189
187 187 187
147 147 147
175 175 175
189 189 189
189 189 189
189 189 189
189 189 189
182 182 182
151 151 151
170 170 170
165 165 165
117 117 117
109 109 109
110 110 110
110 110 110
110 110 110
110 110 110
110 110 110
110 110 110
110 110 110
111 111 111
110 110 110
111 111 111
110 110 110
110 110 110
109 109 109
112 112 112
113 113 113
112 112 112
107 107 107
111 111 111
148 148 148
164 164 164
164 164 164
164 164 164
165 165 165
166 166 166
166 166 166
165 165 165
163 163 163
162 162 162
162 162 162
161 161 161
159 159 159
157 157 157
157 157 157
156 156 156
156 156 156
155 155 155
152 152 152
151 151 151
147 147 147
119 119 119
96 96 96
93 93 93
92 92 92
82 82 82
71 71 71
76 76 76
76 76 76
77 77 77
78 78 78
77 77 77
75 75 75
69 69 69
60 60 60
81 81 81
90 90 90
75 75 75
75 75 75
67 67 67
69 69 69
71 71 71
69 69 69
71 71 71
69 69 69
67 67 67
62 62 62
94 94 94
116 116 116
117 117 117
104 104 104
98 98 98
98 98 98
98 98 98
132 132 132
124 124 124
125 125 125
124 124 124
124 124 124
124 124 124
124 124 124
122 122 122
108 108 108
154 154 154
158 158 158
168 168 168
171 171 171
147 147 147
172 172 172
173 173 173
173 173 173
174 174 174
176 176 176
159 159 159
182 182 182
190 190 190
192 192 192
192 192 192
192 192 192
192 192 192
191 191 191
189 189 189
182 182 182
165 165 165
187 187 187
190 190 190
189 189 189
188 188 188
184 184 184
158 158 158
170 170 170
169 169 169
170 170 170
158 158 158
105 105 105
109 109 109
110 110 110
110 110 110
110 110 110
110 110 110
110 110 110
110 110 110
110 110 110
110 110 110
111 111 111
110 110 110
110 110 110
110 110 110
112 112 112
111 111 111
106 106 106
129 129 129
160 160 160
167 167 167
167 167 167
166 166 166
166 166 166
166 166 166
166 166 166
166 166 166
165 165 165
162 162 162
163 163 163
162 162 162
160 160 160
157 157 157
157 157 157
157 157 157
156 156 156
155 155 155
153 153 153
151 151 151
131 131 131
105 105 105
95 95 95
95 95 95
94 94 94
83 83 83
76 76 76
76 76 76
77 77 77
77 77 77
78 78 78
77 77 77
75 75 75
67 67 67
66 66 66
71 71 71
74 74 74
86 86 86
71 71 71
67 67 67
70 70 70
71 71 71
69 69 69
70 70 70
70 70 70
67 67 67
66 66 66
56 56 56
99 99 99
114 114 114
115 115 115
111 111 111
105 105 105
105 105 105
108 108 108
