P3
100 100
255
46 46 46
47 47 47
48 48 48
49 49 49
53 53 53
52 52 52
54 54 54
54 54 54
56 56 56
58 58 58
58 58 58
56 56 56
54 54 54
53 53 53
50 50 50
49 49 49
49 49 49
47 47 47
46 46 46
45 45 45
46 46 46
47 47 47
47 47 47
47 47 47
50 50 50
50 50 50
50 50 50
50 50 50
50 50 50
53 53 53
55 55 55
55 55 55
55 55 55
54 54 54
53 53 53
55 55 55
53 53 53
53 53 53
53 53 53
55 55 55
57 57 57
59 59 59
59 59 59
58 58 58
57 57 57
54 54 54
50 50 50
45 45 45
43 43 43
43 43 43
44 44 44
45 45 45
46 46 46
48 48 48
49 49 49
53 53 53
55 55 55
55 55 55
56 56 56
58 58 58
62 62 62
63 63 63
64 64 64
64 64 64
64 64 64
63 63 63
63 63 63
61 61 61
60 60 60
56 56 56
54 54 54
53 53 53
52 52 52
50 50 50
49 49 49
46 46 46
45 45 45
49 49 49
56 56 56
61 61 61
62 62 62
63 63 63
64 64 64
64 64 64
64 64 64
65 65 65
65 65 65
66 66 66
67 67 67
69 69 69
71 71 71
70 70 70
69 69 69
66 66 66
62 62 62
61 61 61
59 59 59
59 59 59
59 59 59
59 59 59
47 47 47
47 47 47
48 48 48
50 50 50
53 53 53
52 52 52
52 52 52
54 54 54
57 57 57
58 58 58
58 58 58
56 56 56
55 55 55
53 53 53
52 52 52
51 51 51
52 52 52
53 53 53
49 49 49
49 49 49
49 49 49
50 50 50
49 49 49
50 50 50
51 51 51
53 53 53
52 52 52
51 51 51
52 52 52
54 54 54
57 57 57
57 57 57
57 57 57
57 57 57
55 55 55
55 55 55
56 56 56
54 54 54
55 55 55
55 55 55
58 58 58
59 59 59
60 60 60
58 58 58
56 56 56
53 53 53
50 50 50
46 46 46
44 44 44
45 45 45
45 45 45
46 46 46
47 47 47
51 51 51
54 54 54
59 59 59
58 58 58
58 58 58
59 59 59
62 62 62
65 65 65
66 66 66
67 67 67
66 66 66
66 66 66
66 66 66
67 67 67
64 64 64
62 62 62
58 58 58
57 57 57
56 56 56
55 55 55
53 53 53
51 51 51
49 49 49
48 48 48
53 53 53
59 59 59
63 63 63
66 66 66
67 67 67
67 67 67
68 68 68
68 68 68
68 68 68
69 69 69
71 71 71
71 71 71
72 72 72
73 73 73
72 72 72
69 69 69
68 68 68
66 66 66
64 64 64
62 62 62
62 62 62
61 61 61
61 61 61
47 47 47
47 47 47
48 48 48
50 50 50
53 53 53
53 53 53
53 53 53
54 54 54
56 56 56
57 57 57
59 59 59
57 57 57
57 57 57
56 56 56
54 54 54
53 53 53
54 54 54
77 77 77
55 55 55
52 52 52
52 52 52
51 51 51
51 51 51
52 52 52
54 54 54
54 54 54
55 55 55
54 54 54
54 54 54
55 55 55
58 58 58
58 58 58
58 58 58
56 56 56
55 55 55
57 57 57
59 59 59
58 58 58
56 56 56
56 56 56
58 58 58
59 59 59
60 60 60
58 58 58
57 57 57
52 52 52
49 49 49
47 47 47
46 46 46
47 47 47
47 47 47
48 48 48
50 50 50
53 53 53
66 66 66
69 69 69
66 66 66
62 62 62
62 62 62
65 65 65
67 67 67
68 68 68
69 69 69
68 68 68
68 68 68
67 67 67
68 68 68
65 65 65
64 64 64
62 62 62
59 59 59
59 59 59
57 57 57
56 56 56
53 53 53
52 52 52
50 50 50
55 55 55
60 60 60
65 65 65
69 69 69
69 69 69
69 69 69
70 70 70
71 71 71
72 72 72
73 73 73
74 74 74
75 75 75
75 75 75
76 76 76
75 75 75
73 73 73
71 71 71
69 69 69
67 67 67
65 65 65
66 66 66
63 63 63
65 65 65
48 48 48
48 48 48
49 49 49
51 51 51
53 53 53
53 53 53
54 54 54
54 54 54
56 56 56
57 57 57
59 59 59
60 60 60
59 59 59
58 58 58
56 56 56
56 56 56
55 55 55
88 88 88
88 88 88
64 64 64
56 56 56
55 55 55
55 55 55
55 55 55
56 56 56
55 55 55
55 55 55
55 55 55
54 54 54
56 56 56
58 58 58
59 59 59
59 59 59
58 58 58
58 58 58
59 59 59
61 61 61
60 60 60
59 59 59
60 60 60
61 61 61
60 60 60
60 60 60
60 60 60
59 59 59
55 55 55
52 52 52
49 49 49
49 49 49
50 50 50
50 50 50
50 50 50
53 53 53
84 84 84
106 106 106
115 115 115
93 93 93
69 69 69
67 67 67
67 67 67
68 68 68
70 70 70
71 71 71
70 70 70
70 70 70
69 69 69
68 68 68
67 67 67
67 67 67
64 64 64
63 63 63
62 62 62
60 60 60
60 60 60
57 57 57
54 54 54
54 54 54
57 57 57
63 63 63
67 67 67
70 70 70
72 72 72
72 72 72
73 73 73
75 75 75
76 76 76
76 76 76
76 76 76
76 76 76
76 76 76
78 78 78
76 76 76
74 74 74
74 74 74
72 72 72
70 70 70
68 68 68
69 69 69
69 69 69
68 68 68
49 49 49
49 49 49
51 51 51
52 52 52
52 52 52
53 53 53
56 56 56
54 54 54
56 56 56
58 58 58
60 60 60
61 61 61
61 61 61
61 61 61
59 59 59
58 58 58
60 60 60
92 92 92
108 108 108
103 103 103
70 70 70
58 58 58
57 57 57
58 58 58
57 57 57
57 57 57
57 57 57
56 56 56
55 55 55
56 56 56
58 58 58
59 59 59
60 60 60
60 60 60
60 60 60
61 61 61
62 62 62
62 62 62
62 62 62
62 62 62
62 62 62
63 63 63
63 63 63
62 62 62
58 58 58
56 56 56
54 54 54
51 51 51
53 53 53
52 52 52
53 53 53
55 55 55
114 114 114
199 199 199
187 187 187
168 168 168
139 139 139
104 104 104
84 84 84
68 68 68
70 70 70
72 72 72
73 73 73
72 72 72
71 71 71
70 70 70
70 70 70
70 70 70
68 68 68
67 67 67
67 67 67
65 65 65
64 64 64
62 62 62
61 61 61
57 57 57
58 58 58
61 61 61
64 64 64
68 68 68
72 72 72
73 73 73
74 74 74
75 75 75
77 77 77
78 78 78
78 78 78
79 79 79
78 78 78
79 79 79
79 79 79
80 80 80
78 78 78
76 76 76
74 74 74
73 73 73
71 71 71
71 71 71
71 71 71
71 71 71
49 49 49
50 50 50
52 52 52
54 54 54
56 56 56
56 56 56
56 56 56
57 57 57
58 58 58
60 60 60
61 61 61
63 63 63
63 63 63
62 62 62
61 61 61
60 60 60
65 65 65
102 102 102
129 129 129
148 148 148
134 134 134
82 82 82
62 62 62
61 61 61
59 59 59
59 59 59
59 59 59
58 58 58
56 56 56
57 57 57
58 58 58
60 60 60
62 62 62
63 63 63
62 62 62
62 62 62
64 64 64
64 64 64
64 64 64
64 64 64
64 64 64
65 65 65
65 65 65
63 63 63
60 60 60
59 59 59
57 57 57
56 56 56
57 57 57
56 56 56
55 55 55
86 86 86
194 194 194
175 175 175
191 191 191
185 185 185
168 168 168
172 172 172
121 121 121
70 70 70
72 72 72
73 73 73
75 75 75
72 72 72
72 72 72
72 72 72
73 73 73
72 72 72
72 72 72
70 70 70
70 70 70
69 69 69
66 66 66
65 65 65
63 63 63
63 63 63
63 63 63
63 63 63
65 65 65
69 69 69
73 73 73
76 76 76
77 77 77
78 78 78
80 80 80
80 80 80
80 80 80
82 82 82
81 81 81
82 82 82
81 81 81
81 81 81
79 79 79
78 78 78
78 78 78
76 76 76
75 75 75
75 75 75
75 75 75
75 75 75
50 50 50
51 51 51
54 54 54
56 56 56
58 58 58
57 57 57
57 57 57
57 57 57
59 59 59
61 61 61
63 63 63
65 65 65
65 65 65
64 64 64
63 63 63
62 62 62
72 72 72
141 141 141
140 140 140
131 131 131
153 153 153
160 160 160
85 85 85
64 64 64
63 63 63
62 62 62
62 62 62
59 59 59
59 59 59
59 59 59
59 59 59
62 62 62
64 64 64
64 64 64
64 64 64
64 64 64
65 65 65
65 65 65
66 66 66
65 65 65
66 66 66
67 67 67
66 66 66
64 64 64
62 62 62
61 61 61
59 59 59
59 59 59
61 61 61
59 59 59
58 58 58
158 158 158
169 169 169
148 148 148
147 147 147
134 134 134
128 128 128
122 122 122
140 140 140
74 74 74
75 75 75
75 75 75
75 75 75
73 73 73
72 72 72
72 72 72
74 74 74
74 74 74
73 73 73
73 73 73
72 72 72
70 70 70
69 69 69
67 67 67
66 66 66
66 66 66
65 65 65
67 67 67
68 68 68
71 71 71
75 75 75
76 76 76
79 79 79
79 79 79
81 81 81
83 83 83
83 83 83
83 83 83
84 84 84
84 84 84
83 83 83
81 81 81
80 80 80
80 80 80
79 79 79
77 77 77
77 77 77
77 77 77
78 78 78
78 78 78
51 51 51
53 53 53
54 54 54
57 57 57
59 59 59
59 59 59
57 57 57
59 59 59
60 60 60
62 62 62
64 64 64
64 64 64
64 64 64
64 64 64
64 64 64
65 65 65
76 76 76
148 148 148
112 112 112
124 124 124
141 141 141
139 139 139
157 157 157
85 85 85
66 66 66
65 65 65
64 64 64
62 62 62
62 62 62
61 61 61
62 62 62
63 63 63
65 65 65
66 66 66
66 66 66
68 68 68
68 68 68
67 67 67
68 68 68
67 67 67
68 68 68
70 70 70
69 69 69
66 66 66
64 64 64
63 63 63
61 61 61
63 63 63
64 64 64
63 63 63
104 104 104
160 160 160
151 151 151
160 160 160
155 155 155
128 128 128
124 124 124
107 107 107
126 126 126
81 81 81
75 75 75
76 76 76
77 77 77
75 75 75
73 73 73
74 74 74
75 75 75
74 74 74
74 74 74
74 74 74
74 74 74
72 72 72
71 71 71
69 69 69
69 69 69
68 68 68
68 68 68
69 69 69
70 70 70
72 72 72
75 75 75
78 78 78
79 79 79
80 80 80
83 83 83
85 85 85
83 83 83
84 84 84
85 85 85
85 85 85
83 83 83
83 83 83
81 81 81
81 81 81
80 80 80
79 79 79
79 79 79
80 80 80
79 79 79
79 79 79
52 52 52
54 54 54
56 56 56
58 58 58
60 60 60
59 59 59
60 60 60
60 60 60
62 62 62
64 64 64
66 66 66
67 67 67
66 66 66
66 66 66
66 66 66
66 66 66
118 118 118
130 130 130
123 123 123
138 138 138
152 152 152
151 151 151
151 151 151
154 154 154
71 71 71
68 68 68
66 66 66
66 66 66
64 64 64
65 65 65
65 65 65
65 65 65
66 66 66
68 68 68
70 70 70
71 71 71
70 70 70
69 69 69
69 69 69
69 69 69
70 70 70
71 71 71
71 71 71
68 68 68
67 67 67
65 65 65
64 64 64
67 67 67
66 66 66
68 68 68
166 166 166
145 145 145
146 146 146
164 164 164
154 154 154
150 150 150
130 130 130
111 111 111
120 120 120
100 100 100
77 77 77
78 78 78
80 80 80
76 76 76
75 75 75
74 74 74
77 77 77
77 77 77
76 76 76
77 77 77
75 75 75
73 73 73
73 73 73
71 71 71
72 72 72
71 71 71
70 70 70
71 71 71
71 71 71
73 73 73
76 76 76
80 80 80
80 80 80
80 80 80
84 84 84
85 85 85
85 85 85
86 86 86
87 87 87
86 86 86
83 83 83
82 82 82
82 82 82
81 81 81
80 80 80
79 79 79
79 79 79
80 80 80
80 80 80
80 80 80
55 55 55
56 56 56
56 56 56
59 59 59
60 60 60
61 61 61
61 61 61
63 63 63
64 64 64
66 66 66
68 68 68
68 68 68
69 69 69
69 69 69
69 69 69
72 72 72
144 144 144
108 108 108
130 130 130
137 137 137
147 147 147
150 150 150
150 150 150
142 142 142
124 124 124
72 72 72
70 70 70
69 69 69
67 67 67
68 68 68
67 67 67
68 68 68
68 68 68
69 69 69
70 70 70
72 72 72
71 71 71
68 68 68
69 69 69
71 71 71
72 72 72
73 73 73
72 72 72
71 71 71
70 70 70
68 68 68
68 68 68
70 70 70
72 72 72
118 118 118
159 159 159
148 148 148
168 168 168
165 165 165
141 141 141
135 135 135
134 134 134
126 126 126
94 94 94
118 118 118
78 78 78
80 80 80
81 81 81
80 80 80
78 78 78
77 77 77
78 78 78
77 77 77
77 77 77
77 77 77
76 76 76
75 75 75
74 74 74
73 73 73
74 74 74
74 74 74
73 73 73
73 73 73
73 73 73
74 74 74
77 77 77
79 79 79
81 81 81
81 81 81
84 84 84
86 86 86
85 85 85
85 85 85
87 87 87
86 86 86
84 84 84
84 84 84
82 82 82
81 81 81
81 81 81
80 80 80
81 81 81
81 81 81
82 82 82
82 82 82
57 57 57
57 57 57
59 59 59
60 60 60
61 61 61
63 63 63
64 64 64
65 65 65
67 67 67
68 68 68
69 69 69
71 71 71
72 72 72
72 72 72
72 72 72
77 77 77
144 144 144
115 115 115
129 129 129
142 142 142
144 144 144
153 153 153
150 150 150
140 140 140
161 161 161
91 91 91
74 74 74
73 73 73
72 72 72
71 71 71
70 70 70
70 70 70
71 71 71
71 71 71
71 71 71
71 71 71
71 71 71
70 70 70
72 72 72
73 73 73
75 75 75
75 75 75
75 75 75
75 75 75
74 74 74
73 73 73
73 73 73
74 74 74
75 75 75
167 167 167
127 127 127
147 147 147
140 140 140
134 134 134
140 140 140
155 155 155
145 145 145
122 122 122
92 92 92
107 107 107
80 80 80
80 80 80
81 81 81
79 79 79
78 78 78
78 78 78
80 80 80
79 79 79
78 78 78
78 78 78
76 76 76
77 77 77
75 75 75
76 76 76
75 75 75
75 75 75
75 75 75
75 75 75
75 75 75
76 76 76
78 78 78
79 79 79
81 81 81
82 82 82
84 84 84
85 85 85
85 85 85
85 85 85
87 87 87
86 86 86
83 83 83
82 82 82
82 82 82
82 82 82
81 81 81
80 80 80
82 82 82
82 82 82
82 82 82
83 83 83
59 59 59
59 59 59
60 60 60
61 61 61
63 63 63
65 65 65
66 66 66
68 68 68
70 70 70
71 71 71
71 71 71
72 72 72
75 75 75
75 75 75
76 76 76
81 81 81
149 149 149
118 118 118
140 140 140
140 140 140
143 143 143
153 153 153
158 158 158
146 146 146
136 136 136
145 145 145
78 78 78
76 76 76
75 75 75
74 74 74
74 74 74
72 72 72
73 73 73
74 74 74
74 74 74
75 75 75
73 73 73
72 72 72
74 74 74
75 75 75
77 77 77
76 76 76
78 78 78
78 78 78
78 78 78
76 76 76
77 77 77
78 78 78
106 106 106
171 171 171
142 142 142
136 136 136
146 146 146
149 149 149
151 151 151
164 164 164
146 146 146
119 119 119
103 103 103
115 115 115
79 79 79
80 80 80
81 81 81
80 80 80
79 79 79
80 80 80
80 80 80
79 79 79
79 79 79
77 77 77
78 78 78
77 77 77
78 78 78
78 78 78
78 78 78
77 77 77
77 77 77
78 78 78
79 79 79
79 79 79
79 79 79
80 80 80
82 82 82
83 83 83
84 84 84
84 84 84
85 85 85
86 86 86
87 87 87
85 85 85
84 84 84
83 83 83
83 83 83
82 82 82
82 82 82
81 81 81
82 82 82
83 83 83
83 83 83
84 84 84
60 60 60
61 61 61
60 60 60
63 63 63
65 65 65
67 67 67
68 68 68
71 71 71
72 72 72
74 74 74
75 75 75
76 76 76
77 77 77
78 78 78
80 80 80
84 84 84
149 149 149
124 124 124
145 145 145
148 148 148
150 150 150
150 150 150
152 152 152
158 158 158
133 133 133
150 150 150
117 117 117
81 81 81
79 79 79
77 77 77
75 75 75
75 75 75
76 76 76
77 77 77
77 77 77
76 76 76
75 75 75
76 76 76
77 77 77
79 79 79
80 80 80
79 79 79
80 80 80
80 80 80
81 81 81
80 80 80
81 81 81
84 84 84
156 156 156
132 132 132
146 146 146
144 144 144
151 151 151
153 153 153
173 173 173
158 158 158
130 130 130
109 109 109
100 100 100
128 128 128
81 81 81
80 80 80
80 80 80
79 79 79
80 80 80
82 82 82
80 80 80
80 80 80
79 79 79
79 79 79
78 78 78
78 78 78
79 79 79
80 80 80
80 80 80
80 80 80
81 81 81
80 80 80
79 79 79
79 79 79
79 79 79
79 79 79
82 82 82
83 83 83
85 85 85
85 85 85
86 86 86
87 87 87
86 86 86
86 86 86
84 84 84
84 84 84
84 84 84
84 84 84
84 84 84
84 84 84
83 83 83
84 84 84
82 82 82
83 83 83
62 62 62
62 62 62
62 62 62
64 64 64
67 67 67
69 69 69
70 70 70
74 74 74
75 75 75
76 76 76
77 77 77
78 78 78
79 79 79
82 82 82
86 86 86
91 91 91
158 158 158
123 123 123
151 151 151
161 161 161
169 169 169
159 159 159
159 159 159
155 155 155
144 144 144
132 132 132
165 165 165
84 84 84
82 82 82
80 80 80
79 79 79
80 80 80
79 79 79
80 80 80
80 80 80
79 79 79
80 80 80
79 79 79
80 80 80
82 82 82
82 82 82
82 82 82
83 83 83
83 83 83
84 84 84
84 84 84
84 84 84
95 95 95
167 167 167
127 127 127
138 138 138
154 154 154
150 150 150
136 136 136
125 125 125
124 124 124
127 127 127
109 109 109
99 99 99
135 135 135
81 81 81
80 80 80
80 80 80
80 80 80
80 80 80
81 81 81
80 80 80
79 79 79
79 79 79
78 78 78
78 78 78
78 78 78
80 80 80
79 79 79
81 81 81
81 81 81
80 80 80
82 82 82
80 80 80
82 82 82
80 80 80
81 81 81
82 82 82
83 83 83
83 83 83
85 85 85
86 86 86
85 85 85
85 85 85
83 83 83
85 85 85
85 85 85
86 86 86
86 86 86
86 86 86
85 85 85
84 84 84
83 83 83
83 83 83
85 85 85
63 63 63
63 63 63
64 64 64
68 68 68
70 70 70
72 72 72
72 72 72
76 76 76
77 77 77
78 78 78
79 79 79
81 81 81
83 83 83
83 83 83
86 86 86
104 104 104
157 157 157
118 118 118
145 145 145
166 166 166
156 156 156
148 148 148
134 134 134
129 129 129
121 121 121
135 135 135
147 147 147
126 126 126
85 85 85
83 83 83
82 82 82
83 83 83
83 83 83
82 82 82
82 82 82
81 81 81
82 82 82
82 82 82
84 84 84
84 84 84
85 85 85
84 84 84
86 86 86
86 86 86
88 88 88
88 88 88
91 91 91
157 157 157
134 134 134
122 122 122
141 141 141
143 143 143
136 136 136
147 147 147
138 138 138
125 125 125
122 122 122
106 106 106
106 106 106
120 120 120
82 82 82
81 81 81
80 80 80
80 80 80
79 79 79
80 80 80
79 79 79
78 78 78
79 79 79
78 78 78
78 78 78
78 78 78
80 80 80
80 80 80
80 80 80
80 80 80
81 81 81
83 83 83
81 81 81
82 82 82
82 82 82
83 83 83
83 83 83
85 85 85
85 85 85
85 85 85
84 84 84
84 84 84
85 85 85
85 85 85
85 85 85
86 86 86
86 86 86
87 87 87
88 88 88
86 86 86
84 84 84
84 84 84
84 84 84
86 86 86
65 65 65
65 65 65
67 67 67
70 70 70
73 73 73
73 73 73
75 75 75
78 78 78
80 80 80
80 80 80
82 82 82
85 85 85
85 85 85
86 86 86
87 87 87
118 118 118
149 149 149
117 117 117
152 152 152
177 177 177
166 166 166
159 159 159
149 149 149
150 150 150
146 146 146
132 132 132
128 128 128
152 152 152
90 90 90
88 88 88
86 86 86
86 86 86
85 85 85
83 83 83
83 83 83
84 84 84
84 84 84
86 86 86
87 87 87
87 87 87
87 87 87
87 87 87
88 88 88
89 89 89
91 91 91
94 94 94
107 107 107
174 174 174
135 135 135
145 145 145
153 153 153
159 159 159
161 161 161
155 155 155
143 143 143
138 138 138
114 114 114
93 93 93
101 101 101
115 115 115
83 83 83
79 79 79
79 79 79
80 80 80
81 81 81
80 80 80
80 80 80
80 80 80
80 80 80
81 81 81
79 79 79
78 78 78
80 80 80
80 80 80
80 80 80
81 81 81
82 82 82
82 82 82
83 83 83
83 83 83
84 84 84
85 85 85
85 85 85
86 86 86
87 87 87
86 86 86
86 86 86
85 85 85
85 85 85
85 85 85
86 86 86
87 87 87
87 87 87
88 88 88
87 87 87
86 86 86
87 87 87
86 86 86
87 87 87
87 87 87
67 67 67
69 69 69
71 71 71
73 73 73
74 74 74
75 75 75
77 77 77
81 81 81
81 81 81
83 83 83
84 84 84
86 86 86
87 87 87
87 87 87
88 88 88
131 131 131
132 132 132
123 123 123
121 121 121
138 138 138
130 130 130
142 142 142
162 162 162
155 155 155
146 146 146
139 139 139
125 125 125
136 136 136
135 135 135
97 97 97
90 90 90
88 88 88
86 86 86
84 84 84
84 84 84
85 85 85
87 87 87
90 90 90
90 90 90
90 90 90
88 88 88
88 88 88
89 89 89
91 91 91
94 94 94
114 114 114
172 172 172
153 153 153
135 135 135
149 149 149
153 153 153
150 150 150
130 130 130
119 119 119
103 103 103
97 97 97
90 90 90
87 87 87
103 103 103
107 107 107
85 85 85
80 80 80
80 80 80
81 81 81
81 81 81
81 81 81
80 80 80
80 80 80
79 79 79
80 80 80
79 79 79
79 79 79
79 79 79
80 80 80
81 81 81
82 82 82
83 83 83
84 84 84
84 84 84
85 85 85
85 85 85
87 87 87
87 87 87
88 88 88
87 87 87
87 87 87
85 85 85
85 85 85
86 86 86
85 85 85
85 85 85
88 88 88
87 87 87
88 88 88
88 88 88
88 88 88
86 86 86
88 88 88
88 88 88
89 89 89
70 70 70
72 72 72
74 74 74
76 76 76
76 76 76
77 77 77
80 80 80
83 83 83
84 84 84
86 86 86
87 87 87
88 88 88
88 88 88
88 88 88
91 91 91
124 124 124
117 117 117
120 120 120
112 112 112
125 125 125
140 140 140
150 150 150
166 166 166
171 171 171
168 168 168
148 148 148
123 123 123
113 113 113
165 165 165
139 139 139
97 97 97
89 89 89
89 89 89
86 86 86
86 86 86
88 88 88
88 88 88
99 99 99
95 95 95
99 99 99
95 95 95
93 93 93
93 93 93
94 94 94
103 103 103
160 160 160
190 190 190
127 127 127
130 130 130
135 135 135
144 144 144
134 134 134
127 127 127
114 114 114
97 97 97
83 83 83
75 75 75
85 85 85
102 102 102
111 111 111
84 84 84
80 80 80
81 81 81
82 82 82
82 82 82
81 81 81
81 81 81
80 80 80
79 79 79
80 80 80
79 79 79
79 79 79
79 79 79
81 81 81
82 82 82
84 84 84
85 85 85
85 85 85
85 85 85
85 85 85
86 86 86
87 87 87
88 88 88
88 88 88
87 87 87
86 86 86
85 85 85
84 84 84
85 85 85
86 86 86
87 87 87
87 87 87
88 88 88
89 89 89
90 90 90
89 89 89
88 88 88
88 88 88
89 89 89
90 90 90
73 73 73
73 73 73
75 75 75
77 77 77
79 79 79
79 79 79
82 82 82
84 84 84
87 87 87
89 89 89
90 90 90
90 90 90
90 90 90
90 90 90
92 92 92
124 124 124
115 115 115
114 114 114
105 105 105
114 114 114
118 118 118
136 136 136
129 129 129
125 125 125
127 127 127
134 134 134
119 119 119
112 112 112
137 137 137
166 166 166
128 128 128
99 99 99
101 101 101
97 97 97
108 108 108
125 125 125
141 141 141
140 140 140
124 124 124
127 127 127
132 132 132
142 142 142
121 121 121
112 112 112
139 139 139
179 179 179
168 168 168
131 131 131
125 125 125
129 129 129
118 118 118
105 105 105
111 111 111
113 113 113
106 106 106
79 79 79
70 70 70
89 89 89
99 99 99
111 111 111
85 85 85
80 80 80
80 80 80
82 82 82
82 82 82
81 81 81
80 80 80
80 80 80
79 79 79
79 79 79
79 79 79
79 79 79
79 79 79
80 80 80
82 82 82
83 83 83
85 85 85
86 86 86
86 86 86
86 86 86
87 87 87
87 87 87
88 88 88
88 88 88
87 87 87
86 86 86
85 85 85
84 84 84
86 86 86
87 87 87
88 88 88
89 89 89
89 89 89
89 89 89
89 89 89
89 89 89
89 89 89
89 89 89
89 89 89
91 91 91
75 75 75
74 74 74
76 76 76
79 79 79
79 79 79
81 81 81
83 83 83
86 86 86
89 89 89
90 90 90
91 91 91
91 91 91
92 92 92
93 93 93
93 93 93
114 114 114
118 118 118
109 109 109
93 93 93
94 94 94
103 103 103
123 123 123
129 129 129
135 135 135
141 141 141
146 146 146
133 133 133
129 129 129
118 118 118
164 164 164
158 158 158
155 155 155
154 154 154
172 172 172
187 187 187
204 204 204
215 215 215
207 207 207
209 209 209
195 195 195
201 201 201
214 214 214
190 190 190
168 168 168
178 178 178
185 185 185
150 150 150
128 128 128
131 131 131
137 137 137
128 128 128
132 132 132
108 108 108
116 116 116
107 107 107
80 80 80
70 70 70
80 80 80
89 89 89
115 115 115
79 79 79
78 78 78
79 79 79
81 81 81
80 80 80
80 80 80
81 81 81
79 79 79
79 79 79
79 79 79
79 79 79
79 79 79
78 78 78
80 80 80
83 83 83
84 84 84
84 84 84
85 85 85
86 86 86
86 86 86
86 86 86
87 87 87
87 87 87
87 87 87
87 87 87
86 86 86
84 84 84
85 85 85
86 86 86
88 88 88
89 89 89
89 89 89
90 90 90
91 91 91
90 90 90
90 90 90
89 89 89
90 90 90
92 92 92
92 92 92
76 76 76
76 76 76
79 79 79
80 80 80
82 82 82
81 81 81
85 85 85
88 88 88
90 90 90
91 91 91
90 90 90
92 92 92
93 93 93
94 94 94
95 95 95
112 112 112
123 123 123
104 104 104
87 87 87
79 79 79
99 99 99
107 107 107
102 102 102
102 102 102
114 114 114
139 139 139
119 119 119
101 101 101
113 113 113
150 150 150
164 164 164
173 173 173
198 198 198
206 206 206
203 203 203
206 206 206
204 204 204
200 200 200
214 214 214
208 208 208
209 209 209
212 212 212
197 197 197
179 179 179
177 177 177
166 166 166
144 144 144
101 101 101
131 131 131
141 141 141
118 118 118
104 104 104
103 103 103
89 89 89
83 83 83
66 66 66
63 63 63
80 80 80
85 85 85
112 112 112
79 79 79
78 78 78
80 80 80
81 81 81
81 81 81
81 81 81
80 80 80
79 79 79
78 78 78
79 79 79
79 79 79
79 79 79
79 79 79
81 81 81
82 82 82
84 84 84
85 85 85
84 84 84
86 86 86
86 86 86
87 87 87
87 87 87
88 88 88
88 88 88
88 88 88
87 87 87
86 86 86
84 84 84
88 88 88
90 90 90
90 90 90
90 90 90
90 90 90
90 90 90
90 90 90
91 91 91
89 89 89
91 91 91
91 91 91
92 92 92
78 78 78
80 80 80
81 81 81
82 82 82
83 83 83
84 84 84
86 86 86
89 89 89
90 90 90
91 91 91
90 90 90
91 91 91
92 92 92
93 93 93
93 93 93
106 106 106
135 135 135
87 87 87
83 83 83
74 74 74
77 77 77
81 81 81
108 108 108
131 131 131
144 144 144
136 136 136
130 130 130
116 116 116
109 109 109
132 132 132
166 166 166
171 171 171
165 165 165
186 186 186
191 191 191
200 200 200
203 203 203
184 184 184
197 197 197
211 211 211
196 196 196
201 201 201
175 175 175
170 170 170
161 161 161
169 169 169
141 141 141
94 94 94
95 95 95
98 98 98
114 114 114
111 111 111
105 105 105
91 91 91
77 77 77
52 52 52
63 63 63
75 75 75
89 89 89
116 116 116
80 80 80
78 78 78
79 79 79
81 81 81
81 81 81
79 79 79
79 79 79
78 78 78
78 78 78
78 78 78
78 78 78
78 78 78
79 79 79
82 82 82
83 83 83
85 85 85
84 84 84
84 84 84
85 85 85
87 87 87
87 87 87
89 89 89
88 88 88
90 90 90
89 89 89
87 87 87
86 86 86
87 87 87
89 89 89
90 90 90
90 90 90
90 90 90
90 90 90
90 90 90
91 91 91
91 91 91
90 90 90
92 92 92
93 93 93
92 92 92
80 80 80
80 80 80
82 82 82
83 83 83
84 84 84
85 85 85
87 87 87
88 88 88
90 90 90
90 90 90
92 92 92
91 91 91
93 93 93
94 94 94
94 94 94
97 97 97
137 137 137
88 88 88
87 87 87
74 74 74
79 79 79
109 109 109
131 131 131
147 147 147
152 152 152
144 144 144
144 144 144
140 140 140
109 109 109
123 123 123
159 159 159
165 165 165
167 167 167
164 164 164
193 193 193
187 187 187
204 204 204
190 190 190
194 194 194
204 204 204
195 195 195
177 177 177
183 183 183
159 159 159
142 142 142
169 169 169
134 134 134
90 90 90
58 58 58
79 79 79
98 98 98
90 90 90
79 79 79
66 66 66
48 48 48
51 51 51
57 57 57
69 69 69
97 97 97
123 123 123
79 79 79
78 78 78
81 81 81
80 80 80
80 80 80
78 78 78
77 77 77
77 77 77
77 77 77
78 78 78
79 79 79
80 80 80
79 79 79
82 82 82
84 84 84
85 85 85
85 85 85
86 86 86
87 87 87
89 89 89
87 87 87
87 87 87
88 88 88
88 88 88
88 88 88
88 88 88
88 88 88
88 88 88
90 90 90
90 90 90
89 89 89
89 89 89
90 90 90
91 91 91
91 91 91
91 91 91
92 92 92
92 92 92
92 92 92
91 91 91
82 82 82
82 82 82
82 82 82
84 84 84
83 83 83
84 84 84
87 87 87
90 90 90
92 92 92
93 93 93
93 93 93
94 94 94
95 95 95
95 95 95
95 95 95
96 96 96
136 136 136
95 95 95
85 85 85
81 81 81
72 72 72
107 107 107
138 138 138
114 114 114
116 116 116
129 129 129
143 143 143
128 128 128
109 109 109
112 112 112
149 149 149
145 145 145
171 171 171
167 167 167
170 170 170
190 190 190
192 192 192
184 184 184
187 187 187
202 202 202
203 203 203
175 175 175
176 176 176
159 159 159
133 133 133
135 135 135
114 114 114
80 80 80
65 65 65
66 66 66
60 60 60
65 65 65
72 72 72
71 71 71
62 62 62
55 55 55
56 56 56
81 81 81
101 101 101
125 125 125
81 81 81
79 79 79
79 79 79
79 79 79
79 79 79
78 78 78
76 76 76
78 78 78
78 78 78
79 79 79
79 79 79
80 80 80
81 81 81
83 83 83
83 83 83
84 84 84
84 84 84
85 85 85
87 87 87
87 87 87
85 85 85
88 88 88
88 88 88
89 89 89
89 89 89
90 90 90
90 90 90
88 88 88
91 91 91
91 91 91
90 90 90
90 90 90
90 90 90
90 90 90
91 91 91
91 91 91
91 91 91
92 92 92
92 92 92
92 92 92
82 82 82
82 82 82
82 82 82
84 84 84
85 85 85
84 84 84
86 86 86
90 90 90
92 92 92
93 93 93
95 95 95
94 94 94
95 95 95
95 95 95
96 96 96
97 97 97
159 159 159
109 109 109
74 74 74
76 76 76
78 78 78
96 96 96
78 78 78
96 96 96
130 130 130
136 136 136
124 124 124
91 91 91
94 94 94
117 117 117
149 149 149
129 129 129
157 157 157
171 171 171
162 162 162
189 189 189
186 186 186
159 159 159
167 167 167
198 198 198
205 205 205
169 169 169
162 162 162
173 173 173
151 151 151
127 127 127
100 100 100
83 83 83
68 68 68
82 82 82
67 67 67
72 72 72
76 76 76
58 58 58
39 39 39
43 43 43
70 70 70
97 97 97
91 91 91
112 112 112
82 82 82
79 79 79
79 79 79
78 78 78
78 78 78
78 78 78
77 77 77
78 78 78
78 78 78
78 78 78
78 78 78
81 81 81
81 81 81
81 81 81
85 85 85
84 84 84
84 84 84
86 86 86
87 87 87
87 87 87
86 86 86
85 85 85
87 87 87
88 88 88
90 90 90
90 90 90
90 90 90
90 90 90
91 91 91
92 92 92
92 92 92
92 92 92
90 90 90
91 91 91
91 91 91
92 92 92
92 92 92
94 94 94
94 94 94
93 93 93
82 82 82
82 82 82
82 82 82
82 82 82
83 83 83
84 84 84
87 87 87
90 90 90
93 93 93
94 94 94
94 94 94
95 95 95
95 95 95
94 94 94
94 94 94
98 98 98
166 166 166
126 126 126
87 87 87
74 74 74
71 71 71
65 65 65
84 84 84
117 117 117
109 109 109
78 78 78
87 87 87
88 88 88
93 93 93
118 118 118
120 120 120
125 125 125
155 155 155
157 157 157
159 159 159
191 191 191
160 160 160
156 156 156
159 159 159
174 174 174
196 196 196
163 163 163
149 149 149
153 153 153
151 151 151
128 128 128
92 92 92
103 103 103
74 74 74
77 77 77
73 73 73
73 73 73
24 24 24
16 16 16
26 26 26
46 46 46
89 89 89
107 107 107
89 89 89
100 100 100
86 86 86
82 82 82
80 80 80
78 78 78
79 79 79
79 79 79
78 78 78
77 77 77
78 78 78
79 79 79
79 79 79
81 81 81
81 81 81
82 82 82
84 84 84
85 85 85
86 86 86
86 86 86
86 86 86
85 85 85
85 85 85
86 86 86
88 88 88
89 89 89
89 89 89
90 90 90
92 92 92
92 92 92
93 93 93
94 94 94
94 94 94
93 93 93
91 91 91
92 92 92
93 93 93
93 93 93
94 94 94
95 95 95
95 95 95
93 93 93
81 81 81
81 81 81
81 81 81
81 81 81
84 84 84
85 85 85
87 87 87
90 90 90
92 92 92
94 94 94
94 94 94
96 96 96
95 95 95
93 93 93
94 94 94
98 98 98
155 155 155
143 143 143
120 120 120
95 95 95
72 72 72
70 70 70
87 87 87
45 45 45
56 56 56
90 90 90
92 92 92
97 97 97
106 106 106
105 105 105
119 119 119
129 129 129
149 149 149
144 144 144
134 134 134
178 178 178
147 147 147
154 154 154
158 158 158
158 158 158
161 161 161
165 165 165
129 129 129
144 144 144
112 112 112
115 115 115
104 104 104
104 104 104
110 110 110
84 84 84
97 97 97
67 67 67
38 38 38
36 36 36
41 41 41
56 56 56
71 71 71
98 98 98
98 98 98
107 107 107
92 92 92
82 82 82
80 80 80
80 80 80
80 80 80
78 78 78
77 77 77
77 77 77
78 78 78
79 79 79
79 79 79
81 81 81
81 81 81
82 82 82
85 85 85
86 86 86
85 85 85
85 85 85
87 87 87
87 87 87
87 87 87
87 87 87
88 88 88
90 90 90
91 91 91
92 92 92
92 92 92
93 93 93
94 94 94
94 94 94
96 96 96
96 96 96
93 93 93
92 92 92
94 94 94
93 93 93
95 95 95
95 95 95
95 95 95
94 94 94
81 81 81
82 82 82
80 80 80
81 81 81
83 83 83
83 83 83
86 86 86
89 89 89
92 92 92
94 94 94
94 94 94
95 95 95
95 95 95
94 94 94
94 94 94
96 96 96
147 147 147
141 141 141
155 155 155
137 137 137
86 86 86
72 72 72
46 46 46
70 70 70
107 107 107
120 120 120
118 118 118
101 101 101
115 115 115
101 101 101
126 126 126
150 150 150
147 147 147
150 150 150
115 115 115
176 176 176
136 136 136
143 143 143
155 155 155
136 136 136
152 152 152
168 168 168
124 124 124
122 122 122
109 109 109
119 119 119
113 113 113
102 102 102
118 118 118
90 90 90
85 85 85
52 52 52
54 54 54
52 52 52
34 34 34
40 40 40
54 54 54
80 80 80
124 124 124
106 106 106
97 97 97
86 86 86
83 83 83
81 81 81
80 80 80
81 81 81
78 78 78
77 77 77
79 79 79
80 80 80
81 81 81
82 82 82
83 83 83
83 83 83
83 83 83
86 86 86
87 87 87
88 88 88
89 89 89
87 87 87
87 87 87
86 86 86
88 88 88
89 89 89
90 90 90
92 92 92
92 92 92
94 94 94
95 95 95
95 95 95
96 96 96
97 97 97
95 95 95
94 94 94
95 95 95
94 94 94
95 95 95
95 95 95
95 95 95
94 94 94
81 81 81
80 80 80
80 80 80
80 80 80
82 82 82
83 83 83
86 86 86
90 90 90
93 93 93
93 93 93
94 94 94
95 95 95
95 95 95
94 94 94
95 95 95
99 99 99
143 143 143
147 147 147
167 167 167
113 113 113
79 79 79
62 62 62
95 95 95
86 86 86
72 72 72
100 100 100
103 103 103
110 110 110
117 117 117
109 109 109
118 118 118
124 124 124
121 121 121
124 124 124
110 110 110
161 161 161
147 147 147
138 138 138
147 147 147
125 125 125
148 148 148
163 163 163
119 119 119
119 119 119
110 110 110
124 124 124
120 120 120
130 130 130
132 132 132
140 140 140
98 98 98
67 67 67
72 72 72
20 20 20
20 20 20
33 33 33
46 46 46
82 82 82
136 136 136
120 120 120
99 99 99
85 85 85
82 82 82
81 81 81
80 80 80
79 79 79
78 78 78
79 79 79
79 79 79
81 81 81
82 82 82
82 82 82
82 82 82
83 83 83
84 84 84
85 85 85
85 85 85
88 88 88
88 88 88
88 88 88
87 87 87
87 87 87
88 88 88
90 90 90
91 91 91
92 92 92
93 93 93
95 95 95
95 95 95
96 96 96
96 96 96
99 99 99
99 99 99
98 98 98
94 94 94
95 95 95
95 95 95
95 95 95
94 94 94
91 91 91
80 80 80
79 79 79
78 78 78
79 79 79
80 80 80
81 81 81
85 85 85
89 89 89
90 90 90
93 93 93
94 94 94
95 95 95
95 95 95
94 94 94
96 96 96
107 107 107
146 146 146
160 160 160
152 152 152
87 87 87
75 75 75
66 66 66
24 24 24
40 40 40
69 69 69
91 91 91
107 107 107
118 118 118
128 128 128
118 118 118
108 108 108
96 96 96
117 117 117
104 104 104
107 107 107
155 155 155
157 157 157
141 141 141
144 144 144
144 144 144
161 161 161
149 149 149
114 114 114
116 116 116
130 130 130
122 122 122
119 119 119
137 137 137
137 137 137
151 151 151
132 132 132
145 145 145
93 93 93
63 63 63
50 50 50
36 36 36
50 50 50
100 100 100
141 141 141
133 133 133
93 93 93
85 85 85
84 84 84
83 83 83
81 81 81
80 80 80
80 80 80
81 81 81
80 80 80
81 81 81
81 81 81
85 85 85
85 85 85
85 85 85
84 84 84
85 85 85
86 86 86
88 88 88
90 90 90
89 89 89
88 88 88
89 89 89
88 88 88
90 90 90
92 92 92
93 93 93
94 94 94
95 95 95
96 96 96
96 96 96
97 97 97
100 100 100
101 101 101
100 100 100
97 97 97
96 96 96
96 96 96
96 96 96
94 94 94
92 92 92
80 80 80
79 79 79
79 79 79
78 78 78
80 80 80
82 82 82
86 86 86
88 88 88
89 89 89
91 91 91
93 93 93
94 94 94
94 94 94
94 94 94
94 94 94
101 101 101
147 147 147
169 169 169
128 128 128
78 78 78
58 58 58
39 39 39
44 44 44
59 59 59
78 78 78
122 122 122
125 125 125
146 146 146
134 134 134
124 124 124
115 115 115
103 103 103
118 118 118
116 116 116
129 129 129
161 161 161
165 165 165
146 146 146
149 149 149
133 133 133
174 174 174
151 151 151
116 116 116
127 127 127
140 140 140
122 122 122
128 128 128
133 133 133
137 137 137
119 119 119
150 150 150
143 143 143
137 137 137
118 118 118
49 49 49
46 46 46
70 70 70
103 103 103
132 132 132
128 128 128
93 93 93
86 86 86
84 84 84
83 83 83
82 82 82
82 82 82
82 82 82
82 82 82
84 84 84
86 86 86
85 85 85
86 86 86
87 87 87
87 87 87
86 86 86
87 87 87
87 87 87
88 88 88
89 89 89
89 89 89
88 88 88
89 89 89
89 89 89
90 90 90
91 91 91
94 94 94
95 95 95
96 96 96
97 97 97
98 98 98
98 98 98
100 100 100
102 102 102
101 101 101
99 99 99
97 97 97
97 97 97
96 96 96
94 94 94
93 93 93
79 79 79
78 78 78
78 78 78
78 78 78
80 80 80
82 82 82
85 85 85
87 87 87
91 91 91
93 93 93
93 93 93
93 93 93
93 93 93
93 93 93
94 94 94
94 94 94
147 147 147
180 180 180
127 127 127
75 75 75
52 52 52
61 61 61
48 48 48
71 71 71
91 91 91
130 130 130
149 149 149
139 139 139
129 129 129
117 117 117
127 127 127
126 126 126
133 133 133
135 135 135
151 151 151
173 173 173
169 169 169
135 135 135
132 132 132
127 127 127
168 168 168
171 171 171
122 122 122
135 135 135
142 142 142
134 134 134
145 145 145
141 141 141
127 127 127
135 135 135
123 123 123
130 130 130
135 135 135
129 129 129
61 61 61
51 51 51
82 82 82
95 95 95
106 106 106
117 117 117
93 93 93
88 88 88
85 85 85
84 84 84
84 84 84
83 83 83
83 83 83
84 84 84
87 87 87
87 87 87
89 89 89
89 89 89
88 88 88
88 88 88
87 87 87
88 88 88
88 88 88
89 89 89
89 89 89
90 90 90
89 89 89
89 89 89
91 91 91
92 92 92
94 94 94
95 95 95
96 96 96
97 97 97
97 97 97
97 97 97
97 97 97
98 98 98
100 100 100
100 100 100
99 99 99
97 97 97
98 98 98
96 96 96
94 94 94
94 94 94
77 77 77
77 77 77
78 78 78
79 79 79
78 78 78
81 81 81
85 85 85
87 87 87
89 89 89
91 91 91
92 92 92
92 92 92
92 92 92
93 93 93
93 93 93
103 103 103
154 154 154
186 186 186
134 134 134
93 93 93
78 78 78
68 68 68
42 42 42
83 83 83
117 117 117
145 145 145
152 152 152
137 137 137
128 128 128
123 123 123
139 139 139
146 146 146
151 151 151
147 147 147
147 147 147
186 186 186
173 173 173
124 124 124
133 133 133
143 143 143
155 155 155
175 175 175
127 127 127
142 142 142
141 141 141
146 146 146
143 143 143
154 154 154
132 132 132
112 112 112
115 115 115
113 113 113
109 109 109
103 103 103
87 87 87
77 77 77
86 86 86
81 81 81
79 79 79
111 111 111
97 97 97
88 88 88
85 85 85
84 84 84
85 85 85
86 86 86
86 86 86
87 87 87
90 90 90
91 91 91
90 90 90
90 90 90
90 90 90
90 90 90
89 89 89
89 89 89
89 89 89
90 90 90
89 89 89
89 89 89
89 89 89
89 89 89
91 91 91
93 93 93
95 95 95
94 94 94
96 96 96
96 96 96
97 97 97
98 98 98
96 96 96
98 98 98
101 101 101
100 100 100
100 100 100
98 98 98
99 99 99
97 97 97
95 95 95
94 94 94
77 77 77
77 77 77
77 77 77
77 77 77
78 78 78
81 81 81
84 84 84
87 87 87
89 89 89
90 90 90
92 92 92
92 92 92
91 91 91
92 92 92
93 93 93
98 98 98
137 137 137
173 173 173
127 127 127
108 108 108
92 92 92
87 87 87
83 83 83
137 137 137
169 169 169
151 151 151
136 136 136
129 129 129
129 129 129
140 140 140
152 152 152
164 164 164
170 170 170
145 145 145
136 136 136
173 173 173
173 173 173
131 131 131
124 124 124
158 158 158
168 168 168
172 172 172
124 124 124
140 140 140
157 157 157
150 150 150
160 160 160
148 148 148
137 137 137
117 117 117
119 119 119
111 111 111
93 93 93
99 99 99
92 92 92
73 73 73
74 74 74
68 68 68
58 58 58
103 103 103
95 95 95
89 89 89
86 86 86
85 85 85
86 86 86
86 86 86
88 88 88
90 90 90
92 92 92
93 93 93
93 93 93
92 92 92
93 93 93
92 92 92
90 90 90
89 89 89
90 90 90
91 91 91
90 90 90
88 88 88
88 88 88
88 88 88
91 91 91
92 92 92
93 93 93
94 94 94
96 96 96
97 97 97
97 97 97
97 97 97
96 96 96
98 98 98
102 102 102
101 101 101
100 100 100
100 100 100
99 99 99
98 98 98
94 94 94
93 93 93
75 75 75
74 74 74
75 75 75
75 75 75
77 77 77
80 80 80
84 84 84
87 87 87
87 87 87
90 90 90
91 91 91
91 91 91
91 91 91
93 93 93
94 94 94
99 99 99
128 128 128
155 155 155
118 118 118
111 111 111
94 94 94
91 91 91
113 113 113
151 151 151
146 146 146
139 139 139
132 132 132
125 125 125
123 123 123
150 150 150
152 152 152
168 168 168
164 164 164
152 152 152
119 119 119
145 145 145
182 182 182
153 153 153
125 125 125
155 155 155
172 172 172
186 186 186
114 114 114
133 133 133
159 159 159
160 160 160
154 154 154
146 146 146
136 136 136
131 131 131
128 128 128
124 124 124
110 110 110
102 102 102
106 106 106
90 90 90
65 65 65
61 61 61
41 41 41
103 103 103
93 93 93
89 89 89
87 87 87
86 86 86
86 86 86
89 89 89
89 89 89
91 91 91
94 94 94
94 94 94
94 94 94
95 95 95
94 94 94
93 93 93
92 92 92
90 90 90
90 90 90
90 90 90
90 90 90
88 88 88
88 88 88
88 88 88
89 89 89
92 92 92
94 94 94
94 94 94
95 95 95
96 96 96
96 96 96
97 97 97
98 98 98
98 98 98
100 100 100
101 101 101
102 102 102
102 102 102
100 100 100
99 99 99
96 96 96
94 94 94
74 74 74
74 74 74
74 74 74
75 75 75
77 77 77
79 79 79
83 83 83
85 85 85
86 86 86
89 89 89
90 90 90
91 91 91
90 90 90
93 93 93
94 94 94
96 96 96
115 115 115
125 125 125
101 101 101
85 85 85
78 78 78
95 95 95
137 137 137
157 157 157
153 153 153
148 148 148
139 139 139
136 136 136
146 146 146
163 163 163
151 151 151
160 160 160
173 173 173
165 165 165
134 134 134
121 121 121
175 175 175
167 167 167
141 141 141
150 150 150
166 166 166
177 177 177
111 111 111
148 148 148
154 154 154
163 163 163
178 178 178
164 164 164
158 158 158
147 147 147
138 138 138
123 123 123
118 118 118
116 116 116
102 102 102
128 128 128
98 98 98
57 57 57
46 46 46
107 107 107
94 94 94
89 89 89
85 85 85
86 86 86
88 88 88
90 90 90
92 92 92
95 95 95
95 95 95
97 97 97
96 96 96
96 96 96
96 96 96
94 94 94
93 93 93
92 92 92
91 91 91
91 91 91
89 89 89
89 89 89
88 88 88
88 88 88
88 88 88
91 91 91
93 93 93
94 94 94
96 96 96
96 96 96
97 97 97
97 97 97
99 99 99
100 100 100
103 103 103
103 103 103
104 104 104
102 102 102
100 100 100
99 99 99
97 97 97
96 96 96
73 73 73
75 75 75
75 75 75
75 75 75
78 78 78
80 80 80
84 84 84
86 86 86
87 87 87
88 88 88
91 91 91
91 91 91
92 92 92
91 91 91
94 94 94
98 98 98
125 125 125
123 123 123
86 86 86
72 72 72
76 76 76
92 92 92
137 137 137
149 149 149
142 142 142
149 149 149
159 159 159
160 160 160
154 154 154
155 155 155
172 172 172
156 156 156
153 153 153
166 166 166
154 154 154
126 126 126
162 162 162
181 181 181
130 130 130
145 145 145
160 160 160
185 185 185
125 125 125
158 158 158
153 153 153
174 174 174
193 193 193
165 165 165
153 153 153
146 146 146
155 155 155
142 142 142
130 130 130
123 123 123
116 116 116
127 127 127
128 128 128
106 106 106
81 81 81
126 126 126
102 102 102
89 89 89
86 86 86
87 87 87
88 88 88
90 90 90
94 94 94
94 94 94
96 96 96
99 99 99
99 99 99
99 99 99
97 97 97
97 97 97
96 96 96
94 94 94
92 92 92
92 92 92
89 89 89
89 89 89
88 88 88
87 87 87
89 89 89
91 91 91
93 93 93
94 94 94
97 97 97
98 98 98
98 98 98
99 99 99
99 99 99
101 101 101
103 103 103
104 104 104
104 104 104
102 102 102
100 100 100
100 100 100
98 98 98
97 97 97
74 74 74
76 76 76
76 76 76
77 77 77
78 78 78
81 81 81
85 85 85
86 86 86
89 89 89
90 90 90
91 91 91
93 93 93
93 93 93
94 94 94
94 94 94
98 98 98
127 127 127
133 133 133
75 75 75
70 70 70
82 82 82
124 124 124
136 136 136
142 142 142
146 146 146
148 148 148
152 152 152
159 159 159
168 168 168
163 163 163
162 162 162
173 173 173
167 167 167
153 153 153
174 174 174
148 148 148
150 150 150
178 178 178
137 137 137
142 142 142
152 152 152
164 164 164
126 126 126
156 156 156
158 158 158
173 173 173
189 189 189
150 150 150
150 150 150
166 166 166
157 157 157
143 143 143
135 135 135
136 136 136
131 131 131
126 126 126
124 124 124
128 128 128
127 127 127
146 146 146
117 117 117
95 95 95
86 86 86
87 87 87
88 88 88
92 92 92
93 93 93
95 95 95
99 99 99
99 99 99
100 100 100
101 101 101
100 100 100
98 98 98
97 97 97
95 95 95
94 94 94
92 92 92
90 90 90
89 89 89
88 88 88
86 86 86
87 87 87
91 91 91
95 95 95
96 96 96
97 97 97
97 97 97
99 99 99
100 100 100
100 100 100
102 102 102
103 103 103
104 104 104
104 104 104
102 102 102
103 103 103
101 101 101
99 99 99
97 97 97
75 75 75
76 76 76
76 76 76
78 78 78
78 78 78
82 82 82
85 85 85
88 88 88
90 90 90
93 93 93
93 93 93
95 95 95
94 94 94
96 96 96
98 98 98
100 100 100
123 123 123
144 144 144
110 110 110
109 109 109
132 132 132
152 152 152
154 154 154
153 153 153
154 154 154
152 152 152
173 173 173
164 164 164
169 169 169
175 175 175
181 181 181
177 177 177
153 153 153
144 144 144
184 184 184
144 144 144
155 155 155
167 167 167
129 129 129
135 135 135
140 140 140
164 164 164
122 122 122
171 171 171
144 144 144
170 170 170
177 177 177
120 120 120
121 121 121
154 154 154
158 158 158
174 174 174
165 165 165
149 149 149
133 133 133
134 134 134
125 125 125
138 138 138
142 142 142
149 149 149
134 134 134
92 92 92
86 86 86
87 87 87
90 90 90
92 92 92
94 94 94
96 96 96
99 99 99
102 102 102
102 102 102
100 100 100
100 100 100
100 100 100
98 98 98
96 96 96
95 95 95
94 94 94
90 90 90
88 88 88
88 88 88
87 87 87
87 87 87
91 91 91
95 95 95
97 97 97
98 98 98
98 98 98
99 99 99
100 100 100
101 101 101
102 102 102
103 103 103
104 104 104
105 105 105
104 104 104
104 104 104
102 102 102
100 100 100
99 99 99
76 76 76
76 76 76
76 76 76
78 78 78
78 78 78
82 82 82
86 86 86
89 89 89
91 91 91
93 93 93
95 95 95
95 95 95
95 95 95
96 96 96
98 98 98
107 107 107
129 129 129
156 156 156
147 147 147
138 138 138
137 137 137
146 146 146
147 147 147
164 164 164
166 166 166
167 167 167
179 179 179
176 176 176
176 176 176
166 166 166
161 161 161
183 183 183
153 153 153
140 140 140
195 195 195
137 137 137
144 144 144
175 175 175
138 138 138
125 125 125
119 119 119
154 154 154
106 106 106
178 178 178
146 146 146
167 167 167
162 162 162
117 117 117
133 133 133
155 155 155
164 164 164
157 157 157
149 149 149
136 136 136
149 149 149
151 151 151
148 148 148
145 145 145
146 146 146
151 151 151
141 141 141
92 92 92
86 86 86
88 88 88
89 89 89
91 91 91
94 94 94
97 97 97
99 99 99
100 100 100
101 101 101
102 102 102
102 102 102
102 102 102
101 101 101
98 98 98
95 95 95
93 93 93
91 91 91
88 88 88
87 87 87
87 87 87
88 88 88
90 90 90
95 95 95
96 96 96
99 99 99
99 99 99
100 100 100
101 101 101
102 102 102
102 102 102
103 103 103
105 105 105
105 105 105
104 104 104
105 105 105
103 103 103
102 102 102
101 101 101
76 76 76
75 75 75
78 78 78
78 78 78
78 78 78
83 83 83
85 85 85
90 90 90
93 93 93
94 94 94
94 94 94
95 95 95
96 96 96
96 96 96
97 97 97
110 110 110
149 149 149
164 164 164
156 156 156
153 153 153
146 146 146
151 151 151
170 170 170
168 168 168
176 176 176
177 177 177
178 178 178
180 180 180
171 171 171
135 135 135
147 147 147
193 193 193
170 170 170
135 135 135
192 192 192
137 137 137
143 143 143
168 168 168
143 143 143
110 110 110
115 115 115
163 163 163
120 120 120
165 165 165
152 152 152
160 160 160
173 173 173
117 117 117
160 160 160
167 167 167
156 156 156
155 155 155
158 158 158
142 142 142
157 157 157
168 168 168
153 153 153
131 131 131
158 158 158
168 168 168
138 138 138
96 96 96
88 88 88
88 88 88
89 89 89
91 91 91
95 95 95
97 97 97
99 99 99
101 101 101
102 102 102
104 104 104
104 104 104
102 102 102
100 100 100
97 97 97
95 95 95
94 94 94
90 90 90
89 89 89
88 88 88
88 88 88
88 88 88
91 91 91
92 92 92
96 96 96
99 99 99
99 99 99
100 100 100
101 101 101
101 101 101
102 102 102
103 103 103
104 104 104
105 105 105
105 105 105
105 105 105
105 105 105
104 104 104
101 101 101
77 77 77
76 76 76
77 77 77
79 79 79
81 81 81
85 85 85
87 87 87
91 91 91
92 92 92
94 94 94
93 93 93
95 95 95
95 95 95
97 97 97
99 99 99
107 107 107
154 154 154
171 171 171
167 167 167
165 165 165
163 163 163
166 166 166
174 174 174
176 176 176
180 180 180
183 183 183
186 186 186
186 186 186
159 159 159
135 135 135
104 104 104
181 181 181
177 177 177
150 150 150
192 192 192
143 143 143
152 152 152
166 166 166
137 137 137
114 114 114
136 136 136
141 141 141
113 113 113
151 151 151
177 177 177
145 145 145
147 147 147
122 122 122
151 151 151
164 164 164
176 176 176
141 141 141
115 115 115
127 127 127
150 150 150
144 144 144
129 129 129
127 127 127
139 139 139
161 161 161
160 160 160
106 106 106
90 90 90
89 89 89
89 89 89
91 91 91
96 96 96
99 99 99
99 99 99
102 102 102
103 103 103
103 103 103
103 103 103
102 102 102
100 100 100
98 98 98
96 96 96
94 94 94
91 91 91
88 88 88
89 89 89
90 90 90
90 90 90
90 90 90
92 92 92
94 94 94
97 97 97
98 98 98
99 99 99
102 102 102
102 102 102
103 103 103
103 103 103
105 105 105
104 104 104
104 104 104
105 105 105
105 105 105
104 104 104
102 102 102
77 77 77
76 76 76
78 78 78
79 79 79
82 82 82
84 84 84
86 86 86
91 91 91
94 94 94
94 94 94
94 94 94
94 94 94
95 95 95
96 96 96
98 98 98
107 107 107
160 160 160
178 178 178
177 177 177
175 175 175
174 174 174
167 167 167
175 175 175
172 172 172
175 175 175
169 169 169
182 182 182
194 194 194
196 196 196
171 171 171
134 134 134
157 157 157
172 172 172
160 160 160
191 191 191
145 145 145
148 148 148
147 147 147
144 144 144
134 134 134
134 134 134
135 135 135
101 101 101
160 160 160
176 176 176
142 142 142
144 144 144
147 147 147
173 173 173
179 179 179
190 190 190
166 166 166
129 129 129
128 128 128
146 146 146
157 157 157
154 154 154
126 126 126
117 117 117
155 155 155
181 181 181
139 139 139
95 95 95
87 87 87
88 88 88
92 92 92
96 96 96
98 98 98
99 99 99
101 101 101
103 103 103
103 103 103
103 103 103
101 101 101
100 100 100
98 98 98
95 95 95
93 93 93
92 92 92
90 90 90
91 91 91
91 91 91
91 91 91
90 90 90
91 91 91
94 94 94
96 96 96
97 97 97
98 98 98
102 102 102
103 103 103
102 102 102
103 103 103
103 103 103
103 103 103
104 104 104
105 105 105
105 105 105
103 103 103
101 101 101
78 78 78
77 77 77
80 80 80
80 80 80
82 82 82
85 85 85
87 87 87
91 91 91
94 94 94
95 95 95
94 94 94
95 95 95
95 95 95
96 96 96
96 96 96
111 111 111
176 176 176
188 188 188
182 182 182
177 177 177
171 171 171
182 182 182
182 182 182
190 190 190
183 183 183
178 178 178
185 185 185
196 196 196
189 189 189
186 186 186
165 165 165
159 159 159
156 156 156
163 163 163
185 185 185
142 142 142
148 148 148
142 142 142
144 144 144
131 131 131
147 147 147
145 145 145
90 90 90
124 124 124
155 155 155
118 118 118
128 128 128
122 122 122
94 94 94
131 131 131
146 146 146
152 152 152
132 132 132
119 119 119
141 141 141
155 155 155
148 148 148
142 142 142
120 120 120
136 136 136
167 167 167
141 141 141
97 97 97
86 86 86
87 87 87
92 92 92
95 95 95
97 97 97
99 99 99
101 101 101
102 102 102
102 102 102
102 102 102
101 101 101
100 100 100
98 98 98
96 96 96
94 94 94
92 92 92
93 93 93
92 92 92
93 93 93
92 92 92
91 91 91
91 91 91
91 91 91
93 93 93
96 96 96
98 98 98
101 101 101
102 102 102
102 102 102
102 102 102
103 103 103
103 103 103
103 103 103
103 103 103
103 103 103
104 104 104
102 102 102
77 77 77
77 77 77
79 79 79
80 80 80
83 83 83
85 85 85
88 88 88
90 90 90
94 94 94
94 94 94
94 94 94
95 95 95
96 96 96
96 96 96
102 102 102
127 127 127
179 179 179
182 182 182
177 177 177
161 161 161
174 174 174
188 188 188
190 190 190
192 192 192
178 178 178
188 188 188
197 197 197
204 204 204
202 202 202
188 188 188
165 165 165
135 135 135
135 135 135
153 153 153
160 160 160
137 137 137
131 131 131
141 141 141
144 144 144
158 158 158
151 151 151
132 132 132
97 97 97
76 76 76
102 102 102
80 80 80
81 81 81
74 74 74
51 51 51
52 52 52
45 45 45
67 67 67
77 77 77
104 104 104
126 126 126
147 147 147
144 144 144
136 136 136
121 121 121
122 122 122
152 152 152
115 115 115
91 91 91
86 86 86
88 88 88
92 92 92
95 95 95
97 97 97
99 99 99
101 101 101
102 102 102
102 102 102
103 103 103
101 101 101
99 99 99
97 97 97
96 96 96
95 95 95
93 93 93
94 94 94
94 94 94
94 94 94
92 92 92
91 91 91
92 92 92
93 93 93
93 93 93
96 96 96
98 98 98
100 100 100
101 101 101
101 101 101
102 102 102
102 102 102
101 101 101
102 102 102
104 104 104
103 103 103
102 102 102
103 103 103
77 77 77
77 77 77
79 79 79
80 80 80
83 83 83
85 85 85
87 87 87
90 90 90
93 93 93
93 93 93
94 94 94
96 96 96
95 95 95
96 96 96
103 103 103
120 120 120
174 174 174
177 177 177
152 152 152
156 156 156
182 182 182
190 190 190
187 187 187
184 184 184
174 174 174
174 174 174
181 181 181
200 200 200
171 171 171
153 153 153
134 134 134
123 123 123
114 114 114
122 122 122
128 128 128
123 123 123
130 130 130
144 144 144
159 159 159
140 140 140
143 143 143
115 115 115
78 78 78
57 57 57
56 56 56
41 41 41
32 32 32
12 12 12
48 48 48
50 50 50
29 29 29
86 86 86
65 65 65
66 66 66
86 86 86
123 123 123
134 134 134
135 135 135
105 105 105
89 89 89
130 130 130
113 113 113
90 90 90
87 87 87
89 89 89
92 92 92
96 96 96
97 97 97
98 98 98
101 101 101
102 102 102
101 101 101
103 103 103
101 101 101
98 98 98
97 97 97
96 96 96
94 94 94
92 92 92
93 93 93
93 93 93
92 92 92
91 91 91
91 91 91
93 93 93
94 94 94
95 95 95
94 94 94
97 97 97
99 99 99
100 100 100
100 100 100
101 101 101
101 101 101
102 102 102
103 103 103
104 104 104
103 103 103
103 103 103
103 103 103
77 77 77
77 77 77
78 78 78
82 82 82
83 83 83
86 86 86
88 88 88
91 91 91
94 94 94
94 94 94
95 95 95
95 95 95
95 95 95
96 96 96
99 99 99
121 121 121
179 179 179
173 173 173
153 153 153
146 146 146
189 189 189
193 193 193
192 192 192
178 178 178
148 148 148
133 133 133
147 147 147
122 122 122
100 100 100
65 65 65
58 58 58
45 45 45
72 72 72
92 92 92
110 110 110
96 96 96
126 126 126
142 142 142
161 161 161
141 141 141
132 132 132
116 116 116
59 59 59
57 57 57
55 55 55
15 15 15
28 28 28
6 6 6
24 24 24
47 47 47
40 40 40
122 122 122
128 128 128
75 75 75
71 71 71
72 72 72
97 97 97
104 104 104
80 80 80
71 71 71
118 118 118
111 111 111
92 92 92
88 88 88
89 89 89
93 93 93
95 95 95
97 97 97
99 99 99
101 101 101
102 102 102
102 102 102
101 101 101
100 100 100
99 99 99
97 97 97
95 95 95
91 91 91
92 92 92
92 92 92
93 93 93
92 92 92
92 92 92
93 93 93
94 94 94
94 94 94
96 96 96
95 95 95
96 96 96
98 98 98
100 100 100
101 101 101
100 100 100
101 101 101
103 103 103
103 103 103
103 103 103
104 104 104
104 104 104
102 102 102
74 74 74
76 76 76
79 79 79
81 81 81
83 83 83
85 85 85
89 89 89
92 92 92
94 94 94
95 95 95
94 94 94
95 95 95
95 95 95
96 96 96
102 102 102
134 134 134
183 183 183
166 166 166
161 161 161
170 170 170
184 184 184
189 189 189
169 169 169
135 135 135
102 102 102
80 80 80
77 77 77
71 71 71
65 65 65
70 70 70
100 100 100
43 43 43
38 38 38
86 86 86
114 114 114
109 109 109
126 126 126
153 153 153
153 153 153
142 142 142
125 125 125
97 97 97
64 64 64
66 66 66
38 38 38
21 21 21
36 36 36
16 16 16
29 29 29
54 54 54
75 75 75
143 143 143
166 166 166
147 147 147
93 93 93
58 58 58
70 70 70
88 88 88
80 80 80
63 63 63
117 117 117
105 105 105
92 92 92
88 88 88
90 90 90
92 92 92
94 94 94
96 96 96
97 97 97
100 100 100
102 102 102
102 102 102
102 102 102
101 101 101
99 99 99
96 96 96
93 93 93
90 90 90
90 90 90
90 90 90
91 91 91
93 93 93
93 93 93
95 95 95
95 95 95
94 94 94
95 95 95
95 95 95
97 97 97
98 98 98
100 100 100
101 101 101
101 101 101
100 100 100
102 102 102
103 103 103
105 105 105
105 105 105
104 104 104
103 103 103
73 73 73
76 76 76
79 79 79
80 80 80
84 84 84
87 87 87
89 89 89
92 92 92
94 94 94
94 94 94
95 95 95
95 95 95
95 95 95
97 97 97
99 99 99
125 125 125
176 176 176
163 163 163
162 162 162
180 180 180
186 186 186
165 165 165
132 132 132
85 85 85
57 57 57
58 58 58
145 145 145
93 93 93
82 82 82
72 72 72
27 27 27
51 51 51
67 67 67
45 45 45
133 133 133
139 139 139
130 130 130
155 155 155
146 146 146
131 131 131
123 123 123
92 92 92
81 81 81
90 90 90
20 20 20
27 27 27
47 47 47
43 43 43
51 51 51
66 66 66
102 102 102
166 166 166
173 173 173
132 132 132
109 109 109
99 99 99
71 71 71
64 64 64
73 73 73
81 81 81
124 124 124
109 109 109
94 94 94
88 88 88
89 89 89
91 91 91
94 94 94
95 95 95
97 97 97
99 99 99
100 100 100
101 101 101
101 101 101
101 101 101
100 100 100
97 97 97
93 93 93
89 89 89
90 90 90
90 90 90
92 92 92
94 94 94
95 95 95
95 95 95
95 95 95
94 94 94
95 95 95
97 97 97
98 98 98
99 99 99
99 99 99
100 100 100
100 100 100
101 101 101
101 101 101
103 103 103
105 105 105
105 105 105
104 104 104
103 103 103
71 71 71
75 75 75
77 77 77
79 79 79
83 83 83
86 86 86
89 89 89
90 90 90
94 94 94
94 94 94
95 95 95
95 95 95
95 95 95
97 97 97
100 100 100
120 120 120
179 179 179
156 156 156
156 156 156
169 169 169
166 166 166
128 128 128
82 82 82
66 66 66
84 84 84
127 127 127
181 181 181
126 126 126
86 86 86
89 89 89
40 40 40
81 81 81
98 98 98
55 55 55
133 133 133
176 176 176
135 135 135
153 153 153
150 150 150
134 134 134
122 122 122
101 101 101
97 97 97
121 121 121
30 30 30
26 26 26
52 52 52
70 70 70
75 75 75
90 90 90
135 135 135
178 178 178
149 149 149
136 136 136
115 115 115
77 77 77
45 45 45
43 43 43
60 60 60
72 72 72
120 120 120
110 110 110
96 96 96
89 89 89
90 90 90
92 92 92
93 93 93
93 93 93
96 96 96
98 98 98
100 100 100
101 101 101
102 102 102
101 101 101
100 100 100
96 96 96
92 92 92
89 89 89
89 89 89
90 90 90
92 92 92
95 95 95
95 95 95
95 95 95
95 95 95
94 94 94
96 96 96
98 98 98
99 99 99
99 99 99
99 99 99
100 100 100
100 100 100
99 99 99
100 100 100
103 103 103
105 105 105
105 105 105
104 104 104
103 103 103
72 72 72
73 73 73
78 78 78
79 79 79
83 83 83
84 84 84
88 88 88
91 91 91
92 92 92
94 94 94
96 96 96
95 95 95
96 96 96
99 99 99
112 112 112
147 147 147
191 191 191
165 165 165
174 174 174
159 159 159
121 121 121
84 84 84
83 83 83
108 108 108
138 138 138
173 173 173
190 190 190
166 166 166
82 82 82
100 100 100
76 76 76
104 104 104
114 114 114
63 63 63
130 130 130
194 194 194
149 149 149
154 154 154
162 162 162
135 135 135
120 120 120
113 113 113
118 118 118
139 139 139
41 41 41
10 10 10
52 52 52
76 76 76
77 77 77
105 105 105
169 169 169
160 160 160
133 133 133
119 119 119
98 98 98
75 75 75
55 55 55
46 46 46
37 37 37
63 63 63
118 118 118
108 108 108
94 94 94
88 88 88
88 88 88
91 91 91
92 92 92
93 93 93
94 94 94
97 97 97
100 100 100
101 101 101
102 102 102
101 101 101
99 99 99
96 96 96
93 93 93
89 89 89
89 89 89
91 91 91
93 93 93
94 94 94
95 95 95
95 95 95
95 95 95
96 96 96
97 97 97
99 99 99
100 100 100
100 100 100
100 100 100
100 100 100
100 100 100
99 99 99
101 101 101
103 103 103
103 103 103
104 104 104
104 104 104
104 104 104
70 70 70
73 73 73
76 76 76
79 79 79
80 80 80
83 83 83
87 87 87
91 91 91
94 94 94
95 95 95
97 97 97
97 97 97
97 97 97
101 101 101
114 114 114
148 148 148
190 190 190
163 163 163
154 154 154
135 135 135
81 81 81
72 72 72
104 104 104
154 154 154
179 179 179
181 181 181
192 192 192
193 193 193
115 115 115
102 102 102
107 107 107
120 120 120
121 121 121
36 36 36
123 123 123
194 194 194
163 163 163
167 167 167
155 155 155
135 135 135
128 128 128
138 138 138
137 137 137
143 143 143
59 59 59
40 40 40
36 36 36
64 64 64
93 93 93
152 152 152
151 151 151
106 106 106
100 100 100
100 100 100
63 63 63
81 81 81
66 66 66
57 57 57
50 50 50
72 72 72
117 117 117
106 106 106
95 95 95
89 89 89
90 90 90
91 91 91
92 92 92
92 92 92
94 94 94
98 98 98
99 99 99
102 102 102
102 102 102
100 100 100
98 98 98
95 95 95
93 93 93
90 90 90
91 91 91
92 92 92
93 93 93
94 94 94
95 95 95
94 94 94
96 96 96
98 98 98
98 98 98
99 99 99
99 99 99
99 99 99
99 99 99
98 98 98
98 98 98
99 99 99
100 100 100
100 100 100
101 101 101
102 102 102
103 103 103
103 103 103
69 69 69
73 73 73
74 74 74
77 77 77
80 80 80
82 82 82
88 88 88
90 90 90
94 94 94
97 97 97
98 98 98
98 98 98
99 99 99
105 105 105
113 113 113
152 152 152
191 191 191
163 163 163
141 141 141
116 116 116
89 89 89
114 114 114
137 137 137
150 150 150
162 162 162
163 163 163
164 164 164
178 178 178
167 167 167
102 102 102
94 94 94
115 115 115
85 85 85
71 71 71
126 126 126
177 177 177
174 174 174
172 172 172
172 172 172
155 155 155
151 151 151
149 149 149
134 134 134
115 115 115
87 87 87
105 105 105
138 138 138
140 140 140
157 157 157
107 107 107
83 83 83
98 98 98
86 86 86
79 79 79
74 74 74
81 81 81
66 66 66
56 56 56
59 59 59
89 89 89
126 126 126
106 106 106
92 92 92
89 89 89
90 90 90
91 91 91
91 91 91
93 93 93
96 96 96
99 99 99
100 100 100
103 103 103
102 102 102
100 100 100
100 100 100
96 96 96
92 92 92
91 91 91
92 92 92
92 92 92
95 95 95
96 96 96
96 96 96
95 95 95
96 96 96
98 98 98
99 99 99
100 100 100
100 100 100
99 99 99
99 99 99
97 97 97
97 97 97
97 97 97
98 98 98
100 100 100
100 100 100
99 99 99
101 101 101
103 103 103
68 68 68
71 71 71
74 74 74
76 76 76
78 78 78
82 82 82
86 86 86
90 90 90
93 93 93
97 97 97
99 99 99
99 99 99
99 99 99
105 105 105
115 115 115
159 159 159
189 189 189
154 154 154
116 116 116
85 85 85
116 116 116
124 124 124
141 141 141
127 127 127
115 115 115
121 121 121
105 105 105
123 123 123
148 148 148
146 146 146
116 116 116
91 91 91
116 116 116
140 140 140
129 129 129
149 149 149
176 176 176
168 168 168
185 185 185
170 170 170
175 175 175
145 145 145
120 120 120
84 84 84
101 101 101
129 129 129
169 169 169
158 158 158
111 111 111
99 99 99
90 90 90
83 83 83
80 80 80
87 87 87
85 85 85
73 73 73
73 73 73
57 57 57
54 54 54
102 102 102
140 140 140
137 137 137
121 121 121
113 113 113
105 105 105
91 91 91
92 92 92
94 94 94
96 96 96
98 98 98
100 100 100
102 102 102
101 101 101
101 101 101
99 99 99
97 97 97
94 94 94
93 93 93
93 93 93
93 93 93
96 96 96
97 97 97
96 96 96
97 97 97
98 98 98
98 98 98
99 99 99
100 100 100
100 100 100
98 98 98
97 97 97
96 96 96
97 97 97
97 97 97
99 99 99
99 99 99
99 99 99
99 99 99
101 101 101
103 103 103
67 67 67
68 68 68
72 72 72
75 75 75
77 77 77
81 81 81
86 86 86
90 90 90
93 93 93
96 96 96
98 98 98
100 100 100
99 99 99
102 102 102
120 120 120
181 181 181
193 193 193
147 147 147
113 113 113
125 125 125
122 122 122
123 123 123
136 136 136
125 125 125
112 112 112
98 98 98
97 97 97
101 101 101
77 77 77
101 101 101
152 152 152
176 176 176
194 194 194
165 165 165
124 124 124
119 119 119
162 162 162
173 173 173
203 203 203
199 199 199
198 198 198
163 163 163
131 131 131
96 96 96
104 104 104
108 108 108
154 154 154
119 119 119
109 109 109
90 90 90
92 92 92
74 74 74
66 66 66
78 78 78
60 60 60
78 78 78
79 79 79
64 64 64
60 60 60
97 97 97
114 114 114
97 97 97
111 111 111
109 109 109
107 107 107
107 107 107
104 104 104
99 99 99
98 98 98
98 98 98
99 99 99
102 102 102
102 102 102
102 102 102
99 99 99
96 96 96
94 94 94
93 93 93
94 94 94
95 95 95
97 97 97
98 98 98
97 97 97
99 99 99
100 100 100
99 99 99
101 101 101
101 101 101
98 98 98
98 98 98
97 97 97
97 97 97
97 97 97
98 98 98
97 97 97
97 97 97
99 99 99
99 99 99
100 100 100
103 103 103
66 66 66
67 67 67
70 70 70
72 72 72
77 77 77
81 81 81
84 84 84
89 89 89
91 91 91
95 95 95
97 97 97
98 98 98
99 99 99
107 107 107
130 130 130
180 180 180
189 189 189
160 160 160
141 141 141
135 135 135
138 138 138
142 142 142
145 145 145
119 119 119
128 128 128
107 107 107
86 86 86
82 82 82
75 75 75
93 93 93
101 101 101
143 143 143
187 187 187
159 159 159
107 107 107
107 107 107
154 154 154
172 172 172
208 208 208
206 206 206
206 206 206
171 171 171
118 118 118
104 104 104
99 99 99
103 103 103
142 142 142
121 121 121
108 108 108
87 87 87
83 83 83
93 93 93
92 92 92
64 64 64
73 73 73
79 79 79
72 72 72
69 69 69
69 69 69
104 104 104
117 117 117
109 109 109
101 101 101
94 94 94
99 99 99
101 101 101
96 96 96
96 96 96
98 98 98
97 97 97
99 99 99
101 101 101
102 102 102
102 102 102
99 99 99
96 96 96
96 96 96
96 96 96
97 97 97
98 98 98
99 99 99
99 99 99
100 100 100
101 101 101
101 101 101
101 101 101
102 102 102
101 101 101
99 99 99
98 98 98
97 97 97
98 98 98
97 97 97
97 97 97
97 97 97
98 98 98
100 100 100
101 101 101
102 102 102
102 102 102
66 66 66
66 66 66
70 70 70
72 72 72
76 76 76
81 81 81
84 84 84
89 89 89
92 92 92
95 95 95
97 97 97
97 97 97
100 100 100
114 114 114
141 141 141
191 191 191
202 202 202
197 197 197
179 179 179
144 144 144
134 134 134
140 140 140
148 148 148
145 145 145
115 115 115
119 119 119
93 93 93
71 71 71
73 73 73
88 88 88
102 102 102
125 125 125
165 165 165
140 140 140
101 101 101
112 112 112
135 135 135
166 166 166
195 195 195
200 200 200
206 206 206
173 173 173
112 112 112
93 93 93
89 89 89
104 104 104
134 134 134
138 138 138
99 99 99
81 81 81
69 69 69
59 59 59
54 54 54
65 65 65
84 84 84
81 81 81
73 73 73
71 71 71
59 59 59
103 103 103
126 126 126
116 116 116
99 99 99
94 94 94
93 93 93
94 94 94
99 99 99
99 99 99
97 97 97
98 98 98
99 99 99
100 100 100
102 102 102
100 100 100
99 99 99
98 98 98
98 98 98
99 99 99
101 101 101
99 99 99
99 99 99
99 99 99
100 100 100
102 102 102
102 102 102
101 101 101
101 101 101
100 100 100
98 98 98
98 98 98
98 98 98
97 97 97
96 96 96
97 97 97
96 96 96
98 98 98
99 99 99
100 100 100
101 101 101
103 103 103
66 66 66
68 68 68
71 71 71
74 74 74
79 79 79
82 82 82
85 85 85
91 91 91
92 92 92
96 96 96
100 100 100
102 102 102
106 106 106
125 125 125
171 171 171
211 211 211
200 200 200
163 163 163
140 140 140
143 143 143
156 156 156
153 153 153
150 150 150
153 153 153
128 128 128
101 101 101
102 102 102
100 100 100
88 88 88
89 89 89
101 101 101
113 113 113
143 143 143
118 118 118
96 96 96
121 121 121
119 119 119
155 155 155
199 199 199
200 200 200
206 206 206
177 177 177
116 116 116
77 77 77
84 84 84
112 112 112
122 122 122
141 141 141
123 123 123
99 99 99
74 74 74
59 59 59
67 67 67
61 61 61
49 49 49
60 60 60
62 62 62
51 51 51
58 58 58
109 109 109
113 113 113
105 105 105
96 96 96
96 96 96
96 96 96
95 95 95
98 98 98
98 98 98
99 99 99
99 99 99
99 99 99
100 100 100
101 101 101
100 100 100
99 99 99
98 98 98
98 98 98
100 100 100
101 101 101
101 101 101
101 101 101
101 101 101
102 102 102
101 101 101
101 101 101
100 100 100
99 99 99
99 99 99
99 99 99
99 99 99
99 99 99
98 98 98
97 97 97
97 97 97
96 96 96
97 97 97
98 98 98
99 99 99
100 100 100
102 102 102
66 66 66
67 67 67
70 70 70
74 74 74
78 78 78
82 82 82
86 86 86
91 91 91
94 94 94
96 96 96
99 99 99
108 108 108
132 132 132
155 155 155
168 168 168
193 193 193
182 182 182
158 158 158
120 120 120
119 119 119
141 141 141
138 138 138
130 130 130
140 140 140
145 145 145
115 115 115
81 81 81
89 89 89
87 87 87
92 92 92
99 99 99
123 123 123
135 135 135
126 126 126
110 110 110
103 103 103
111 111 111
166 166 166
209 209 209
198 198 198
207 207 207
196 196 196
128 128 128
92 92 92
97 97 97
105 105 105
119 119 119
145 145 145
127 127 127
111 111 111
78 78 78
69 69 69
61 61 61
42 42 42
38 38 38
49 49 49
51 51 51
44 44 44
70 70 70
121 121 121
106 106 106
97 97 97
97 97 97
98 98 98
98 98 98
98 98 98
99 99 99
99 99 99
99 99 99
100 100 100
101 101 101
102 102 102
102 102 102
101 101 101
99 99 99
98 98 98
98 98 98
101 101 101
102 102 102
103 103 103
101 101 101
102 102 102
103 103 103
101 101 101
100 100 100
100 100 100
99 99 99
99 99 99
99 99 99
99 99 99
99 99 99
98 98 98
98 98 98
97 97 97
97 97 97
97 97 97
98 98 98
99 99 99
100 100 100
102 102 102
67 67 67
67 67 67
71 71 71
75 75 75
78 78 78
83 83 83
87 87 87
92 92 92
94 94 94
96 96 96
99 99 99
119 119 119
130 130 130
146 146 146
177 177 177
192 192 192
182 182 182
159 159 159
109 109 109
95 95 95
130 130 130
148 148 148
123 123 123
92 92 92
100 100 100
139 139 139
143 143 143
130 130 130
120 120 120
93 93 93
120 120 120
132 132 132
137 137 137
122 122 122
128 128 128
118 118 118
117 117 117
178 178 178
211 211 211
212 212 212
209 209 209
204 204 204
135 135 135
87 87 87
99 99 99
130 130 130
123 123 123
118 118 118
124 124 124
120 120 120
96 96 96
79 79 79
56 56 56
48 48 48
35 35 35
33 33 33
33 33 33
34 34 34
75 75 75
122 122 122
120 120 120
107 107 107
100 100 100
100 100 100
100 100 100
100 100 100
100 100 100
100 100 100
100 100 100
101 101 101
102 102 102
102 102 102
102 102 102
100 100 100
98 98 98
97 97 97
99 99 99
102 102 102
103 103 103
104 104 104
104 104 104
104 104 104
102 102 102
101 101 101
100 100 100
99 99 99
99 99 99
100 100 100
98 98 98
99 99 99
98 98 98
98 98 98
98 98 98
97 97 97
96 96 96
98 98 98
98 98 98
98 98 98
100 100 100
100 100 100
68 68 68
67 67 67
70 70 70
74 74 74
80 80 80
82 82 82
87 87 87
92 92 92
94 94 94
98 98 98
115 115 115
117 117 117
130 130 130
159 159 159
196 196 196
194 194 194
186 186 186
165 165 165
117 117 117
95 95 95
100 100 100
110 110 110
87 87 87
66 66 66
57 57 57
90 90 90
132 132 132
115 115 115
93 93 93
104 104 104
131 131 131
146 146 146
144 144 144
153 153 153
152 152 152
134 134 134
121 121 121
186 186 186
214 214 214
213 213 213
197 197 197
191 191 191
158 158 158
108 108 108
103 103 103
115 115 115
124 124 124
108 108 108
78 78 78
78 78 78
87 87 87
85 85 85
64 64 64
50 50 50
44 44 44
35 35 35
33 33 33
39 39 39
85 85 85
120 120 120
113 113 113
103 103 103
100 100 100
101 101 101
100 100 100
100 100 100
101 101 101
101 101 101
100 100 100
102 102 102
102 102 102
102 102 102
101 101 101
101 101 101
99 99 99
99 99 99
102 102 102
103 103 103
103 103 103
104 104 104
103 103 103
103 103 103
103 103 103
102 102 102
100 100 100
99 99 99
99 99 99
99 99 99
99 99 99
98 98 98
97 97 97
98 98 98
97 97 97
96 96 96
96 96 96
97 97 97
98 98 98
99 99 99
99 99 99
100 100 100
70 70 70
70 70 70
70 70 70
74 74 74
79 79 79
84 84 84
88 88 88
92 92 92
94 94 94
108 108 108
110 110 110
123 123 123
153 153 153
185 185 185
201 201 201
191 191 191
185 185 185
170 170 170
133 133 133
96 96 96
87 87 87
97 97 97
80 80 80
80 80 80
83 83 83
89 89 89
87 87 87
85 85 85
97 97 97
124 124 124
140 140 140
142 142 142
160 160 160
164 164 164
154 154 154
133 133 133
128 128 128
181 181 181
183 183 183
191 191 191
182 182 182
151 151 151
106 106 106
84 84 84
101 101 101
113 113 113
104 104 104
111 111 111
71 71 71
74 74 74
87 87 87
90 90 90
77 77 77
74 74 74
70 70 70
64 64 64
52 52 52
56 56 56
105 105 105
123 123 123
112 112 112
103 103 103
101 101 101
102 102 102
103 103 103
103 103 103
103 103 103
103 103 103
103 103 103
104 104 104
102 102 102
102 102 102
103 103 103
102 102 102
101 101 101
101 101 101
102 102 102
103 103 103
103 103 103
103 103 103
102 102 102
102 102 102
102 102 102
102 102 102
100 100 100
99 99 99
99 99 99
99 99 99
99 99 99
97 97 97
97 97 97
98 98 98
97 97 97
96 96 96
95 95 95
97 97 97
97 97 97
98 98 98
100 100 100
97 97 97
72 72 72
70 70 70
71 71 71
75 75 75
78 78 78
83 83 83
88 88 88
92 92 92
102 102 102
107 107 107
127 127 127
156 156 156
190 190 190
189 189 189
193 193 193
190 190 190
180 180 180
171 171 171
148 148 148
111 111 111
93 93 93
81 81 81
92 92 92
88 88 88
94 94 94
95 95 95
95 95 95
101 101 101
138 138 138
137 137 137
122 122 122
136 136 136
155 155 155
162 162 162
149 149 149
135 135 135
113 113 113
155 155 155
160 160 160
160 160 160
155 155 155
127 127 127
86 86 86
56 56 56
137 137 137
118 118 118
96 96 96
85 85 85
100 100 100
99 99 99
115 115 115
84 84 84
47 47 47
51 51 51
51 51 51
40 40 40
34 34 34
64 64 64
117 117 117
140 140 140
118 118 118
105 105 105
101 101 101
102 102 102
104 104 104
104 104 104
103 103 103
103 103 103
103 103 103
104 104 104
102 102 102
103 103 103
103 103 103
102 102 102
101 101 101
102 102 102
102 102 102
103 103 103
103 103 103
104 104 104
103 103 103
102 102 102
102 102 102
102 102 102
101 101 101
99 99 99
100 100 100
98 98 98
98 98 98
98 98 98
98 98 98
98 98 98
96 96 96
96 96 96
96 96 96
97 97 97
96 96 96
98 98 98
99 99 99
96 96 96
73 73 73
72 72 72
72 72 72
75 75 75
80 80 80
84 84 84
88 88 88
94 94 94
100 100 100
119 119 119
162 162 162
187 187 187
198 198 198
195 195 195
201 201 201
187 187 187
188 188 188
172 172 172
158 158 158
133 133 133
95 95 95
84 84 84
95 95 95
107 107 107
116 116 116
102 102 102
97 97 97
103 103 103
132 132 132
139 139 139
138 138 138
120 120 120
151 151 151
163 163 163
151 151 151
184 184 184
133 133 133
111 111 111
116 116 116
136 136 136
124 124 124
77 77 77
36 36 36
115 115 115
149 149 149
118 118 118
95 95 95
132 132 132
136 136 136
105 105 105
113 113 113
120 120 120
113 113 113
104 104 104
98 98 98
89 89 89
93 93 93
104 104 104
135 135 135
133 133 133
112 112 112
101 101 101
101 101 101
103 103 103
104 104 104
103 103 103
105 105 105
104 104 104
103 103 103
105 105 105
104 104 104
103 103 103
104 104 104
103 103 103
102 102 102
103 103 103
102 102 102
102 102 102
103 103 103
104 104 104
103 103 103
102 102 102
102 102 102
102 102 102
100 100 100
99 99 99
98 98 98
99 99 99
98 98 98
99 99 99
99 99 99
99 99 99
96 96 96
94 94 94
96 96 96
95 95 95
96 96 96
99 99 99
98 98 98
95 95 95
74 74 74
73 73 73
72 72 72
75 75 75
80 80 80
85 85 85
88 88 88
93 93 93
110 110 110
150 150 150
194 194 194
195 195 195
190 190 190
206 206 206
196 196 196
188 188 188
177 177 177
175 175 175
165 165 165
151 151 151
112 112 112
91 91 91
86 86 86
96 96 96
106 106 106
99 99 99
94 94 94
105 105 105
144 144 144
152 152 152
130 130 130
124 124 124
140 140 140
139 139 139
160 160 160
196 196 196
207 207 207
132 132 132
60 60 60
115 115 115
99 99 99
43 43 43
54 54 54
140 140 140
149 149 149
139 139 139
142 142 142
136 136 136
131 131 131
145 145 145
121 121 121
79 79 79
58 58 58
33 33 33
28 28 28
35 35 35
54 54 54
90 90 90
119 119 119
117 117 117
123 123 123
125 125 125
122 122 122
108 108 108
106 106 106
106 106 106
105 105 105
104 104 104
104 104 104
106 106 106
104 104 104
103 103 103
104 104 104
104 104 104
102 102 102
102 102 102
102 102 102
103 103 103
103 103 103
104 104 104
103 103 103
103 103 103
102 102 102
102 102 102
100 100 100
98 98 98
98 98 98
99 99 99
99 99 99
99 99 99
99 99 99
97 97 97
94 94 94
95 95 95
95 95 95
95 95 95
96 96 96
97 97 97
95 95 95
94 94 94
76 76 76
74 74 74
73 73 73
78 78 78
82 82 82
85 85 85
88 88 88
93 93 93
115 115 115
179 179 179
203 203 203
197 197 197
197 197 197
203 203 203
184 184 184
177 177 177
167 167 167
178 178 178
163 163 163
151 151 151
132 132 132
108 108 108
76 76 76
74 74 74
76 76 76
91 91 91
107 107 107
117 117 117
155 155 155
153 153 153
129 129 129
172 172 172
181 181 181
166 166 166
175 175 175
191 191 191
192 192 192
171 171 171
119 119 119
95 95 95
73 73 73
59 59 59
106 106 106
146 146 146
135 135 135
99 99 99
80 80 80
82 82 82
95 95 95
113 113 113
133 133 133
87 87 87
51 51 51
43 43 43
41 41 41
48 48 48
65 65 65
102 102 102
128 128 128
124 124 124
108 108 108
101 101 101
102 102 102
122 122 122
126 126 126
117 117 117
105 105 105
106 106 106
106 106 106
105 105 105
105 105 105
105 105 105
105 105 105
105 105 105
103 103 103
104 104 104
103 103 103
102 102 102
103 103 103
103 103 103
101 101 101
102 102 102
103 103 103
101 101 101
100 100 100
98 98 98
99 99 99
99 99 99
98 98 98
99 99 99
99 99 99
96 96 96
95 95 95
94 94 94
93 93 93
94 94 94
96 96 96
96 96 96
94 94 94
94 94 94
77 77 77
76 76 76
75 75 75
79 79 79
83 83 83
86 86 86
91 91 91
104 104 104
151 151 151
196 196 196
208 208 208
199 199 199
193 193 193
191 191 191
173 173 173
170 170 170
172 172 172
168 168 168
165 165 165
149 149 149
127 127 127
108 108 108
99 99 99
111 111 111
89 89 89
69 69 69
102 102 102
134 134 134
157 157 157
167 167 167
193 193 193
191 191 191
173 173 173
156 156 156
163 163 163
174 174 174
172 172 172
174 174 174
160 160 160
81 81 81
60 60 60
84 84 84
117 117 117
115 115 115
111 111 111
88 88 88
83 83 83
111 111 111
123 123 123
131 131 131
141 141 141
145 145 145
130 130 130
104 104 104
70 70 70
59 59 59
73 73 73
106 106 106
119 119 119
112 112 112
106 106 106
102 102 102
103 103 103
106 106 106
109 109 109
117 117 117
123 123 123
121 121 121
108 108 108
108 108 108
105 105 105
105 105 105
104 104 104
105 105 105
102 102 102
102 102 102
101 101 101
103 103 103
103 103 103
101 101 101
100 100 100
101 101 101
102 102 102
101 101 101
99 99 99
99 99 99
99 99 99
98 98 98
98 98 98
99 99 99
100 100 100
95 95 95
94 94 94
94 94 94
93 93 93
94 94 94
95 95 95
95 95 95
94 94 94
92 92 92
79 79 79
77 77 77
77 77 77
80 80 80
83 83 83
88 88 88
93 93 93
126 126 126
196 196 196
199 199 199
206 206 206
187 187 187
187 187 187
180 180 180
171 171 171
168 168 168
162 162 162
158 158 158
160 160 160
144 144 144
145 145 145
146 146 146
136 136 136
98 98 98
69 69 69
72 72 72
73 73 73
91 91 91
135 135 135
182 182 182
190 190 190
160 160 160
149 149 149
142 142 142
152 152 152
161 161 161
165 165 165
175 175 175
158 158 158
83 83 83
59 59 59
106 106 106
116 116 116
110 110 110
106 106 106
106 106 106
79 79 79
78 78 78
80 80 80
86 86 86
113 113 113
67 67 67
45 45 45
119 119 119
147 147 147
133 133 133
112 112 112
119 119 119
116 116 116
112 112 112
106 106 106
101 101 101
103 103 103
107 107 107
109 109 109
109 109 109
106 106 106
106 106 106
115 115 115
111 111 111
107 107 107
106 106 106
104 104 104
104 104 104
103 103 103
102 102 102
102 102 102
102 102 102
102 102 102
101 101 101
100 100 100
101 101 101
100 100 100
101 101 101
98 98 98
98 98 98
98 98 98
98 98 98
99 99 99
100 100 100
98 98 98
96 96 96
95 95 95
96 96 96
95 95 95
95 95 95
94 94 94
95 95 95
93 93 93
91 91 91
81 81 81
77 77 77
79 79 79
81 81 81
86 86 86
92 92 92
105 105 105
154 154 154
195 195 195
198 198 198
201 201 201
186 186 186
159 159 159
170 170 170
163 163 163
174 174 174
164 164 164
160 160 160
156 156 156
152 152 152
141 141 141
122 122 122
111 111 111
92 92 92
70 70 70
66 66 66
104 104 104
151 151 151
198 198 198
203 203 203
200 200 200
195 195 195
178 178 178
173 173 173
163 163 163
158 158 158
169 169 169
162 162 162
131 131 131
102 102 102
67 67 67
102 102 102
92 92 92
93 93 93
80 80 80
66 66 66
89 89 89
113 113 113
121 121 121
132 132 132
137 137 137
100 100 100
47 47 47
50 50 50
55 55 55
96 96 96
147 147 147
155 155 155
144 144 144
127 127 127
107 107 107
104 104 104
106 106 106
107 107 107
109 109 109
108 108 108
107 107 107
107 107 107
108 108 108
107 107 107
106 106 106
106 106 106
104 104 104
105 105 105
102 102 102
102 102 102
101 101 101
101 101 101
100 100 100
99 99 99
100 100 100
99 99 99
100 100 100
99 99 99
99 99 99
98 98 98
98 98 98
99 99 99
100 100 100
99 99 99
98 98 98
97 97 97
96 96 96
97 97 97
96 96 96
96 96 96
95 95 95
94 94 94
93 93 93
90 90 90
80 80 80
79 79 79
79 79 79
83 83 83
89 89 89
96 96 96
125 125 125
173 173 173
184 184 184
190 190 190
194 194 194
176 176 176
156 156 156
170 170 170
168 168 168
153 153 153
163 163 163
167 167 167
162 162 162
140 140 140
120 120 120
108 108 108
100 100 100
91 91 91
124 124 124
126 126 126
151 151 151
150 150 150
134 134 134
184 184 184
170 170 170
114 114 114
129 129 129
136 136 136
123 123 123
124 124 124
129 129 129
104 104 104
113 113 113
97 97 97
66 66 66
101 101 101
104 104 104
95 95 95
89 89 89
85 85 85
88 88 88
86 86 86
96 96 96
106 106 106
121 121 121
152 152 152
137 137 137
74 74 74
68 68 68
78 78 78
103 103 103
135 135 135
159 159 159
146 146 146
128 128 128
112 112 112
105 105 105
107 107 107
109 109 109
109 109 109
107 107 107
107 107 107
109 109 109
108 108 108
107 107 107
106 106 106
105 105 105
104 104 104
102 102 102
101 101 101
101 101 101
100 100 100
99 99 99
100 100 100
99 99 99
98 98 98
99 99 99
99 99 99
97 97 97
98 98 98
100 100 100
99 99 99
100 100 100
98 98 98
98 98 98
97 97 97
98 98 98
99 99 99
96 96 96
95 95 95
94 94 94
93 93 93
92 92 92
88 88 88
82 82 82
80 80 80
80 80 80
83 83 83
88 88 88
97 97 97
159 159 159
189 189 189
183 183 183
189 189 189
192 192 192
177 177 177
163 163 163
179 179 179
175 175 175
149 149 149
170 170 170
160 160 160
148 148 148
146 146 146
125 125 125
122 122 122
149 149 149
137 137 137
141 141 141
142 142 142
98 98 98
71 71 71
131 131 131
195 195 195
189 189 189
181 181 181
156 156 156
158 158 158
138 138 138
140 140 140
131 131 131
118 118 118
114 114 114
92 92 92
63 63 63
99 99 99
100 100 100
92 92 92
87 87 87
78 78 78
86 86 86
96 96 96
91 91 91
94 94 94
75 75 75
93 93 93
144 144 144
148 148 148
100 100 100
92 92 92
110 110 110
116 116 116
116 116 116
140 140 140
147 147 147
134 134 134
117 117 117
107 107 107
107 107 107
107 107 107
105 105 105
107 107 107
109 109 109
109 109 109
107 107 107
106 106 106
105 105 105
104 104 104
104 104 104
102 102 102
100 100 100
99 99 99
98 98 98
99 99 99
97 97 97
98 98 98
98 98 98
97 97 97
97 97 97
98 98 98
100 100 100
100 100 100
101 101 101
99 99 99
99 99 99
98 98 98
99 99 99
99 99 99
96 96 96
94 94 94
93 93 93
91 91 91
89 89 89
88 88 88
83 83 83
82 82 82
81 81 81
84 84 84
93 93 93
136 136 136
192 192 192
190 190 190
172 172 172
181 181 181
179 179 179
165 165 165
176 176 176
177 177 177
172 172 172
156 156 156
160 160 160
166 166 166
157 157 157
135 135 135
140 140 140
140 140 140
139 139 139
154 154 154
122 122 122
96 96 96
93 93 93
116 116 116
174 174 174
183 183 183
176 176 176
148 148 148
135 135 135
105 105 105
113 113 113
112 112 112
119 119 119
114 114 114
98 98 98
75 75 75
60 60 60
71 71 71
79 79 79
85 85 85
86 86 86
93 93 93
95 95 95
103 103 103
120 120 120
99 99 99
110 110 110
69 69 69
78 78 78
139 139 139
143 143 143
122 122 122
114 114 114
114 114 114
109 109 109
106 106 106
119 119 119
134 134 134
132 132 132
113 113 113
108 108 108
106 106 106
104 104 104
106 106 106
109 109 109
110 110 110
109 109 109
106 106 106
104 104 104
103 103 103
102 102 102
103 103 103
100 100 100
97 97 97
97 97 97
97 97 97
98 98 98
95 95 95
97 97 97
98 98 98
98 98 98
98 98 98
99 99 99
100 100 100
100 100 100
101 101 101
100 100 100
99 99 99
100 100 100
100 100 100
96 96 96
93 93 93
90 90 90
89 89 89
89 89 89
85 85 85
82 82 82
84 84 84
84 84 84
87 87 87
121 121 121
177 177 177
188 188 188
184 184 184
167 167 167
171 171 171
185 185 185
195 195 195
184 184 184
182 182 182
178 178 178
150 150 150
158 158 158
165 165 165
157 157 157
147 147 147
144 144 144
156 156 156
126 126 126
107 107 107
116 116 116
95 95 95
137 137 137
180 180 180
150 150 150
111 111 111
160 160 160
155 155 155
140 140 140
128 128 128
116 116 116
110 110 110
104 104 104
85 85 85
77 77 77
75 75 75
71 71 71
67 67 67
69 69 69
72 72 72
83 83 83
99 99 99
106 106 106
106 106 106
93 93 93
104 104 104
104 104 104
107 107 107
70 70 70
78 78 78
142 142 142
158 158 158
126 126 126
110 110 110
107 107 107
103 103 103
103 103 103
110 110 110
128 128 128
130 130 130
111 111 111
105 105 105
105 105 105
106 106 106
107 107 107
110 110 110
110 110 110
109 109 109
106 106 106
103 103 103
102 102 102
101 101 101
100 100 100
96 96 96
95 95 95
95 95 95
95 95 95
95 95 95
96 96 96
97 97 97
97 97 97
98 98 98
100 100 100
101 101 101
102 102 102
101 101 101
100 100 100
100 100 100
101 101 101
100 100 100
97 97 97
94 94 94
88 88 88
86 86 86
85 85 85
84 84 84
86 86 86
87 87 87
89 89 89
117 117 117
167 167 167
189 189 189
177 177 177
181 181 181
171 171 171
168 168 168
184 184 184
199 199 199
184 184 184
176 176 176
174 174 174
166 166 166
149 149 149
155 155 155
160 160 160
151 151 151
158 158 158
118 118 118
120 120 120
129 129 129
111 111 111
154 154 154
184 184 184
135 135 135
84 84 84
125 125 125
120 120 120
149 149 149
153 153 153
134 134 134
130 130 130
108 108 108
91 91 91
90 90 90
95 95 95
88 88 88
86 86 86
89 89 89
86 86 86
90 90 90
98 98 98
106 106 106
104 104 104
90 90 90
80 80 80
95 95 95
85 85 85
112 112 112
96 96 96
84 84 84
108 108 108
145 145 145
156 156 156
124 124 124
107 107 107
102 102 102
101 101 101
102 102 102
108 108 108
125 125 125
125 125 125
112 112 112
103 103 103
105 105 105
107 107 107
109 109 109
109 109 109
109 109 109
108 108 108
104 104 104
101 101 101
100 100 100
99 99 99
94 94 94
94 94 94
95 95 95
95 95 95
94 94 94
96 96 96
96 96 96
96 96 96
99 99 99
101 101 101
102 102 102
103 103 103
102 102 102
101 101 101
100 100 100
101 101 101
99 99 99
97 97 97
95 95 95
88 88 88
85 85 85
82 82 82
80 80 80
95 95 95
109 109 109
131 131 131
159 159 159
184 184 184
181 181 181
176 176 176
178 178 178
183 183 183
170 170 170
187 187 187
179 179 179
173 173 173
142 142 142
164 164 164
155 155 155
155 155 155
153 153 153
162 162 162
152 152 152
115 115 115
109 109 109
110 110 110
131 131 131
159 159 159
177 177 177
129 129 129
98 98 98
118 118 118
128 128 128
133 133 133
132 132 132
130 130 130
144 144 144
137 137 137
124 124 124
111 111 111
113 113 113
110 110 110
103 103 103
102 102 102
96 96 96
94 94 94
104 104 104
109 109 109
102 102 102
87 87 87
73 73 73
72 72 72
69 69 69
100 100 100
76 76 76
121 121 121
92 92 92
111 111 111
117 117 117
144 144 144
156 156 156
118 118 118
102 102 102
100 100 100
101 101 101
103 103 103
109 109 109
118 118 118
119 119 119
111 111 111
104 104 104
106 106 106
107 107 107
109 109 109
109 109 109
107 107 107
103 103 103
102 102 102
101 101 101
99 99 99
96 96 96
94 94 94
94 94 94
95 95 95
95 95 95
96 96 96
96 96 96
97 97 97
98 98 98
102 102 102
105 105 105
106 106 106
104 104 104
101 101 101
102 102 102
101 101 101
99 99 99
97 97 97
93 93 93
87 87 87
82 82 82
80 80 80
78 78 78
149 149 149
163 163 163
179 179 179
191 191 191
186 186 186
181 181 181
174 174 174
179 179 179
177 177 177
169 169 169
172 172 172
179 179 179
154 154 154
143 143 143
136 136 136
160 160 160
149 149 149
152 152 152
149 149 149
121 121 121
113 113 113
77 77 77
98 98 98
161 161 161
168 168 168
129 129 129
111 111 111
123 123 123
142 142 142
129 129 129
122 122 122
128 128 128
109 109 109
131 131 131
123 123 123
131 131 131
134 134 134
126 126 126
123 123 123
116 116 116
110 110 110
111 111 111
110 110 110
105 105 105
91 91 91
81 81 81
70 70 70
65 65 65
63 63 63
68 68 68
82 82 82
88 88 88
73 73 73
138 138 138
110 110 110
107 107 107
105 105 105
140 140 140
150 150 150
108 108 108
98 98 98
99 99 99
102 102 102
102 102 102
109 109 109
111 111 111
116 116 116
111 111 111
106 106 106
107 107 107
106 106 106
107 107 107
105 105 105
103 103 103
103 103 103
103 103 103
99 99 99
96 96 96
94 94 94
95 95 95
95 95 95
96 96 96
98 98 98
98 98 98
98 98 98
99 99 99
104 104 104
105 105 105
106 106 106
105 105 105
102 102 102
103 103 103
101 101 101
100 100 100
97 97 97
92 92 92
85 85 85
81 81 81
77 77 77
75 75 75
184 184 184
179 179 179
187 187 187
185 185 185
181 181 181
174 174 174
161 161 161
170 170 170
178 178 178
167 167 167
172 172 172
173 173 173
148 148 148
142 142 142
169 169 169
163 163 163
147 147 147
163 163 163
146 146 146
135 135 135
106 106 106
62 62 62
136 136 136
160 160 160
117 117 117
118 118 118
117 117 117
152 152 152
115 115 115
129 129 129
126 126 126
94 94 94
91 91 91
94 94 94
94 94 94
122 122 122
135 135 135
130 130 130
133 133 133
122 122 122
119 119 119
118 118 118
108 108 108
82 82 82
70 70 70
67 67 67
68 68 68
69 69 69
70 70 70
60 60 60
66 66 66
90 90 90
103 103 103
115 115 115
139 139 139
102 102 102
104 104 104
104 104 104
140 140 140
144 144 144
100 100 100
99 99 99
102 102 102
103 103 103
102 102 102
112 112 112
102 102 102
117 117 117
112 112 112
106 106 106
106 106 106
106 106 106
104 104 104
103 103 103
103 103 103
103 103 103
99 99 99
97 97 97
96 96 96
95 95 95
96 96 96
98 98 98
100 100 100
101 101 101
99 99 99
100 100 100
102 102 102
105 105 105
105 105 105
104 104 104
102 102 102
101 101 101
101 101 101
99 99 99
95 95 95
89 89 89
84 84 84
77 77 77
74 74 74
74 74 74
175 175 175
174 174 174
184 184 184
170 170 170
165 165 165
176 176 176
166 166 166
174 174 174
169 169 169
164 164 164
167 167 167
169 169 169
153 153 153
161 161 161
166 166 166
161 161 161
184 184 184
144 144 144
143 143 143
126 126 126
92 92 92
129 129 129
145 145 145
86 86 86
85 85 85
95 95 95
145 145 145
109 109 109
135 135 135
118 118 118
108 108 108
65 65 65
75 75 75
68 68 68
65 65 65
78 78 78
106 106 106
109 109 109
131 131 131
128 128 128
120 120 120
115 115 115
85 85 85
73 73 73
70 70 70
68 68 68
67 67 67
62 62 62
61 61 61
66 66 66
60 60 60
63 63 63
107 107 107
108 108 108
122 122 122
126 126 126
102 102 102
102 102 102
101 101 101
140 140 140
135 135 135
101 101 101
102 102 102
102 102 102
101 101 101
101 101 101
111 111 111
102 102 102
117 117 117
109 109 109
104 104 104
104 104 104
104 104 104
103 103 103
103 103 103
102 102 102
101 101 101
99 99 99
98 98 98
96 96 96
96 96 96
98 98 98
102 102 102
101 101 101
100 100 100
101 101 101
102 102 102
104 104 104
105 105 105
104 104 104
102 102 102
101 101 101
99 99 99
97 97 97
93 93 93
88 88 88
82 82 82
76 76 76
72 72 72
73 73 73
171 171 171
177 177 177
178 178 178
168 168 168
172 172 172
161 161 161
181 181 181
185 185 185
166 166 166
153 153 153
150 150 150
165 165 165
167 167 167
157 157 157
142 142 142
173 173 173
154 154 154
135 135 135
111 111 111
100 100 100
120 120 120
141 141 141
83 83 83
69 69 69
73 73 73
116 116 116
116 116 116
118 118 118
110 110 110
116 116 116
84 84 84
77 77 77
58 58 58
61 61 61
49 49 49
63 63 63
74 74 74
71 71 71
101 101 101
89 89 89
82 82 82
79 79 79
61 61 61
58 58 58
62 62 62
64 64 64
53 53 53
53 53 53
53 53 53
52 52 52
51 51 51
51 51 51
97 97 97
110 110 110
110 110 110
128 128 128
114 114 114
101 101 101
100 100 100
106 106 106
143 143 143
126 126 126
102 102 102
101 101 101
100 100 100
100 100 100
102 102 102
107 107 107
105 105 105
116 116 116
106 106 106
105 105 105
104 104 104
103 103 103
103 103 103
102 102 102
102 102 102
99 99 99
98 98 98
97 97 97
97 97 97
100 100 100
102 102 102
101 101 101
101 101 101
101 101 101
101 101 101
102 102 102
103 103 103
102 102 102
100 100 100
101 101 101
97 97 97
95 95 95
91 91 91
86 86 86
81 81 81
75 75 75
70 70 70
74 74 74
171 171 171
176 176 176
164 164 164
167 167 167
166 166 166
172 172 172
175 175 175
171 171 171
167 167 167
159 159 159
161 161 161
169 169 169
163 163 163
153 153 153
158 158 158
143 143 143
143 143 143
123 123 123
107 107 107
114 114 114
138 138 138
86 86 86
80 80 80
92 92 92
116 116 116
123 123 123
96 96 96
112 112 112
105 105 105
120 120 120
73 73 73
82 82 82
80 80 80
63 63 63
51 51 51
61 61 61
57 57 57
47 47 47
61 61 61
51 51 51
54 54 54
53 53 53
60 60 60
48 48 48
51 51 51
55 55 55
56 56 56
50 50 50
53 53 53
50 50 50
40 40 40
45 45 45
87 87 87
130 130 130
114 114 114
103 103 103
132 132 132
100 100 100
99 99 99
101 101 101
114 114 114
145 145 145
106 106 106
101 101 101
102 102 102
101 101 101
101 101 101
109 109 109
107 107 107
108 108 108
113 113 113
105 105 105
103 103 103
104 104 104
105 105 105
103 103 103
102 102 102
99 99 99
98 98 98
99 99 99
98 98 98
100 100 100
104 104 104
104 104 104
102 102 102
100 100 100
101 101 101
102 102 102
101 101 101
102 102 102
100 100 100
99 99 99
97 97 97
92 92 92
88 88 88
84 84 84
79 79 79
73 73 73
71 71 71
74 74 74
173 173 173
167 167 167
158 158 158
160 160 160
172 172 172
181 181 181
183 183 183
160 160 160
163 163 163
161 161 161
160 160 160
180 180 180
188 188 188
171 171 171
157 157 157
147 147 147
141 141 141
109 109 109
96 96 96
150 150 150
96 96 96
108 108 108
124 124 124
124 124 124
130 130 130
76 76 76
100 100 100
74 74 74
92 92 92
73 73 73
72 72 72
95 95 95
81 81 81
69 69 69
67 67 67
64 64 64
51 51 51
37 37 37
46 46 46
46 46 46
42 42 42
49 49 49
56 56 56
49 49 49
41 41 41
59 59 59
62 62 62
62 62 62
59 59 59
56 56 56
54 54 54
75 75 75
128 128 128
140 140 140
119 119 119
104 104 104
105 105 105
127 127 127
99 99 99
100 100 100
102 102 102
119 119 119
140 140 140
102 102 102
101 101 101
101 101 101
101 101 101
104 104 104
113 113 113
110 110 110
108 108 108
109 109 109
104 104 104
104 104 104
103 103 103
102 102 102
102 102 102
100 100 100
100 100 100
99 99 99
100 100 100
103 103 103
104 104 104
104 104 104
103 103 103
101 101 101
100 100 100
100 100 100
100 100 100
99 99 99
98 98 98
98 98 98
96 96 96
91 91 91
86 86 86
82 82 82
76 76 76
73 73 73
72 72 72
73 73 73
167 167 167
163 163 163
164 164 164
173 173 173
172 172 172
173 173 173
180 180 180
165 165 165
152 152 152
154 154 154
156 156 156
177 177 177
181 181 181
175 175 175
152 152 152
141 141 141
131 131 131
115 115 115
155 155 155
124 124 124
123 123 123
144 144 144
154 154 154
160 160 160
88 88 88
74 74 74
87 87 87
53 53 53
99 99 99
62 62 62
57 57 57
71 71 71
77 77 77
57 57 57
74 74 74
55 55 55
50 50 50
44 44 44
43 43 43
50 50 50
36 36 36
48 48 48
53 53 53
53 53 53
42 42 42
46 46 46
61 61 61
67 67 67
59 59 59
53 53 53
60 60 60
97 97 97
133 133 133
140 140 140
133 133 133
110 110 110
104 104 104
116 116 116
112 112 112
99 99 99
101 101 101
102 102 102
129 129 129
122 122 122
101 101 101
100 100 100
102 102 102
106 106 106
112 112 112
111 111 111
109 109 109
108 108 108
105 105 105
103 103 103
102 102 102
102 102 102
101 101 101
102 102 102
101 101 101
100 100 100
101 101 101
104 104 104
105 105 105
104 104 104
102 102 102
102 102 102
100 100 100
100 100 100
100 100 100
97 97 97
98 98 98
98 98 98
95 95 95
88 88 88
84 84 84
80 80 80
74 74 74
74 74 74
73 73 73
74 74 74
168 168 168
165 165 165
168 168 168
158 158 158
170 170 170
168 168 168
156 156 156
144 144 144
152 152 152
163 163 163
156 156 156
162 162 162
184 184 184
169 169 169
148 148 148
142 142 142
137 137 137
161 161 161
145 145 145
149 149 149
145 145 145
147 147 147
158 158 158
141 141 141
81 81 81
103 103 103
54 54 54
84 84 84
76 76 76
70 70 70
88 88 88
50 50 50
39 39 39
36 36 36
46 46 46
33 33 33
50 50 50
49 49 49
47 47 47
51 51 51
37 37 37
49 49 49
52 52 52
59 59 59
48 48 48
43 43 43
43 43 43
52 52 52
49 49 49
50 50 50
65 65 65
98 98 98
140 140 140
146 146 146
132 132 132
125 125 125
105 105 105
97 97 97
120 120 120
97 97 97
99 99 99
101 101 101
101 101 101
137 137 137
107 107 107
100 100 100
103 103 103
107 107 107
110 110 110
115 115 115
109 109 109
107 107 107
106 106 106
104 104 104
102 102 102
102 102 102
102 102 102
103 103 103
101 101 101
101 101 101
103 103 103
105 105 105
105 105 105
103 103 103
101 101 101
101 101 101
99 99 99
99 99 99
99 99 99
96 96 96
96 96 96
97 97 97
93 93 93
87 87 87
82 82 82
78 78 78
73 73 73
72 72 72
73 73 73
76 76 76
148 148 148
144 144 144
164 164 164
154 154 154
158 158 158
155 155 155
166 166 166
147 147 147
152 152 152
163 163 163
160 160 160
162 162 162
175 175 175
149 149 149
158 158 158
146 146 146
152 152 152
156 156 156
162 162 162
136 136 136
132 132 132
122 122 122
143 143 143
105 105 105
94 94 94
109 109 109
69 69 69
92 92 92
76 76 76
87 87 87
67 67 67
41 41 41
40 40 40
59 59 59
53 53 53
44 44 44
62 62 62
57 57 57
49 49 49
54 54 54
43 43 43
48 48 48
51 51 51
63 63 63
56 56 56
53 53 53
46 46 46
52 52 52
55 55 55
60 60 60
75 75 75
109 109 109
149 149 149
150 150 150
137 137 137
130 130 130
106 106 106
100 100 100
103 103 103
113 113 113
99 99 99
100 100 100
100 100 100
114 114 114
126 126 126
101 101 101
104 104 104
106 106 106
109 109 109
112 112 112
108 108 108
106 106 106
105 105 105
105 105 105
102 102 102
103 103 103
103 103 103
102 102 102
101 101 101
100 100 100
103 103 103
106 106 106
104 104 104
104 104 104
102 102 102
100 100 100
99 99 99
99 99 99
98 98 98
94 94 94
93 93 93
94 94 94
89 89 89
83 83 83
81 81 81
76 76 76
72 72 72
71 71 71
73 73 73
75 75 75
139 139 139
147 147 147
149 149 149
145 145 145
144 144 144
146 146 146
148 148 148
135 135 135
153 153 153
156 156 156
153 153 153
154 154 154
155 155 155
157 157 157
170 170 170
180 180 180
179 179 179
158 158 158
139 139 139
119 119 119
107 107 107
140 140 140
130 130 130
109 109 109
141 141 141
124 124 124
92 92 92
94 94 94
64 64 64
54 54 54
67 67 67
32 32 32
66 66 66
71 71 71
44 44 44
51 51 51
55 55 55
53 53 53
53 53 53
54 54 54
52 52 52
49 49 49
52 52 52
62 62 62
66 66 66
55 55 55
60 60 60
47 47 47
52 52 52
60 60 60
79 79 79
115 115 115
149 149 149
149 149 149
124 124 124
108 108 108
100 100 100
96 96 96
96 96 96
115 115 115
97 97 97
98 98 98
99 99 99
100 100 100
122 122 122
114 114 114
105 105 105
107 107 107
109 109 109
110 110 110
108 108 108
106 106 106
105 105 105
105 105 105
104 104 104
104 104 104
104 104 104
103 103 103
101 101 101
100 100 100
103 103 103
105 105 105
105 105 105
104 104 104
101 101 101
99 99 99
99 99 99
99 99 99
96 96 96
93 93 93
91 91 91
91 91 91
87 87 87
82 82 82
78 78 78
75 75 75
71 71 71
71 71 71
74 74 74
76 76 76
147 147 147
152 152 152
159 159 159
155 155 155
143 143 143
134 134 134
150 150 150
155 155 155
154 154 154
141 141 141
137 137 137
144 144 144
150 150 150
183 183 183
178 178 178
184 184 184
165 165 165
152 152 152
143 143 143
123 123 123
116 116 116
131 131 131
124 124 124
135 135 135
136 136 136
113 113 113
122 122 122
117 117 117
90 90 90
62 62 62
79 79 79
41 41 41
69 69 69
68 68 68
35 35 35
52 52 52
56 56 56
43 43 43
56 56 56
67 67 67
59 59 59
57 57 57
62 62 62
60 60 60
65 65 65
59 59 59
60 60 60
61 61 61
54 54 54
56 56 56
76 76 76
110 110 110
144 144 144
150 150 150
127 127 127
114 114 114
99 99 99
95 95 95
93 93 93
96 96 96
111 111 111
98 98 98
99 99 99
99 99 99
103 103 103
124 124 124
106 106 106
105 105 105
107 107 107
108 108 108
107 107 107
105 105 105
104 104 104
103 103 103
103 103 103
103 103 103
104 104 104
104 104 104
103 103 103
102 102 102
103 103 103
105 105 105
104 104 104
103 103 103
99 99 99
98 98 98
97 97 97
96 96 96
93 93 93
92 92 92
90 90 90
89 89 89
84 84 84
81 81 81
77 77 77
74 74 74
69 69 69
70 70 70
73 73 73
76 76 76
146 146 146
138 138 138
151 151 151
146 146 146
123 123 123
126 126 126
134 134 134
149 149 149
133 133 133
131 131 131
151 151 151
151 151 151
165 165 165
163 163 163
195 195 195
188 188 188
157 157 157
150 150 150
141 141 141
126 126 126
125 125 125
115 115 115
125 125 125
135 135 135
114 114 114
116 116 116
118 118 118
111 111 111
103 103 103
65 65 65
52 52 52
49 49 49
64 64 64
41 41 41
48 48 48
54 54 54
52 52 52
55 55 55
63 63 63
80 80 80
69 69 69
68 68 68
76 76 76
63 63 63
64 64 64
61 61 61
63 63 63
64 64 64
62 62 62
58 58 58
77 77 77
110 110 110
140 140 140
148 148 148
129 129 129
113 113 113
102 102 102
99 99 99
94 94 94
95 95 95
108 108 108
97 97 97
98 98 98
98 98 98
103 103 103
105 105 105
117 117 117
104 104 104
105 105 105
106 106 106
104 104 104
103 103 103
103 103 103
103 103 103
104 104 104
104 104 104
104 104 104
104 104 104
104 104 104
103 103 103
104 104 104
106 106 106
104 104 104
101 101 101
97 97 97
97 97 97
96 96 96
93 93 93
90 90 90
89 89 89
87 87 87
86 86 86
83 83 83
81 81 81
77 77 77
75 75 75
69 69 69
70 70 70
74 74 74
78 78 78
130 130 130
130 130 130
155 155 155
131 131 131
121 121 121
110 110 110
102 102 102
119 119 119
124 124 124
147 147 147
146 146 146
153 153 153
163 163 163
178 178 178
174 174 174
165 165 165
177 177 177
155 155 155
142 142 142
138 138 138
145 145 145
109 109 109
102 102 102
113 113 113
102 102 102
101 101 101
98 98 98
112 112 112
108 108 108
73 73 73
50 50 50
28 28 28
63 63 63
49 49 49
33 33 33
44 44 44
39 39 39
48 48 48
75 75 75
89 89 89
85 85 85
85 85 85
80 80 80
74 74 74
67 67 67
59 59 59
68 68 68
61 61 61
56 56 56
55 55 55
75 75 75
107 107 107
133 133 133
150 150 150
125 125 125
105 105 105
96 96 96
91 91 91
92 92 92
94 94 94
96 96 96
107 107 107
97 97 97
98 98 98
98 98 98
101 101 101
115 115 115
106 106 106
102 102 102
102 102 102
103 103 103
101 101 101
101 101 101
101 101 101
104 104 104
104 104 104
103 103 103
103 103 103
105 105 105
105 105 105
105 105 105
106 106 106
104 104 104
102 102 102
97 97 97
95 95 95
94 94 94
91 91 91
88 88 88
87 87 87
85 85 85
84 84 84
82 82 82
79 79 79
76 76 76
75 75 75
72 72 72
71 71 71
75 75 75
77 77 77
122 122 122
145 145 145
147 147 147
118 118 118
99 99 99
89 89 89
117 117 117
126 126 126
149 149 149
155 155 155
154 154 154
149 149 149
154 154 154
163 163 163
151 151 151
181 181 181
174 174 174
134 134 134
163 163 163
157 157 157
126 126 126
98 98 98
102 102 102
103 103 103
86 86 86
97 97 97
89 89 89
109 109 109
102 102 102
83 83 83
68 68 68
40 40 40
31 31 31
51 51 51
32 32 32
34 34 34
34 34 34
57 57 57
71 71 71
83 83 83
90 90 90
96 96 96
85 85 85
90 90 90
82 82 82
69 69 69
66 66 66
64 64 64
52 52 52
50 50 50
73 73 73
104 104 104
137 137 137
141 141 141
127 127 127
117 117 117
108 108 108
95 95 95
91 91 91
92 92 92
94 94 94
108 108 108
96 96 96
97 97 97
96 96 96
100 100 100
101 101 101
112 112 112
100 100 100
101 101 101
101 101 101
99 99 99
99 99 99
101 101 101
103 103 103
103 103 103
104 104 104
104 104 104
105 105 105
106 106 106
106 106 106
105 105 105
103 103 103
101 101 101
97 97 97
95 95 95
94 94 94
89 89 89
86 86 86
86 86 86
84 84 84
82 82 82
82 82 82
79 79 79
77 77 77
75 75 75
73 73 73
73 73 73
75 75 75
78 78 78
122 122 122
149 149 149
130 130 130
113 113 113
87 87 87
104 104 104
131 131 131
157 157 157
140 140 140
164 164 164
151 151 151
138 138 138
138 138 138
170 170 170
157 157 157
156 156 156
148 148 148
179 179 179
167 167 167
144 144 144
112 112 112
101 101 101
109 109 109
72 72 72
55 55 55
74 74 74
81 81 81
116 116 116
106 106 106
71 71 71
79 79 79
53 53 53
31 31 31
41 41 41
50 50 50
36 36 36
32 32 32
42 42 42
68 68 68
76 76 76
94 94 94
92 92 92
94 94 94
83 83 83
91 91 91
75 75 75
60 60 60
58 58 58
54 54 54
49 49 49
65 65 65
103 103 103
127 127 127
132 132 132
107 107 107
92 92 92
91 91 91
91 91 91
90 90 90
90 90 90
92 92 92
99 99 99
100 100 100
95 95 95
91 91 91
97 97 97
96 96 96
101 101 101
100 100 100
98 98 98
99 99 99
97 97 97
97 97 97
99 99 99
101 101 101
104 104 104
104 104 104
105 105 105
106 106 106
107 107 107
105 105 105
103 103 103
102 102 102
100 100 100
98 98 98
95 95 95
95 95 95
89 89 89
85 85 85
85 85 85
84 84 84
80 80 80
80 80 80
78 78 78
76 76 76
75 75 75
74 74 74
75 75 75
77 77 77
79 79 79
122 122 122
122 122 122
116 116 116
103 103 103
91 91 91
108 108 108
130 130 130
144 144 144
166 166 166
158 158 158
173 173 173
162 162 162
170 170 170
159 159 159
156 156 156
154 154 154
162 162 162
169 169 169
161 161 161
138 138 138
128 128 128
120 120 120
100 100 100
46 46 46
41 41 41
57 57 57
87 87 87
96 96 96
83 83 83
77 77 77
81 81 81
75 75 75
51 51 51
40 40 40
39 39 39
55 55 55
52 52 52
35 35 35
26 26 26
56 56 56
75 75 75
91 91 91
88 88 88
87 87 87
66 66 66
63 63 63
47 47 47
49 49 49
59 59 59
53 53 53
65 65 65
99 99 99
126 126 126
132 132 132
110 110 110
94 94 94
90 90 90
90 90 90
91 91 91
91 91 91
91 91 91
90 90 90
100 100 100
88 88 88
86 86 86
91 91 91
90 90 90
92 92 92
98 98 98
94 94 94
97 97 97
94 94 94
94 94 94
98 98 98
101 101 101
104 104 104
105 105 105
106 106 106
106 106 106
106 106 106
105 105 105
102 102 102
102 102 102
99 99 99
96 96 96
96 96 96
94 94 94
91 91 91
86 86 86
86 86 86
84 84 84
80 80 80
79 79 79
77 77 77
75 75 75
75 75 75
74 74 74
75 75 75
79 79 79
82 82 82
133 133 133
111 111 111
135 135 135
134 134 134
96 96 96
118 118 118
140 140 140
137 137 137
149 149 149
165 165 165
195 195 195
182 182 182
161 161 161
143 143 143
137 137 137
132 132 132
148 148 148
153 153 153
141 141 141
125 125 125
140 140 140
122 122 122
83 83 83
68 68 68
67 67 67
75 75 75
76 76 76
84 84 84
77 77 77
73 73 73
81 81 81
79 79 79
67 67 67
52 52 52
31 31 31
53 53 53
65 65 65
45 45 45
24 24 24
29 29 29
62 62 62
83 83 83
72 72 72
71 71 71
71 71 71
63 63 63
59 59 59
55 55 55
65 65 65
67 67 67
76 76 76
99 99 99
126 126 126
129 129 129
111 111 111
101 101 101
102 102 102
96 96 96
91 91 91
91 91 91
92 92 92
90 90 90
97 97 97
86 86 86
82 82 82
84 84 84
88 88 88
86 86 86
91 91 91
92 92 92
93 93 93
94 94 94
96 96 96
100 100 100
103 103 103
104 104 104
106 106 106
107 107 107
107 107 107
105 105 105
104 104 104
102 102 102
101 101 101
99 99 99
97 97 97
96 96 96
94 94 94
90 90 90
88 88 88
87 87 87
83 83 83
79 79 79
77 77 77
75 75 75
72 72 72
74 74 74
75 75 75
76 76 76
79 79 79
84 84 84
140 140 140
136 136 136
172 172 172
160 160 160
119 119 119
148 148 148
137 137 137
115 115 115
130 130 130
176 176 176
180 180 180
175 175 175
152 152 152
143 143 143
135 135 135
142 142 142
133 133 133
134 134 134
130 130 130
136 136 136
141 141 141
129 129 129
86 86 86
87 87 87
83 83 83
70 70 70
62 62 62
69 69 69
61 61 61
40 40 40
68 68 68
91 91 91
74 74 74
61 61 61
37 37 37
38 38 38
55 55 55
59 59 59
46 46 46
38 38 38
39 39 39
69 69 69
69 69 69
74 74 74
73 73 73
71 71 71
71 71 71
60 60 60
54 54 54
42 42 42
66 66 66
90 90 90
123 123 123
135 135 135
118 118 118
108 108 108
100 100 100
95 95 95
91 91 91
90 90 90
91 91 91
90 90 90
90 90 90
95 95 95
83 83 83
82 82 82
85 85 85
84 84 84
88 88 88
94 94 94
92 92 92
95 95 95
97 97 97
101 101 101
104 104 104
105 105 105
107 107 107
108 108 108
107 107 107
103 103 103
101 101 101
101 101 101
100 100 100
98 98 98
97 97 97
95 95 95
96 96 96
93 93 93
90 90 90
87 87 87
83 83 83
79 79 79
75 75 75
72 72 72
72 72 72
72 72 72
74 74 74
76 76 76
79 79 79
85 85 85
141 141 141
176 176 176
178 178 178
146 146 146
140 140 140
146 146 146
138 138 138
166 166 166
158 158 158
186 186 186
161 161 161
166 166 166
135 135 135
144 144 144
151 151 151
136 136 136
149 149 149
141 141 141
159 159 159
157 157 157
167 167 167
155 155 155
103 103 103
94 94 94
76 76 76
51 51 51
56 56 56
50 50 50
32 32 32
51 51 51
85 85 85
88 88 88
85 85 85
72 72 72
58 58 58
40 40 40
38 38 38
53 53 53
63 63 63
51 51 51
48 48 48
48 48 48
62 62 62
66 66 66
67 67 67
69 69 69
72 72 72
71 71 71
63 63 63
52 52 52
48 48 48
74 74 74
124 124 124
140 140 140
116 116 116
101 101 101
99 99 99
92 92 92
89 89 89
89 89 89
90 90 90
90 90 90
88 88 88
93 93 93
83 83 83
80 80 80
81 81 81
82 82 82
86 86 86
92 92 92
92 92 92
96 96 96
97 97 97
100 100 100
102 102 102
104 104 104
107 107 107
107 107 107
107 107 107
103 103 103
102 102 102
100 100 100
100 100 100
98 98 98
97 97 97
96 96 96
96 96 96
93 93 93
91 91 91
88 88 88
83 83 83
78 78 78
75 75 75
71 71 71
71 71 71
72 72 72
76 76 76
77 77 77
80 80 80
84 84 84
151 151 151
183 183 183
176 176 176
140 140 140
156 156 156
149 149 149
163 163 163
167 167 167
172 172 172
180 180 180
176 176 176
172 172 172
171 171 171
166 166 166
117 117 117
156 156 156
171 171 171
135 135 135
161 161 161
164 164 164
144 144 144
163 163 163
145 145 145
126 126 126
102 102 102
56 56 56
48 48 48
36 36 36
28 28 28
63 63 63
85 85 85
73 73 73
98 98 98
76 76 76
73 73 73
63 63 63
37 37 37
51 51 51
41 41 41
60 60 60
68 68 68
75 75 75
65 65 65
66 66 66
67 67 67
67 67 67
66 66 66
73 73 73
76 76 76
65 65 65
61 61 61
81 81 81
129 129 129
149 149 149
129 129 129
106 106 106
98 98 98
94 94 94
90 90 90
89 89 89
92 92 92
90 90 90
90 90 90
93 93 93
85 85 85
81 81 81
80 80 80
82 82 82
86 86 86
91 91 91
93 93 93
92 92 92
95 95 95
99 99 99
102 102 102
105 105 105
107 107 107
108 108 108
106 106 106
103 103 103
102 102 102
100 100 100
99 99 99
97 97 97
98 98 98
95 95 95
96 96 96
96 96 96
91 91 91
85 85 85
82 82 82
76 76 76
75 75 75
70 70 70
69 69 69
72 72 72
77 77 77
78 78 78
81 81 81
84 84 84
154 154 154
179 179 179
177 177 177
174 174 174
183 183 183
151 151 151
155 155 155
179 179 179
172 172 172
183 183 183
179 179 179
183 183 183
175 175 175
180 180 180
142 142 142
163 163 163
169 169 169
144 144 144
169 169 169
164 164 164
149 149 149
168 168 168
157 157 157
128 128 128
144 144 144
67 67 67
62 62 62
41 41 41
55 55 55
72 72 72
64 64 64
52 52 52
61 61 61
73 73 73
76 76 76
70 70 70
50 50 50
45 45 45
40 40 40
48 48 48
64 64 64
82 82 82
60 60 60
41 41 41
53 53 53
66 66 66
73 73 73
63 63 63
67 67 67
77 77 77
81 81 81
92 92 92
127 127 127
138 138 138
127 127 127
112 112 112
100 100 100
93 93 93
89 89 89
90 90 90
93 93 93
91 91 91
92 92 92
90 90 90
87 87 87
82 82 82
81 81 81
80 80 80
85 85 85
89 89 89
91 91 91
92 92 92
96 96 96
101 101 101
102 102 102
105 105 105
108 108 108
109 109 109
107 107 107
104 104 104
101 101 101
99 99 99
98 98 98
98 98 98
97 97 97
96 96 96
95 95 95
96 96 96
91 91 91
85 85 85
81 81 81
75 75 75
73 73 73
70 70 70
72 72 72
74 74 74
77 77 77
77 77 77
80 80 80
85 85 85
119 119 119
166 166 166
183 183 183
165 165 165
186 186 186
147 147 147
139 139 139
162 162 162
169 169 169
162 162 162
167 167 167
187 187 187
171 171 171
173 173 173
152 152 152
147 147 147
150 150 150
156 156 156
139 139 139
129 129 129
137 137 137
135 135 135
137 137 137
121 121 121
116 116 116
84 84 84
74 74 74
62 62 62
76 76 76
58 58 58
59 59 59
32 32 32
39 39 39
67 67 67
67 67 67
58 58 58
57 57 57
55 55 55
42 42 42
50 50 50
45 45 45
49 49 49
51 51 51
48 48 48
36 36 36
61 61 61
62 62 62
61 61 61
72 72 72
87 87 87
86 86 86
96 96 96
140 140 140
144 144 144
123 123 123
111 111 111
107 107 107
99 99 99
90 90 90
91 91 91
93 93 93
93 93 93
92 92 92
88 88 88
87 87 87
84 84 84
83 83 83
82 82 82
84 84 84
88 88 88
89 89 89
91 91 91
95 95 95
100 100 100
102 102 102
104 104 104
108 108 108
109 109 109
106 106 106
104 104 104
101 101 101
99 99 99
98 98 98
97 97 97
97 97 97
95 95 95
95 95 95
97 97 97
93 93 93
86 86 86
82 82 82
76 76 76
71 71 71
71 71 71
71 71 71
75 75 75
77 77 77
77 77 77
82 82 82
87 87 87
138 138 138
140 140 140
182 182 182
128 128 128
166 166 166
124 124 124
139 139 139
139 139 139
137 137 137
157 157 157
158 158 158
155 155 155
162 162 162
144 144 144
146 146 146
141 141 141
138 138 138
140 140 140
118 118 118
103 103 103
123 123 123
106 106 106
136 136 136
122 122 122
108 108 108
102 102 102
94 94 94
96 96 96
90 90 90
68 68 68
50 50 50
42 42 42
67 67 67
50 50 50
62 62 62
67 67 67
78 78 78
70 70 70
54 54 54
55 55 55
58 58 58
34 34 34
29 29 29
49 49 49
51 51 51
45 45 45
42 42 42
52 52 52
53 53 53
69 69 69
87 87 87
101 101 101
133 133 133
133 133 133
110 110 110
106 106 106
100 100 100
92 92 92
89 89 89
91 91 91
93 93 93
93 93 93
92 92 92
87 87 87
88 88 88
84 84 84
82 82 82
82 82 82
85 85 85
88 88 88
87 87 87
88 88 88
95 95 95
99 99 99
101 101 101
103 103 103
108 108 108
108 108 108
105 105 105
103 103 103
101 101 101
99 99 99
98 98 98
98 98 98
96 96 96
95 95 95
94 94 94
95 95 95
91 91 91
85 85 85
81 81 81
76 76 76
71 71 71
70 70 70
71 71 71
75 75 75
78 78 78
79 79 79
83 83 83
88 88 88
101 101 101
113 113 113
131 131 131
132 132 132
122 122 122
127 127 127
133 133 133
128 128 128
133 133 133
161 161 161
157 157 157
148 148 148
148 148 148
150 150 150
166 166 166
155 155 155
137 137 137
119 119 119
124 124 124
120 120 120
128 128 128
127 127 127
117 117 117
120 120 120
114 114 114
124 124 124
104 104 104
106 106 106
91 91 91
82 82 82
55 55 55
57 57 57
45 45 45
36 36 36
43 43 43
58 58 58
85 85 85
71 71 71
66 66 66
40 40 40
39 39 39
30 30 30
40 40 40
29 29 29
43 43 43
49 49 49
45 45 45
39 39 39
48 48 48
56 56 56
69 69 69
91 91 91
131 131 131
143 143 143
117 117 117
106 106 106
97 97 97
90 90 90
90 90 90
91 91 91
92 92 92
91 91 91
89 89 89
86 86 86
87 87 87
84 84 84
82 82 82
81 81 81
86 86 86
88 88 88
88 88 88
91 91 91
95 95 95
100 100 100
101 101 101
103 103 103
107 107 107
106 106 106
104 104 104
102 102 102
101 101 101
100 100 100
99 99 99
98 98 98
97 97 97
96 96 96
95 95 95
94 94 94
92 92 92
87 87 87
82 82 82
78 78 78
72 72 72
69 69 69
70 70 70
74 74 74
78 78 78
80 80 80
85 85 85
88 88 88
102 102 102
141 141 141
114 114 114
109 109 109
113 113 113
103 103 103
115 115 115
108 108 108
138 138 138
160 160 160
161 161 161
151 151 151
143 143 143
171 171 171
174 174 174
155 155 155
139 139 139
117 117 117
116 116 116
115 115 115
111 111 111
115 115 115
109 109 109
124 124 124
108 108 108
103 103 103
101 101 101
79 79 79
108 108 108
85 85 85
59 59 59
63 63 63
52 52 52
36 36 36
35 35 35
51 51 51
61 61 61
43 43 43
48 48 48
34 34 34
45 45 45
42 42 42
52 52 52
53 53 53
30 30 30
27 27 27
34 34 34
32 32 32
37 37 37
56 56 56
74 74 74
96 96 96
130 130 130
134 134 134
123 123 123
106 106 106
90 90 90
88 88 88
89 89 89
91 91 91
91 91 91
89 89 89
87 87 87
86 86 86
86 86 86
84 84 84
83 83 83
82 82 82
84 84 84
88 88 88
88 88 88
90 90 90
95 95 95
101 101 101
102 102 102
103 103 103
106 106 106
107 107 107
103 103 103
100 100 100
98 98 98
99 99 99
98 98 98
98 98 98
98 98 98
98 98 98
96 96 96
95 95 95
93 93 93
90 90 90
82 82 82
79 79 79
73 73 73
69 69 69
69 69 69
70 70 70
78 78 78
80 80 80
83 83 83
85 85 85
